deveshdatwani/Gopher/Assets/Data/07-14 19-46-42/Obstacle Handling_robot_value.csv
game_time,true_time,x,y,az,vx,vaz,dis_to_obs_0,dis_to_obs_36,dis_to_obs_72,dis_to_obs_108,dis_to_obs_144,dis_to_obs_180,dis_to_obs_-144,dis_to_obs_-108,dis_to_obs_-72,dis_to_obs_-36,dis_to_min_obs,direction_to_min_obs,dis_to_human_0,dis_to_human_36,dis_to_human_72,dis_to_human_108,dis_to_human_144,dis_to_human_180,dis_to_human_-144,dis_to_human_-108,dis_to_human_-72,dis_to_human_-36,dis_to_min_human,direction_to_min_human,main_cam_yaw,main_cam_pitch,left_joint_1,left_joint_2,left_joint_3,left_joint_4,left_joint_5,left_joint_6,left_joint_7,left_joint_gripper,left_is_grasping,left_end_x,left_end_y,left_end_z,left_end_ax,left_end_ay,left_end_az,right_joint_1,right_joint_2,right_joint_3,right_joint_4,right_joint_5,right_joint_6,right_joint_7,right_joint_gripper,right_is_grasping,right_end_x,right_end_y,right_end_z,right_end_ax,right_end_ay,right_end_az,
14.820,27.618,1.000,-10.641,1.574,0.000,6.275,4.142,0.000,1.235,1.259,2.117,4.270,2.537,2.096,2.113,0.000,0.000,0.684,0.000,0.000,0.000,0.000,0.000,0.000,0.000,0.000,0.000,0.000,0.000,3.142,6.283,0.000,1.003,1.569,1.569,4.085,6.281,1.199,4.712,0.000,0.000,0.669,-10.053,0.990,4.718,3.692,5.732,5.281,4.711,4.711,2.198,6.282,5.083,1.570,0.000,0.000,1.325,-10.051,0.990,4.718,3.777,5.648,
14.920,27.718,1.000,-10.641,1.574,0.000,6.275,4.142,0.000,1.235,1.259,2.117,4.270,2.537,2.096,2.113,0.000,0.000,0.684,0.000,0.000,0.000,0.000,0.000,0.000,0.000,0.000,0.000,0.000,0.000,3.142,6.283,0.000,1.003,1.569,1.569,4.085,6.281,1.199,4.712,0.000,0.000,0.669,-10.053,0.990,4.718,3.692,5.732,5.281,4.711,4.711,2.198,6.282,5.083,1.570,0.000,0.000,1.325,-10.051,0.990,4.718,3.777,5.648,
15.020,27.818,1.000,-10.641,1.574,0.000,6.275,4.142,0.000,1.235,1.259,2.117,4.270,2.537,2.096,2.113,0.000,0.000,0.684,0.000,0.000,0.000,0.000,0.000,0.000,0.000,0.000,0.000,0.000,0.000,3.142,6.283,0.000,1.003,1.569,1.569,4.085,6.281,1.199,4.712,0.000,0.000,0.669,-10.053,0.990,4.718,3.692,5.732,5.281,4.711,4.711,2.198,6.282,5.083,1.570,0.000,0.000,1.325,-10.051,0.990,4.718,3.776,5.648,
15.116,27.914,1.000,-10.641,1.574,0.000,6.275,4.142,0.000,1.235,1.259,2.117,4.270,2.537,2.096,2.113,0.000,0.000,0.684,0.000,0.000,0.000,0.000,0.000,0.000,0.000,0.000,0.000,0.000,0.000,3.142,6.283,0.000,1.003,1.569,1.569,4.085,6.281,1.199,4.712,0.000,0.000,0.669,-10.053,0.990,4.718,3.692,5.732,5.281,4.711,4.711,2.198,6.282,5.083,1.570,0.000,0.000,1.325,-10.051,0.990,4.718,3.776,5.648,
15.220,28.018,1.000,-10.641,1.574,0.000,6.275,4.142,0.000,1.235,1.259,2.117,4.270,2.537,2.096,2.113,0.000,0.000,0.684,0.000,0.000,0.000,0.000,0.000,0.000,0.000,0.000,0.000,0.000,0.000,3.142,6.283,0.000,1.003,1.569,1.569,4.085,6.281,1.199,4.712,0.000,0.000,0.669,-10.053,0.990,4.718,3.692,5.732,5.281,4.711,4.711,2.198,6.282,5.083,1.570,0.000,0.000,1.325,-10.051,0.990,4.718,3.776,5.648,
15.320,28.118,1.000,-10.641,1.574,0.000,6.275,4.142,0.000,1.235,1.259,2.117,4.270,2.537,2.096,2.113,0.000,0.000,0.684,0.000,0.000,0.000,0.000,0.000,0.000,0.000,0.000,0.000,0.000,0.000,3.142,6.283,0.000,1.003,1.569,1.569,4.085,6.281,1.199,4.712,0.000,0.000,0.669,-10.053,0.990,4.718,3.692,5.732,5.281,4.711,4.711,2.198,6.282,5.083,1.570,0.000,0.000,1.325,-10.051,0.990,4.718,3.776,5.648,
15.402,28.199,1.000,-10.641,1.574,0.000,6.275,4.142,0.000,1.235,1.259,2.117,4.270,2.537,2.096,2.113,0.000,0.000,0.684,0.000,0.000,0.000,0.000,0.000,0.000,0.000,0.000,0.000,0.000,0.000,3.142,6.283,0.000,1.003,1.569,1.569,4.085,6.281,1.199,4.712,0.000,0.000,0.669,-10.053,0.990,4.718,3.692,5.732,5.281,4.711,4.711,2.198,6.282,5.083,1.570,0.000,0.000,1.325,-10.051,0.990,4.718,3.776,5.648,
15.520,28.318,1.000,-10.641,1.574,0.000,6.275,4.142,0.000,1.235,1.259,2.117,4.270,2.537,2.096,2.113,0.000,0.000,0.684,0.000,0.000,0.000,0.000,0.000,0.000,0.000,0.000,0.000,0.000,0.000,3.142,6.283,0.000,1.003,1.569,1.569,4.085,6.281,1.199,4.712,0.000,0.000,0.669,-10.053,0.990,4.718,3.692,5.732,5.281,4.711,4.711,2.198,6.282,5.083,1.570,0.000,0.000,1.325,-10.051,0.990,4.718,3.776,5.648,
15.618,28.416,1.000,-10.641,1.574,0.000,6.275,4.142,0.000,1.235,1.259,2.117,4.270,2.537,2.096,2.113,0.000,0.000,0.684,0.000,0.000,0.000,0.000,0.000,0.000,0.000,0.000,0.000,0.000,0.000,3.142,6.283,0.000,1.003,1.569,1.569,4.085,6.281,1.199,4.712,0.000,0.000,0.669,-10.053,0.990,4.718,3.692,5.732,5.281,4.711,4.711,2.198,6.282,5.083,1.570,0.000,0.000,1.325,-10.051,0.990,4.718,3.776,5.648,
15.720,28.518,1.000,-10.641,1.574,0.000,6.275,4.142,0.000,1.235,1.259,2.117,4.270,2.537,2.096,2.113,0.000,0.000,0.684,0.000,0.000,0.000,0.000,0.000,0.000,0.000,0.000,0.000,0.000,0.000,3.142,6.283,0.000,1.003,1.569,1.569,4.085,6.281,1.199,4.712,0.000,0.000,0.669,-10.053,0.990,4.718,3.692,5.732,5.281,4.711,4.711,2.198,6.282,5.083,1.570,0.000,0.000,1.325,-10.051,0.990,4.718,3.776,5.648,
15.816,28.614,1.000,-10.641,1.574,0.000,6.275,4.142,0.000,1.235,1.259,2.117,4.270,2.537,2.096,2.113,0.000,0.000,0.684,0.000,0.000,0.000,0.000,0.000,0.000,0.000,0.000,0.000,0.000,0.000,3.142,6.283,0.000,1.003,1.569,1.569,4.085,6.281,1.199,4.712,0.000,0.000,0.669,-10.053,0.990,4.718,3.692,5.732,5.281,4.711,4.711,2.198,6.282,5.083,1.570,0.000,0.000,1.325,-10.051,0.990,4.718,3.776,5.648,
15.920,28.718,1.000,-10.641,1.574,0.000,6.275,4.142,0.000,1.235,1.259,2.117,4.270,2.537,2.096,2.113,0.000,0.000,0.684,0.000,0.000,0.000,0.000,0.000,0.000,0.000,0.000,0.000,0.000,0.000,3.142,6.283,0.000,1.003,1.569,1.569,4.085,6.281,1.199,4.712,0.000,0.000,0.669,-10.053,0.990,4.718,3.692,5.732,5.281,4.711,4.711,2.198,6.282,5.083,1.570,0.000,0.000,1.325,-10.051,0.990,4.718,3.776,5.648,
16.020,28.818,1.000,-10.641,1.574,0.000,6.275,4.142,0.000,1.235,1.259,2.117,4.270,2.537,2.096,2.113,0.000,0.000,0.684,0.000,0.000,0.000,0.000,0.000,0.000,0.000,0.000,0.000,0.000,0.000,3.142,6.283,0.000,1.003,1.569,1.569,4.085,6.281,1.199,4.712,0.000,0.000,0.669,-10.053,0.990,4.718,3.692,5.732,5.281,4.711,4.711,2.198,6.282,5.083,1.570,0.000,0.000,1.325,-10.051,0.990,4.718,3.776,5.648,
16.120,28.918,1.000,-10.641,1.574,0.000,6.275,4.142,0.000,1.235,1.259,2.117,4.270,2.537,2.096,2.113,0.000,0.000,0.684,0.000,0.000,0.000,0.000,0.000,0.000,0.000,0.000,0.000,0.000,0.000,3.142,6.283,0.000,1.003,1.569,1.569,4.085,6.281,1.199,4.712,0.000,0.000,0.669,-10.053,0.990,4.718,3.692,5.732,5.281,4.711,4.711,2.198,6.282,5.083,1.570,0.000,0.000,1.325,-10.051,0.990,4.718,3.776,5.648,
16.220,29.018,1.000,-10.641,1.574,0.000,6.275,4.142,0.000,1.235,1.259,2.117,4.270,2.537,2.096,2.113,0.000,0.000,0.684,0.000,0.000,0.000,0.000,0.000,0.000,0.000,0.000,0.000,0.000,0.000,3.142,6.283,0.000,1.003,1.569,1.569,4.085,6.281,1.199,4.712,0.000,0.000,0.669,-10.053,0.990,4.718,3.692,5.732,5.281,4.711,4.711,2.198,6.282,5.083,1.570,0.000,0.000,1.325,-10.051,0.990,4.718,3.776,5.648,
16.308,29.105,1.000,-10.641,1.574,0.000,6.275,4.142,0.000,1.235,1.259,2.117,4.270,2.537,2.096,2.113,0.000,0.000,0.684,0.000,0.000,0.000,0.000,0.000,0.000,0.000,0.000,0.000,0.000,0.000,3.142,6.283,0.000,1.003,1.569,1.569,4.085,6.281,1.199,4.712,0.000,0.000,0.669,-10.053,0.990,4.718,3.692,5.732,5.281,4.711,4.711,2.198,6.282,5.083,1.570,0.000,0.000,1.325,-10.051,0.990,4.718,3.776,5.648,
16.420,29.218,1.000,-10.641,1.574,0.000,6.275,4.142,0.000,1.235,1.259,2.117,4.270,2.537,2.096,2.113,0.000,0.000,0.684,0.000,0.000,0.000,0.000,0.000,0.000,0.000,0.000,0.000,0.000,0.000,3.142,6.283,0.000,1.003,1.569,1.569,4.085,6.281,1.199,4.712,0.000,0.000,0.669,-10.053,0.990,4.718,3.692,5.732,5.281,4.711,4.711,2.198,6.282,5.083,1.570,0.000,0.000,1.325,-10.051,0.990,4.718,3.777,5.648,
16.515,29.312,1.000,-10.641,1.574,0.000,6.275,4.142,0.000,1.235,1.259,2.117,4.270,2.537,2.096,2.113,0.000,0.000,0.684,0.000,0.000,0.000,0.000,0.000,0.000,0.000,0.000,0.000,0.000,0.000,3.142,6.283,0.000,1.003,1.569,1.569,4.085,6.281,1.199,4.712,0.000,0.000,0.669,-10.053,0.990,4.718,3.692,5.732,5.281,4.711,4.711,2.198,6.282,5.083,1.570,0.000,0.000,1.325,-10.051,0.990,4.718,3.776,5.648,
16.620,29.418,1.000,-10.641,1.574,0.000,6.275,4.142,0.000,1.235,1.259,2.117,4.270,2.537,2.096,2.113,0.000,0.000,0.684,0.000,0.000,0.000,0.000,0.000,0.000,0.000,0.000,0.000,0.000,0.000,3.142,6.283,0.000,1.003,1.569,1.569,4.085,6.281,1.199,4.712,0.000,0.000,0.669,-10.053,0.990,4.718,3.692,5.732,5.281,4.711,4.711,2.198,6.282,5.083,1.570,0.000,0.000,1.325,-10.051,0.990,4.718,3.777,5.648,
16.720,29.518,1.000,-10.641,1.574,0.000,6.275,4.142,0.000,1.235,1.259,2.117,4.270,2.537,2.096,2.113,0.000,0.000,0.684,0.000,0.000,0.000,0.000,0.000,0.000,0.000,0.000,0.000,0.000,0.000,3.142,6.283,0.000,1.003,1.569,1.569,4.085,6.281,1.199,4.712,0.000,0.000,0.669,-10.053,0.990,4.718,3.692,5.732,5.281,4.711,4.711,2.198,6.282,5.083,1.570,0.000,0.000,1.325,-10.051,0.990,4.718,3.776,5.648,
16.820,29.652,1.000,-10.641,1.574,0.000,6.275,4.142,0.000,1.235,1.259,2.117,4.270,2.537,2.096,2.113,0.000,0.000,0.684,0.000,0.000,0.000,0.000,0.000,0.000,0.000,0.000,0.000,0.000,0.000,3.142,6.283,0.000,1.003,1.569,1.569,4.085,6.281,1.199,4.712,0.000,0.000,0.669,-10.053,0.990,4.718,3.692,5.732,5.281,4.711,4.711,2.198,6.282,5.083,1.570,0.000,0.000,1.325,-10.051,0.990,4.718,3.776,5.648,
16.920,29.752,1.000,-10.641,1.574,0.000,6.275,4.142,0.000,1.235,1.259,2.117,4.270,2.537,2.096,2.113,0.000,0.000,0.684,0.000,0.000,0.000,0.000,0.000,0.000,0.000,0.000,0.000,0.000,0.000,3.142,6.283,0.000,1.003,1.569,1.569,4.085,6.281,1.199,4.712,0.000,0.000,0.669,-10.053,0.990,4.718,3.692,5.732,5.281,4.711,4.711,2.198,6.282,5.083,1.570,0.000,0.000,1.325,-10.051,0.990,4.718,3.776,5.648,
17.020,29.852,1.000,-10.641,1.574,0.000,6.275,4.142,0.000,1.235,1.259,2.117,4.270,2.537,2.096,2.113,0.000,0.000,0.684,0.000,0.000,0.000,0.000,0.000,0.000,0.000,0.000,0.000,0.000,0.000,3.142,6.283,0.000,1.003,1.569,1.569,4.085,6.281,1.199,4.712,0.000,0.000,0.669,-10.053,0.990,4.718,3.692,5.732,5.281,4.711,4.711,2.198,6.282,5.083,1.570,0.000,0.000,1.325,-10.051,0.990,4.718,3.776,5.648,
17.118,29.950,1.000,-10.641,1.574,0.000,6.275,4.142,0.000,1.235,1.259,2.117,4.270,2.537,2.096,2.113,0.000,0.000,0.684,0.000,0.000,0.000,0.000,0.000,0.000,0.000,0.000,0.000,0.000,0.000,3.142,6.283,0.000,1.003,1.569,1.569,4.085,6.281,1.199,4.712,0.000,0.000,0.669,-10.053,0.990,4.718,3.692,5.732,5.281,4.711,4.711,2.198,6.282,5.083,1.570,0.000,0.000,1.325,-10.051,0.990,4.718,3.777,5.648,
17.220,30.052,1.000,-10.641,1.574,0.000,6.275,4.142,0.000,1.235,1.259,2.117,4.270,2.537,2.096,2.113,0.000,0.000,0.684,0.000,0.000,0.000,0.000,0.000,0.000,0.000,0.000,0.000,0.000,0.000,3.142,6.283,0.000,1.003,1.569,1.569,4.085,6.281,1.199,4.712,0.000,0.000,0.669,-10.053,0.990,4.718,3.692,5.732,5.281,4.711,4.711,2.198,6.282,5.083,1.570,0.000,0.000,1.325,-10.051,0.990,4.718,3.776,5.648,
17.320,30.152,1.000,-10.641,1.574,0.000,6.275,4.142,0.000,1.235,1.259,2.117,4.270,2.537,2.096,2.113,0.000,0.000,0.684,0.000,0.000,0.000,0.000,0.000,0.000,0.000,0.000,0.000,0.000,0.000,3.142,6.283,0.000,1.003,1.569,1.569,4.085,6.281,1.199,4.712,0.000,0.000,0.669,-10.053,0.990,4.718,3.692,5.732,5.281,4.711,4.711,2.198,6.282,5.083,1.570,0.000,0.000,1.325,-10.051,0.990,4.718,3.777,5.648,
17.420,30.252,1.000,-10.641,1.574,0.000,6.275,4.142,0.000,1.235,1.259,2.117,4.270,2.537,2.096,2.113,0.000,0.000,0.684,0.000,0.000,0.000,0.000,0.000,0.000,0.000,0.000,0.000,0.000,0.000,3.142,6.283,0.000,1.003,1.569,1.569,4.085,6.281,1.199,4.712,0.000,0.000,0.669,-10.053,0.990,4.718,3.692,5.732,5.281,4.711,4.711,2.198,6.282,5.083,1.570,0.000,0.000,1.325,-10.051,0.990,4.718,3.776,5.648,
17.520,30.352,1.000,-10.641,1.574,0.000,6.275,4.142,0.000,1.235,1.259,2.117,4.270,2.537,2.096,2.113,0.000,0.000,0.684,0.000,0.000,0.000,0.000,0.000,0.000,0.000,0.000,0.000,0.000,0.000,3.142,6.283,0.000,1.003,1.569,1.569,4.085,6.281,1.199,4.712,0.000,0.000,0.669,-10.053,0.990,4.718,3.692,5.732,5.281,4.711,4.711,2.198,6.282,5.083,1.570,0.000,0.000,1.325,-10.051,0.990,4.718,3.777,5.648,
17.620,30.452,1.000,-10.641,1.574,0.000,6.275,4.142,0.000,1.235,1.259,2.117,4.270,2.537,2.096,2.113,0.000,0.000,0.684,0.000,0.000,0.000,0.000,0.000,0.000,0.000,0.000,0.000,0.000,0.000,3.142,6.283,0.000,1.003,1.569,1.569,4.085,6.281,1.199,4.712,0.000,0.000,0.669,-10.053,0.990,4.718,3.692,5.732,5.281,4.711,4.711,2.198,6.282,5.083,1.570,0.000,0.000,1.325,-10.051,0.990,4.718,3.776,5.648,
17.708,30.540,1.000,-10.641,1.574,0.000,6.275,4.142,0.000,1.235,1.259,2.117,4.270,2.537,2.096,2.113,0.000,0.000,0.684,0.000,0.000,0.000,0.000,0.000,0.000,0.000,0.000,0.000,0.000,0.000,3.142,6.283,0.000,1.003,1.569,1.569,4.085,6.281,1.199,4.712,0.000,0.000,0.669,-10.053,0.990,4.718,3.692,5.732,5.281,4.711,4.711,2.198,6.282,5.083,1.570,0.000,0.000,1.325,-10.051,0.990,4.718,3.776,5.648,
17.820,30.652,1.000,-10.641,1.574,0.000,6.275,4.142,0.000,1.235,1.259,2.117,4.270,2.537,2.096,2.113,0.000,0.000,0.684,0.000,0.000,0.000,0.000,0.000,0.000,0.000,0.000,0.000,0.000,0.000,3.142,6.283,0.000,1.003,1.569,1.569,4.085,6.281,1.199,4.712,0.000,0.000,0.669,-10.053,0.990,4.718,3.692,5.732,5.281,4.711,4.711,2.198,6.282,5.083,1.570,0.000,0.000,1.325,-10.051,0.990,4.718,3.777,5.648,
17.920,30.752,1.000,-10.641,1.574,0.000,6.275,4.142,0.000,1.235,1.259,2.117,4.270,2.537,2.096,2.113,0.000,0.000,0.684,0.000,0.000,0.000,0.000,0.000,0.000,0.000,0.000,0.000,0.000,0.000,3.142,6.283,0.000,1.003,1.569,1.569,4.085,6.281,1.199,4.712,0.000,0.000,0.669,-10.053,0.990,4.718,3.692,5.732,5.281,4.711,4.711,2.198,6.282,5.083,1.570,0.000,0.000,1.325,-10.051,0.990,4.718,3.776,5.648,
18.020,30.852,1.000,-10.641,1.574,0.000,6.275,4.142,0.000,1.235,1.259,2.117,4.270,2.537,2.096,2.113,0.000,0.000,0.684,0.000,0.000,0.000,0.000,0.000,0.000,0.000,0.000,0.000,0.000,0.000,3.142,6.283,0.000,1.003,1.569,1.569,4.085,6.281,1.199,4.712,0.000,0.000,0.669,-10.053,0.990,4.718,3.692,5.732,5.281,4.711,4.711,2.198,6.282,5.083,1.570,0.000,0.000,1.325,-10.051,0.990,4.718,3.777,5.648,
18.120,30.952,1.000,-10.641,1.574,0.000,6.275,4.142,0.000,1.235,1.259,2.117,4.270,2.537,2.096,2.113,0.000,0.000,0.684,0.000,0.000,0.000,0.000,0.000,0.000,0.000,0.000,0.000,0.000,0.000,3.142,6.283,0.000,1.003,1.569,1.569,4.085,6.281,1.199,4.712,0.000,0.000,0.669,-10.053,0.990,4.718,3.692,5.732,5.281,4.711,4.711,2.198,6.282,5.083,1.570,0.000,0.000,1.325,-10.051,0.990,4.718,3.777,5.648,
18.200,31.032,1.000,-10.641,1.574,0.000,6.275,4.142,0.000,1.235,1.259,2.117,4.270,2.537,2.096,2.113,0.000,0.000,0.684,0.000,0.000,0.000,0.000,0.000,0.000,0.000,0.000,0.000,0.000,0.000,3.142,6.283,0.000,1.003,1.569,1.569,4.085,6.281,1.199,4.712,0.000,0.000,0.669,-10.053,0.990,4.718,3.692,5.732,5.281,4.711,4.711,2.198,6.282,5.083,1.570,0.000,0.000,1.325,-10.051,0.990,4.718,3.776,5.648,
18.320,31.152,1.000,-10.641,1.574,0.000,6.275,4.142,0.000,1.235,1.259,2.117,4.270,2.537,2.096,2.113,0.000,0.000,0.684,0.000,0.000,0.000,0.000,0.000,0.000,0.000,0.000,0.000,0.000,0.000,3.142,6.283,0.000,1.003,1.569,1.569,4.085,6.281,1.199,4.712,0.000,0.000,0.669,-10.053,0.990,4.718,3.692,5.732,5.281,4.711,4.711,2.198,6.282,5.083,1.570,0.000,0.000,1.325,-10.051,0.990,4.718,3.776,5.648,
18.420,31.252,1.000,-10.641,1.574,0.000,6.275,4.142,0.000,1.235,1.259,2.117,4.270,2.537,2.096,2.113,0.000,0.000,0.684,0.000,0.000,0.000,0.000,0.000,0.000,0.000,0.000,0.000,0.000,0.000,3.142,6.283,0.000,1.003,1.569,1.569,4.085,6.281,1.199,4.712,0.000,0.000,0.669,-10.053,0.990,4.718,3.692,5.732,5.281,4.711,4.711,2.198,6.282,5.083,1.570,0.000,0.000,1.325,-10.051,0.990,4.718,3.776,5.648,
18.520,31.352,1.000,-10.641,1.574,0.000,6.275,4.142,0.000,1.235,1.259,2.117,4.270,2.537,2.096,2.113,0.000,0.000,0.684,0.000,0.000,0.000,0.000,0.000,0.000,0.000,0.000,0.000,0.000,0.000,3.142,6.283,0.000,1.003,1.569,1.569,4.085,6.281,1.199,4.712,0.000,0.000,0.669,-10.053,0.990,4.718,3.692,5.732,5.281,4.711,4.711,2.198,6.282,5.083,1.570,0.000,0.000,1.325,-10.051,0.990,4.718,3.777,5.648,
18.620,31.452,1.000,-10.641,1.574,0.000,6.275,4.142,0.000,1.235,1.259,2.117,4.270,2.537,2.096,2.113,0.000,0.000,0.684,0.000,0.000,0.000,0.000,0.000,0.000,0.000,0.000,0.000,0.000,0.000,3.142,6.283,0.000,1.003,1.569,1.569,4.085,6.281,1.199,4.712,0.000,0.000,0.669,-10.053,0.990,4.718,3.692,5.732,5.281,4.711,4.711,2.198,6.282,5.083,1.570,0.000,0.000,1.325,-10.051,0.990,4.718,3.776,5.648,
18.701,31.532,1.000,-10.641,1.574,0.000,6.275,4.142,0.000,1.235,1.259,2.117,4.270,2.537,2.096,2.113,0.000,0.000,0.684,0.000,0.000,0.000,0.000,0.000,0.000,0.000,0.000,0.000,0.000,0.000,3.142,6.283,0.000,1.003,1.569,1.569,4.085,6.281,1.199,4.712,0.000,0.000,0.669,-10.053,0.990,4.718,3.692,5.732,5.281,4.711,4.711,2.198,6.282,5.083,1.570,0.000,0.000,1.325,-10.051,0.990,4.718,3.776,5.648,
18.820,31.652,1.000,-10.641,1.574,0.000,6.275,4.142,0.000,1.235,1.259,2.117,4.270,2.537,2.096,2.113,0.000,0.000,0.684,0.000,0.000,0.000,0.000,0.000,0.000,0.000,0.000,0.000,0.000,0.000,3.142,6.283,0.000,1.003,1.569,1.569,4.085,6.281,1.199,4.712,0.000,0.000,0.669,-10.053,0.990,4.718,3.692,5.732,5.281,4.711,4.711,2.198,6.282,5.083,1.570,0.000,0.000,1.325,-10.051,0.990,4.718,3.776,5.648,
18.911,31.742,1.000,-10.641,1.574,0.000,6.275,4.142,0.000,1.235,1.259,2.117,4.270,2.537,2.096,2.113,0.000,0.000,0.684,0.000,0.000,0.000,0.000,0.000,0.000,0.000,0.000,0.000,0.000,0.000,3.142,6.283,0.000,1.003,1.569,1.569,4.085,6.281,1.199,4.712,0.000,0.000,0.669,-10.053,0.990,4.718,3.692,5.732,5.281,4.711,4.711,2.198,6.282,5.083,1.570,0.000,0.000,1.325,-10.051,0.990,4.718,3.777,5.648,
19.020,31.852,1.000,-10.641,1.574,0.000,6.275,4.142,0.000,1.235,1.259,2.117,4.270,2.537,2.096,2.113,0.000,0.000,0.684,0.000,0.000,0.000,0.000,0.000,0.000,0.000,0.000,0.000,0.000,0.000,3.142,6.283,0.000,1.003,1.569,1.569,4.085,6.281,1.199,4.712,0.000,0.000,0.669,-10.053,0.990,4.718,3.692,5.732,5.281,4.711,4.711,2.198,6.282,5.083,1.570,0.000,0.000,1.325,-10.051,0.990,4.718,3.777,5.648,
19.120,31.952,1.000,-10.641,1.574,0.000,6.275,4.142,0.000,1.235,1.259,2.117,4.270,2.537,2.096,2.113,0.000,0.000,0.684,0.000,0.000,0.000,0.000,0.000,0.000,0.000,0.000,0.000,0.000,0.000,3.142,6.283,0.000,1.003,1.569,1.569,4.085,6.281,1.199,4.712,0.000,0.000,0.669,-10.053,0.990,4.718,3.692,5.732,5.281,4.711,4.711,2.198,6.282,5.083,1.570,0.000,0.000,1.325,-10.051,0.990,4.718,3.777,5.648,
19.220,32.052,1.000,-10.641,1.574,0.000,6.275,4.142,0.000,1.235,1.259,2.117,4.270,2.537,2.096,2.113,0.000,0.000,0.684,0.000,0.000,0.000,0.000,0.000,0.000,0.000,0.000,0.000,0.000,0.000,3.142,6.283,0.000,1.003,1.569,1.569,4.085,6.281,1.199,4.712,0.000,0.000,0.669,-10.053,0.990,4.718,3.692,5.732,5.281,4.711,4.711,2.198,6.282,5.083,1.570,0.000,0.000,1.325,-10.051,0.990,4.718,3.776,5.648,
19.320,32.152,1.000,-10.641,1.574,0.000,6.275,4.142,0.000,1.235,1.259,2.117,4.270,2.537,2.096,2.113,0.000,0.000,0.684,0.000,0.000,0.000,0.000,0.000,0.000,0.000,0.000,0.000,0.000,0.000,3.142,6.283,0.000,1.003,1.569,1.569,4.085,6.281,1.199,4.712,0.000,0.000,0.669,-10.053,0.990,4.718,3.692,5.732,5.281,4.711,4.711,2.198,6.282,5.083,1.570,0.000,0.000,1.325,-10.051,0.990,4.718,3.776,5.648,
19.420,32.252,1.000,-10.641,1.574,0.000,6.275,4.142,0.000,1.235,1.259,2.117,4.270,2.537,2.096,2.113,0.000,0.000,0.684,0.000,0.000,0.000,0.000,0.000,0.000,0.000,0.000,0.000,0.000,0.000,3.142,6.283,0.000,1.003,1.569,1.569,4.085,6.281,1.199,4.712,0.000,0.000,0.669,-10.053,0.990,4.718,3.692,5.732,5.281,4.711,4.711,2.198,6.282,5.083,1.570,0.000,0.000,1.325,-10.051,0.990,4.718,3.776,5.648,
19.520,32.352,1.000,-10.641,1.574,0.000,6.275,4.142,0.000,1.235,1.259,2.117,4.270,2.537,2.096,2.113,0.000,0.000,0.684,0.000,0.000,0.000,0.000,0.000,0.000,0.000,0.000,0.000,0.000,0.000,3.142,6.283,0.000,1.003,1.569,1.569,4.085,6.281,1.199,4.712,0.000,0.000,0.669,-10.053,0.990,4.718,3.692,5.732,5.281,4.711,4.711,2.198,6.282,5.083,1.570,0.000,0.000,1.325,-10.051,0.990,4.718,3.776,5.648,
19.608,32.440,1.000,-10.641,1.574,0.000,6.275,4.142,0.000,1.235,1.259,2.117,4.270,2.537,2.096,2.113,0.000,0.000,0.684,0.000,0.000,0.000,0.000,0.000,0.000,0.000,0.000,0.000,0.000,0.000,3.142,6.283,0.000,1.003,1.569,1.569,4.085,6.281,1.199,4.712,0.000,0.000,0.669,-10.053,0.990,4.718,3.692,5.732,5.281,4.711,4.711,2.198,6.282,5.083,1.570,0.000,0.000,1.325,-10.051,0.990,4.718,3.776,5.648,
19.720,32.552,1.000,-10.641,1.574,0.000,6.275,4.142,0.000,1.235,1.259,2.117,4.270,2.537,2.096,2.113,0.000,0.000,0.684,0.000,0.000,0.000,0.000,0.000,0.000,0.000,0.000,0.000,0.000,0.000,3.142,6.283,0.000,1.003,1.569,1.569,4.085,6.281,1.199,4.712,0.000,0.000,0.669,-10.053,0.990,4.718,3.692,5.732,5.281,4.711,4.711,2.198,6.282,5.083,1.570,0.000,0.000,1.325,-10.051,0.990,4.718,3.776,5.648,
19.820,32.652,1.000,-10.641,1.574,0.000,6.275,4.142,0.000,1.235,1.259,2.117,4.270,2.537,2.096,2.113,0.000,0.000,0.684,0.000,0.000,0.000,0.000,0.000,0.000,0.000,0.000,0.000,0.000,0.000,3.142,6.283,0.000,1.003,1.569,1.569,4.085,6.281,1.199,4.712,0.000,0.000,0.669,-10.053,0.990,4.718,3.692,5.732,5.281,4.711,4.711,2.198,6.282,5.083,1.570,0.000,0.000,1.325,-10.051,0.990,4.718,3.776,5.648,
19.920,32.752,1.000,-10.641,1.574,0.000,6.275,4.142,0.000,1.235,1.259,2.117,4.270,2.537,2.096,2.113,0.000,0.000,0.684,0.000,0.000,0.000,0.000,0.000,0.000,0.000,0.000,0.000,0.000,0.000,3.142,6.283,0.000,1.003,1.569,1.569,4.085,6.281,1.199,4.712,0.000,0.000,0.669,-10.053,0.990,4.718,3.692,5.732,5.281,4.711,4.711,2.198,6.282,5.083,1.570,0.000,0.000,1.325,-10.051,0.990,4.718,3.777,5.648,
20.020,32.852,1.000,-10.641,1.574,0.000,6.275,4.142,0.000,1.235,1.259,2.117,4.270,2.537,2.096,2.113,0.000,0.000,0.684,0.000,0.000,0.000,0.000,0.000,0.000,0.000,0.000,0.000,0.000,0.000,3.142,6.283,0.000,1.003,1.569,1.569,4.085,6.281,1.199,4.712,0.000,0.000,0.669,-10.053,0.990,4.718,3.692,5.732,5.281,4.711,4.711,2.198,6.282,5.083,1.570,0.000,0.000,1.325,-10.051,0.990,4.718,3.776,5.648,
20.111,32.943,1.000,-10.641,1.574,0.000,6.275,4.142,0.000,1.235,1.259,2.117,4.270,2.537,2.096,2.113,0.000,0.000,0.684,0.000,0.000,0.000,0.000,0.000,0.000,0.000,0.000,0.000,0.000,0.000,3.142,6.283,0.000,1.003,1.569,1.569,4.085,6.281,1.199,4.712,0.000,0.000,0.669,-10.053,0.990,4.718,3.692,5.732,5.281,4.711,4.711,2.198,6.282,5.083,1.570,0.000,0.000,1.325,-10.051,0.990,4.718,3.776,5.648,
20.220,33.052,1.000,-10.641,1.574,0.000,6.275,4.142,0.000,1.235,1.259,2.117,4.270,2.537,2.096,2.113,0.000,0.000,0.684,0.000,0.000,0.000,0.000,0.000,0.000,0.000,0.000,0.000,0.000,0.000,3.142,6.283,0.000,1.003,1.569,1.569,4.085,6.281,1.199,4.712,0.000,0.000,0.669,-10.053,0.990,4.718,3.692,5.732,5.281,4.711,4.711,2.198,6.282,5.083,1.570,0.000,0.000,1.325,-10.051,0.990,4.718,3.776,5.648,
20.319,33.151,1.000,-10.641,1.574,0.000,6.275,4.142,0.000,1.235,1.259,2.117,4.270,2.537,2.096,2.113,0.000,0.000,0.684,0.000,0.000,0.000,0.000,0.000,0.000,0.000,0.000,0.000,0.000,0.000,3.142,6.283,0.000,1.003,1.569,1.569,4.085,6.281,1.199,4.712,0.000,0.000,0.669,-10.053,0.990,4.718,3.692,5.732,5.281,4.711,4.711,2.198,6.282,5.083,1.570,0.000,0.000,1.325,-10.051,0.990,4.718,3.777,5.648,
20.420,33.252,1.000,-10.641,1.574,0.000,6.275,4.142,0.000,1.235,1.259,2.117,4.270,2.537,2.096,2.113,0.000,0.000,0.684,0.000,0.000,0.000,0.000,0.000,0.000,0.000,0.000,0.000,0.000,0.000,3.142,6.283,0.000,1.003,1.569,1.569,4.085,6.281,1.199,4.712,0.000,0.000,0.669,-10.053,0.990,4.718,3.692,5.732,5.281,4.711,4.711,2.198,6.282,5.083,1.570,0.000,0.000,1.325,-10.051,0.990,4.718,3.776,5.648,
20.520,33.352,1.000,-10.641,1.574,0.000,6.275,4.142,0.000,1.235,1.259,2.117,4.270,2.537,2.096,2.113,0.000,0.000,0.684,0.000,0.000,0.000,0.000,0.000,0.000,0.000,0.000,0.000,0.000,0.000,3.142,6.283,0.000,1.003,1.569,1.569,4.085,6.281,1.199,4.712,0.000,0.000,0.669,-10.053,0.990,4.718,3.692,5.732,5.281,4.711,4.711,2.198,6.282,5.083,1.570,0.000,0.000,1.325,-10.051,0.990,4.718,3.777,5.648,
20.620,33.452,1.000,-10.641,1.574,0.000,6.275,4.142,0.000,1.235,1.259,2.117,4.270,2.537,2.096,2.113,0.000,0.000,0.684,0.000,0.000,0.000,0.000,0.000,0.000,0.000,0.000,0.000,0.000,0.000,3.142,6.283,0.000,1.003,1.569,1.569,4.085,6.281,1.199,4.712,0.000,0.000,0.669,-10.053,0.990,4.718,3.692,5.732,5.281,4.711,4.711,2.198,6.282,5.083,1.570,0.000,0.000,1.325,-10.051,0.990,4.718,3.776,5.648,
20.720,33.557,1.000,-10.641,1.574,0.000,6.275,4.142,0.000,1.235,1.259,2.117,4.270,2.537,2.096,2.113,0.000,0.000,0.684,0.000,0.000,0.000,0.000,0.000,0.000,0.000,0.000,0.000,0.000,0.000,3.142,6.283,0.000,1.003,1.569,1.569,4.085,6.281,1.199,4.712,0.000,0.000,0.669,-10.053,0.990,4.718,3.692,5.732,5.281,4.711,4.711,2.198,6.282,5.083,1.570,0.000,0.000,1.325,-10.051,0.990,4.718,3.776,5.648,
20.820,33.657,1.000,-10.641,1.574,0.000,6.275,4.142,0.000,1.235,1.259,2.117,4.270,2.537,2.096,2.113,0.000,0.000,0.684,0.000,0.000,0.000,0.000,0.000,0.000,0.000,0.000,0.000,0.000,0.000,3.142,6.283,0.000,1.003,1.569,1.569,4.085,6.281,1.199,4.712,0.000,0.000,0.669,-10.053,0.990,4.718,3.692,5.732,5.281,4.711,4.711,2.198,6.282,5.083,1.570,0.000,0.000,1.325,-10.051,0.990,4.718,3.776,5.648,
20.920,33.757,1.000,-10.641,1.574,0.000,6.275,4.142,0.000,1.235,1.259,2.117,4.270,2.537,2.096,2.113,0.000,0.000,0.684,0.000,0.000,0.000,0.000,0.000,0.000,0.000,0.000,0.000,0.000,0.000,3.142,6.283,0.000,1.003,1.569,1.569,4.085,6.281,1.199,4.712,0.000,0.000,0.669,-10.053,0.990,4.718,3.692,5.732,5.281,4.711,4.711,2.198,6.282,5.083,1.570,0.000,0.000,1.325,-10.051,0.990,4.718,3.777,5.648,
21.002,33.839,1.000,-10.641,1.574,0.000,6.275,4.142,0.000,1.235,1.259,2.117,4.270,2.537,2.096,2.113,0.000,0.000,0.684,0.000,0.000,0.000,0.000,0.000,0.000,0.000,0.000,0.000,0.000,0.000,3.142,6.283,0.000,1.003,1.569,1.569,4.085,6.281,1.199,4.712,0.000,0.000,0.669,-10.053,0.990,4.718,3.692,5.732,5.281,4.711,4.711,2.198,6.282,5.083,1.570,0.000,0.000,1.325,-10.051,0.990,4.718,3.776,5.648,
21.120,33.957,1.000,-10.641,1.574,0.000,6.275,4.142,0.000,1.235,1.259,2.117,4.270,2.537,2.096,2.113,0.000,0.000,0.684,0.000,0.000,0.000,0.000,0.000,0.000,0.000,0.000,0.000,0.000,0.000,3.142,6.283,0.000,1.003,1.569,1.569,4.085,6.281,1.199,4.712,0.000,0.000,0.669,-10.053,0.990,4.718,3.692,5.732,5.281,4.711,4.711,2.198,6.282,5.083,1.570,0.000,0.000,1.325,-10.051,0.990,4.718,3.776,5.648,
21.220,34.057,1.000,-10.641,1.574,0.000,6.275,4.142,0.000,1.235,1.259,2.117,4.270,2.537,2.096,2.113,0.000,0.000,0.684,0.000,0.000,0.000,0.000,0.000,0.000,0.000,0.000,0.000,0.000,0.000,3.142,6.283,0.000,1.003,1.569,1.569,4.085,6.281,1.199,4.712,0.000,0.000,0.669,-10.053,0.990,4.718,3.692,5.732,5.281,4.711,4.711,2.198,6.282,5.083,1.570,0.000,0.000,1.325,-10.051,0.990,4.718,3.776,5.648,
21.308,34.145,1.000,-10.641,1.574,0.000,6.275,4.142,0.000,1.235,1.259,2.117,4.270,2.537,2.096,2.113,0.000,0.000,0.684,0.000,0.000,0.000,0.000,0.000,0.000,0.000,0.000,0.000,0.000,0.000,3.142,6.283,0.000,1.003,1.569,1.569,4.085,6.281,1.199,4.712,0.000,0.000,0.669,-10.053,0.990,4.718,3.692,5.732,5.281,4.711,4.711,2.198,6.282,5.083,1.570,0.000,0.000,1.325,-10.051,0.990,4.718,3.776,5.648,
21.420,34.257,1.000,-10.641,1.574,0.000,6.275,4.142,0.000,1.235,1.259,2.117,4.270,2.537,2.096,2.113,0.000,0.000,0.684,0.000,0.000,0.000,0.000,0.000,0.000,0.000,0.000,0.000,0.000,0.000,3.142,6.283,0.000,1.003,1.569,1.569,4.085,6.281,1.199,4.712,0.000,0.000,0.669,-10.053,0.990,4.718,3.692,5.732,5.281,4.711,4.711,2.198,6.282,5.083,1.570,0.000,0.000,1.325,-10.051,0.990,4.718,3.777,5.648,
21.520,34.357,1.000,-10.641,1.574,0.000,6.275,4.142,0.000,1.235,1.259,2.117,4.270,2.537,2.096,2.113,0.000,0.000,0.684,0.000,0.000,0.000,0.000,0.000,0.000,0.000,0.000,0.000,0.000,0.000,3.142,6.283,0.000,1.003,1.569,1.569,4.085,6.281,1.199,4.712,0.000,0.000,0.669,-10.053,0.990,4.718,3.692,5.732,5.281,4.711,4.711,2.198,6.282,5.083,1.570,0.000,0.000,1.325,-10.051,0.990,4.718,3.777,5.648,
21.620,34.457,1.000,-10.641,1.574,0.000,6.275,4.142,0.000,1.235,1.259,2.117,4.270,2.537,2.096,2.113,0.000,0.000,0.684,0.000,0.000,0.000,0.000,0.000,0.000,0.000,0.000,0.000,0.000,0.000,3.142,6.283,0.000,1.003,1.569,1.569,4.085,6.281,1.199,4.712,0.000,0.000,0.669,-10.053,0.990,4.718,3.692,5.732,5.281,4.711,4.711,2.198,6.282,5.083,1.570,0.000,0.000,1.325,-10.051,0.990,4.718,3.776,5.648,
21.720,34.557,1.000,-10.641,1.574,0.000,6.275,4.142,0.000,1.235,1.259,2.117,4.270,2.537,2.096,2.113,0.000,0.000,0.684,0.000,0.000,0.000,0.000,0.000,0.000,0.000,0.000,0.000,0.000,0.000,3.142,6.283,0.000,1.003,1.569,1.569,4.085,6.281,1.199,4.712,0.000,0.000,0.669,-10.053,0.990,4.718,3.692,5.732,5.281,4.711,4.711,2.198,6.282,5.083,1.570,0.000,0.000,1.325,-10.051,0.990,4.718,3.776,5.648,
21.820,34.657,1.000,-10.641,1.574,0.000,6.275,4.142,0.000,1.235,1.259,2.117,4.270,2.537,2.096,2.113,0.000,0.000,0.684,0.000,0.000,0.000,0.000,0.000,0.000,0.000,0.000,0.000,0.000,0.000,3.142,6.283,0.000,1.003,1.569,1.569,4.085,6.281,1.199,4.712,0.000,0.000,0.669,-10.053,0.990,4.718,3.692,5.732,5.281,4.711,4.711,2.198,6.282,5.083,1.570,0.000,0.000,1.325,-10.051,0.990,4.718,3.776,5.648,
21.920,34.757,1.000,-10.641,1.574,0.000,6.275,4.142,0.000,1.235,1.259,2.117,4.270,2.537,2.096,2.113,0.000,0.000,0.684,0.000,0.000,0.000,0.000,0.000,0.000,0.000,0.000,0.000,0.000,0.000,3.142,6.283,0.000,1.003,1.569,1.569,4.085,6.281,1.199,4.712,0.000,0.000,0.669,-10.053,0.990,4.718,3.692,5.732,5.281,4.711,4.711,2.198,6.282,5.083,1.570,0.000,0.000,1.325,-10.051,0.990,4.718,3.777,5.648,
22.020,34.857,1.000,-10.641,1.574,0.000,6.275,4.142,0.000,1.235,1.259,2.117,4.270,2.537,2.096,2.113,0.000,0.000,0.684,0.000,0.000,0.000,0.000,0.000,0.000,0.000,0.000,0.000,0.000,0.000,3.142,6.283,0.000,1.003,1.569,1.569,4.085,6.281,1.199,4.712,0.000,0.000,0.669,-10.053,0.990,4.718,3.692,5.732,5.281,4.711,4.711,2.198,6.282,5.083,1.570,0.000,0.000,1.325,-10.051,0.990,4.718,3.776,5.648,
22.109,34.946,1.000,-10.641,1.574,0.000,6.275,4.142,0.000,1.235,1.259,2.117,4.270,2.537,2.096,2.113,0.000,0.000,0.684,0.000,0.000,0.000,0.000,0.000,0.000,0.000,0.000,0.000,0.000,0.000,3.142,6.283,0.000,1.003,1.569,1.569,4.085,6.281,1.199,4.712,0.000,0.000,0.669,-10.053,0.990,4.718,3.692,5.732,5.281,4.711,4.711,2.198,6.282,5.083,1.570,0.000,0.000,1.325,-10.051,0.990,4.718,3.776,5.648,
22.220,35.057,1.000,-10.641,1.574,0.000,6.275,4.142,0.000,1.235,1.259,2.117,4.270,2.537,2.096,2.113,0.000,0.000,0.684,0.000,0.000,0.000,0.000,0.000,0.000,0.000,0.000,0.000,0.000,0.000,3.142,6.283,0.000,1.003,1.569,1.569,4.085,6.281,1.199,4.712,0.000,0.000,0.669,-10.053,0.990,4.718,3.692,5.732,5.281,4.711,4.711,2.198,6.282,5.083,1.570,0.000,0.000,1.325,-10.051,0.990,4.718,3.777,5.648,
22.317,35.154,1.000,-10.641,1.574,0.000,6.275,4.142,0.000,1.235,1.259,2.117,4.270,2.537,2.096,2.113,0.000,0.000,0.684,0.000,0.000,0.000,0.000,0.000,0.000,0.000,0.000,0.000,0.000,0.000,3.142,6.283,0.000,1.003,1.569,1.569,4.085,6.281,1.199,4.712,0.000,0.000,0.669,-10.053,0.990,4.718,3.692,5.732,5.281,4.711,4.711,2.198,6.282,5.083,1.570,0.000,0.000,1.325,-10.051,0.990,4.718,3.776,5.648,
22.420,35.257,1.000,-10.641,1.574,0.000,6.275,4.142,0.000,1.235,1.259,2.117,4.270,2.537,2.096,2.113,0.000,0.000,0.684,0.000,0.000,0.000,0.000,0.000,0.000,0.000,0.000,0.000,0.000,0.000,3.142,6.283,0.000,1.003,1.569,1.569,4.085,6.281,1.199,4.712,0.000,0.000,0.669,-10.053,0.990,4.718,3.692,5.732,5.281,4.711,4.711,2.198,6.282,5.083,1.570,0.000,0.000,1.325,-10.051,0.990,4.718,3.777,5.648,
22.520,35.357,1.000,-10.641,1.574,0.000,6.275,4.142,0.000,1.235,1.259,2.117,4.270,2.537,2.096,2.113,0.000,0.000,0.684,0.000,0.000,0.000,0.000,0.000,0.000,0.000,0.000,0.000,0.000,0.000,3.142,6.283,0.000,1.003,1.569,1.569,4.085,6.281,1.199,4.712,0.000,0.000,0.669,-10.053,0.990,4.718,3.692,5.732,5.281,4.711,4.711,2.198,6.282,5.083,1.570,0.000,0.000,1.325,-10.051,0.990,4.718,3.777,5.648,
22.602,35.439,1.000,-10.641,1.574,0.000,6.275,4.142,0.000,1.235,1.259,2.117,4.270,2.537,2.096,2.113,0.000,0.000,0.684,0.000,0.000,0.000,0.000,0.000,0.000,0.000,0.000,0.000,0.000,0.000,3.142,6.283,0.000,1.003,1.569,1.569,4.085,6.281,1.199,4.712,0.000,0.000,0.669,-10.053,0.990,4.718,3.692,5.732,5.281,4.711,4.711,2.198,6.282,5.083,1.570,0.000,0.000,1.325,-10.051,0.990,4.718,3.776,5.648,
22.720,35.557,1.000,-10.641,1.574,0.000,6.275,4.142,0.000,1.235,1.259,2.117,4.270,2.537,2.096,2.113,0.000,0.000,0.684,0.000,0.000,0.000,0.000,0.000,0.000,0.000,0.000,0.000,0.000,0.000,3.142,6.283,0.000,1.003,1.569,1.569,4.085,6.281,1.199,4.712,0.000,0.000,0.669,-10.053,0.990,4.718,3.692,5.732,5.281,4.711,4.711,2.198,6.282,5.083,1.570,0.000,0.000,1.325,-10.051,0.990,4.718,3.776,5.648,
22.805,35.642,1.000,-10.641,1.574,0.000,6.275,4.142,0.000,1.235,1.259,2.117,4.270,2.537,2.096,2.113,0.000,0.000,0.684,0.000,0.000,0.000,0.000,0.000,0.000,0.000,0.000,0.000,0.000,0.000,3.142,6.283,0.000,1.003,1.569,1.569,4.085,6.281,1.199,4.712,0.000,0.000,0.669,-10.053,0.990,4.718,3.692,5.732,5.281,4.711,4.711,2.198,6.282,5.083,1.570,0.000,0.000,1.325,-10.051,0.990,4.718,3.776,5.648,
22.920,35.757,1.000,-10.641,1.574,0.000,6.275,4.142,0.000,1.235,1.259,2.117,4.270,2.537,2.096,2.113,0.000,0.000,0.684,0.000,0.000,0.000,0.000,0.000,0.000,0.000,0.000,0.000,0.000,0.000,3.142,6.283,0.000,1.003,1.569,1.569,4.085,6.281,1.199,4.712,0.000,0.000,0.669,-10.053,0.990,4.718,3.692,5.732,5.281,4.711,4.711,2.198,6.282,5.083,1.570,0.000,0.000,1.325,-10.051,0.990,4.718,3.776,5.648,
23.014,35.851,1.000,-10.641,1.574,0.000,6.275,4.142,0.000,1.235,1.259,2.117,4.270,2.537,2.096,2.113,0.000,0.000,0.684,0.000,0.000,0.000,0.000,0.000,0.000,0.000,0.000,0.000,0.000,0.000,3.142,6.283,0.000,1.003,1.569,1.569,4.085,6.281,1.199,4.712,0.000,0.000,0.669,-10.053,0.990,4.718,3.692,5.732,5.281,4.711,4.711,2.198,6.282,5.083,1.570,0.000,0.000,1.325,-10.051,0.990,4.718,3.776,5.648,
23.120,35.957,1.000,-10.641,1.574,0.000,6.275,4.142,0.000,1.235,1.259,2.117,4.270,2.537,2.096,2.113,0.000,0.000,0.684,0.000,0.000,0.000,0.000,0.000,0.000,0.000,0.000,0.000,0.000,0.000,3.142,6.283,0.000,1.003,1.569,1.569,4.085,6.281,1.199,4.712,0.000,0.000,0.669,-10.053,0.990,4.718,3.692,5.732,5.281,4.711,4.711,2.198,6.282,5.083,1.570,0.000,0.000,1.325,-10.051,0.990,4.718,3.776,5.648,
23.220,36.057,1.000,-10.641,1.574,0.000,6.275,4.142,0.000,1.235,1.259,2.117,4.270,2.537,2.096,2.113,0.000,0.000,0.684,0.000,0.000,0.000,0.000,0.000,0.000,0.000,0.000,0.000,0.000,0.000,3.142,6.283,0.000,1.003,1.569,1.569,4.085,6.281,1.199,4.712,0.000,0.000,0.669,-10.053,0.990,4.718,3.692,5.732,5.281,4.711,4.711,2.198,6.282,5.083,1.570,0.000,0.000,1.325,-10.051,0.990,4.718,3.776,5.648,
23.320,36.157,1.000,-10.641,1.574,0.000,6.275,4.142,0.000,1.235,1.259,2.117,4.270,2.537,2.096,2.113,0.000,0.000,0.684,0.000,0.000,0.000,0.000,0.000,0.000,0.000,0.000,0.000,0.000,0.000,3.142,6.283,0.000,1.003,1.569,1.569,4.085,6.281,1.199,4.712,0.000,0.000,0.669,-10.053,0.990,4.718,3.692,5.732,5.281,4.711,4.711,2.198,6.282,5.083,1.570,0.000,0.000,1.325,-10.051,0.990,4.718,3.776,5.648,
23.420,36.257,1.000,-10.641,1.574,0.000,6.275,4.142,0.000,1.235,1.259,2.117,4.270,2.537,2.096,2.113,0.000,0.000,0.684,0.000,0.000,0.000,0.000,0.000,0.000,0.000,0.000,0.000,0.000,0.000,3.142,6.283,0.000,1.003,1.569,1.569,4.085,6.281,1.199,4.712,0.000,0.000,0.669,-10.053,0.990,4.718,3.692,5.732,5.281,4.711,4.711,2.198,6.282,5.083,1.570,0.000,0.000,1.325,-10.051,0.990,4.718,3.776,5.648,
23.505,36.342,1.000,-10.641,1.574,0.000,6.275,4.142,0.000,1.235,1.259,2.117,4.270,2.537,2.096,2.113,0.000,0.000,0.684,0.000,0.000,0.000,0.000,0.000,0.000,0.000,0.000,0.000,0.000,0.000,3.142,6.283,0.000,1.003,1.569,1.569,4.085,6.281,1.199,4.712,0.000,0.000,0.669,-10.053,0.990,4.718,3.692,5.732,5.281,4.711,4.711,2.198,6.282,5.083,1.570,0.000,0.000,1.325,-10.051,0.990,4.718,3.777,5.648,
23.620,36.457,1.000,-10.641,1.574,0.000,6.275,4.142,0.000,1.235,1.259,2.117,4.270,2.537,2.096,2.113,0.000,0.000,0.684,0.000,0.000,0.000,0.000,0.000,0.000,0.000,0.000,0.000,0.000,0.000,3.142,6.283,0.000,1.003,1.569,1.569,4.085,6.281,1.199,4.712,0.000,0.000,0.669,-10.053,0.990,4.718,3.692,5.732,5.281,4.711,4.711,2.198,6.282,5.083,1.570,0.000,0.000,1.325,-10.051,0.990,4.718,3.777,5.648,
23.716,36.553,1.000,-10.641,1.574,0.000,6.275,4.142,0.000,1.235,1.259,2.117,4.270,2.537,2.096,2.113,0.000,0.000,0.684,0.000,0.000,0.000,0.000,0.000,0.000,0.000,0.000,0.000,0.000,0.000,3.142,6.283,0.000,1.003,1.569,1.569,4.085,6.281,1.199,4.712,0.000,0.000,0.669,-10.053,0.990,4.718,3.692,5.732,5.281,4.711,4.711,2.198,6.282,5.083,1.570,0.000,0.000,1.325,-10.051,0.990,4.718,3.777,5.648,
23.820,36.657,1.000,-10.641,1.574,0.000,6.275,4.142,0.000,1.235,1.259,2.117,4.270,2.537,2.096,2.113,0.000,0.000,0.684,0.000,0.000,0.000,0.000,0.000,0.000,0.000,0.000,0.000,0.000,0.000,3.142,6.283,0.000,1.003,1.569,1.569,4.085,6.281,1.199,4.712,0.000,0.000,0.669,-10.053,0.990,4.718,3.692,5.732,5.281,4.711,4.711,2.198,6.282,5.083,1.570,0.000,0.000,1.325,-10.051,0.990,4.718,3.777,5.648,
23.920,36.757,1.000,-10.641,1.574,0.000,6.275,4.142,0.000,1.235,1.259,2.117,4.270,2.537,2.096,2.113,0.000,0.000,0.684,0.000,0.000,0.000,0.000,0.000,0.000,0.000,0.000,0.000,0.000,0.000,3.142,6.283,0.000,1.003,1.569,1.569,4.085,6.281,1.199,4.712,0.000,0.000,0.669,-10.053,0.990,4.718,3.692,5.732,5.281,4.711,4.711,2.198,6.282,5.083,1.570,0.000,0.000,1.325,-10.051,0.990,4.718,3.777,5.648,
24.020,36.857,1.000,-10.641,1.574,0.000,6.275,4.142,0.000,1.235,1.259,2.117,4.270,2.537,2.096,2.113,0.000,0.000,0.684,0.000,0.000,0.000,0.000,0.000,0.000,0.000,0.000,0.000,0.000,0.000,3.142,6.283,0.000,1.003,1.569,1.569,4.085,6.281,1.199,4.712,0.000,0.000,0.669,-10.053,0.990,4.718,3.692,5.732,5.281,4.711,4.711,2.198,6.282,5.083,1.570,0.000,0.000,1.325,-10.051,0.990,4.718,3.776,5.648,
24.120,36.957,1.000,-10.641,1.574,0.000,6.275,4.142,0.000,1.235,1.259,2.117,4.270,2.537,2.096,2.113,0.000,0.000,0.684,0.000,0.000,0.000,0.000,0.000,0.000,0.000,0.000,0.000,0.000,0.000,3.142,6.283,0.000,1.003,1.569,1.569,4.085,6.281,1.199,4.712,0.000,0.000,0.669,-10.053,0.990,4.718,3.692,5.732,5.281,4.711,4.711,2.198,6.282,5.083,1.570,0.000,0.000,1.325,-10.051,0.990,4.718,3.777,5.648,
24.220,37.057,1.000,-10.641,1.574,0.000,6.275,4.142,0.000,1.235,1.259,2.117,4.270,2.537,2.096,2.113,0.000,0.000,0.684,0.000,0.000,0.000,0.000,0.000,0.000,0.000,0.000,0.000,0.000,0.000,3.142,6.283,0.000,1.003,1.569,1.569,4.085,6.281,1.199,4.712,0.000,0.000,0.669,-10.053,0.990,4.718,3.692,5.732,5.281,4.711,4.711,2.198,6.282,5.083,1.570,0.000,0.000,1.325,-10.051,0.990,4.718,3.776,5.648,
24.320,37.157,1.000,-10.641,1.574,0.000,6.275,4.142,0.000,1.235,1.259,2.117,4.270,2.537,2.096,2.113,0.000,0.000,0.684,0.000,0.000,0.000,0.000,0.000,0.000,0.000,0.000,0.000,0.000,0.000,3.142,6.283,0.000,1.003,1.569,1.569,4.085,6.281,1.199,4.712,0.000,0.000,0.669,-10.053,0.990,4.718,3.692,5.732,5.281,4.711,4.711,2.198,6.282,5.083,1.570,0.000,0.000,1.325,-10.051,0.990,4.718,3.777,5.648,
24.407,37.244,1.000,-10.641,1.574,0.000,6.275,4.142,0.000,1.235,1.259,2.117,4.270,2.537,2.096,2.113,0.000,0.000,0.684,0.000,0.000,0.000,0.000,0.000,0.000,0.000,0.000,0.000,0.000,0.000,3.142,6.283,0.000,1.003,1.569,1.569,4.085,6.281,1.199,4.712,0.000,0.000,0.669,-10.053,0.990,4.718,3.692,5.732,5.281,4.711,4.711,2.198,6.282,5.083,1.570,0.000,0.000,1.325,-10.051,0.990,4.718,3.776,5.648,
24.520,37.357,1.000,-10.641,1.574,0.000,6.275,4.142,0.000,1.235,1.259,2.117,4.270,2.537,2.096,2.113,0.000,0.000,0.684,0.000,0.000,0.000,0.000,0.000,0.000,0.000,0.000,0.000,0.000,0.000,3.142,6.283,0.000,1.003,1.569,1.569,4.085,6.281,1.199,4.712,0.000,0.000,0.669,-10.053,0.990,4.718,3.692,5.732,5.281,4.711,4.711,2.198,6.282,5.083,1.570,0.000,0.000,1.325,-10.051,0.990,4.718,3.776,5.648,
24.613,37.450,1.000,-10.641,1.574,0.000,6.275,4.142,0.000,1.235,1.259,2.117,4.270,2.537,2.096,2.113,0.000,0.000,0.684,0.000,0.000,0.000,0.000,0.000,0.000,0.000,0.000,0.000,0.000,0.000,3.142,6.283,0.000,1.003,1.569,1.569,4.085,6.281,1.199,4.712,0.000,0.000,0.669,-10.053,0.990,4.718,3.692,5.732,5.281,4.711,4.711,2.198,6.282,5.083,1.570,0.000,0.000,1.325,-10.051,0.990,4.718,3.776,5.648,
24.720,37.557,1.000,-10.641,1.574,0.000,6.275,4.142,0.000,1.235,1.259,2.117,4.270,2.537,2.096,2.113,0.000,0.000,0.684,0.000,0.000,0.000,0.000,0.000,0.000,0.000,0.000,0.000,0.000,0.000,3.142,6.283,0.000,1.003,1.569,1.569,4.085,6.281,1.199,4.712,0.000,0.000,0.669,-10.053,0.990,4.718,3.692,5.732,5.281,4.711,4.711,2.198,6.282,5.083,1.570,0.000,0.000,1.325,-10.051,0.990,4.718,3.776,5.648,
24.820,37.657,1.000,-10.641,1.574,0.000,6.275,4.142,0.000,1.235,1.259,2.117,4.270,2.537,2.096,2.113,0.000,0.000,0.684,0.000,0.000,0.000,0.000,0.000,0.000,0.000,0.000,0.000,0.000,0.000,3.142,6.283,0.000,1.003,1.569,1.569,4.085,6.281,1.199,4.712,0.000,0.000,0.669,-10.053,0.990,4.718,3.692,5.732,5.281,4.711,4.711,2.198,6.282,5.083,1.570,0.000,0.000,1.325,-10.051,0.990,4.718,3.776,5.648,
24.920,37.757,1.000,-10.641,1.574,0.000,6.275,4.142,0.000,1.235,1.259,2.117,4.270,2.537,2.096,2.113,0.000,0.000,0.684,0.000,0.000,0.000,0.000,0.000,0.000,0.000,0.000,0.000,0.000,0.000,3.142,6.283,0.000,1.003,1.569,1.569,4.085,6.281,1.199,4.712,0.000,0.000,0.669,-10.053,0.990,4.718,3.692,5.732,5.281,4.711,4.711,2.198,6.282,5.083,1.570,0.000,0.000,1.325,-10.051,0.990,4.718,3.776,5.648,
25.014,37.851,1.000,-10.641,1.574,0.000,6.275,4.142,0.000,1.235,1.259,2.117,4.270,2.537,2.096,2.113,0.000,0.000,0.684,0.000,0.000,0.000,0.000,0.000,0.000,0.000,0.000,0.000,0.000,0.000,3.142,6.283,0.000,1.003,1.569,1.569,4.085,6.281,1.199,4.712,0.000,0.000,0.669,-10.053,0.990,4.718,3.692,5.732,5.281,4.711,4.711,2.198,6.282,5.083,1.570,0.000,0.000,1.325,-10.051,0.990,4.718,3.776,5.648,
25.120,37.957,1.000,-10.641,1.574,0.000,6.275,4.142,0.000,1.235,1.259,2.117,4.270,2.537,2.096,2.113,0.000,0.000,0.684,0.000,0.000,0.000,0.000,0.000,0.000,0.000,0.000,0.000,0.000,0.000,3.142,6.283,0.000,1.003,1.569,1.569,4.085,6.281,1.199,4.712,0.000,0.000,0.669,-10.053,0.990,4.718,3.692,5.732,5.281,4.711,4.711,2.198,6.282,5.083,1.570,0.000,0.000,1.325,-10.051,0.990,4.718,3.776,5.648,
25.215,38.052,1.000,-10.641,1.574,0.000,6.275,4.142,0.000,1.235,1.259,2.117,4.270,2.537,2.096,2.113,0.000,0.000,0.684,0.000,0.000,0.000,0.000,0.000,0.000,0.000,0.000,0.000,0.000,0.000,3.142,6.283,0.000,1.003,1.569,1.569,4.085,6.281,1.199,4.712,0.000,0.000,0.669,-10.053,0.990,4.718,3.692,5.732,5.281,4.711,4.711,2.198,6.282,5.083,1.570,0.000,0.000,1.325,-10.051,0.990,4.718,3.777,5.648,
25.320,38.157,1.000,-10.641,1.574,0.000,6.275,4.142,0.000,1.235,1.259,2.117,4.270,2.537,2.096,2.113,0.000,0.000,0.684,0.000,0.000,0.000,0.000,0.000,0.000,0.000,0.000,0.000,0.000,0.000,3.142,6.283,0.000,1.003,1.569,1.569,4.085,6.281,1.199,4.712,0.000,0.000,0.669,-10.053,0.990,4.718,3.692,5.732,5.281,4.711,4.711,2.198,6.282,5.083,1.570,0.000,0.000,1.325,-10.051,0.990,4.718,3.776,5.648,
25.420,38.257,1.000,-10.641,1.574,0.000,6.275,4.142,0.000,1.235,1.259,2.117,4.270,2.537,2.096,2.113,0.000,0.000,0.684,0.000,0.000,0.000,0.000,0.000,0.000,0.000,0.000,0.000,0.000,0.000,3.142,6.283,0.000,1.003,1.569,1.569,4.085,6.281,1.199,4.712,0.000,0.000,0.669,-10.053,0.990,4.718,3.692,5.732,5.281,4.711,4.711,2.198,6.282,5.083,1.570,0.000,0.000,1.325,-10.051,0.990,4.718,3.777,5.648,
25.503,38.340,1.000,-10.641,1.574,0.000,6.275,4.142,0.000,1.235,1.259,2.117,4.270,2.537,2.096,2.113,0.000,0.000,0.684,0.000,0.000,0.000,0.000,0.000,0.000,0.000,0.000,0.000,0.000,0.000,3.142,6.283,0.000,1.003,1.569,1.569,4.085,6.281,1.199,4.712,0.000,0.000,0.669,-10.053,0.990,4.718,3.692,5.732,5.281,4.711,4.711,2.198,6.282,5.083,1.570,0.000,0.000,1.325,-10.051,0.990,4.718,3.776,5.648,
25.620,38.457,1.000,-10.641,1.574,0.000,6.275,4.142,0.000,1.235,1.259,2.117,4.270,2.537,2.096,2.113,0.000,0.000,0.684,0.000,0.000,0.000,0.000,0.000,0.000,0.000,0.000,0.000,0.000,0.000,3.142,6.283,0.000,1.003,1.569,1.569,4.085,6.281,1.199,4.712,0.000,0.000,0.669,-10.053,0.990,4.718,3.692,5.732,5.281,4.711,4.711,2.198,6.282,5.083,1.570,0.000,0.000,1.325,-10.051,0.990,4.718,3.777,5.648,
25.713,38.550,1.000,-10.641,1.574,0.000,6.275,4.142,0.000,1.235,1.259,2.117,4.270,2.537,2.096,2.113,0.000,0.000,0.684,0.000,0.000,0.000,0.000,0.000,0.000,0.000,0.000,0.000,0.000,0.000,3.142,6.283,0.000,1.003,1.569,1.569,4.085,6.281,1.199,4.712,0.000,0.000,0.669,-10.053,0.990,4.718,3.692,5.732,5.281,4.711,4.711,2.198,6.282,5.083,1.570,0.000,0.000,1.325,-10.051,0.990,4.718,3.776,5.648,
25.820,38.657,1.000,-10.641,1.574,0.000,6.275,4.142,0.000,1.235,1.259,2.117,4.270,2.537,2.096,2.113,0.000,0.000,0.684,0.000,0.000,0.000,0.000,0.000,0.000,0.000,0.000,0.000,0.000,0.000,3.142,6.283,0.000,1.003,1.569,1.569,4.085,6.281,1.199,4.712,0.000,0.000,0.669,-10.053,0.990,4.718,3.692,5.732,5.281,4.711,4.711,2.198,6.282,5.083,1.570,0.000,0.000,1.325,-10.051,0.990,4.718,3.776,5.648,
25.915,38.752,1.000,-10.641,1.574,0.000,6.275,4.142,0.000,1.235,1.259,2.117,4.270,2.537,2.096,2.113,0.000,0.000,0.684,0.000,0.000,0.000,0.000,0.000,0.000,0.000,0.000,0.000,0.000,0.000,3.142,6.283,0.000,1.003,1.569,1.569,4.085,6.281,1.199,4.712,0.000,0.000,0.669,-10.053,0.990,4.718,3.692,5.732,5.281,4.711,4.711,2.198,6.282,5.083,1.570,0.000,0.000,1.325,-10.051,0.990,4.718,3.776,5.648,
26.020,38.857,1.000,-10.641,1.574,0.000,6.275,4.142,0.000,1.235,1.259,2.117,4.270,2.537,2.096,2.113,0.000,0.000,0.684,0.000,0.000,0.000,0.000,0.000,0.000,0.000,0.000,0.000,0.000,0.000,3.142,6.283,0.000,1.003,1.569,1.569,4.085,6.281,1.199,4.712,0.000,0.000,0.669,-10.053,0.990,4.718,3.692,5.732,5.281,4.711,4.711,2.198,6.282,5.083,1.570,0.000,0.000,1.325,-10.051,0.990,4.718,3.776,5.648,
26.120,38.957,1.000,-10.641,1.574,0.000,6.275,4.142,0.000,1.235,1.259,2.117,4.270,2.537,2.096,2.113,0.000,0.000,0.684,0.000,0.000,0.000,0.000,0.000,0.000,0.000,0.000,0.000,0.000,0.000,3.142,6.283,0.000,1.003,1.569,1.569,4.085,6.281,1.199,4.712,0.000,0.000,0.669,-10.053,0.990,4.718,3.692,5.732,5.281,4.711,4.711,2.198,6.282,5.083,1.570,0.000,0.000,1.325,-10.051,0.990,4.718,3.776,5.648,
26.220,39.057,1.000,-10.641,1.574,0.000,6.275,4.142,0.000,1.235,1.259,2.117,4.270,2.537,2.096,2.113,0.000,0.000,0.684,0.000,0.000,0.000,0.000,0.000,0.000,0.000,0.000,0.000,0.000,0.000,3.142,6.283,0.000,1.003,1.569,1.569,4.085,6.281,1.199,4.712,0.000,0.000,0.669,-10.053,0.990,4.718,3.692,5.732,5.281,4.711,4.711,2.198,6.282,5.083,1.570,0.000,0.000,1.325,-10.051,0.990,4.718,3.776,5.648,
26.320,39.157,1.000,-10.641,1.574,0.000,6.275,4.142,0.000,1.235,1.259,2.117,4.270,2.537,2.096,2.113,0.000,0.000,0.684,0.000,0.000,0.000,0.000,0.000,0.000,0.000,0.000,0.000,0.000,0.000,3.142,6.283,0.000,1.003,1.569,1.569,4.085,6.281,1.199,4.712,0.000,0.000,0.669,-10.053,0.990,4.718,3.692,5.732,5.281,4.711,4.711,2.198,6.282,5.083,1.570,0.000,0.000,1.325,-10.051,0.990,4.718,3.776,5.648,
26.401,39.238,1.000,-10.641,1.574,0.000,6.275,4.142,0.000,1.235,1.259,2.117,4.270,2.537,2.096,2.113,0.000,0.000,0.684,0.000,0.000,0.000,0.000,0.000,0.000,0.000,0.000,0.000,0.000,0.000,3.142,6.283,0.000,1.003,1.569,1.569,4.085,6.281,1.199,4.712,0.000,0.000,0.669,-10.053,0.990,4.718,3.692,5.732,5.281,4.711,4.711,2.198,6.282,5.083,1.570,0.000,0.000,1.325,-10.051,0.990,4.718,3.776,5.648,
26.520,39.357,1.000,-10.641,1.574,0.000,6.275,4.142,0.000,1.235,1.259,2.117,4.270,2.537,2.096,2.113,0.000,0.000,0.684,0.000,0.000,0.000,0.000,0.000,0.000,0.000,0.000,0.000,0.000,0.000,3.142,6.283,0.000,1.003,1.569,1.569,4.085,6.281,1.199,4.712,0.000,0.000,0.669,-10.053,0.990,4.718,3.692,5.732,5.281,4.711,4.711,2.198,6.282,5.083,1.570,0.000,0.000,1.325,-10.051,0.990,4.718,3.776,5.648,
26.603,39.440,1.000,-10.641,1.574,0.000,6.275,4.142,0.000,1.235,1.259,2.117,4.270,2.537,2.096,2.113,0.000,0.000,0.684,0.000,0.000,0.000,0.000,0.000,0.000,0.000,0.000,0.000,0.000,0.000,3.142,6.283,0.000,1.003,1.569,1.569,4.085,6.281,1.199,4.712,0.000,0.000,0.669,-10.053,0.990,4.718,3.692,5.732,5.281,4.711,4.711,2.198,6.282,5.083,1.570,0.000,0.000,1.325,-10.051,0.990,4.718,3.776,5.648,
26.720,39.557,1.000,-10.641,1.574,0.000,6.275,4.142,0.000,1.235,1.259,2.117,4.270,2.537,2.096,2.113,0.000,0.000,0.684,0.000,0.000,0.000,0.000,0.000,0.000,0.000,0.000,0.000,0.000,0.000,3.142,6.283,0.000,1.003,1.569,1.569,4.085,6.281,1.199,4.712,0.000,0.000,0.669,-10.053,0.990,4.718,3.692,5.732,5.281,4.711,4.711,2.198,6.282,5.083,1.570,0.000,0.000,1.325,-10.051,0.990,4.718,3.776,5.648,
26.810,39.647,1.000,-10.641,1.574,0.000,6.275,4.142,0.000,1.235,1.259,2.117,4.270,2.537,2.096,2.113,0.000,0.000,0.684,0.000,0.000,0.000,0.000,0.000,0.000,0.000,0.000,0.000,0.000,0.000,3.142,6.283,0.000,1.003,1.569,1.569,4.085,6.281,1.199,4.712,0.000,0.000,0.669,-10.053,0.990,4.718,3.692,5.732,5.281,4.711,4.711,2.198,6.282,5.083,1.570,0.000,0.000,1.325,-10.051,0.990,4.718,3.776,5.648,
26.920,39.757,1.000,-10.641,1.574,0.000,6.275,4.142,0.000,1.235,1.259,2.117,4.270,2.537,2.096,2.113,0.000,0.000,0.684,0.000,0.000,0.000,0.000,0.000,0.000,0.000,0.000,0.000,0.000,0.000,3.142,6.283,0.000,1.003,1.569,1.569,4.085,6.281,1.199,4.712,0.000,0.000,0.669,-10.053,0.990,4.718,3.692,5.732,5.281,4.711,4.711,2.198,6.282,5.083,1.570,0.000,0.000,1.325,-10.051,0.990,4.718,3.776,5.648,
27.017,39.854,1.000,-10.641,1.574,0.000,6.275,4.142,0.000,1.235,1.259,2.117,4.270,2.537,2.096,2.113,0.000,0.000,0.684,0.000,0.000,0.000,0.000,0.000,0.000,0.000,0.000,0.000,0.000,0.000,3.142,6.283,0.000,1.003,1.569,1.569,4.085,6.281,1.199,4.712,0.000,0.000,0.669,-10.053,0.990,4.718,3.692,5.732,5.281,4.711,4.711,2.198,6.282,5.083,1.570,0.000,0.000,1.325,-10.051,0.990,4.718,3.776,5.648,
27.120,40.214,1.000,-10.641,1.574,0.000,6.275,4.142,0.000,1.235,1.259,2.117,4.270,2.537,2.096,2.113,0.000,0.000,0.684,0.000,0.000,0.000,0.000,0.000,0.000,0.000,0.000,0.000,0.000,0.000,3.142,6.283,0.000,1.003,1.569,1.569,4.085,6.281,1.199,4.712,0.000,0.000,0.669,-10.053,0.990,4.718,3.692,5.732,5.281,4.711,4.711,2.198,6.282,5.083,1.570,0.000,0.000,1.325,-10.051,0.990,4.718,3.776,5.648,
27.220,40.314,1.000,-10.641,1.574,0.000,6.275,4.142,0.000,1.235,1.259,2.117,4.270,2.537,2.096,2.113,0.000,0.000,0.684,0.000,0.000,0.000,0.000,0.000,0.000,0.000,0.000,0.000,0.000,0.000,3.142,6.283,0.000,1.003,1.569,1.569,4.085,6.281,1.199,4.712,0.000,0.000,0.669,-10.053,0.990,4.718,3.692,5.732,5.281,4.711,4.711,2.198,6.282,5.083,1.570,0.000,0.000,1.325,-10.051,0.990,4.718,3.776,5.648,
27.320,40.414,1.000,-10.641,1.574,0.000,6.275,4.142,0.000,1.235,1.259,2.117,4.270,2.537,2.096,2.113,0.000,0.000,0.684,0.000,0.000,0.000,0.000,0.000,0.000,0.000,0.000,0.000,0.000,0.000,3.142,6.283,0.000,1.003,1.569,1.569,4.085,6.281,1.199,4.712,0.000,0.000,0.669,-10.053,0.990,4.718,3.692,5.732,5.281,4.711,4.711,2.198,6.282,5.083,1.570,0.000,0.000,1.325,-10.051,0.990,4.718,3.776,5.648,
27.420,40.514,1.000,-10.641,1.574,0.000,6.275,4.142,0.000,1.235,1.259,2.117,4.270,2.537,2.096,2.113,0.000,0.000,0.684,0.000,0.000,0.000,0.000,0.000,0.000,0.000,0.000,0.000,0.000,0.000,3.142,6.283,0.000,1.003,1.569,1.569,4.085,6.281,1.199,4.712,0.000,0.000,0.669,-10.053,0.990,4.718,3.692,5.732,5.281,4.711,4.711,2.198,6.282,5.083,1.570,0.000,0.000,1.325,-10.051,0.990,4.718,3.776,5.648,
27.520,40.729,1.000,-10.641,1.574,0.000,6.275,4.142,0.000,1.235,1.259,2.117,4.270,2.537,2.096,2.113,0.000,0.000,0.684,0.000,0.000,0.000,0.000,0.000,0.000,0.000,0.000,0.000,0.000,0.000,3.142,6.283,0.000,1.003,1.569,1.569,4.085,6.281,1.199,4.712,0.000,0.000,0.669,-10.053,0.990,4.718,3.692,5.732,5.281,4.711,4.711,2.198,6.282,5.083,1.570,0.000,0.000,1.325,-10.051,0.990,4.718,3.777,5.648,
27.620,40.829,1.000,-10.641,1.574,0.000,6.275,4.142,0.000,1.235,1.259,2.117,4.270,2.537,2.096,2.113,0.000,0.000,0.684,0.000,0.000,0.000,0.000,0.000,0.000,0.000,0.000,0.000,0.000,0.000,3.142,6.283,0.000,1.003,1.569,1.569,4.085,6.281,1.199,4.712,0.000,0.000,0.669,-10.053,0.990,4.718,3.692,5.732,5.281,4.711,4.711,2.198,6.282,5.083,1.570,0.000,0.000,1.325,-10.051,0.990,4.718,3.776,5.648,
27.720,40.929,1.000,-10.641,1.574,0.000,6.275,4.142,0.000,1.235,1.259,2.117,4.270,2.537,2.096,2.113,0.000,0.000,0.684,0.000,0.000,0.000,0.000,0.000,0.000,0.000,0.000,0.000,0.000,0.000,3.142,6.283,0.000,1.003,1.569,1.569,4.085,6.281,1.199,4.712,0.000,0.000,0.669,-10.053,0.990,4.718,3.692,5.732,5.281,4.711,4.711,2.198,6.282,5.083,1.570,0.000,0.000,1.325,-10.051,0.990,4.718,3.776,5.648,
27.820,41.029,1.000,-10.641,1.574,0.000,6.275,4.142,0.000,1.235,1.259,2.117,4.270,2.537,2.096,2.113,0.000,0.000,0.684,0.000,0.000,0.000,0.000,0.000,0.000,0.000,0.000,0.000,0.000,0.000,3.142,6.283,0.000,1.003,1.569,1.569,4.085,6.281,1.199,4.712,0.000,0.000,0.669,-10.053,0.990,4.718,3.692,5.732,5.281,4.711,4.711,2.198,6.282,5.083,1.570,0.000,0.000,1.325,-10.051,0.990,4.718,3.776,5.648,
27.920,41.129,1.000,-10.641,1.574,0.000,6.275,4.142,0.000,1.235,1.259,2.117,4.270,2.537,2.096,2.113,0.000,0.000,0.684,0.000,0.000,0.000,0.000,0.000,0.000,0.000,0.000,0.000,0.000,0.000,3.142,6.283,0.000,1.003,1.569,1.569,4.085,6.281,1.199,4.712,0.000,0.000,0.669,-10.053,0.990,4.718,3.692,5.732,5.281,4.711,4.711,2.198,6.282,5.083,1.570,0.000,0.000,1.325,-10.051,0.990,4.718,3.777,5.648,
28.020,41.229,1.000,-10.641,1.574,0.000,6.275,4.142,0.000,1.235,1.259,2.117,4.270,2.537,2.096,2.113,0.000,0.000,0.684,0.000,0.000,0.000,0.000,0.000,0.000,0.000,0.000,0.000,0.000,0.000,3.142,6.283,0.000,1.003,1.569,1.569,4.085,6.281,1.199,4.712,0.000,0.000,0.669,-10.053,0.990,4.718,3.692,5.732,5.281,4.711,4.711,2.198,6.282,5.083,1.570,0.000,0.000,1.325,-10.051,0.990,4.718,3.776,5.648,
28.120,41.329,1.000,-10.641,1.574,0.000,6.275,4.142,0.000,1.235,1.259,2.117,4.270,2.537,2.096,2.113,0.000,0.000,0.684,0.000,0.000,0.000,0.000,0.000,0.000,0.000,0.000,0.000,0.000,0.000,3.142,6.283,0.000,1.003,1.569,1.569,4.085,6.281,1.199,4.712,0.000,0.000,0.669,-10.053,0.990,4.718,3.692,5.732,5.281,4.711,4.711,2.198,6.282,5.083,1.570,0.000,0.000,1.325,-10.051,0.990,4.718,3.777,5.648,
28.203,41.412,1.000,-10.641,1.574,0.000,6.275,4.142,0.000,1.235,1.259,2.117,4.270,2.537,2.096,2.113,0.000,0.000,0.684,0.000,0.000,0.000,0.000,0.000,0.000,0.000,0.000,0.000,0.000,0.000,3.142,6.283,0.000,1.003,1.569,1.569,4.085,6.281,1.199,4.712,0.000,0.000,0.669,-10.053,0.990,4.718,3.692,5.732,5.281,4.711,4.711,2.198,6.282,5.083,1.570,0.000,0.000,1.325,-10.051,0.990,4.718,3.777,5.648,
28.320,41.529,1.000,-10.641,1.574,0.000,6.275,4.142,0.000,1.235,1.259,2.117,4.270,2.537,2.096,2.113,0.000,0.000,0.684,0.000,0.000,0.000,0.000,0.000,0.000,0.000,0.000,0.000,0.000,0.000,3.142,6.283,0.000,1.003,1.569,1.569,4.085,6.281,1.199,4.712,0.000,0.000,0.669,-10.053,0.990,4.718,3.692,5.732,5.281,4.711,4.711,2.198,6.282,5.083,1.570,0.000,0.000,1.325,-10.051,0.990,4.718,3.776,5.648,
28.420,41.629,1.000,-10.641,1.574,0.000,6.275,4.142,0.000,1.235,1.259,2.117,4.270,2.537,2.096,2.113,0.000,0.000,0.684,0.000,0.000,0.000,0.000,0.000,0.000,0.000,0.000,0.000,0.000,0.000,3.142,6.283,0.000,1.003,1.569,1.569,4.085,6.281,1.199,4.712,0.000,0.000,0.669,-10.053,0.990,4.718,3.692,5.732,5.281,4.711,4.711,2.198,6.282,5.083,1.570,0.000,0.000,1.325,-10.051,0.990,4.718,3.776,5.648,
28.520,41.729,1.000,-10.641,1.574,0.000,6.275,4.142,0.000,1.235,1.259,2.117,4.270,2.537,2.096,2.113,0.000,0.000,0.684,0.000,0.000,0.000,0.000,0.000,0.000,0.000,0.000,0.000,0.000,0.000,3.142,6.283,0.000,1.003,1.569,1.569,4.085,6.281,1.199,4.712,0.000,0.000,0.669,-10.053,0.990,4.718,3.692,5.732,5.281,4.711,4.711,2.198,6.282,5.083,1.570,0.000,0.000,1.325,-10.051,0.990,4.718,3.776,5.648,
28.620,41.829,1.000,-10.641,1.574,0.000,6.275,4.142,0.000,1.235,1.259,2.117,4.270,2.537,2.096,2.113,0.000,0.000,0.684,0.000,0.000,0.000,0.000,0.000,0.000,0.000,0.000,0.000,0.000,0.000,3.142,6.283,0.000,1.003,1.569,1.569,4.085,6.281,1.199,4.712,0.000,0.000,0.669,-10.053,0.990,4.718,3.692,5.732,5.281,4.711,4.711,2.198,6.282,5.083,1.570,0.000,0.000,1.325,-10.051,0.990,4.718,3.776,5.648,
28.720,41.929,1.000,-10.641,1.574,0.000,6.275,4.142,0.000,1.235,1.259,2.117,4.270,2.537,2.096,2.113,0.000,0.000,0.684,0.000,0.000,0.000,0.000,0.000,0.000,0.000,0.000,0.000,0.000,0.000,3.142,6.283,0.000,1.003,1.569,1.569,4.085,6.281,1.199,4.712,0.000,0.000,0.669,-10.053,0.990,4.718,3.692,5.732,5.281,4.711,4.711,2.198,6.282,5.083,1.570,0.000,0.000,1.325,-10.051,0.990,4.718,3.776,5.648,
28.812,42.021,1.000,-10.641,1.574,0.000,6.275,4.142,0.000,1.235,1.259,2.117,4.270,2.537,2.096,2.113,0.000,0.000,0.684,0.000,0.000,0.000,0.000,0.000,0.000,0.000,0.000,0.000,0.000,0.000,3.142,6.283,0.000,1.003,1.569,1.569,4.085,6.281,1.199,4.712,0.000,0.000,0.669,-10.053,0.990,4.718,3.692,5.732,5.281,4.711,4.711,2.198,6.282,5.083,1.570,0.000,0.000,1.325,-10.051,0.990,4.718,3.776,5.648,
28.920,42.129,1.000,-10.641,1.574,0.000,6.275,4.142,0.000,1.235,1.259,2.117,4.270,2.537,2.096,2.113,0.000,0.000,0.684,0.000,0.000,0.000,0.000,0.000,0.000,0.000,0.000,0.000,0.000,0.000,3.142,6.283,0.000,1.003,1.569,1.569,4.085,6.281,1.199,4.712,0.000,0.000,0.669,-10.053,0.990,4.718,3.692,5.732,5.281,4.711,4.711,2.198,6.282,5.083,1.570,0.000,0.000,1.325,-10.051,0.990,4.718,3.776,5.648,
29.020,42.229,1.000,-10.641,1.574,0.000,6.275,4.142,0.000,1.235,1.259,2.117,4.270,2.537,2.096,2.113,0.000,0.000,0.684,0.000,0.000,0.000,0.000,0.000,0.000,0.000,0.000,0.000,0.000,0.000,3.142,6.283,0.000,1.003,1.569,1.569,4.085,6.281,1.199,4.712,0.000,0.000,0.669,-10.053,0.990,4.718,3.692,5.732,5.281,4.711,4.711,2.198,6.282,5.083,1.570,0.000,0.000,1.325,-10.051,0.990,4.718,3.776,5.648,
29.106,42.315,1.000,-10.641,1.574,0.000,6.275,4.142,0.000,1.235,1.259,2.117,4.270,2.537,2.096,2.113,0.000,0.000,0.684,0.000,0.000,0.000,0.000,0.000,0.000,0.000,0.000,0.000,0.000,0.000,3.142,6.283,0.000,1.003,1.569,1.569,4.085,6.281,1.199,4.712,0.000,0.000,0.669,-10.053,0.990,4.718,3.692,5.732,5.281,4.711,4.711,2.198,6.282,5.083,1.570,0.000,0.000,1.325,-10.051,0.990,4.718,3.777,5.648,
29.220,42.429,1.000,-10.641,1.574,0.000,6.275,4.142,0.000,1.235,1.259,2.117,4.270,2.537,2.096,2.113,0.000,0.000,0.684,0.000,0.000,0.000,0.000,0.000,0.000,0.000,0.000,0.000,0.000,0.000,3.142,6.283,0.000,1.003,1.569,1.569,4.085,6.281,1.199,4.712,0.000,0.000,0.669,-10.053,0.990,4.718,3.692,5.732,5.281,4.711,4.711,2.198,6.282,5.083,1.570,0.000,0.000,1.325,-10.051,0.990,4.718,3.777,5.648,
29.301,42.510,1.000,-10.641,1.574,0.000,6.275,4.142,0.000,1.235,1.259,2.117,4.270,2.537,2.096,2.113,0.000,0.000,0.684,0.000,0.000,0.000,0.000,0.000,0.000,0.000,0.000,0.000,0.000,0.000,3.142,6.283,0.000,1.003,1.569,1.569,4.085,6.281,1.199,4.712,0.000,0.000,0.669,-10.053,0.990,4.718,3.692,5.732,5.281,4.711,4.711,2.198,6.282,5.083,1.570,0.000,0.000,1.325,-10.051,0.990,4.718,3.777,5.648,
29.420,42.629,1.000,-10.641,1.574,0.000,6.275,4.142,0.000,1.235,1.259,2.117,4.270,2.537,2.096,2.113,0.000,0.000,0.684,0.000,0.000,0.000,0.000,0.000,0.000,0.000,0.000,0.000,0.000,0.000,3.142,6.283,0.000,1.003,1.569,1.569,4.085,6.281,1.199,4.712,0.000,0.000,0.669,-10.053,0.990,4.718,3.692,5.732,5.281,4.711,4.711,2.198,6.282,5.083,1.570,0.000,0.000,1.325,-10.051,0.990,4.718,3.777,5.648,
29.520,42.729,1.000,-10.641,1.574,0.000,6.275,4.142,0.000,1.235,1.259,2.117,4.270,2.537,2.096,2.113,0.000,0.000,0.684,0.000,0.000,0.000,0.000,0.000,0.000,0.000,0.000,0.000,0.000,0.000,3.142,6.283,0.000,1.003,1.569,1.569,4.085,6.281,1.199,4.712,0.000,0.000,0.669,-10.053,0.990,4.718,3.692,5.732,5.281,4.711,4.711,2.198,6.282,5.083,1.570,0.000,0.000,1.325,-10.051,0.990,4.718,3.776,5.648,
29.620,42.829,1.000,-10.641,1.574,0.000,6.275,4.142,0.000,1.235,1.259,2.117,4.270,2.537,2.096,2.113,0.000,0.000,0.684,0.000,0.000,0.000,0.000,0.000,0.000,0.000,0.000,0.000,0.000,0.000,3.142,6.283,0.000,1.003,1.569,1.569,4.085,6.281,1.199,4.712,0.000,0.000,0.669,-10.053,0.990,4.718,3.692,5.732,5.281,4.711,4.711,2.198,6.282,5.083,1.570,0.000,0.000,1.325,-10.051,0.990,4.718,3.776,5.648,
29.720,42.929,1.000,-10.641,1.574,0.000,6.275,4.142,0.000,1.235,1.259,2.117,4.270,2.537,2.096,2.113,0.000,0.000,0.684,0.000,0.000,0.000,0.000,0.000,0.000,0.000,0.000,0.000,0.000,0.000,3.142,6.283,0.000,1.003,1.569,1.569,4.085,6.281,1.199,4.712,0.000,0.000,0.669,-10.053,0.990,4.718,3.692,5.732,5.281,4.711,4.711,2.198,6.282,5.083,1.570,0.000,0.000,1.325,-10.051,0.990,4.718,3.776,5.648,
29.820,43.029,1.000,-10.641,1.574,0.000,6.275,4.142,0.000,1.235,1.259,2.117,4.270,2.537,2.096,2.113,0.000,0.000,0.684,0.000,0.000,0.000,0.000,0.000,0.000,0.000,0.000,0.000,0.000,0.000,3.142,6.283,0.000,1.003,1.569,1.569,4.085,6.281,1.199,4.712,0.000,0.000,0.669,-10.053,0.990,4.718,3.692,5.732,5.281,4.711,4.711,2.198,6.282,5.083,1.570,0.000,0.000,1.325,-10.051,0.990,4.718,3.776,5.648,
29.913,43.122,1.000,-10.641,1.574,0.000,6.275,4.142,0.000,1.235,1.259,2.117,4.270,2.537,2.096,2.113,0.000,0.000,0.684,0.000,0.000,0.000,0.000,0.000,0.000,0.000,0.000,0.000,0.000,0.000,3.142,6.283,0.000,1.003,1.569,1.569,4.085,6.281,1.199,4.712,0.000,0.000,0.669,-10.053,0.990,4.718,3.692,5.732,5.281,4.711,4.711,2.198,6.282,5.083,1.570,0.000,0.000,1.325,-10.051,0.990,4.718,3.776,5.648,
30.020,43.229,1.000,-10.641,1.574,0.000,6.275,4.142,0.000,1.235,1.259,2.117,4.270,2.537,2.096,2.113,0.000,0.000,0.684,0.000,0.000,0.000,0.000,0.000,0.000,0.000,0.000,0.000,0.000,0.000,3.142,6.283,0.000,1.003,1.569,1.569,4.085,6.281,1.199,4.712,0.000,0.000,0.669,-10.053,0.990,4.718,3.692,5.732,5.281,4.711,4.711,2.198,6.282,5.083,1.570,0.000,0.000,1.325,-10.051,0.990,4.718,3.776,5.648,
30.120,43.329,1.000,-10.641,1.574,0.000,6.275,4.142,0.000,1.235,1.259,2.117,4.270,2.537,2.096,2.113,0.000,0.000,0.684,0.000,0.000,0.000,0.000,0.000,0.000,0.000,0.000,0.000,3.427,0.000,3.142,6.283,0.000,1.003,1.569,1.569,4.085,6.281,1.199,4.712,0.000,0.000,0.669,-10.053,0.990,4.718,3.692,5.732,5.281,4.711,4.711,2.198,6.282,5.083,1.570,0.000,0.000,1.325,-10.051,0.990,4.718,3.776,5.648,
30.206,43.415,1.000,-10.641,1.574,0.000,6.275,4.142,0.000,1.235,1.259,2.117,4.270,2.537,2.096,2.113,0.000,0.000,0.684,0.000,0.000,0.000,0.000,0.000,0.000,0.000,0.000,0.000,3.342,0.000,3.142,6.283,0.000,1.003,1.569,1.569,4.085,6.281,1.199,4.712,0.000,0.000,0.669,-10.053,0.990,4.718,3.692,5.732,5.281,4.711,4.711,2.198,6.282,5.083,1.570,0.000,0.000,1.325,-10.051,0.990,4.718,3.776,5.648,
30.320,43.529,1.000,-10.641,1.574,0.000,6.275,4.142,0.000,1.235,1.259,2.117,4.270,2.537,2.096,2.113,0.000,0.000,0.684,0.000,0.000,0.000,0.000,0.000,0.000,0.000,0.000,0.000,3.276,0.000,3.142,6.283,0.000,1.003,1.569,1.569,4.085,6.281,1.199,4.712,0.000,0.000,0.669,-10.053,0.990,4.718,3.692,5.732,5.281,4.711,4.711,2.198,6.282,5.083,1.570,0.000,0.000,1.325,-10.051,0.990,4.718,3.776,5.648,
30.412,43.621,1.000,-10.641,1.574,0.000,6.275,4.142,0.000,1.235,1.259,2.117,4.270,2.537,2.096,2.113,0.000,0.000,0.684,0.000,0.000,0.000,0.000,0.000,0.000,0.000,0.000,0.000,3.235,0.000,3.142,6.283,0.000,1.003,1.569,1.569,4.085,6.281,1.199,4.712,0.000,0.000,0.669,-10.053,0.990,4.718,3.692,5.732,5.281,4.711,4.711,2.198,6.282,5.083,1.570,0.000,0.000,1.325,-10.051,0.990,4.718,3.776,5.648,
30.520,43.729,1.000,-10.641,1.574,0.000,6.275,4.142,0.000,1.235,1.259,2.117,4.270,2.537,2.096,2.113,0.000,0.000,0.684,0.000,0.000,0.000,0.000,0.000,0.000,0.000,0.000,0.000,3.290,0.000,3.142,6.283,0.000,1.003,1.569,1.569,4.085,6.281,1.199,4.712,0.000,0.000,0.669,-10.053,0.990,4.718,3.692,5.732,5.281,4.711,4.711,2.198,6.282,5.083,1.570,0.000,0.000,1.325,-10.051,0.990,4.718,3.777,5.648,
30.620,43.829,1.000,-10.641,1.574,0.000,6.275,4.142,0.000,1.235,1.259,2.117,4.270,2.537,2.096,2.113,0.000,0.000,0.684,0.000,0.000,0.000,0.000,0.000,0.000,0.000,0.000,0.000,0.000,0.000,3.142,6.283,0.000,1.003,1.569,1.569,4.085,6.281,1.199,4.712,0.000,0.000,0.669,-10.053,0.990,4.718,3.692,5.732,5.281,4.711,4.711,2.198,6.282,5.083,1.570,0.000,0.000,1.325,-10.051,0.990,4.718,3.776,5.648,
30.720,43.929,1.000,-10.641,1.574,0.000,6.275,4.142,0.000,1.235,1.259,2.117,4.270,2.537,2.096,2.113,0.000,0.000,0.684,0.000,0.000,0.000,0.000,0.000,0.000,0.000,0.000,0.000,0.000,0.000,3.142,6.283,0.000,1.003,1.569,1.569,4.085,6.281,1.199,4.712,0.000,0.000,0.669,-10.053,0.990,4.718,3.692,5.732,5.281,4.711,4.711,2.198,6.282,5.083,1.570,0.000,0.000,1.325,-10.051,0.990,4.718,3.777,5.648,
30.820,44.029,1.000,-10.641,1.574,0.000,6.275,4.142,0.000,1.235,1.259,2.117,4.270,2.537,2.096,2.113,0.000,0.000,0.684,0.000,0.000,0.000,0.000,0.000,0.000,0.000,0.000,0.000,0.000,0.000,3.142,6.283,0.000,1.003,1.569,1.569,4.085,6.281,1.199,4.712,0.000,0.000,0.669,-10.053,0.990,4.718,3.692,5.732,5.281,4.711,4.711,2.198,6.282,5.083,1.570,0.000,0.000,1.325,-10.051,0.990,4.718,3.776,5.648,
30.920,44.129,1.000,-10.641,1.574,0.000,6.275,4.142,0.000,1.235,1.259,2.117,4.270,2.537,2.096,2.113,0.000,0.000,0.684,0.000,0.000,0.000,0.000,0.000,0.000,0.000,0.000,0.000,0.000,0.000,3.142,6.283,0.000,1.003,1.569,1.569,4.085,6.281,1.199,4.712,0.000,0.000,0.669,-10.053,0.990,4.718,3.692,5.732,5.281,4.711,4.711,2.198,6.282,5.083,1.570,0.000,0.000,1.325,-10.051,0.990,4.718,3.777,5.648,
31.020,44.229,1.000,-10.641,1.574,0.000,6.275,4.142,0.000,1.235,1.259,2.117,4.270,2.537,2.096,2.113,0.000,0.000,0.684,0.000,0.000,0.000,0.000,0.000,0.000,0.000,0.000,0.000,0.000,0.000,3.142,6.283,0.000,1.003,1.569,1.569,4.085,6.281,1.199,4.712,0.000,0.000,0.669,-10.053,0.990,4.718,3.692,5.732,5.281,4.711,4.711,2.198,6.282,5.083,1.570,0.000,0.000,1.325,-10.051,0.990,4.718,3.776,5.648,
31.120,44.329,1.000,-10.641,1.574,0.000,6.275,4.142,0.000,1.235,1.259,2.117,4.270,2.537,2.096,2.113,0.000,0.000,0.684,0.000,0.000,0.000,0.000,0.000,0.000,0.000,0.000,0.000,0.000,0.000,3.142,6.283,0.000,1.003,1.569,1.569,4.085,6.281,1.199,4.712,0.000,0.000,0.669,-10.053,0.990,4.718,3.692,5.732,5.281,4.711,4.711,2.198,6.282,5.083,1.570,0.000,0.000,1.325,-10.051,0.990,4.718,3.777,5.648,
31.220,44.429,1.000,-10.641,1.574,0.000,6.275,4.142,0.000,1.235,1.259,2.117,4.270,2.537,2.096,2.113,0.000,0.000,0.684,0.000,0.000,0.000,0.000,0.000,0.000,0.000,0.000,0.000,0.000,0.000,3.142,6.283,0.000,1.003,1.569,1.569,4.085,6.281,1.199,4.712,0.000,0.000,0.669,-10.053,0.990,4.718,3.692,5.732,5.281,4.711,4.711,2.198,6.282,5.083,1.570,0.000,0.000,1.325,-10.051,0.990,4.718,3.776,5.648,
31.320,44.529,1.000,-10.641,1.574,0.000,6.275,4.142,0.000,1.235,1.259,2.117,4.270,2.537,2.096,2.113,0.000,0.000,0.684,0.000,0.000,0.000,0.000,0.000,0.000,0.000,0.000,0.000,0.000,0.000,3.142,6.283,0.000,1.003,1.569,1.569,4.085,6.281,1.199,4.712,0.000,0.000,0.669,-10.053,0.990,4.718,3.692,5.732,5.281,4.711,4.711,2.198,6.282,5.083,1.570,0.000,0.000,1.325,-10.051,0.990,4.718,3.776,5.648,
31.420,44.629,1.000,-10.641,1.574,0.000,6.275,4.142,0.000,1.235,1.259,2.117,4.270,2.537,2.096,2.113,0.000,0.000,0.684,0.000,0.000,0.000,0.000,0.000,0.000,0.000,0.000,0.000,0.000,0.000,3.142,6.283,0.000,1.003,1.569,1.569,4.085,6.281,1.199,4.712,0.000,0.000,0.669,-10.053,0.990,4.718,3.692,5.732,5.281,4.711,4.711,2.198,6.282,5.083,1.570,0.000,0.000,1.325,-10.051,0.990,4.718,3.776,5.648,
31.520,44.729,1.000,-10.641,1.574,0.000,6.275,4.142,0.000,1.235,1.259,2.117,4.270,2.537,2.096,2.113,0.000,0.000,0.684,0.000,0.000,0.000,0.000,0.000,0.000,0.000,0.000,0.000,0.000,0.000,3.142,6.283,0.000,1.003,1.569,1.569,4.085,6.281,1.199,4.712,0.000,0.000,0.669,-10.053,0.990,4.718,3.692,5.732,5.281,4.711,4.711,2.198,6.282,5.083,1.570,0.000,0.000,1.325,-10.051,0.990,4.718,3.777,5.648,
31.620,44.829,1.000,-10.641,1.574,0.000,6.275,4.142,0.000,1.235,1.259,2.117,4.270,2.537,2.096,2.113,0.000,0.000,0.684,0.000,0.000,0.000,0.000,0.000,0.000,0.000,0.000,0.000,0.000,0.000,3.142,6.283,0.000,1.003,1.569,1.569,4.085,6.281,1.199,4.712,0.000,0.000,0.669,-10.053,0.990,4.718,3.692,5.732,5.281,4.711,4.711,2.198,6.282,5.083,1.570,0.000,0.000,1.325,-10.051,0.990,4.718,3.776,5.648,
31.715,44.924,1.000,-10.641,1.574,0.000,6.275,0.000,0.000,1.235,1.259,2.117,4.270,2.537,2.096,2.113,0.000,0.000,0.684,2.870,0.000,0.000,0.000,0.000,0.000,0.000,0.000,0.000,0.000,0.000,3.142,6.283,0.000,1.003,1.569,1.569,4.085,6.281,1.199,4.712,0.000,0.000,0.669,-10.053,0.990,4.718,3.692,5.732,5.281,4.711,4.711,2.198,6.282,5.083,1.570,0.000,0.000,1.325,-10.051,0.990,4.718,3.776,5.648,
31.820,45.029,1.000,-10.641,1.574,0.000,6.275,0.000,0.000,1.235,1.259,2.117,4.270,2.537,2.096,2.113,0.000,0.000,0.684,2.776,0.000,0.000,0.000,0.000,0.000,0.000,0.000,0.000,0.000,0.000,3.142,6.283,0.000,1.003,1.569,1.569,4.085,6.281,1.199,4.712,0.000,0.000,0.669,-10.053,0.990,4.718,3.692,5.732,5.281,4.711,4.711,2.198,6.282,5.083,1.570,0.000,0.000,1.325,-10.051,0.990,4.718,3.777,5.648,
31.920,45.129,1.000,-10.641,1.574,0.000,6.275,0.000,0.000,1.235,1.259,2.117,4.270,2.537,2.096,2.113,0.000,0.000,0.684,2.759,0.000,0.000,0.000,0.000,0.000,0.000,0.000,0.000,0.000,0.000,3.142,6.283,0.000,1.003,1.569,1.569,4.085,6.281,1.199,4.712,0.000,0.000,0.669,-10.053,0.990,4.718,3.692,5.732,5.281,4.711,4.711,2.198,6.282,5.083,1.570,0.000,0.000,1.325,-10.051,0.990,4.718,3.777,5.648,
32.020,45.229,1.000,-10.641,1.574,0.000,6.275,0.000,0.000,1.235,1.259,2.117,4.270,2.537,2.096,2.113,0.000,0.000,0.684,2.812,0.000,0.000,0.000,0.000,0.000,0.000,0.000,0.000,0.000,0.000,3.142,6.283,0.000,1.003,1.569,1.569,4.085,6.281,1.199,4.712,0.000,0.000,0.669,-10.053,0.990,4.718,3.692,5.732,5.281,4.711,4.711,2.198,6.282,5.083,1.570,0.000,0.000,1.325,-10.051,0.990,4.718,3.776,5.648,
32.120,45.329,1.000,-10.641,1.574,0.000,6.275,4.142,0.000,1.235,1.259,2.117,4.270,2.537,2.096,2.113,0.000,0.000,0.684,0.000,0.000,0.000,0.000,0.000,0.000,0.000,0.000,0.000,0.000,0.000,3.142,6.283,0.000,1.003,1.569,1.569,4.085,6.281,1.199,4.712,0.000,0.000,0.669,-10.053,0.990,4.718,3.692,5.732,5.281,4.711,4.711,2.198,6.282,5.083,1.570,0.000,0.000,1.325,-10.051,0.990,4.718,3.776,5.648,
32.212,45.422,1.000,-10.641,1.574,0.000,6.275,4.142,0.000,1.235,1.259,2.117,4.270,2.537,2.096,2.113,0.000,0.000,0.684,0.000,0.000,0.000,0.000,0.000,0.000,0.000,0.000,0.000,0.000,0.000,3.142,6.283,0.000,1.003,1.569,1.569,4.085,6.281,1.199,4.712,0.000,0.000,0.669,-10.053,0.990,4.718,3.692,5.732,5.281,4.711,4.711,2.198,6.282,5.083,1.570,0.000,0.000,1.325,-10.051,0.990,4.718,3.776,5.648,
32.320,45.529,1.000,-10.641,1.574,0.000,6.275,4.142,0.000,1.235,1.259,2.117,4.270,2.537,2.096,2.113,0.000,0.000,0.684,0.000,0.000,0.000,0.000,0.000,0.000,0.000,0.000,0.000,0.000,0.000,3.142,6.283,0.000,1.003,1.569,1.569,4.085,6.281,1.199,4.712,0.000,0.000,0.669,-10.053,0.990,4.718,3.692,5.732,5.281,4.711,4.711,2.198,6.282,5.083,1.570,0.000,0.000,1.325,-10.051,0.990,4.718,3.776,5.648,
32.403,45.612,1.000,-10.641,1.574,0.000,6.275,4.142,0.000,1.235,1.259,2.117,4.270,2.537,2.096,2.113,0.000,0.000,0.684,0.000,0.000,0.000,0.000,0.000,0.000,0.000,0.000,0.000,0.000,0.000,3.142,6.283,0.000,1.003,1.569,1.569,4.085,6.281,1.199,4.712,0.000,0.000,0.669,-10.053,0.990,4.718,3.692,5.732,5.281,4.711,4.711,2.198,6.282,5.083,1.570,0.000,0.000,1.325,-10.051,0.990,4.718,3.776,5.648,
32.505,45.715,1.000,-10.641,1.574,0.000,6.275,4.142,0.000,1.235,1.259,2.117,4.270,2.537,2.096,2.113,0.000,0.000,0.684,0.000,0.000,0.000,0.000,0.000,0.000,0.000,0.000,0.000,0.000,0.000,3.142,6.283,0.000,1.003,1.569,1.569,4.085,6.281,1.199,4.712,0.000,0.000,0.669,-10.053,0.990,4.718,3.692,5.732,5.281,4.711,4.711,2.198,6.282,5.083,1.570,0.000,0.000,1.325,-10.051,0.990,4.718,3.776,5.648,
32.620,45.829,1.000,-10.641,1.574,0.000,6.275,4.142,0.000,1.235,1.259,2.117,4.270,2.537,2.096,2.113,0.000,0.000,0.684,0.000,0.000,0.000,0.000,0.000,0.000,0.000,0.000,0.000,0.000,0.000,3.142,6.283,0.000,1.003,1.569,1.569,4.085,6.281,1.199,4.712,0.000,0.000,0.669,-10.053,0.990,4.718,3.692,5.732,5.281,4.711,4.711,2.198,6.282,5.083,1.570,0.000,0.000,1.325,-10.051,0.990,4.718,3.776,5.648,
32.720,45.929,1.000,-10.641,1.574,0.000,6.275,4.142,0.000,1.235,1.259,2.117,4.270,2.537,2.096,2.113,0.000,0.000,0.684,0.000,0.000,0.000,0.000,0.000,0.000,0.000,0.000,0.000,0.000,0.000,3.142,6.283,0.000,1.003,1.569,1.569,4.085,6.281,1.199,4.712,0.000,0.000,0.669,-10.053,0.990,4.718,3.692,5.732,5.281,4.711,4.711,2.198,6.282,5.083,1.570,0.000,0.000,1.325,-10.051,0.990,4.718,3.777,5.648,
32.820,46.029,1.000,-10.641,1.574,0.000,6.275,4.142,0.000,1.235,1.259,2.117,4.270,2.537,2.096,2.113,0.000,0.000,0.684,0.000,0.000,0.000,0.000,0.000,0.000,0.000,0.000,0.000,0.000,0.000,3.142,6.283,0.000,1.003,1.569,1.569,4.085,6.281,1.199,4.712,0.000,0.000,0.669,-10.053,0.990,4.718,3.692,5.732,5.281,4.711,4.711,2.198,6.282,5.083,1.570,0.000,0.000,1.325,-10.051,0.990,4.718,3.776,5.648,
32.900,46.109,1.000,-10.641,1.574,0.000,6.275,4.142,0.000,1.235,1.259,2.117,4.270,2.537,2.096,2.113,0.000,0.000,0.684,0.000,0.000,0.000,0.000,0.000,0.000,0.000,0.000,0.000,0.000,0.000,3.142,6.283,0.000,1.003,1.569,1.569,4.085,6.281,1.199,4.712,0.000,0.000,0.669,-10.053,0.990,4.718,3.692,5.732,5.281,4.711,4.711,2.198,6.282,5.083,1.570,0.000,0.000,1.325,-10.051,0.990,4.718,3.777,5.648,
33.020,46.229,1.000,-10.641,1.574,0.000,6.275,4.142,0.000,1.235,1.259,2.117,4.270,2.537,2.096,2.113,0.000,0.000,0.684,0.000,0.000,0.000,0.000,0.000,0.000,0.000,0.000,0.000,0.000,0.000,3.142,6.283,0.000,1.003,1.569,1.569,4.085,6.281,1.199,4.712,0.000,0.000,0.669,-10.053,0.990,4.718,3.692,5.732,5.281,4.711,4.711,2.198,6.282,5.083,1.570,0.000,0.000,1.325,-10.051,0.990,4.718,3.776,5.648,
33.120,46.329,1.000,-10.641,1.574,0.000,6.275,4.142,0.000,1.235,1.259,2.117,4.270,2.537,2.096,2.113,0.000,0.000,0.684,0.000,0.000,0.000,0.000,0.000,0.000,0.000,0.000,0.000,0.000,0.000,3.142,6.283,0.000,1.003,1.569,1.569,4.085,6.281,1.199,4.712,0.000,0.000,0.669,-10.053,0.990,4.718,3.692,5.732,5.281,4.711,4.711,2.198,6.282,5.083,1.570,0.000,0.000,1.325,-10.051,0.990,4.718,3.776,5.648,
33.220,46.429,1.000,-10.641,1.574,0.000,6.275,4.142,0.000,1.235,1.259,2.117,4.270,2.537,2.096,2.113,0.000,0.000,0.684,0.000,0.000,0.000,0.000,0.000,0.000,0.000,0.000,0.000,0.000,0.000,3.142,6.283,0.000,1.003,1.569,1.569,4.085,6.281,1.199,4.712,0.000,0.000,0.669,-10.053,0.990,4.718,3.692,5.732,5.281,4.711,4.711,2.198,6.282,5.083,1.570,0.000,0.000,1.325,-10.051,0.990,4.718,3.776,5.648,
33.320,46.529,1.000,-10.641,1.574,0.000,6.275,4.142,0.000,1.235,1.259,2.117,4.270,2.537,2.096,2.113,0.000,0.000,0.684,0.000,0.000,0.000,0.000,0.000,0.000,0.000,0.000,0.000,0.000,0.000,3.142,6.283,0.000,1.003,1.569,1.569,4.085,6.281,1.199,4.712,0.000,0.000,0.669,-10.053,0.990,4.718,3.692,5.732,5.281,4.711,4.711,2.198,6.282,5.083,1.570,0.000,0.000,1.325,-10.051,0.990,4.718,3.776,5.648,
33.420,46.629,1.000,-10.641,1.574,0.000,6.275,4.142,0.000,1.235,1.259,2.117,4.270,2.537,2.096,2.113,0.000,0.000,0.684,0.000,0.000,0.000,0.000,0.000,0.000,0.000,0.000,0.000,0.000,0.000,3.142,6.283,0.000,1.003,1.569,1.569,4.085,6.281,1.199,4.712,0.000,0.000,0.669,-10.053,0.990,4.718,3.692,5.732,5.281,4.711,4.711,2.198,6.282,5.083,1.570,0.000,0.000,1.325,-10.051,0.990,4.718,3.776,5.648,
33.520,46.729,1.000,-10.641,1.574,0.000,6.275,4.142,0.000,1.235,1.259,2.117,4.270,2.537,2.096,2.113,0.000,0.000,0.684,0.000,3.590,0.000,0.000,0.000,0.000,0.000,0.000,0.000,0.000,0.000,3.142,6.283,0.000,1.003,1.569,1.569,4.085,6.281,1.199,4.712,0.000,0.000,0.669,-10.053,0.990,4.718,3.692,5.732,5.281,4.711,4.711,2.198,6.282,5.083,1.570,0.000,0.000,1.325,-10.051,0.990,4.718,3.777,5.648,
33.610,46.819,1.000,-10.641,1.574,0.000,6.275,4.142,0.000,1.235,1.259,2.117,4.270,2.537,2.096,2.113,0.000,0.000,0.684,0.000,3.621,0.000,0.000,0.000,0.000,0.000,0.000,0.000,0.000,0.000,3.142,6.283,0.000,1.003,1.569,1.569,4.085,6.281,1.199,4.712,0.000,0.000,0.669,-10.053,0.990,4.718,3.692,5.732,5.281,4.711,4.711,2.198,6.282,5.083,1.570,0.000,0.000,1.325,-10.051,0.990,4.718,3.776,5.648,
33.720,46.929,1.000,-10.641,1.574,0.000,6.275,4.142,0.000,1.235,1.259,2.117,4.270,2.537,2.096,2.113,0.000,0.000,0.684,0.000,3.689,0.000,0.000,0.000,0.000,0.000,0.000,0.000,0.000,0.000,3.142,6.283,0.000,1.003,1.569,1.569,4.085,6.281,1.199,4.712,0.000,0.000,0.669,-10.053,0.990,4.718,3.692,5.732,5.281,4.711,4.711,2.198,6.282,5.083,1.570,0.000,0.000,1.325,-10.051,0.990,4.718,3.776,5.648,
33.802,47.011,1.000,-10.641,1.574,0.000,6.275,4.142,0.000,1.235,1.259,2.117,4.270,2.537,2.096,2.113,0.000,0.000,0.684,0.000,3.841,0.000,0.000,0.000,0.000,0.000,0.000,0.000,0.000,0.000,3.142,6.283,0.000,1.003,1.569,1.569,4.085,6.281,1.199,4.712,0.000,0.000,0.669,-10.053,0.990,4.718,3.692,5.732,5.281,4.711,4.711,2.198,6.282,5.083,1.570,0.000,0.000,1.325,-10.051,0.990,4.718,3.776,5.648,
33.920,47.129,1.000,-10.641,1.574,0.000,6.275,4.142,0.000,1.235,1.259,2.117,4.270,2.537,2.096,2.113,0.000,0.000,0.684,0.000,3.959,0.000,0.000,0.000,0.000,0.000,0.000,0.000,0.000,0.000,3.142,6.283,0.000,1.003,1.569,1.569,4.085,6.281,1.199,4.712,0.000,0.000,0.669,-10.053,0.990,4.718,3.692,5.732,5.281,4.711,4.711,2.198,6.282,5.083,1.570,0.000,0.000,1.325,-10.051,0.990,4.718,3.776,5.648,
34.010,47.219,1.000,-10.641,1.574,0.000,6.275,4.142,0.000,1.235,1.259,2.117,4.270,2.537,2.096,2.113,0.000,0.000,0.684,0.000,3.959,0.000,0.000,0.000,0.000,0.000,0.000,0.000,0.000,0.000,3.142,6.283,0.000,1.003,1.569,1.569,4.085,6.281,1.199,4.712,0.000,0.000,0.669,-10.053,0.990,4.718,3.692,5.732,5.281,4.711,4.711,2.198,6.282,5.083,1.570,0.000,0.000,1.325,-10.051,0.990,4.718,3.776,5.648,
34.120,47.329,1.000,-10.641,1.574,0.000,6.275,4.142,0.000,1.235,1.259,2.117,4.270,2.537,2.096,2.113,0.000,0.000,0.684,0.000,3.959,0.000,0.000,0.000,0.000,0.000,0.000,0.000,0.000,0.000,3.142,6.283,0.000,1.003,1.569,1.569,4.085,6.281,1.199,4.712,0.000,0.000,0.669,-10.053,0.990,4.718,3.692,5.732,5.281,4.711,4.711,2.198,6.282,5.083,1.570,0.000,0.000,1.325,-10.051,0.990,4.718,3.776,5.648,
34.216,47.425,1.000,-10.641,1.574,0.000,6.275,4.142,0.000,1.235,1.259,2.117,4.270,2.537,2.096,2.113,0.000,0.000,0.684,0.000,3.951,0.000,0.000,0.000,0.000,0.000,0.000,0.000,0.000,0.000,3.142,6.283,0.000,1.003,1.569,1.569,4.085,6.281,1.199,4.712,0.000,0.000,0.669,-10.053,0.990,4.718,3.692,5.732,5.281,4.711,4.711,2.198,6.282,5.083,1.570,0.000,0.000,1.325,-10.051,0.990,4.718,3.777,5.648,
34.320,47.529,1.000,-10.641,1.574,0.000,6.275,4.142,0.000,1.235,1.259,2.117,4.270,2.537,2.096,2.113,0.000,0.000,0.684,0.000,3.946,0.000,0.000,0.000,0.000,0.000,0.000,0.000,0.000,0.000,3.142,6.283,0.000,1.003,1.569,1.569,4.085,6.281,1.199,4.712,0.000,0.000,0.669,-10.053,0.990,4.718,3.692,5.732,5.281,4.711,4.711,2.198,6.282,5.083,1.570,0.000,0.000,1.325,-10.051,0.990,4.718,3.776,5.648,
34.420,47.629,1.000,-10.641,1.574,0.000,6.275,4.142,0.000,1.235,1.259,2.117,4.270,2.537,2.096,2.113,0.000,0.000,0.684,0.000,3.945,0.000,0.000,0.000,0.000,0.000,0.000,0.000,0.000,0.000,3.142,6.283,0.000,1.003,1.569,1.569,4.085,6.281,1.199,4.712,0.000,0.000,0.669,-10.053,0.990,4.718,3.692,5.732,5.281,4.711,4.711,2.198,6.282,5.083,1.570,0.000,0.000,1.325,-10.051,0.990,4.718,3.776,5.648,
34.518,47.727,1.000,-10.641,1.574,0.000,6.275,4.142,0.000,1.235,1.259,2.117,4.270,2.537,2.096,2.113,0.000,0.000,0.684,0.000,3.954,0.000,0.000,0.000,0.000,0.000,0.000,0.000,0.000,0.000,3.142,6.283,0.000,1.003,1.569,1.569,4.085,6.281,1.199,4.712,0.000,0.000,0.669,-10.053,0.990,4.718,3.692,5.732,5.281,4.711,4.711,2.198,6.282,5.083,1.570,0.000,0.000,1.325,-10.051,0.990,4.718,3.777,5.648,
34.620,47.829,1.000,-10.641,1.574,0.000,6.275,4.142,0.000,1.235,1.259,2.117,4.270,2.537,2.096,2.113,0.000,0.000,0.684,0.000,3.968,0.000,0.000,0.000,0.000,0.000,0.000,0.000,0.000,0.000,3.142,6.283,0.000,1.003,1.569,1.569,4.085,6.281,1.199,4.712,0.000,0.000,0.669,-10.053,0.990,4.718,3.692,5.732,5.281,4.711,4.711,2.198,6.282,5.083,1.570,0.000,0.000,1.325,-10.051,0.990,4.718,3.776,5.648,
34.709,47.918,1.000,-10.641,1.574,0.000,6.275,4.142,0.000,1.235,1.259,2.117,4.270,2.537,2.096,2.113,0.000,0.000,0.684,0.000,4.029,0.000,0.000,0.000,0.000,0.000,0.000,0.000,0.000,0.000,3.142,6.283,0.000,1.003,1.569,1.569,4.085,6.281,1.199,4.712,0.000,0.000,0.669,-10.053,0.990,4.718,3.692,5.732,5.281,4.711,4.711,2.198,6.282,5.083,1.570,0.000,0.000,1.325,-10.051,0.990,4.718,3.777,5.648,
34.820,48.029,1.000,-10.641,1.574,0.000,6.275,4.142,0.000,1.235,1.259,2.117,4.270,2.537,2.096,2.113,0.000,0.000,0.684,0.000,4.067,0.000,0.000,0.000,0.000,0.000,0.000,0.000,0.000,0.000,3.142,6.283,0.000,1.003,1.569,1.569,4.085,6.281,1.199,4.712,0.000,0.000,0.669,-10.053,0.990,4.718,3.692,5.732,5.281,4.711,4.711,2.198,6.282,5.083,1.570,0.000,0.000,1.325,-10.051,0.990,4.718,3.777,5.648,
34.920,48.129,1.000,-10.641,1.574,0.000,6.275,4.142,0.000,1.235,1.259,2.117,4.270,2.537,2.096,2.113,0.000,0.000,0.684,0.000,4.208,0.000,0.000,0.000,0.000,0.000,0.000,0.000,0.000,0.000,3.142,6.283,0.000,1.003,1.569,1.569,4.085,6.281,1.199,4.712,0.000,0.000,0.669,-10.053,0.990,4.718,3.692,5.732,5.281,4.711,4.711,2.198,6.282,5.083,1.570,0.000,0.000,1.325,-10.051,0.990,4.718,3.776,5.648,
35.020,48.229,1.000,-10.641,1.574,0.000,6.275,4.142,0.000,1.235,1.259,2.117,4.270,2.537,2.096,2.113,0.000,0.000,0.684,0.000,4.346,0.000,0.000,0.000,0.000,0.000,0.000,0.000,0.000,0.000,3.142,6.283,0.000,1.003,1.569,1.569,4.085,6.281,1.199,4.712,0.000,0.000,0.669,-10.053,0.990,4.718,3.692,5.732,5.281,4.711,4.711,2.198,6.282,5.083,1.570,0.000,0.000,1.325,-10.051,0.990,4.718,3.776,5.648,
35.120,48.329,1.000,-10.641,1.574,0.000,6.275,4.142,0.000,1.235,1.259,2.117,4.270,2.537,2.096,2.113,0.000,0.000,0.684,0.000,0.000,0.000,0.000,0.000,0.000,0.000,0.000,0.000,0.000,0.000,3.142,6.283,0.000,1.003,1.569,1.569,4.085,6.281,1.199,4.712,0.000,0.000,0.669,-10.053,0.990,4.718,3.692,5.732,5.281,4.711,4.711,2.198,6.282,5.083,1.570,0.000,0.000,1.325,-10.051,0.990,4.718,3.777,5.648,
35.220,48.429,1.000,-10.641,1.574,0.000,6.275,4.142,0.000,1.235,1.259,2.117,4.270,2.537,2.096,2.113,0.000,0.000,0.684,0.000,0.000,0.000,0.000,0.000,0.000,0.000,0.000,0.000,0.000,0.000,3.142,6.283,0.000,1.003,1.569,1.569,4.085,6.281,1.199,4.712,0.000,0.000,0.669,-10.053,0.990,4.718,3.692,5.732,5.281,4.711,4.711,2.198,6.282,5.083,1.570,0.000,0.000,1.325,-10.051,0.990,4.718,3.776,5.648,
35.320,48.529,1.000,-10.641,1.574,0.000,6.275,4.142,0.000,1.235,1.259,2.117,4.270,2.537,2.096,2.113,0.000,0.000,0.684,0.000,0.000,0.000,0.000,0.000,0.000,0.000,0.000,0.000,0.000,0.000,3.142,6.283,0.000,1.003,1.569,1.569,4.085,6.281,1.199,4.712,0.000,0.000,0.669,-10.053,0.990,4.718,3.692,5.732,5.281,4.711,4.711,2.198,6.282,5.083,1.570,0.000,0.000,1.325,-10.051,0.990,4.718,3.777,5.648,
35.420,48.629,1.000,-10.641,1.574,0.000,6.275,4.142,0.000,1.235,1.259,2.117,4.270,2.537,2.096,2.113,0.000,0.000,0.684,0.000,0.000,0.000,0.000,0.000,0.000,0.000,0.000,0.000,0.000,0.000,3.142,6.283,0.000,1.003,1.569,1.569,4.085,6.281,1.199,4.712,0.000,0.000,0.669,-10.053,0.990,4.718,3.692,5.732,5.281,4.711,4.711,2.198,6.282,5.083,1.570,0.000,0.000,1.325,-10.051,0.990,4.718,3.776,5.648,
35.503,48.712,1.000,-10.641,1.574,0.000,6.275,4.142,0.000,1.235,1.259,2.117,4.270,2.537,2.096,2.113,0.000,0.000,0.684,0.000,0.000,0.000,0.000,0.000,0.000,0.000,0.000,0.000,0.000,0.000,3.142,6.283,0.000,1.003,1.569,1.569,4.085,6.281,1.199,4.712,0.000,0.000,0.669,-10.053,0.990,4.718,3.692,5.732,5.281,4.711,4.711,2.198,6.282,5.083,1.570,0.000,0.000,1.325,-10.051,0.990,4.718,3.777,5.648,
35.620,48.829,1.000,-10.641,1.574,0.000,6.275,4.142,0.000,1.235,1.259,2.117,4.270,2.537,2.096,2.113,0.000,0.000,0.684,0.000,0.000,0.000,0.000,0.000,0.000,0.000,0.000,0.000,0.000,0.000,3.142,6.283,0.000,1.003,1.569,1.569,4.085,6.281,1.199,4.712,0.000,0.000,0.669,-10.053,0.990,4.718,3.692,5.732,5.281,4.711,4.711,2.198,6.282,5.083,1.570,0.000,0.000,1.325,-10.051,0.990,4.718,3.776,5.648,
35.715,48.924,1.000,-10.641,1.574,0.000,6.275,4.142,0.000,1.235,1.259,2.117,4.270,2.537,2.096,2.113,0.000,0.000,0.684,0.000,0.000,0.000,0.000,0.000,0.000,0.000,0.000,0.000,0.000,0.000,3.142,6.283,0.000,1.003,1.569,1.569,4.085,6.281,1.199,4.712,0.000,0.000,0.669,-10.053,0.990,4.718,3.692,5.732,5.281,4.711,4.711,2.198,6.282,5.083,1.570,0.000,0.000,1.325,-10.051,0.990,4.718,3.776,5.648,
35.820,49.029,1.000,-10.641,1.574,0.000,6.275,4.142,0.000,1.235,1.259,2.117,4.270,2.537,2.096,2.113,0.000,0.000,0.684,0.000,0.000,0.000,0.000,0.000,0.000,0.000,0.000,0.000,0.000,0.000,3.142,6.283,0.000,1.003,1.569,1.569,4.085,6.281,1.199,4.712,0.000,0.000,0.669,-10.053,0.990,4.718,3.692,5.732,5.281,4.711,4.711,2.198,6.282,5.083,1.570,0.000,0.000,1.325,-10.051,0.990,4.718,3.777,5.648,
35.912,49.121,1.000,-10.641,1.574,0.000,6.275,4.142,0.000,1.235,1.259,2.117,4.270,2.537,2.096,2.113,0.000,0.000,0.684,0.000,0.000,0.000,0.000,0.000,0.000,0.000,0.000,0.000,0.000,0.000,3.142,6.283,0.000,1.003,1.569,1.569,4.085,6.281,1.199,4.712,0.000,0.000,0.669,-10.053,0.990,4.718,3.692,5.732,5.281,4.711,4.711,2.198,6.282,5.083,1.570,0.000,0.000,1.325,-10.051,0.990,4.718,3.776,5.648,
36.020,49.229,1.000,-10.641,1.574,0.000,6.275,4.142,0.000,1.235,1.259,2.117,4.270,2.537,2.096,2.113,0.000,0.000,0.684,0.000,0.000,0.000,0.000,0.000,0.000,0.000,0.000,0.000,0.000,0.000,3.142,6.283,0.000,1.003,1.569,1.569,4.085,6.281,1.199,4.712,0.000,0.000,0.669,-10.053,0.990,4.718,3.692,5.732,5.281,4.711,4.711,2.198,6.282,5.083,1.570,0.000,0.000,1.325,-10.051,0.990,4.718,3.776,5.648,
36.120,49.329,1.000,-10.641,1.574,0.000,6.275,4.142,0.000,1.235,1.259,2.117,4.270,2.537,2.096,2.113,0.000,0.000,0.684,0.000,0.000,0.000,0.000,0.000,0.000,0.000,0.000,0.000,0.000,0.000,3.142,6.283,0.000,1.003,1.569,1.569,4.085,6.281,1.199,4.712,0.000,0.000,0.669,-10.053,0.990,4.718,3.692,5.732,5.281,4.711,4.711,2.198,6.282,5.083,1.570,0.000,0.000,1.325,-10.051,0.990,4.718,3.776,5.648,
36.210,49.419,1.000,-10.641,1.574,0.000,6.275,4.142,0.000,1.235,1.259,2.117,4.270,2.537,2.096,2.113,0.000,0.000,0.684,0.000,0.000,0.000,0.000,0.000,0.000,0.000,0.000,0.000,0.000,0.000,3.142,6.283,0.000,1.003,1.569,1.569,4.085,6.281,1.199,4.712,0.000,0.000,0.669,-10.053,0.990,4.718,3.692,5.732,5.281,4.711,4.711,2.198,6.282,5.083,1.570,0.000,0.000,1.325,-10.051,0.990,4.718,3.776,5.648,
36.320,49.529,1.000,-10.641,1.574,0.000,6.275,4.142,0.000,1.235,1.259,2.117,4.270,2.537,2.096,2.113,0.000,0.000,0.684,0.000,0.000,0.000,0.000,0.000,0.000,0.000,0.000,0.000,0.000,0.000,3.142,6.283,0.000,1.003,1.569,1.569,4.085,6.281,1.199,4.712,0.000,0.000,0.669,-10.053,0.990,4.718,3.692,5.732,5.281,4.711,4.711,2.198,6.282,5.083,1.570,0.000,0.000,1.325,-10.051,0.990,4.718,3.776,5.648,
36.419,49.628,1.000,-10.641,1.574,0.000,6.275,4.142,0.000,1.235,1.259,2.117,4.270,2.537,2.096,2.113,0.000,0.000,0.684,0.000,0.000,0.000,0.000,0.000,0.000,0.000,0.000,0.000,0.000,0.000,3.142,6.283,0.000,1.003,1.569,1.569,4.085,6.281,1.199,4.712,0.000,0.000,0.669,-10.053,0.990,4.718,3.692,5.732,5.281,4.711,4.711,2.198,6.282,5.083,1.570,0.000,0.000,1.325,-10.051,0.990,4.718,3.776,5.648,
36.520,49.729,1.000,-10.641,1.574,0.000,6.275,4.142,0.000,1.235,1.259,2.117,4.270,2.537,2.096,2.113,0.000,0.000,0.684,0.000,0.000,0.000,0.000,0.000,0.000,0.000,0.000,0.000,0.000,0.000,3.142,6.283,0.000,1.003,1.569,1.569,4.085,6.281,1.199,4.712,0.000,0.000,0.669,-10.053,0.990,4.718,3.692,5.732,5.281,4.711,4.711,2.198,6.282,5.083,1.570,0.000,0.000,1.325,-10.051,0.990,4.718,3.776,5.648,
36.616,49.825,1.000,-10.641,1.574,0.000,6.275,4.142,0.000,1.235,1.259,2.117,4.270,2.537,2.096,2.113,0.000,0.000,0.684,0.000,0.000,0.000,0.000,0.000,0.000,0.000,0.000,0.000,0.000,0.000,3.142,6.283,0.000,1.003,1.569,1.569,4.085,6.281,1.199,4.712,0.000,0.000,0.669,-10.053,0.990,4.718,3.692,5.732,5.281,4.711,4.711,2.198,6.282,5.083,1.570,0.000,0.000,1.325,-10.051,0.990,4.718,3.776,5.648,
36.720,49.929,1.000,-10.641,1.574,0.000,6.275,4.142,0.000,1.235,1.259,2.117,4.270,2.537,2.096,2.113,0.000,0.000,0.684,0.000,0.000,0.000,0.000,0.000,0.000,0.000,0.000,0.000,0.000,0.000,3.142,6.283,0.000,1.003,1.569,1.569,4.085,6.281,1.199,4.712,0.000,0.000,0.669,-10.053,0.990,4.718,3.692,5.732,5.281,4.711,4.711,2.198,6.282,5.083,1.570,0.000,0.000,1.325,-10.051,0.990,4.718,3.776,5.648,
36.820,50.029,1.000,-10.641,1.574,0.000,6.275,4.142,0.000,1.235,1.259,2.117,4.270,2.537,2.096,2.113,0.000,0.000,0.684,0.000,0.000,0.000,0.000,0.000,0.000,0.000,0.000,0.000,0.000,0.000,3.142,6.283,0.000,1.003,1.569,1.569,4.085,6.281,1.199,4.712,0.000,0.000,0.669,-10.053,0.990,4.718,3.692,5.732,5.281,4.711,4.711,2.198,6.282,5.083,1.570,0.000,0.000,1.325,-10.051,0.990,4.718,3.776,5.648,
36.906,50.115,1.000,-10.641,1.574,0.000,6.275,4.142,0.000,1.235,1.259,2.117,4.270,2.537,2.096,2.113,0.000,0.000,0.684,0.000,0.000,0.000,0.000,0.000,0.000,0.000,0.000,0.000,0.000,0.000,3.142,6.283,0.000,1.003,1.569,1.569,4.085,6.281,1.199,4.712,0.000,0.000,0.669,-10.053,0.990,4.718,3.692,5.732,5.281,4.711,4.711,2.198,6.282,5.083,1.570,0.000,0.000,1.325,-10.051,0.990,4.718,3.777,5.648,
37.020,50.229,1.000,-10.641,1.574,0.000,6.275,4.142,0.000,1.235,1.259,2.117,4.270,2.537,2.096,2.113,0.000,0.000,0.684,0.000,0.000,0.000,0.000,0.000,0.000,0.000,0.000,0.000,0.000,0.000,3.142,6.283,0.000,1.003,1.569,1.569,4.085,6.281,1.199,4.712,0.000,0.000,0.669,-10.053,0.990,4.718,3.692,5.732,5.281,4.711,4.711,2.198,6.282,5.083,1.570,0.000,0.000,1.325,-10.051,0.990,4.718,3.776,5.648,
37.120,50.329,1.000,-10.641,1.574,0.000,6.275,4.142,0.000,1.235,1.259,2.117,4.270,2.537,2.096,2.113,0.000,0.000,0.684,0.000,0.000,0.000,0.000,0.000,0.000,0.000,0.000,0.000,0.000,0.000,3.142,6.283,0.000,1.003,1.569,1.569,4.085,6.281,1.199,4.712,0.000,0.000,0.669,-10.053,0.990,4.718,3.692,5.732,5.281,4.711,4.711,2.198,6.282,5.083,1.570,0.000,0.000,1.325,-10.051,0.990,4.718,3.776,5.648,
37.220,50.429,1.000,-10.641,1.574,0.000,6.275,4.142,0.000,1.235,1.259,2.117,4.270,2.537,2.096,2.113,0.000,0.000,0.684,0.000,0.000,0.000,0.000,0.000,0.000,0.000,0.000,0.000,0.000,0.000,3.142,6.283,0.000,1.003,1.569,1.569,4.085,6.281,1.199,4.712,0.000,0.000,0.669,-10.053,0.990,4.718,3.692,5.732,5.281,4.711,4.711,2.198,6.282,5.083,1.570,0.000,0.000,1.325,-10.051,0.990,4.718,3.776,5.648,
37.320,50.529,1.000,-10.641,1.574,0.000,6.275,4.142,0.000,1.235,1.259,2.117,4.270,2.537,2.096,2.113,0.000,0.000,0.684,0.000,0.000,0.000,0.000,0.000,0.000,0.000,0.000,0.000,0.000,0.000,3.142,6.283,0.000,1.003,1.569,1.569,4.085,6.281,1.199,4.712,0.000,0.000,0.669,-10.053,0.990,4.718,3.692,5.732,5.281,4.711,4.711,2.198,6.282,5.083,1.570,0.000,0.000,1.325,-10.051,0.990,4.718,3.777,5.648,
37.412,50.621,1.000,-10.641,1.574,0.000,6.275,4.142,0.000,1.235,1.259,2.117,4.270,2.537,2.096,2.113,0.000,0.000,0.684,0.000,0.000,0.000,0.000,0.000,0.000,0.000,0.000,0.000,0.000,0.000,3.142,6.283,0.000,1.003,1.569,1.569,4.085,6.281,1.199,4.712,0.000,0.000,0.669,-10.053,0.990,4.718,3.692,5.732,5.281,4.711,4.711,2.198,6.282,5.083,1.570,0.000,0.000,1.325,-10.051,0.990,4.718,3.776,5.648,
37.520,50.729,1.000,-10.641,1.574,0.000,6.275,4.142,0.000,1.235,1.259,2.117,4.270,2.537,2.096,2.113,0.000,0.000,0.684,0.000,0.000,0.000,0.000,0.000,0.000,0.000,0.000,0.000,0.000,0.000,3.142,6.283,0.000,1.003,1.569,1.569,4.085,6.281,1.199,4.712,0.000,0.000,0.669,-10.053,0.990,4.718,3.692,5.732,5.281,4.711,4.711,2.198,6.282,5.083,1.570,0.000,0.000,1.325,-10.051,0.990,4.718,3.776,5.648,
37.620,50.829,1.000,-10.641,1.574,0.000,6.275,4.142,0.000,1.235,1.259,2.117,4.270,2.537,2.096,2.113,0.000,0.000,0.684,0.000,0.000,0.000,0.000,0.000,0.000,0.000,0.000,0.000,0.000,0.000,3.142,6.283,0.000,1.003,1.569,1.569,4.085,6.281,1.199,4.712,0.000,0.000,0.669,-10.053,0.990,4.718,3.692,5.732,5.281,4.711,4.711,2.198,6.282,5.083,1.570,0.000,0.000,1.325,-10.051,0.990,4.718,3.776,5.648,
37.720,50.929,1.000,-10.641,1.574,0.000,6.275,4.142,0.000,1.235,1.259,2.117,4.270,2.537,2.096,2.113,0.000,0.000,0.684,0.000,0.000,0.000,0.000,0.000,0.000,0.000,0.000,0.000,0.000,0.000,3.142,6.283,0.000,1.003,1.569,1.569,4.085,6.281,1.199,4.712,0.000,0.000,0.669,-10.053,0.990,4.718,3.692,5.732,5.281,4.711,4.711,2.198,6.282,5.083,1.570,0.000,0.000,1.325,-10.051,0.990,4.718,3.777,5.648,
37.820,51.029,1.000,-10.641,1.574,0.000,6.275,4.142,0.000,1.235,1.259,2.117,4.270,2.537,2.096,2.113,0.000,0.000,0.684,0.000,0.000,0.000,0.000,0.000,0.000,0.000,0.000,0.000,0.000,0.000,3.142,6.283,0.000,1.003,1.569,1.569,4.085,6.281,1.199,4.712,0.000,0.000,0.669,-10.053,0.990,4.718,3.692,5.732,5.281,4.711,4.711,2.198,6.282,5.083,1.570,0.000,0.000,1.325,-10.051,0.990,4.718,3.776,5.648,
37.914,51.123,1.000,-10.641,1.574,0.000,6.275,4.142,0.000,1.235,1.259,2.117,4.270,2.537,2.096,2.113,0.000,0.000,0.684,0.000,0.000,0.000,0.000,0.000,0.000,0.000,0.000,0.000,0.000,0.000,3.142,6.283,0.000,1.003,1.569,1.569,4.085,6.281,1.199,4.712,0.000,0.000,0.669,-10.053,0.990,4.718,3.692,5.732,5.281,4.711,4.711,2.198,6.282,5.083,1.570,0.000,0.000,1.325,-10.051,0.990,4.718,3.777,5.648,
38.020,51.229,1.000,-10.641,1.574,0.000,6.275,4.142,0.000,1.235,1.259,2.117,4.270,2.537,2.096,2.113,0.000,0.000,0.684,0.000,0.000,0.000,0.000,0.000,0.000,0.000,0.000,0.000,0.000,0.000,3.142,6.283,0.000,1.003,1.569,1.569,4.085,6.281,1.199,4.712,0.000,0.000,0.669,-10.053,0.990,4.718,3.692,5.732,5.281,4.711,4.711,2.198,6.282,5.083,1.570,0.000,0.000,1.325,-10.051,0.990,4.718,3.777,5.648,
38.120,51.329,1.000,-10.641,1.574,0.000,6.275,4.142,0.000,1.235,1.259,2.117,4.270,2.537,2.096,2.113,0.000,0.000,0.684,0.000,0.000,0.000,0.000,0.000,0.000,0.000,0.000,0.000,0.000,0.000,3.142,6.283,0.000,1.003,1.569,1.569,4.085,6.281,1.199,4.712,0.000,0.000,0.669,-10.053,0.990,4.718,3.692,5.732,5.281,4.711,4.711,2.198,6.282,5.083,1.570,0.000,0.000,1.325,-10.051,0.990,4.718,3.776,5.648,
38.220,51.429,1.000,-10.641,1.574,0.000,6.275,4.142,0.000,1.235,1.259,2.117,4.270,2.537,2.096,2.113,0.000,0.000,0.684,0.000,0.000,0.000,0.000,0.000,0.000,0.000,0.000,0.000,0.000,0.000,3.142,6.283,0.000,1.003,1.569,1.569,4.085,6.281,1.199,4.712,0.000,0.000,0.669,-10.053,0.990,4.718,3.692,5.732,5.281,4.711,4.711,2.198,6.282,5.083,1.570,0.000,0.000,1.325,-10.051,0.990,4.718,3.776,5.648,
38.320,51.529,1.000,-10.641,1.574,0.000,6.275,4.142,0.000,1.235,1.259,2.117,4.270,2.537,2.096,2.113,0.000,0.000,0.684,0.000,0.000,0.000,0.000,0.000,0.000,0.000,0.000,0.000,0.000,0.000,3.142,6.283,0.000,1.003,1.569,1.569,4.085,6.281,1.199,4.712,0.000,0.000,0.669,-10.053,0.990,4.718,3.692,5.732,5.281,4.711,4.711,2.198,6.282,5.083,1.570,0.000,0.000,1.325,-10.051,0.990,4.718,3.777,5.648,
38.404,51.613,1.000,-10.641,1.574,0.000,6.275,4.142,0.000,1.235,1.259,2.117,4.270,2.537,2.096,2.113,0.000,0.000,0.684,0.000,0.000,0.000,0.000,0.000,0.000,0.000,0.000,0.000,0.000,0.000,3.142,6.283,0.000,1.003,1.569,1.569,4.085,6.281,1.199,4.712,0.000,0.000,0.669,-10.053,0.990,4.718,3.692,5.732,5.281,4.711,4.711,2.198,6.282,5.083,1.570,0.000,0.000,1.325,-10.051,0.990,4.718,3.776,5.648,
38.520,51.729,1.000,-10.641,1.574,0.000,6.275,4.142,0.000,1.235,1.259,2.117,4.270,2.537,2.096,2.113,0.000,0.000,0.684,0.000,0.000,0.000,0.000,0.000,0.000,0.000,0.000,0.000,0.000,0.000,3.142,6.283,0.000,1.003,1.569,1.569,4.085,6.281,1.199,4.712,0.000,0.000,0.669,-10.053,0.990,4.718,3.692,5.732,5.281,4.711,4.711,2.198,6.282,5.083,1.570,0.000,0.000,1.325,-10.051,0.990,4.718,3.776,5.648,
38.618,51.827,1.000,-10.641,1.574,0.000,6.275,4.142,0.000,1.235,1.259,2.117,4.270,2.537,2.096,2.113,0.000,0.000,0.684,0.000,0.000,0.000,0.000,0.000,0.000,0.000,0.000,0.000,0.000,0.000,3.142,6.283,0.000,1.003,1.569,1.569,4.085,6.281,1.199,4.712,0.000,0.000,0.669,-10.053,0.990,4.718,3.692,5.732,5.281,4.711,4.711,2.198,6.282,5.083,1.570,0.000,0.000,1.325,-10.051,0.990,4.718,3.776,5.648,
38.720,51.929,1.000,-10.641,1.574,0.000,6.275,4.142,0.000,1.235,1.259,2.117,4.270,2.537,2.096,2.113,0.000,0.000,0.684,0.000,0.000,0.000,0.000,0.000,0.000,0.000,0.000,0.000,0.000,0.000,3.142,6.283,0.000,1.003,1.569,1.569,4.085,6.281,1.199,4.712,0.000,0.000,0.669,-10.053,0.990,4.718,3.692,5.732,5.281,4.711,4.711,2.198,6.282,5.083,1.570,0.000,0.000,1.325,-10.051,0.990,4.718,3.776,5.648,
38.820,52.029,1.000,-10.641,1.574,0.000,6.275,4.142,0.000,1.235,1.259,2.117,4.270,2.537,2.096,2.113,0.000,0.000,0.684,0.000,0.000,0.000,0.000,0.000,0.000,0.000,0.000,0.000,0.000,0.000,3.142,6.283,0.000,1.003,1.569,1.569,4.085,6.281,1.199,4.712,0.000,0.000,0.669,-10.053,0.990,4.718,3.692,5.732,5.281,4.711,4.711,2.198,6.282,5.083,1.570,0.000,0.000,1.325,-10.051,0.990,4.718,3.776,5.648,
38.916,52.125,1.000,-10.641,1.574,0.000,6.275,4.142,0.000,1.235,1.259,2.117,4.270,2.537,2.096,2.113,0.000,0.000,0.684,0.000,0.000,0.000,0.000,0.000,0.000,0.000,0.000,0.000,0.000,0.000,3.142,6.283,0.000,1.003,1.569,1.569,4.085,6.281,1.199,4.712,0.000,0.000,0.669,-10.053,0.990,4.718,3.692,5.732,5.281,4.711,4.711,2.198,6.282,5.083,1.570,0.000,0.000,1.325,-10.051,0.990,4.718,3.776,5.648,
39.020,52.229,1.000,-10.641,1.574,0.000,6.275,4.142,0.000,1.235,1.259,2.117,4.270,2.537,2.096,2.113,0.000,0.000,0.684,0.000,0.000,0.000,0.000,0.000,0.000,0.000,0.000,0.000,0.000,0.000,3.142,6.283,0.000,1.003,1.569,1.569,4.085,6.281,1.199,4.712,0.000,0.000,0.669,-10.053,0.990,4.718,3.692,5.732,5.281,4.711,4.711,2.198,6.282,5.083,1.570,0.000,0.000,1.325,-10.051,0.990,4.718,3.776,5.648,
39.111,52.320,1.000,-10.641,1.574,0.000,6.275,4.142,0.000,1.235,1.259,2.117,4.270,2.537,2.096,2.113,0.000,0.000,0.684,0.000,0.000,0.000,0.000,0.000,0.000,0.000,0.000,0.000,0.000,0.000,3.142,6.283,0.000,1.003,1.569,1.569,4.085,6.281,1.199,4.712,0.000,0.000,0.669,-10.053,0.990,4.718,3.692,5.732,5.281,4.711,4.711,2.198,6.282,5.083,1.570,0.000,0.000,1.325,-10.051,0.990,4.718,3.777,5.648,
39.220,52.429,1.000,-10.641,1.574,0.000,6.275,4.142,0.000,1.235,1.259,2.117,4.270,2.537,2.096,2.113,0.000,0.000,0.684,0.000,0.000,0.000,0.000,0.000,0.000,0.000,0.000,0.000,0.000,0.000,3.142,6.283,0.000,1.003,1.569,1.569,4.085,6.281,1.199,4.712,0.000,0.000,0.669,-10.053,0.990,4.718,3.692,5.732,5.281,4.711,4.711,2.198,6.282,5.083,1.570,0.000,0.000,1.325,-10.051,0.990,4.718,3.777,5.648,
39.313,52.522,1.000,-10.641,1.574,0.000,6.275,4.142,0.000,1.235,1.259,2.117,4.270,2.537,2.096,2.113,0.000,0.000,0.684,0.000,0.000,0.000,0.000,0.000,0.000,0.000,0.000,0.000,0.000,0.000,3.142,6.283,0.000,1.003,1.569,1.569,4.085,6.281,1.199,4.712,0.000,0.000,0.669,-10.053,0.990,4.718,3.692,5.732,5.281,4.711,4.711,2.198,6.282,5.083,1.570,0.000,0.000,1.325,-10.051,0.990,4.718,3.776,5.648,
39.420,52.629,1.000,-10.641,1.574,0.000,6.275,4.142,0.000,1.235,1.259,2.117,4.270,2.537,2.096,2.113,0.000,0.000,0.684,0.000,0.000,0.000,0.000,0.000,0.000,0.000,0.000,0.000,0.000,0.000,3.142,6.283,0.000,1.003,1.569,1.569,4.085,6.281,1.199,4.712,0.000,0.000,0.669,-10.053,0.990,4.718,3.692,5.732,5.281,4.711,4.711,2.198,6.282,5.083,1.570,0.000,0.000,1.325,-10.051,0.990,4.718,3.776,5.648,
39.519,52.728,1.000,-10.641,1.574,0.000,6.275,4.142,0.000,1.235,1.259,2.117,4.270,2.537,2.096,2.113,0.000,0.000,0.684,0.000,0.000,0.000,0.000,0.000,0.000,0.000,0.000,0.000,0.000,0.000,3.142,6.283,0.000,1.003,1.569,1.569,4.085,6.281,1.199,4.712,0.000,0.000,0.669,-10.053,0.990,4.718,3.692,5.732,5.281,4.711,4.711,2.198,6.282,5.083,1.570,0.000,0.000,1.325,-10.051,0.990,4.718,3.776,5.648,
39.620,52.829,1.000,-10.641,1.574,0.000,6.275,4.142,0.000,1.235,1.259,2.117,4.270,2.537,2.096,2.113,0.000,0.000,0.684,0.000,0.000,0.000,0.000,0.000,0.000,0.000,0.000,0.000,0.000,0.000,3.142,6.283,0.000,1.003,1.569,1.569,4.085,6.281,1.199,4.712,0.000,0.000,0.669,-10.053,0.990,4.718,3.692,5.732,5.281,4.711,4.711,2.198,6.282,5.083,1.570,0.000,0.000,1.325,-10.051,0.990,4.718,3.776,5.648,
39.720,52.929,1.000,-10.641,1.574,0.000,6.275,4.142,0.000,1.235,1.259,2.117,4.270,2.537,2.096,2.113,0.000,0.000,0.684,0.000,0.000,0.000,0.000,0.000,0.000,0.000,0.000,0.000,0.000,0.000,3.142,6.283,0.000,1.003,1.569,1.569,4.085,6.281,1.199,4.712,0.000,0.000,0.669,-10.053,0.990,4.718,3.692,5.732,5.281,4.711,4.711,2.198,6.282,5.083,1.570,0.000,0.000,1.325,-10.051,0.990,4.718,3.776,5.648,
39.820,53.029,1.000,-10.641,1.574,0.000,6.275,4.142,0.000,1.235,1.259,2.117,4.270,2.537,2.096,2.113,0.000,0.000,0.684,0.000,0.000,0.000,0.000,0.000,0.000,0.000,0.000,0.000,0.000,0.000,3.142,6.283,0.000,1.003,1.569,1.569,4.085,6.281,1.199,4.712,0.000,0.000,0.669,-10.053,0.990,4.718,3.692,5.732,5.281,4.711,4.711,2.198,6.282,5.083,1.570,0.000,0.000,1.325,-10.051,0.990,4.718,3.776,5.648,
39.920,53.129,1.000,-10.641,1.574,0.000,6.275,4.142,0.000,1.235,1.259,2.117,4.270,2.537,2.096,2.113,0.000,0.000,0.684,0.000,0.000,0.000,0.000,0.000,0.000,0.000,0.000,0.000,0.000,0.000,3.142,6.283,0.000,1.003,1.569,1.569,4.085,6.281,1.199,4.712,0.000,0.000,0.669,-10.053,0.990,4.718,3.692,5.732,5.281,4.711,4.711,2.198,6.282,5.083,1.570,0.000,0.000,1.325,-10.051,0.990,4.718,3.776,5.648,
40.020,53.229,1.000,-10.641,1.574,0.000,6.275,4.142,0.000,1.235,1.259,2.117,4.270,2.537,2.096,2.113,0.000,0.000,0.684,0.000,0.000,0.000,0.000,0.000,0.000,0.000,0.000,0.000,0.000,0.000,3.142,6.283,0.000,1.003,1.569,1.569,4.085,6.281,1.199,4.712,0.000,0.000,0.669,-10.053,0.990,4.718,3.692,5.732,5.281,4.711,4.711,2.198,6.282,5.083,1.570,0.000,0.000,1.325,-10.051,0.990,4.718,3.776,5.648,
40.102,53.311,1.000,-10.641,1.574,0.000,6.275,4.142,0.000,1.235,1.259,2.117,4.270,2.537,2.096,2.113,0.000,0.000,0.684,0.000,0.000,0.000,0.000,0.000,0.000,0.000,0.000,0.000,0.000,0.000,3.142,6.283,0.000,1.003,1.569,1.569,4.085,6.281,1.199,4.712,0.000,0.000,0.669,-10.053,0.990,4.718,3.692,5.732,5.281,4.711,4.711,2.198,6.282,5.083,1.570,0.000,0.000,1.325,-10.051,0.990,4.718,3.776,5.648,
40.220,53.429,1.000,-10.641,1.574,0.000,6.275,4.142,0.000,1.235,1.259,2.117,4.270,2.537,2.096,2.113,0.000,0.000,0.684,0.000,0.000,0.000,0.000,0.000,0.000,0.000,0.000,0.000,0.000,0.000,3.142,6.283,0.000,1.003,1.569,1.569,4.085,6.281,1.199,4.712,0.000,0.000,0.669,-10.053,0.990,4.718,3.692,5.732,5.281,4.711,4.711,2.198,6.282,5.083,1.570,0.000,0.000,1.325,-10.051,0.990,4.718,3.776,5.648,
40.318,53.527,1.000,-10.641,1.574,0.000,6.275,4.142,0.000,1.235,1.259,2.117,4.270,2.537,2.096,2.113,0.000,0.000,0.684,0.000,0.000,0.000,0.000,0.000,0.000,0.000,0.000,0.000,0.000,0.000,3.142,6.283,0.000,1.003,1.569,1.569,4.085,6.281,1.199,4.712,0.000,0.000,0.669,-10.053,0.990,4.718,3.692,5.732,5.281,4.711,4.711,2.198,6.282,5.083,1.570,0.000,0.000,1.325,-10.051,0.990,4.718,3.776,5.648,
