deveshdatwani/Gopher/Assets/Data/07-16 22-04-49/Obstacle Handling_robot_value.csv
game_time,true_time,x,y,az,vx,vaz,dis_to_obs_0,dis_to_obs_36,dis_to_obs_72,dis_to_obs_108,dis_to_obs_144,dis_to_obs_180,dis_to_obs_-144,dis_to_obs_-108,dis_to_obs_-72,dis_to_obs_-36,dis_to_min_obs,direction_to_min_obs,dis_to_human_0,dis_to_human_36,dis_to_human_72,dis_to_human_108,dis_to_human_144,dis_to_human_180,dis_to_human_-144,dis_to_human_-108,dis_to_human_-72,dis_to_human_-36,dis_to_min_human,direction_to_min_human,main_cam_yaw,main_cam_pitch,left_joint_1,left_joint_2,left_joint_3,left_joint_4,left_joint_5,left_joint_6,left_joint_7,left_joint_gripper,left_is_grasping,left_end_x,left_end_y,left_end_z,left_end_ax,left_end_ay,left_end_az,right_joint_1,right_joint_2,right_joint_3,right_joint_4,right_joint_5,right_joint_6,right_joint_7,right_joint_gripper,right_is_grasping,right_end_x,right_end_y,right_end_z,right_end_ax,right_end_ay,right_end_az,
12.160,18.724,0.996,-9.863,1.576,0.998,6.265,3.364,0.000,1.723,1.256,2.119,0.000,3.366,2.098,1.697,4.099,0.000,3.142,0.000,0.000,0.000,0.000,0.000,0.000,0.000,0.000,0.000,0.000,0.000,3.142,6.282,0.000,1.004,1.569,1.569,4.085,6.281,1.199,4.712,0.000,0.000,0.664,-9.276,0.990,4.720,4.023,5.401,5.281,4.711,4.711,2.198,6.282,5.083,1.570,0.000,0.000,1.320,-9.272,0.990,4.720,4.064,5.361,
12.260,18.824,0.996,-9.785,1.577,1.000,6.265,3.285,0.000,1.682,1.259,2.120,0.000,3.366,2.098,1.698,3.465,0.000,3.142,0.000,0.000,0.000,0.000,0.000,0.000,0.000,0.000,0.000,0.000,0.000,3.142,6.282,0.000,1.004,1.569,1.569,4.085,6.281,1.199,4.712,0.000,0.000,0.664,-9.197,0.990,4.720,4.076,5.348,5.281,4.711,4.711,2.198,6.282,5.083,1.570,0.000,0.000,1.320,-9.193,0.990,4.720,4.099,5.325,
12.360,18.924,0.995,-9.665,1.577,1.019,6.266,3.166,0.000,1.621,1.330,2.120,0.000,3.365,2.099,0.000,3.322,0.000,3.142,0.000,0.000,0.000,0.000,0.000,0.000,0.000,0.000,0.000,0.000,0.000,3.142,6.282,0.000,1.004,1.569,1.569,4.085,6.281,1.199,4.712,0.000,0.000,0.663,-9.078,0.990,4.721,4.111,5.312,5.281,4.711,4.711,2.198,6.282,5.083,1.570,0.000,0.000,1.319,-9.074,0.990,4.721,4.133,5.291,
12.460,19.024,0.995,-9.565,1.578,1.015,0.031,3.066,0.000,1.569,1.407,2.122,0.000,3.361,2.099,0.000,3.731,0.000,3.142,0.000,0.000,0.000,0.000,0.000,0.000,0.000,0.000,0.000,0.000,0.000,3.142,6.283,0.000,1.003,1.570,1.570,4.086,6.281,1.199,4.712,0.000,0.000,0.662,-8.978,0.990,4.721,4.094,5.329,5.281,4.711,4.712,2.198,6.282,5.083,1.570,0.000,0.000,1.318,-8.974,0.990,4.721,4.190,5.234,
12.560,19.124,0.994,-9.486,1.600,1.007,0.748,2.989,0.000,1.536,1.454,2.194,0.000,3.266,2.086,0.000,3.580,0.000,3.142,0.000,0.000,0.000,0.000,0.000,0.000,0.000,0.000,0.000,0.000,0.000,3.142,0.001,0.000,1.003,1.571,1.572,4.086,6.281,1.199,4.712,0.000,0.000,0.650,-8.906,0.990,4.739,4.518,4.907,5.281,4.712,4.714,2.199,6.281,5.083,1.571,0.000,0.000,1.305,-8.887,0.991,4.739,4.588,4.837,
12.646,19.209,0.986,-9.367,1.729,1.009,1.428,2.911,0.000,1.533,1.470,2.756,0.000,2.836,1.634,0.000,3.194,0.000,3.142,0.000,0.000,0.000,0.000,0.000,0.000,0.000,0.000,0.000,0.000,0.000,3.142,0.002,0.000,1.003,1.571,1.570,4.085,6.282,1.199,4.712,0.000,0.000,0.570,-8.836,0.990,4.869,4.683,4.740,5.282,4.713,4.713,2.198,6.282,5.083,1.571,0.000,0.000,1.218,-8.733,0.991,4.869,4.693,4.732,
12.760,19.324,0.973,-9.288,1.820,1.018,1.117,2.890,0.000,1.542,1.484,3.400,0.000,2.628,1.632,4.342,2.984,0.000,3.142,0.000,0.000,0.000,0.000,0.000,0.000,0.000,0.000,0.000,0.000,0.000,3.142,0.001,0.000,1.003,1.570,1.569,4.085,6.282,1.199,4.712,0.000,0.000,0.508,-8.798,0.990,4.963,4.695,4.728,5.282,4.712,4.712,2.198,6.283,5.083,1.570,0.000,0.000,1.144,-8.636,0.991,4.962,4.699,4.725,
12.860,19.424,0.939,-9.172,1.913,1.020,0.814,2.855,4.883,1.525,1.522,4.468,3.814,2.491,2.062,4.318,2.774,0.000,3.071,0.000,0.000,0.000,0.000,0.000,0.000,0.000,0.000,0.000,0.000,0.000,3.142,0.001,0.000,1.003,1.570,1.570,4.086,6.281,1.199,4.712,0.000,0.000,0.432,-8.727,0.990,5.055,4.698,4.725,5.282,4.712,4.712,2.198,6.282,5.083,1.570,0.000,0.000,1.050,-8.507,0.991,5.055,4.702,4.722,
12.952,19.516,0.904,-9.079,1.990,1.009,1.003,2.846,0.000,1.513,1.556,0.000,3.947,2.415,0.000,3.808,2.628,0.000,3.001,0.000,0.000,0.000,0.000,0.000,0.000,0.000,0.000,0.000,0.000,0.000,3.142,0.001,0.000,1.003,1.570,1.570,4.086,6.281,1.199,4.712,0.000,0.000,0.364,-8.674,0.990,5.131,4.700,4.723,5.282,4.712,4.713,2.198,6.282,5.083,1.570,0.000,0.000,0.964,-8.407,0.991,5.130,4.704,4.719,
13.060,19.624,0.861,-8.989,2.083,1.009,1.094,2.884,0.000,1.525,1.593,0.000,4.239,2.350,0.000,3.352,2.502,0.000,2.931,0.000,0.000,0.000,0.000,0.000,0.000,0.000,0.000,0.000,0.000,0.000,3.142,0.001,0.000,1.003,1.570,1.570,4.085,6.282,1.199,4.712,0.000,0.000,0.286,-8.636,0.990,5.224,4.703,4.719,5.282,4.712,4.712,2.198,6.282,5.083,1.570,0.000,0.000,0.858,-8.314,0.991,5.224,4.706,4.717,
13.155,19.718,0.810,-8.903,2.173,1.017,0.997,2.587,0.000,1.541,1.698,0.000,3.863,1.898,0.000,3.004,2.403,0.000,2.826,0.000,0.000,0.000,0.000,0.000,0.000,0.000,0.000,0.000,0.000,0.000,3.142,0.001,0.000,1.003,1.570,1.570,4.085,6.282,1.199,4.712,0.000,0.000,0.206,-8.604,0.990,5.315,4.704,4.718,5.282,4.712,4.712,2.198,6.282,5.083,1.570,0.000,0.000,0.746,-8.232,0.991,5.315,4.706,4.717,
13.260,19.824,0.751,-8.822,2.258,1.016,0.988,2.657,0.000,1.760,1.817,0.000,3.544,1.911,0.000,2.738,2.328,0.000,2.755,0.000,0.000,0.000,0.000,0.000,0.000,0.000,0.000,0.000,0.000,0.000,3.142,0.001,0.000,1.003,1.570,1.570,4.086,6.281,1.199,4.712,0.000,0.000,0.124,-8.575,0.990,5.399,4.705,4.717,5.282,4.712,4.712,2.198,6.282,5.083,1.570,0.000,0.000,0.631,-8.158,0.991,5.399,4.707,4.716,
13.357,19.921,0.686,-8.746,2.344,1.013,1.012,0.000,3.980,1.714,1.982,0.000,3.312,2.332,4.995,2.523,2.275,0.000,2.685,0.000,0.000,0.000,0.000,0.000,0.000,0.000,0.000,0.000,0.000,0.000,3.142,0.001,0.000,1.003,1.570,1.570,4.086,6.281,1.199,4.712,0.000,0.000,0.040,-8.554,0.990,5.485,4.706,4.716,5.282,4.712,4.712,2.198,6.282,5.083,1.570,0.000,0.000,0.509,-8.095,0.991,5.485,4.708,4.715,
13.460,20.024,0.615,-8.676,2.432,1.013,1.032,4.693,3.872,1.674,2.229,0.000,3.143,3.624,4.134,2.348,2.245,0.000,2.615,0.000,0.000,0.000,0.000,0.000,0.000,0.000,0.000,0.000,0.000,0.000,3.142,0.001,0.000,1.003,1.570,1.570,4.085,6.281,1.199,4.712,0.000,0.000,-0.046,-8.542,0.990,5.574,4.706,4.715,5.282,4.712,4.712,2.198,6.282,5.083,1.570,0.000,0.000,0.381,-8.044,0.991,5.573,4.708,4.714,
13.560,20.124,0.554,-8.625,2.503,1.014,1.025,4.370,1.573,1.645,2.528,0.000,3.047,0.000,2.884,2.235,2.238,0.000,2.545,0.000,0.000,0.000,0.000,0.000,0.000,0.000,0.000,0.000,0.000,0.000,3.142,0.001,0.000,1.003,1.570,1.570,4.085,6.281,1.199,4.712,0.000,0.000,-0.115,-8.538,0.990,5.644,4.707,4.715,5.282,4.712,4.712,2.198,6.282,5.083,1.570,0.000,0.000,0.276,-8.011,0.991,5.644,4.708,4.714,
13.660,20.224,0.455,-8.557,2.604,1.015,0.775,4.139,1.367,1.609,3.295,4.643,2.963,0.000,3.099,2.105,2.252,0.000,2.440,0.000,0.000,0.000,0.000,0.000,0.000,0.000,0.000,0.000,0.000,0.000,3.142,0.001,0.000,1.004,1.570,1.568,4.085,6.282,1.199,4.712,0.000,0.000,-0.219,-8.538,0.990,5.747,4.707,4.714,5.282,4.712,4.711,2.198,6.282,5.083,1.570,0.000,0.000,0.117,-7.974,0.991,5.746,4.708,4.713,
13.760,20.324,0.369,-8.507,2.627,1.012,6.251,3.952,1.326,1.582,3.234,4.661,3.022,0.000,2.946,2.044,2.254,0.000,2.440,0.000,0.000,0.000,0.000,0.000,0.000,0.000,0.000,0.000,0.000,0.000,3.142,6.282,0.000,1.004,1.569,1.568,4.085,6.281,1.199,4.712,0.000,0.000,-0.306,-8.504,0.990,5.771,4.707,4.714,5.281,4.711,4.710,2.198,6.282,5.083,1.570,0.000,0.000,0.016,-7.933,0.990,5.771,4.707,4.714,
13.850,20.413,0.282,-8.458,2.627,1.009,6.269,3.853,1.324,1.277,2.730,4.806,3.121,0.000,2.874,1.994,1.682,0.000,2.650,0.000,0.000,0.000,0.000,0.000,0.000,0.000,0.000,0.000,0.000,0.000,3.142,6.282,0.000,1.004,1.569,1.569,4.085,6.281,1.199,4.712,0.000,0.000,-0.392,-8.455,0.990,5.770,4.707,4.714,5.281,4.711,4.711,2.198,6.282,5.083,1.570,0.000,0.000,-0.070,-7.883,0.990,5.770,4.707,4.714,
13.960,20.524,0.213,-8.419,2.628,1.011,6.268,3.774,1.322,0.990,2.327,4.850,3.200,0.000,2.817,1.954,1.639,0.000,2.650,0.000,0.000,0.000,0.000,0.000,0.000,0.000,0.000,0.000,0.000,0.000,3.142,6.282,0.000,1.004,1.569,1.569,4.085,6.281,1.199,4.712,0.000,0.000,-0.461,-8.416,0.990,5.770,4.707,4.714,5.281,4.711,4.711,2.198,6.282,5.083,1.570,0.000,0.000,-0.139,-7.844,0.990,5.770,4.707,4.714,
14.060,20.624,0.109,-8.360,2.628,1.013,6.268,3.655,3.390,0.841,1.837,4.916,3.320,0.000,2.730,1.894,1.729,0.000,2.685,0.000,0.000,0.000,0.000,0.000,0.000,0.000,0.000,0.000,0.000,0.000,3.142,6.282,0.000,1.004,1.569,1.569,4.085,6.281,1.199,4.712,0.000,0.000,-0.565,-8.357,0.990,5.770,4.707,4.714,5.281,4.711,4.711,2.198,6.282,5.083,1.570,0.000,0.000,-0.243,-7.786,0.990,5.770,4.707,4.714,
14.160,20.724,0.040,-8.321,2.628,1.012,6.267,3.576,3.320,0.840,1.811,4.960,3.399,0.000,2.672,1.854,1.686,0.000,2.685,0.000,0.000,0.000,0.000,0.000,0.000,0.000,0.000,0.000,0.000,0.000,3.142,6.282,0.000,1.004,1.569,1.569,4.085,6.281,1.199,4.712,0.000,0.000,-0.635,-8.318,0.990,5.770,4.707,4.714,5.281,4.711,4.711,2.198,6.282,5.083,1.570,0.000,0.000,-0.313,-7.747,0.990,5.770,4.707,4.714,
14.260,20.824,-0.064,-8.263,2.628,1.011,6.268,3.457,3.215,0.839,1.772,0.000,3.518,0.000,2.585,1.795,1.621,0.000,2.720,0.000,0.000,0.000,0.000,0.000,0.000,0.000,0.000,0.000,0.000,0.000,3.142,6.282,0.000,1.004,1.569,1.569,4.085,6.281,1.199,4.712,0.000,0.000,-0.739,-8.260,0.990,5.770,4.707,4.714,5.281,4.711,4.711,2.198,6.282,5.083,1.570,0.000,0.000,-0.417,-7.688,0.990,5.770,4.707,4.714,
14.360,20.924,-0.134,-8.224,2.628,1.011,6.267,3.378,3.146,0.838,1.746,0.000,3.597,0.000,1.880,1.755,1.578,0.000,2.755,0.000,0.000,0.000,0.000,0.000,0.000,0.000,0.000,0.000,0.000,0.000,3.142,6.282,0.000,1.004,1.569,1.569,4.085,6.281,1.199,4.712,0.000,0.000,-0.808,-8.221,0.990,5.770,4.707,4.714,5.281,4.711,4.711,2.198,6.282,5.083,1.570,0.000,0.000,-0.486,-7.649,0.990,5.771,4.707,4.714,
14.460,21.024,-0.238,-8.165,2.629,1.012,6.267,3.259,3.041,0.837,1.707,0.000,3.716,0.000,2.440,1.695,1.513,0.000,2.755,0.000,0.000,0.000,0.000,0.000,0.000,0.000,0.000,0.000,0.000,0.000,3.142,6.282,0.000,1.004,1.569,1.569,4.085,6.281,1.199,4.712,0.000,0.000,-0.912,-8.163,0.990,5.771,4.707,4.714,5.281,4.711,4.711,2.198,6.282,5.083,1.570,0.000,0.000,-0.591,-7.591,0.990,5.771,4.707,4.714,
14.560,21.124,-0.324,-8.116,2.629,1.012,6.267,3.160,2.953,0.835,0.856,0.000,3.814,0.000,2.368,1.645,1.460,0.000,2.791,0.000,0.000,0.000,0.000,0.000,0.000,0.000,0.000,0.000,0.000,0.000,3.142,6.282,0.000,1.004,1.569,1.569,4.085,6.281,1.199,4.712,0.000,0.000,-0.999,-8.114,0.990,5.771,4.707,4.714,5.281,4.711,4.711,2.198,6.282,5.083,1.570,0.000,0.000,-0.678,-7.542,0.990,5.771,4.707,4.714,
14.660,21.224,-0.394,-8.077,2.629,1.011,6.267,3.081,2.883,0.834,0.855,0.000,3.894,0.000,2.310,1.605,0.000,0.000,2.826,0.000,0.000,0.000,0.000,0.000,0.000,0.000,0.000,0.000,0.000,0.000,3.142,6.282,0.000,1.004,1.569,1.569,4.085,6.281,1.199,4.712,0.000,0.000,-1.068,-8.075,0.990,5.771,4.707,4.714,5.281,4.711,4.711,2.198,6.282,5.083,1.570,0.000,0.000,-0.747,-7.503,0.990,5.772,4.707,4.714,
14.760,21.324,-0.481,-8.028,2.614,1.012,5.700,3.008,2.790,0.837,0.849,0.000,4.029,0.000,2.278,1.561,0.000,0.000,2.861,0.000,0.000,0.000,0.000,0.000,0.000,0.000,0.000,0.000,0.000,0.000,3.142,6.281,0.001,1.004,1.568,1.566,4.084,6.281,1.199,4.712,0.000,0.000,-1.156,-8.018,0.990,5.760,4.707,4.713,5.281,4.710,4.708,2.197,6.282,5.083,1.570,0.000,0.000,-0.826,-7.451,0.990,5.759,4.706,4.714,
14.860,21.424,-0.582,-7.966,2.508,1.011,5.307,2.961,0.000,3.032,0.827,0.000,4.444,0.000,2.486,1.538,1.231,0.000,3.001,0.000,0.000,0.000,0.000,0.000,0.000,0.000,0.000,0.000,0.000,0.000,3.142,6.281,0.001,1.004,1.569,1.568,4.085,6.281,1.199,4.712,0.000,0.000,-1.252,-7.883,0.990,5.651,4.706,4.715,5.282,4.711,4.711,2.198,6.281,5.083,1.570,0.000,0.000,-0.864,-7.353,0.991,5.650,4.708,4.714,
14.955,21.519,-0.662,-7.906,2.474,1.013,0.017,2.937,0.000,2.860,0.833,0.000,4.663,0.000,2.504,1.493,1.155,0.000,3.036,0.000,0.000,0.000,0.000,0.000,0.000,0.000,0.000,0.000,0.000,0.000,3.142,6.282,0.000,1.004,1.570,1.571,4.085,6.281,1.199,4.712,0.000,0.000,-1.327,-7.798,0.990,5.614,4.706,4.716,5.281,4.712,4.713,2.198,6.281,5.083,1.570,0.000,0.000,-0.921,-7.283,0.991,5.614,4.707,4.715,
15.060,21.624,-0.740,-7.844,2.475,1.010,6.263,2.837,0.000,2.766,0.848,0.000,4.759,0.000,2.391,1.427,0.000,0.000,3.071,0.000,0.000,0.000,0.000,0.000,0.000,0.000,0.000,0.000,0.000,0.000,3.142,6.283,0.000,1.003,1.569,1.569,4.085,6.281,1.199,4.712,0.000,0.000,-1.406,-7.738,0.990,5.617,4.706,4.715,5.281,4.711,4.711,2.198,6.282,5.083,1.570,0.000,0.000,-1.001,-7.222,0.990,5.617,4.707,4.715,
15.160,21.724,-0.803,-7.795,2.476,1.010,6.261,2.757,0.000,2.691,0.859,0.000,4.836,0.000,2.301,0.909,0.000,0.000,3.071,0.000,0.000,0.000,0.000,0.000,0.000,0.000,0.000,0.000,0.000,0.000,3.142,6.283,0.000,1.003,1.569,1.569,4.085,6.281,1.199,4.712,0.000,0.000,-1.469,-7.689,0.990,5.617,4.706,4.715,5.281,4.711,4.711,2.198,6.282,5.083,1.570,0.000,0.000,-1.064,-7.174,0.990,5.617,4.707,4.715,
15.253,21.816,-0.897,-7.721,2.477,1.013,6.261,2.637,0.000,2.578,1.184,1.277,4.951,0.000,2.167,1.296,0.000,0.000,3.106,0.000,0.000,0.000,0.000,0.000,0.000,0.000,0.000,0.000,0.000,0.000,3.142,6.283,0.000,1.004,1.569,1.569,4.085,6.281,1.199,4.712,0.000,0.000,-1.563,-7.616,0.990,5.618,4.706,4.715,5.281,4.711,4.711,2.198,6.282,5.083,1.570,0.000,0.000,-1.158,-7.100,0.990,5.618,4.707,4.715,
15.360,21.924,-0.959,-7.672,2.477,1.012,6.261,2.557,0.000,2.502,1.565,1.294,0.000,0.000,2.078,0.927,0.000,0.000,3.142,0.000,0.000,0.000,0.000,0.000,0.000,0.000,0.000,0.000,0.000,0.000,3.142,6.283,0.000,1.004,1.569,1.569,4.085,6.281,1.199,4.712,0.000,0.000,-1.626,-7.568,0.990,5.619,4.706,4.715,5.281,4.711,4.711,2.198,6.282,5.083,1.570,0.000,0.000,-1.221,-7.051,0.990,5.619,4.707,4.715,
15.460,22.024,-1.053,-7.599,2.478,1.011,6.262,2.438,0.000,2.420,1.643,1.320,0.000,0.000,1.945,0.849,0.000,0.000,3.142,0.000,0.000,0.000,0.000,0.000,0.000,0.000,0.000,0.000,0.000,0.000,3.142,6.282,0.000,1.004,1.569,1.569,4.085,6.281,1.199,4.712,0.000,0.000,-1.720,-7.495,0.990,5.620,4.706,4.715,5.281,4.711,4.711,2.198,6.282,5.083,1.570,0.000,0.000,-1.316,-6.978,0.990,5.620,4.707,4.715,
15.540,22.104,-1.132,-7.537,2.479,1.011,6.263,2.338,0.000,2.523,1.707,1.342,0.000,0.000,1.835,0.784,0.000,0.000,3.142,0.000,0.000,0.000,0.000,0.000,0.000,0.000,0.000,0.000,0.000,0.000,3.142,6.282,0.000,1.004,1.569,1.569,4.085,6.281,1.199,4.712,0.000,0.000,-1.798,-7.434,0.990,5.621,4.706,4.715,5.281,4.711,4.711,2.198,6.282,5.083,1.570,0.000,0.000,-1.395,-6.917,0.990,5.621,4.707,4.715,
15.660,22.224,-1.195,-7.488,2.479,1.012,6.263,2.259,0.000,2.606,1.758,1.359,0.000,0.000,1.747,0.732,0.000,0.000,3.142,0.000,0.000,0.000,0.000,0.000,0.000,0.000,0.000,0.000,0.000,0.000,3.142,6.282,0.000,1.004,1.569,1.569,4.085,6.281,1.199,4.712,0.000,0.000,-1.861,-7.385,0.990,5.621,4.706,4.715,5.281,4.711,4.711,2.198,6.282,5.083,1.570,0.000,0.000,-1.458,-6.868,0.990,5.621,4.707,4.715,
15.760,22.324,-1.289,-7.415,2.479,0.991,6.238,2.141,0.000,2.408,1.835,1.383,0.000,0.000,0.944,0.880,0.000,0.000,3.142,0.000,0.000,0.000,0.000,0.000,0.000,0.000,0.000,0.000,0.000,0.000,3.142,6.282,0.001,1.004,1.569,1.569,4.085,6.281,1.199,4.712,0.000,0.000,-1.955,-7.313,0.990,5.622,4.706,4.715,5.281,4.711,4.711,2.197,6.282,5.083,1.570,0.000,0.000,-1.552,-6.795,0.990,5.622,4.706,4.716,
15.860,22.424,-1.362,-7.358,2.445,0.910,5.398,2.105,4.844,2.264,3.777,1.352,0.000,0.000,1.597,1.004,0.000,0.000,3.142,0.000,0.000,0.000,0.000,0.000,0.000,0.000,0.000,0.000,0.000,0.000,3.142,6.281,0.001,1.004,1.568,1.566,4.085,6.281,1.199,4.711,0.000,0.000,-2.026,-7.234,0.990,5.591,4.706,4.715,5.281,4.710,4.708,2.197,6.282,5.083,1.570,0.000,0.000,-1.606,-6.730,0.990,5.591,4.705,4.715,
15.960,22.524,-1.416,-7.312,2.360,0.902,4.872,2.194,4.826,2.090,3.724,1.357,0.000,0.000,1.751,0.950,0.000,0.000,3.142,0.000,0.000,0.000,0.000,0.000,0.000,0.000,0.000,0.000,0.000,0.000,3.142,6.280,0.001,1.005,1.568,1.566,4.085,6.281,1.199,4.712,0.000,0.000,-2.067,-7.132,0.990,5.506,4.706,4.715,5.282,4.710,4.709,2.197,6.282,5.083,1.570,0.000,0.000,-1.605,-6.665,0.991,5.504,4.706,4.715,
16.060,22.624,-1.490,-7.232,2.219,0.950,5.165,2.445,2.710,0.000,2.753,1.928,0.000,0.000,1.040,0.876,3.818,0.000,3.142,0.000,0.000,0.000,0.000,0.000,0.000,0.000,0.000,0.000,0.000,0.000,3.142,6.280,0.000,1.004,1.569,1.568,4.085,6.281,1.199,4.712,0.000,0.000,-2.109,-6.961,0.990,5.362,4.704,4.717,5.282,4.711,4.711,2.198,6.282,5.083,1.570,0.000,0.000,-1.586,-6.564,0.991,5.361,4.706,4.716,
16.143,22.707,-1.546,-7.156,2.136,0.955,5.442,2.641,1.664,4.846,2.363,2.003,0.000,0.000,1.071,0.872,3.897,0.000,3.142,0.000,0.000,0.000,0.000,0.000,0.000,0.000,0.000,0.000,0.000,0.000,3.142,6.281,0.001,1.004,1.569,1.568,4.085,6.281,1.199,4.712,0.000,0.000,-2.139,-6.835,0.990,5.279,4.703,4.719,5.282,4.711,4.711,2.197,6.282,5.083,1.570,0.000,0.000,-1.586,-6.483,0.991,5.279,4.704,4.718,
16.260,22.824,-1.585,-7.092,2.076,0.937,5.372,2.530,1.547,0.000,2.545,2.074,2.055,4.850,1.096,0.871,4.322,0.000,1.457,0.000,0.000,0.000,0.000,0.000,0.000,0.000,0.000,0.000,0.000,0.000,3.142,6.281,0.001,1.004,1.569,1.567,4.085,6.281,1.199,4.712,0.000,0.000,-2.159,-6.737,0.990,5.220,4.702,4.720,5.282,4.711,4.710,2.197,6.282,5.083,1.570,0.000,0.000,-1.585,-6.418,0.990,5.219,4.703,4.719,
16.347,22.910,-1.635,-6.995,1.971,0.927,5.230,2.292,1.573,0.000,2.192,4.175,1.856,4.936,1.130,0.853,3.374,0.000,1.562,0.000,0.000,0.000,0.000,0.000,0.000,0.000,0.000,0.000,0.000,0.000,3.142,6.280,0.001,1.004,1.568,1.567,4.085,6.281,1.199,4.712,0.000,0.000,-2.169,-6.581,0.990,5.115,4.700,4.722,5.282,4.711,4.710,2.197,6.282,5.083,1.570,0.000,0.000,-1.565,-6.325,0.991,5.114,4.701,4.722,
16.460,23.024,-1.663,-6.927,1.898,0.939,5.252,2.153,1.614,4.540,2.023,4.122,1.764,0.000,1.153,0.838,3.367,0.000,1.667,0.000,0.000,0.000,0.000,0.000,0.000,0.000,0.000,0.000,0.000,0.000,3.142,6.280,0.001,1.004,1.568,1.567,4.085,6.281,1.199,4.712,0.000,0.000,-2.165,-6.475,0.990,5.041,4.698,4.725,5.282,4.711,4.710,2.197,6.282,5.083,1.570,0.000,0.000,-1.543,-6.264,0.991,5.041,4.699,4.724,
16.558,23.122,-1.696,-6.820,1.792,0.944,5.306,2.763,1.705,3.974,2.395,3.558,2.034,0.000,1.190,0.818,3.124,0.000,1.773,0.000,0.000,0.000,0.000,0.000,0.000,0.000,0.000,0.000,0.000,0.000,3.142,6.281,0.001,1.004,1.569,1.567,4.085,6.281,1.199,4.712,0.000,0.000,-2.147,-6.318,0.990,4.936,4.691,4.732,5.282,4.711,4.710,2.197,6.282,5.083,1.570,0.000,0.000,-1.507,-6.174,0.991,4.935,4.692,4.731,
16.647,23.210,-1.715,-6.730,1.706,0.936,5.288,4.642,1.819,1.498,4.937,2.623,2.450,0.000,0.000,0.801,2.539,0.000,2.861,0.000,0.000,0.000,0.000,0.000,0.000,0.000,0.000,0.000,0.000,0.000,3.142,6.281,0.001,1.004,1.569,1.567,4.085,6.281,1.199,4.712,0.000,0.000,-2.121,-6.191,0.990,4.850,4.677,4.746,5.282,4.711,4.710,2.197,6.282,5.083,1.570,0.000,0.000,-1.471,-6.102,0.991,4.849,4.680,4.743,
16.760,23.324,-1.724,-6.657,1.636,0.935,5.270,3.750,1.947,1.309,4.839,2.718,2.506,0.000,0.000,0.786,2.556,0.000,2.931,0.000,0.000,0.000,0.000,0.000,0.000,0.000,0.000,0.000,0.000,0.000,3.142,6.281,0.001,1.004,1.569,1.567,4.085,6.281,1.199,4.712,0.000,0.000,-2.091,-6.091,0.990,4.780,4.641,4.782,5.282,4.711,4.710,2.197,6.282,5.083,1.570,0.000,0.000,-1.436,-6.047,0.991,4.780,4.648,4.776,
16.844,23.407,-1.728,-6.542,1.581,1.028,0.010,3.245,2.076,1.323,0.000,2.747,2.616,0.000,0.765,0.774,4.800,0.000,3.001,0.000,0.000,0.000,0.000,0.000,0.000,0.000,0.000,0.000,0.000,0.000,3.142,6.282,0.000,1.004,1.570,1.571,4.084,6.281,1.199,4.712,0.000,0.000,-2.062,-5.956,0.990,4.722,4.220,5.204,5.282,4.712,4.712,2.198,6.281,5.083,1.571,0.000,0.000,-1.406,-5.949,0.991,4.722,4.247,5.177,
16.960,23.524,-1.729,-6.460,1.581,1.050,6.261,3.164,2.073,1.322,0.000,2.748,2.698,0.000,0.766,0.775,2.409,0.000,3.001,0.000,0.000,0.000,0.000,0.000,0.000,0.000,0.000,0.000,0.000,0.000,3.142,6.283,0.000,1.004,1.569,1.569,4.085,6.281,1.199,4.712,0.000,0.000,-2.064,-5.874,0.990,4.724,4.292,5.132,5.281,4.711,4.711,2.198,6.282,5.083,1.570,0.000,0.000,-1.408,-5.867,0.990,4.724,4.327,5.098,
17.048,23.611,-1.731,-6.338,1.582,1.003,6.262,3.044,1.821,1.320,0.000,2.750,2.819,0.000,0.767,1.303,2.260,0.000,3.001,0.000,0.000,0.000,0.000,0.000,0.000,0.000,0.000,0.000,0.000,0.000,3.142,6.283,0.000,1.003,1.569,1.569,4.085,6.281,1.199,4.712,0.000,0.000,-2.066,-5.753,0.990,4.725,4.290,5.134,5.281,4.711,4.711,2.198,6.282,5.083,1.570,0.000,0.000,-1.410,-5.745,0.990,4.725,4.338,5.086,
17.160,23.724,-1.731,-6.260,1.581,0.992,6.152,2.957,1.721,1.320,0.000,2.743,2.897,0.000,0.768,1.304,2.167,0.000,3.001,0.000,0.000,0.000,0.000,0.000,0.000,0.000,0.000,0.000,0.000,0.000,3.142,6.281,0.001,1.004,1.569,1.568,4.084,6.281,1.199,4.712,0.000,0.000,-2.067,-5.675,0.990,4.725,4.347,5.076,5.281,4.711,4.710,2.197,6.282,5.083,1.570,0.000,0.000,-1.411,-5.667,0.990,4.725,4.307,5.117,
17.254,23.818,-1.731,-6.141,1.514,1.018,5.298,2.726,1.496,1.349,1.432,2.496,3.021,0.000,0.786,1.277,2.127,0.000,3.071,0.000,0.000,0.000,0.000,0.000,0.000,0.000,0.000,0.000,0.000,0.000,3.142,6.280,0.001,1.005,1.568,1.566,4.084,6.281,1.199,4.712,0.000,0.000,-2.028,-5.535,0.990,4.767,1.658,1.483,5.282,4.711,4.709,2.197,6.282,5.083,1.570,0.000,0.000,-1.372,-5.571,0.990,4.767,1.654,1.486,
17.360,23.924,-1.724,-6.041,1.460,1.022,6.112,2.723,1.329,1.386,1.311,2.709,0.000,0.000,0.795,1.252,4.263,0.000,3.142,0.000,0.000,0.000,0.000,0.000,0.000,0.000,0.000,0.000,0.000,0.000,3.142,6.282,0.000,1.004,1.570,1.571,4.085,6.281,1.199,4.712,0.000,0.000,-1.984,-5.419,0.990,4.825,1.614,1.527,5.282,4.712,4.713,2.198,6.281,5.083,1.571,0.000,0.000,-1.332,-5.491,0.991,4.825,1.608,1.534,
17.460,24.024,-1.715,-5.962,1.460,1.009,6.264,2.645,1.238,1.395,1.320,2.814,0.000,0.000,0.786,1.243,1.985,0.000,3.142,0.000,0.000,0.000,0.000,0.000,0.000,0.000,0.000,0.000,0.000,0.000,3.142,6.283,0.000,1.003,1.569,1.569,4.085,6.281,1.199,4.712,0.000,0.000,-1.977,-5.340,0.990,4.823,1.615,1.525,5.281,4.711,4.711,2.198,6.282,5.083,1.570,0.000,0.000,-1.325,-5.412,0.990,4.823,1.611,1.531,
17.554,24.118,-1.702,-5.844,1.461,1.007,6.262,2.526,1.262,1.409,1.334,2.967,0.000,0.000,0.775,1.179,1.826,0.000,3.142,0.000,0.000,0.000,0.000,0.000,0.000,0.000,0.000,0.000,0.000,0.000,3.142,6.282,0.000,1.004,1.569,1.569,4.085,6.281,1.199,4.712,0.000,0.000,-1.964,-5.222,0.990,4.822,1.614,1.526,5.281,4.711,4.711,2.198,6.282,5.083,1.570,0.000,0.000,-1.312,-5.294,0.990,4.822,1.611,1.530,
17.660,24.224,-1.691,-5.745,1.461,1.015,6.263,2.427,1.282,1.420,1.345,3.096,0.000,0.000,1.021,4.555,1.723,0.000,3.142,0.000,0.000,0.000,0.000,0.000,0.000,0.000,0.000,0.000,0.000,0.000,3.142,6.282,0.000,1.004,1.569,1.569,4.085,6.281,1.199,4.712,0.000,0.000,-1.954,-5.123,0.990,4.822,1.615,1.526,5.281,4.711,4.711,2.198,6.282,5.083,1.570,0.000,0.000,-1.301,-5.195,0.990,4.822,1.612,1.530,
17.760,24.324,-1.680,-5.646,1.462,1.014,6.263,2.327,1.302,1.432,1.356,0.000,0.000,0.000,1.290,4.510,1.708,0.000,3.142,0.000,0.000,0.000,0.000,0.000,0.000,0.000,0.000,0.000,0.000,0.000,3.142,6.282,0.000,1.004,1.569,1.569,4.085,6.281,1.199,4.712,0.000,0.000,-1.943,-5.024,0.990,4.821,1.615,1.526,5.281,4.711,4.711,2.198,6.282,5.083,1.570,0.000,0.000,-1.291,-5.095,0.990,4.821,1.612,1.529,
17.860,24.424,-1.670,-5.547,1.463,1.008,0.047,2.227,1.320,1.443,1.368,0.000,0.000,1.344,1.278,4.465,1.770,0.000,3.142,0.000,0.000,0.000,0.000,0.000,0.000,0.000,0.000,0.000,0.000,0.000,3.142,6.283,0.000,1.003,1.570,1.570,4.086,6.281,1.199,4.712,0.000,0.000,-1.933,-4.925,0.990,4.821,1.618,1.523,5.281,4.712,4.712,2.199,6.282,5.083,1.570,0.000,0.000,-1.280,-4.996,0.990,4.821,1.609,1.533,
17.960,24.524,-1.659,-5.449,1.504,0.998,1.012,2.072,1.255,1.430,1.393,3.365,3.717,1.237,1.245,4.401,1.841,0.000,3.106,0.000,0.000,0.000,0.000,0.000,0.000,0.000,0.000,0.000,0.000,0.000,3.142,0.001,0.000,1.003,1.571,1.572,4.086,6.281,1.199,4.712,0.000,0.000,-1.946,-4.839,0.990,4.783,1.643,1.499,5.282,4.713,4.714,2.199,6.281,5.083,1.571,0.000,0.000,-1.291,-4.883,0.991,4.783,1.615,1.527,
18.060,24.624,-1.655,-5.372,1.575,0.930,0.816,1.913,1.143,1.401,1.429,3.289,3.785,1.109,1.211,4.280,2.016,0.000,3.036,0.000,0.000,0.000,0.000,0.000,0.000,0.000,0.000,0.000,0.000,0.000,3.142,0.001,0.000,1.003,1.570,1.569,4.086,6.282,1.199,4.712,0.000,0.000,-1.987,-4.784,0.990,4.719,3.919,5.504,5.282,4.712,4.711,2.198,6.283,5.083,1.570,0.000,0.000,-1.330,-4.782,0.991,4.718,4.026,5.398,
18.160,24.724,-1.657,-5.285,1.598,0.859,6.259,1.857,1.107,1.391,1.441,3.342,3.873,1.104,1.152,4.085,1.906,0.000,3.001,0.000,0.000,0.000,0.000,0.000,0.000,0.000,0.000,0.000,0.000,0.000,3.142,6.282,0.000,1.004,1.569,1.568,4.085,6.281,1.199,4.712,0.000,0.000,-2.003,-4.706,0.990,4.742,4.543,4.880,5.281,4.711,4.710,2.198,6.282,5.083,1.570,0.000,0.000,-1.347,-4.687,0.990,4.742,4.555,4.869,
18.260,24.824,-1.660,-5.183,1.598,0.902,6.270,1.751,1.102,1.090,1.437,3.464,3.976,1.234,1.176,4.088,1.523,0.000,3.001,0.000,0.000,0.000,0.000,0.000,0.000,0.000,0.000,0.000,0.000,0.000,3.142,6.282,0.000,1.004,1.569,1.569,4.084,6.281,1.199,4.712,0.000,0.000,-2.005,-4.603,0.990,4.741,4.559,4.865,5.281,4.711,4.711,2.197,6.282,5.083,1.570,0.000,0.000,-1.349,-4.584,0.990,4.741,4.548,4.876,
18.360,24.924,-1.662,-5.110,1.598,0.928,6.270,1.676,1.099,0.812,1.435,3.549,4.048,1.325,4.672,4.090,1.696,0.000,3.001,0.000,0.000,0.000,0.000,0.000,0.000,0.000,0.000,0.000,0.000,0.000,3.142,6.282,0.000,1.004,1.569,1.569,4.084,6.281,1.199,4.712,0.000,0.000,-2.007,-4.531,0.990,4.741,4.551,4.873,5.281,4.711,4.711,2.198,6.282,5.083,1.570,0.000,0.000,-1.351,-4.512,0.990,4.741,4.547,4.877,
18.452,25.015,-1.663,-5.045,1.599,0.290,6.265,1.611,1.095,0.711,1.434,3.625,4.114,1.408,4.919,4.093,1.617,0.000,3.001,0.000,0.000,0.000,0.000,0.000,0.000,0.000,0.000,0.000,0.000,0.000,3.142,0.001,0.001,1.002,1.570,1.570,4.088,6.281,1.200,4.712,0.000,0.000,-2.008,-4.464,0.989,4.740,4.469,4.954,5.281,4.712,4.712,2.198,6.282,5.083,1.570,0.000,0.000,-1.352,-4.447,0.990,4.740,4.541,4.883,
18.560,25.124,-1.664,-5.031,1.599,0.103,6.265,1.598,1.094,0.710,1.434,3.641,4.127,1.426,4.976,4.094,1.600,0.000,3.001,0.000,0.000,0.000,0.000,0.000,0.000,0.000,0.000,0.000,0.000,0.000,3.142,0.000,0.001,1.003,1.570,1.570,4.087,6.281,1.199,4.712,0.000,0.000,-2.009,-4.451,0.990,4.741,4.508,4.916,5.281,4.712,4.712,2.198,6.282,5.083,1.570,0.000,0.000,-1.353,-4.433,0.990,4.741,4.548,4.876,
18.660,25.224,-1.664,-5.029,1.600,0.000,6.272,1.597,1.093,0.710,1.434,3.643,4.130,1.430,4.995,4.095,1.596,0.000,3.001,0.000,0.000,0.000,0.000,0.000,0.000,0.000,0.000,0.000,0.000,0.000,3.142,6.283,0.000,1.003,1.569,1.569,4.085,6.281,1.199,4.712,0.000,0.000,-2.009,-4.449,0.990,4.742,4.541,4.883,5.281,4.711,4.712,2.198,6.282,5.083,1.570,0.000,0.000,-1.354,-4.430,0.990,4.742,4.564,4.860,
18.760,25.324,-1.664,-5.029,1.600,0.000,6.272,1.597,1.093,0.710,1.434,3.643,4.130,1.430,4.995,4.095,1.596,0.000,3.001,0.000,0.000,0.000,0.000,0.000,0.000,0.000,0.000,0.000,0.000,0.000,3.142,6.283,0.000,1.003,1.569,1.569,4.085,6.281,1.199,4.712,0.000,0.000,-2.009,-4.449,0.990,4.742,4.541,4.882,5.281,4.711,4.712,2.198,6.282,5.083,1.570,0.000,0.000,-1.354,-4.430,0.990,4.742,4.565,4.860,
18.860,25.424,-1.664,-5.029,1.600,0.000,6.272,1.597,1.093,0.710,1.434,3.643,4.130,1.430,4.995,4.095,1.596,0.000,3.001,0.000,0.000,0.000,0.000,0.000,0.000,0.000,0.000,0.000,0.000,0.000,3.142,6.283,0.000,1.003,1.569,1.569,4.085,6.281,1.199,4.712,0.000,0.000,-2.009,-4.449,0.990,4.742,4.541,4.882,5.281,4.711,4.712,2.198,6.282,5.083,1.570,0.000,0.000,-1.354,-4.430,0.990,4.742,4.565,4.860,
18.960,25.524,-1.664,-5.029,1.600,0.000,6.272,1.597,1.093,0.710,1.434,3.643,4.130,1.430,4.995,4.095,1.596,0.000,3.001,0.000,0.000,0.000,0.000,0.000,0.000,0.000,0.000,0.000,0.000,0.000,3.142,6.283,0.000,1.003,1.569,1.569,4.085,6.281,1.199,4.712,0.000,0.000,-2.009,-4.449,0.990,4.742,4.541,4.882,5.281,4.711,4.712,2.198,6.282,5.083,1.570,0.000,0.000,-1.354,-4.430,0.990,4.742,4.565,4.860,
19.060,25.624,-1.664,-5.029,1.600,0.000,6.272,1.597,1.093,0.710,1.434,3.643,4.130,1.430,4.995,4.095,1.596,0.000,3.001,0.000,0.000,0.000,0.000,0.000,0.000,0.000,0.000,0.000,0.000,0.000,3.142,6.283,0.000,1.003,1.569,1.569,4.085,6.281,1.199,4.712,0.000,0.000,-2.009,-4.449,0.990,4.742,4.541,4.882,5.281,4.711,4.712,2.198,6.282,5.083,1.570,0.000,0.000,-1.354,-4.430,0.990,4.742,4.565,4.860,
19.159,25.723,-1.664,-5.029,1.600,0.000,6.272,1.597,1.093,0.710,1.434,3.643,4.130,1.430,4.995,4.095,1.596,0.000,3.001,0.000,0.000,0.000,0.000,0.000,0.000,0.000,0.000,0.000,0.000,0.000,3.142,6.283,0.000,1.003,1.569,1.569,4.085,6.281,1.199,4.712,0.000,0.000,-2.009,-4.449,0.990,4.742,4.541,4.882,5.281,4.711,4.712,2.198,6.282,5.083,1.570,0.000,0.000,-1.354,-4.430,0.990,4.742,4.565,4.860,
19.260,25.824,-1.664,-5.029,1.600,0.000,6.272,1.597,1.093,0.710,1.434,3.643,4.130,1.430,4.995,4.095,1.596,0.000,3.001,0.000,0.000,0.000,0.000,0.000,0.000,0.000,0.000,0.000,0.000,0.000,3.142,6.283,0.000,1.003,1.569,1.569,4.085,6.281,1.199,4.712,0.000,0.000,-2.009,-4.449,0.990,4.742,4.541,4.882,5.281,4.711,4.712,2.198,6.282,5.083,1.570,0.000,0.000,-1.354,-4.430,0.990,4.742,4.565,4.860,
19.360,25.924,-1.664,-5.029,1.600,0.000,6.272,1.597,1.093,0.710,1.434,3.643,4.130,1.430,4.995,4.095,1.596,0.000,3.001,0.000,0.000,0.000,0.000,0.000,0.000,0.000,0.000,0.000,0.000,0.000,3.142,6.283,0.000,1.003,1.569,1.569,4.085,6.281,1.199,4.712,0.000,0.000,-2.009,-4.449,0.990,4.742,4.541,4.882,5.281,4.711,4.712,2.198,6.282,5.083,1.570,0.000,0.000,-1.354,-4.430,0.990,4.742,4.565,4.860,
19.440,26.004,-1.664,-5.029,1.600,0.000,6.272,1.597,1.093,0.710,1.434,3.643,4.130,1.430,4.995,4.095,1.596,0.000,3.001,0.000,0.000,0.000,0.000,0.000,0.000,0.000,0.000,0.000,0.000,0.000,3.142,6.283,0.000,1.003,1.569,1.569,4.085,6.281,1.199,4.712,0.000,0.000,-2.009,-4.449,0.990,4.742,4.541,4.882,5.281,4.711,4.712,2.198,6.282,5.083,1.570,0.000,0.000,-1.354,-4.430,0.990,4.742,4.565,4.860,
19.560,26.124,-1.664,-5.029,1.600,0.000,6.272,1.597,1.093,0.710,1.434,3.643,4.130,1.430,4.995,4.095,1.596,0.000,3.001,0.000,0.000,0.000,0.000,0.000,0.000,0.000,0.000,0.000,0.000,0.000,3.142,6.283,0.000,1.003,1.569,1.569,4.085,6.281,1.199,4.712,0.000,0.000,-2.009,-4.449,0.990,4.742,4.541,4.882,5.281,4.711,4.712,2.198,6.282,5.083,1.570,0.000,0.000,-1.354,-4.430,0.990,4.742,4.565,4.860,
19.660,26.224,-1.664,-5.029,1.600,0.000,6.272,1.597,1.093,0.710,1.434,3.643,4.130,1.430,4.995,4.095,1.596,0.000,3.001,0.000,0.000,0.000,0.000,0.000,0.000,0.000,0.000,0.000,0.000,0.000,3.142,6.283,0.000,1.003,1.569,1.569,4.085,6.281,1.199,4.712,0.000,0.000,-2.009,-4.449,0.990,4.742,4.541,4.882,5.281,4.711,4.712,2.198,6.282,5.083,1.570,0.000,0.000,-1.354,-4.430,0.990,4.742,4.565,4.860,
19.760,26.324,-1.664,-5.029,1.600,0.000,6.272,1.597,1.093,0.710,1.434,3.643,4.130,1.430,4.995,4.095,1.596,0.000,3.001,0.000,0.000,0.000,0.000,0.000,0.000,0.000,0.000,0.000,0.000,0.000,3.142,6.283,0.000,1.003,1.569,1.569,4.085,6.281,1.199,4.712,0.000,0.000,-2.009,-4.449,0.990,4.742,4.541,4.882,5.281,4.711,4.712,2.198,6.282,5.083,1.570,0.000,0.000,-1.354,-4.430,0.990,4.742,4.565,4.860,
19.860,26.424,-1.664,-5.029,1.600,0.000,6.272,1.597,1.093,0.710,1.434,3.643,4.130,1.430,4.995,4.095,1.596,0.000,3.001,0.000,0.000,0.000,0.000,0.000,0.000,0.000,0.000,0.000,0.000,0.000,3.142,6.283,0.000,1.003,1.569,1.569,4.085,6.281,1.199,4.712,0.000,0.000,-2.009,-4.449,0.990,4.742,4.541,4.882,5.281,4.711,4.712,2.198,6.282,5.083,1.570,0.000,0.000,-1.354,-4.430,0.990,4.742,4.565,4.860,
19.953,26.516,-1.664,-5.029,1.600,0.000,6.272,1.597,1.093,0.710,1.434,3.643,4.130,1.430,4.995,4.095,1.596,0.000,3.001,0.000,0.000,0.000,0.000,0.000,0.000,0.000,0.000,0.000,0.000,0.000,3.142,6.283,0.000,1.003,1.569,1.569,4.085,6.281,1.199,4.712,0.000,0.000,-2.009,-4.449,0.990,4.742,4.541,4.882,5.281,4.711,4.712,2.198,6.282,5.083,1.570,0.000,0.000,-1.354,-4.430,0.990,4.742,4.565,4.860,
20.060,26.624,-1.664,-5.029,1.600,0.000,6.272,1.597,1.093,0.710,1.434,3.643,4.130,1.430,4.995,4.095,1.596,0.000,3.001,0.000,0.000,0.000,0.000,0.000,0.000,0.000,0.000,0.000,0.000,0.000,3.142,6.283,0.000,1.003,1.569,1.569,4.085,6.281,1.199,4.712,0.000,0.000,-2.009,-4.449,0.990,4.742,4.541,4.882,5.281,4.711,4.712,2.198,6.282,5.083,1.570,0.000,0.000,-1.354,-4.430,0.990,4.742,4.565,4.860,
20.160,26.724,-1.664,-5.029,1.600,0.000,6.272,1.597,1.093,0.710,1.434,3.643,4.130,1.430,4.995,4.095,1.596,0.000,3.001,0.000,0.000,0.000,0.000,0.000,0.000,0.000,0.000,0.000,0.000,0.000,3.142,6.283,0.000,1.003,1.569,1.569,4.085,6.281,1.199,4.712,0.000,0.000,-2.009,-4.449,0.990,4.742,4.541,4.882,5.281,4.711,4.712,2.198,6.282,5.083,1.570,0.000,0.000,-1.354,-4.430,0.990,4.742,4.565,4.860,
20.260,26.824,-1.664,-5.029,1.600,0.000,6.272,1.597,1.093,0.710,1.434,3.643,4.130,1.430,4.995,4.095,1.596,0.000,3.001,0.000,0.000,0.000,0.000,0.000,0.000,0.000,0.000,0.000,0.000,0.000,3.142,6.283,0.000,1.003,1.569,1.569,4.085,6.281,1.199,4.712,0.000,0.000,-2.009,-4.449,0.990,4.742,4.541,4.882,5.281,4.711,4.712,2.198,6.282,5.083,1.570,0.000,0.000,-1.354,-4.430,0.990,4.742,4.565,4.860,
20.360,26.924,-1.664,-5.029,1.600,0.000,6.272,1.597,1.093,0.710,1.434,3.643,4.130,1.430,4.995,4.095,1.596,0.000,3.001,0.000,0.000,0.000,0.000,0.000,0.000,0.000,0.000,0.000,0.000,0.000,3.142,6.283,0.000,1.003,1.569,1.569,4.085,6.281,1.199,4.712,0.000,0.000,-2.009,-4.449,0.990,4.742,4.541,4.882,5.281,4.711,4.712,2.198,6.282,5.083,1.570,0.000,0.000,-1.354,-4.430,0.990,4.742,4.565,4.860,
20.460,27.024,-1.664,-5.029,1.600,0.000,6.272,1.597,1.093,0.710,1.434,3.643,4.130,1.430,4.995,4.095,1.596,0.000,3.001,0.000,0.000,0.000,0.000,0.000,0.000,0.000,0.000,0.000,0.000,0.000,3.142,6.283,0.000,1.003,1.569,1.569,4.085,6.281,1.199,4.712,0.000,0.000,-2.009,-4.449,0.990,4.742,4.541,4.882,5.281,4.711,4.712,2.198,6.282,5.083,1.570,0.000,0.000,-1.354,-4.430,0.990,4.742,4.565,4.860,
20.560,27.124,-1.664,-5.029,1.600,0.000,6.272,1.597,1.093,0.710,1.434,3.643,4.130,1.430,4.995,4.095,1.596,0.000,3.001,0.000,0.000,0.000,0.000,0.000,0.000,0.000,0.000,0.000,0.000,0.000,3.142,6.283,0.000,1.003,1.569,1.569,4.085,6.281,1.199,4.712,0.000,0.000,-2.009,-4.449,0.990,4.742,4.541,4.882,5.281,4.711,4.712,2.198,6.282,5.083,1.570,0.000,0.000,-1.354,-4.430,0.990,4.742,4.565,4.860,
20.660,27.224,-1.664,-5.029,1.600,0.000,6.272,1.597,1.093,0.710,1.434,3.643,4.130,1.430,4.995,4.095,1.596,0.000,3.001,0.000,0.000,0.000,0.000,0.000,0.000,0.000,0.000,0.000,0.000,0.000,3.142,6.283,0.000,1.003,1.569,1.569,4.085,6.281,1.199,4.712,0.000,0.000,-2.009,-4.449,0.990,4.742,4.541,4.882,5.281,4.711,4.712,2.198,6.282,5.083,1.570,0.000,0.000,-1.354,-4.430,0.990,4.742,4.565,4.860,
20.741,27.305,-1.664,-5.029,1.600,0.000,6.272,1.597,1.093,0.710,1.434,3.643,4.130,1.430,4.995,4.095,1.596,0.000,3.001,0.000,0.000,0.000,0.000,0.000,0.000,0.000,0.000,0.000,0.000,0.000,3.142,6.283,0.000,1.003,1.569,1.569,4.085,6.281,1.199,4.712,0.000,0.000,-2.009,-4.449,0.990,4.742,4.541,4.882,5.281,4.711,4.712,2.198,6.282,5.083,1.570,0.000,0.000,-1.354,-4.430,0.990,4.742,4.565,4.860,
20.860,27.424,-1.664,-5.029,1.600,0.000,6.272,1.597,1.093,0.710,1.434,3.643,4.130,1.430,4.995,4.095,1.596,0.000,3.001,0.000,0.000,0.000,0.000,0.000,0.000,0.000,0.000,0.000,0.000,0.000,3.142,6.283,0.000,1.003,1.569,1.569,4.085,6.281,1.199,4.712,0.000,0.000,-2.009,-4.449,0.990,4.742,4.541,4.882,5.281,4.711,4.712,2.198,6.282,5.083,1.570,0.000,0.000,-1.354,-4.430,0.990,4.742,4.565,4.860,
20.956,27.520,-1.664,-5.029,1.600,0.000,6.272,1.597,1.093,0.710,1.434,3.643,4.130,1.430,4.995,4.095,1.596,0.000,3.001,0.000,0.000,0.000,0.000,0.000,0.000,0.000,0.000,0.000,0.000,0.000,3.142,6.283,0.000,1.003,1.569,1.569,4.085,6.281,1.199,4.712,0.000,0.000,-2.009,-4.449,0.990,4.742,4.541,4.882,5.281,4.711,4.712,2.198,6.282,5.083,1.570,0.000,0.000,-1.354,-4.430,0.990,4.742,4.565,4.860,
21.060,27.624,-1.664,-5.029,1.600,0.000,6.272,1.597,1.093,0.710,1.434,3.643,4.130,1.430,4.995,4.095,1.596,0.000,3.001,0.000,0.000,0.000,0.000,0.000,0.000,0.000,0.000,0.000,0.000,0.000,3.142,6.283,0.000,1.003,1.569,1.569,4.085,6.281,1.199,4.712,0.000,0.000,-2.009,-4.449,0.990,4.742,4.541,4.882,5.281,4.711,4.712,2.198,6.282,5.083,1.570,0.000,0.000,-1.354,-4.430,0.990,4.742,4.565,4.860,
21.160,27.724,-1.664,-5.029,1.600,0.000,6.272,1.597,1.093,0.710,1.434,3.643,4.130,1.430,4.995,4.095,1.596,0.000,3.001,0.000,0.000,0.000,0.000,0.000,0.000,0.000,0.000,0.000,0.000,0.000,3.142,6.283,0.000,1.003,1.569,1.569,4.085,6.281,1.199,4.712,0.000,0.000,-2.009,-4.449,0.990,4.742,4.541,4.882,5.281,4.711,4.712,2.198,6.282,5.083,1.570,0.000,0.000,-1.354,-4.430,0.990,4.742,4.565,4.860,
21.260,27.824,-1.664,-5.029,1.600,0.000,6.272,1.597,1.093,0.710,1.434,3.643,4.130,1.430,4.995,4.095,1.596,0.000,3.001,0.000,0.000,0.000,0.000,0.000,0.000,0.000,0.000,0.000,0.000,0.000,3.142,6.283,0.000,1.003,1.569,1.569,4.085,6.281,1.199,4.712,0.000,0.000,-2.009,-4.449,0.990,4.742,4.541,4.882,5.281,4.711,4.712,2.198,6.282,5.083,1.570,0.000,0.000,-1.354,-4.430,0.990,4.742,4.565,4.860,
21.360,27.924,-1.664,-5.029,1.600,0.000,6.272,1.597,1.093,0.710,1.434,3.643,4.130,1.430,4.995,4.095,1.596,0.000,3.001,0.000,0.000,0.000,0.000,0.000,0.000,0.000,0.000,0.000,0.000,0.000,3.142,6.283,0.000,1.003,1.569,1.569,4.085,6.281,1.199,4.712,0.000,0.000,-2.009,-4.449,0.990,4.742,4.541,4.882,5.281,4.711,4.712,2.198,6.282,5.083,1.570,0.000,0.000,-1.354,-4.430,0.990,4.742,4.565,4.860,
21.460,28.024,-1.664,-5.029,1.600,0.000,6.272,1.597,1.093,0.710,1.434,3.643,4.130,1.430,4.995,4.095,1.596,0.000,3.001,0.000,0.000,0.000,0.000,0.000,0.000,0.000,0.000,0.000,0.000,0.000,3.142,6.283,0.000,1.003,1.569,1.569,4.085,6.281,1.199,4.712,0.000,0.000,-2.009,-4.449,0.990,4.742,4.541,4.882,5.281,4.711,4.712,2.198,6.282,5.083,1.570,0.000,0.000,-1.354,-4.430,0.990,4.742,4.565,4.860,
21.560,28.124,-1.664,-5.029,1.600,0.000,6.272,1.597,1.093,0.710,1.434,3.643,4.130,1.430,4.995,4.095,1.596,0.000,3.001,0.000,0.000,0.000,0.000,0.000,0.000,0.000,0.000,0.000,0.000,0.000,3.142,6.283,0.000,1.003,1.569,1.569,4.085,6.281,1.199,4.712,0.000,0.000,-2.009,-4.449,0.990,4.742,4.541,4.882,5.281,4.711,4.712,2.198,6.282,5.083,1.570,0.000,0.000,-1.354,-4.430,0.990,4.742,4.565,4.860,
21.660,28.224,-1.664,-5.029,1.600,0.000,6.272,1.597,1.093,0.710,1.434,3.643,4.130,1.430,4.995,4.095,1.596,0.000,3.001,0.000,0.000,0.000,0.000,0.000,0.000,0.000,0.000,0.000,0.000,0.000,3.142,6.283,0.000,1.003,1.569,1.569,4.085,6.281,1.199,4.712,0.000,0.000,-2.009,-4.449,0.990,4.742,4.541,4.882,5.281,4.711,4.712,2.198,6.282,5.083,1.570,0.000,0.000,-1.354,-4.430,0.990,4.742,4.565,4.860,
21.745,28.309,-1.664,-5.029,1.600,0.000,6.272,1.597,1.093,0.710,1.434,3.643,4.130,1.430,4.995,4.095,1.596,0.000,3.001,0.000,0.000,0.000,0.000,0.000,0.000,0.000,0.000,0.000,0.000,0.000,3.142,6.283,0.000,1.003,1.569,1.569,4.085,6.281,1.199,4.712,0.000,0.000,-2.009,-4.449,0.990,4.742,4.541,4.882,5.281,4.711,4.712,2.198,6.282,5.083,1.570,0.000,0.000,-1.354,-4.430,0.990,4.742,4.565,4.860,
21.860,28.424,-1.664,-5.029,1.600,0.000,6.272,1.597,1.093,0.710,1.434,3.643,4.130,1.430,4.995,4.095,1.596,0.000,3.001,0.000,0.000,0.000,0.000,0.000,0.000,0.000,0.000,0.000,0.000,0.000,3.142,6.283,0.000,1.003,1.569,1.569,4.085,6.281,1.199,4.712,0.000,0.000,-2.009,-4.449,0.990,4.742,4.541,4.882,5.281,4.711,4.712,2.198,6.282,5.083,1.570,0.000,0.000,-1.354,-4.430,0.990,4.742,4.565,4.860,
21.960,28.524,-1.664,-5.029,1.600,0.000,6.272,1.597,1.093,0.710,1.434,3.643,4.130,1.430,4.995,4.095,1.596,0.000,3.001,0.000,0.000,0.000,0.000,0.000,0.000,0.000,0.000,0.000,0.000,0.000,3.142,6.283,0.000,1.003,1.569,1.569,4.085,6.281,1.199,4.712,0.000,0.000,-2.009,-4.449,0.990,4.742,4.541,4.882,5.281,4.711,4.712,2.198,6.282,5.083,1.570,0.000,0.000,-1.354,-4.430,0.990,4.742,4.565,4.860,
22.045,28.609,-1.664,-5.029,1.600,0.000,6.272,1.597,1.093,0.710,1.434,3.643,4.130,1.430,4.995,4.095,1.596,0.000,3.001,0.000,0.000,0.000,0.000,0.000,0.000,0.000,0.000,0.000,0.000,0.000,3.142,6.283,0.000,1.003,1.569,1.569,4.085,6.281,1.199,4.712,0.000,0.000,-2.009,-4.449,0.990,4.742,4.541,4.882,5.281,4.711,4.712,2.198,6.282,5.083,1.570,0.000,0.000,-1.354,-4.430,0.990,4.742,4.565,4.860,
22.160,28.724,-1.664,-5.029,1.600,0.000,6.272,1.597,1.093,0.710,1.434,3.643,4.130,1.430,4.995,4.095,1.596,0.000,3.001,0.000,0.000,0.000,0.000,0.000,0.000,0.000,0.000,0.000,0.000,0.000,3.142,6.283,0.000,1.003,1.569,1.569,4.085,6.281,1.199,4.712,0.000,0.000,-2.009,-4.449,0.990,4.742,4.541,4.882,5.281,4.711,4.712,2.198,6.282,5.083,1.570,0.000,0.000,-1.354,-4.430,0.990,4.742,4.565,4.860,
22.252,28.816,-1.664,-5.029,1.600,0.000,6.272,1.597,1.093,0.710,1.434,3.643,4.130,1.430,4.995,4.095,1.596,0.000,3.001,0.000,0.000,0.000,0.000,0.000,0.000,0.000,0.000,0.000,0.000,0.000,3.142,6.283,0.000,1.003,1.569,1.569,4.085,6.281,1.199,4.712,0.000,0.000,-2.009,-4.449,0.990,4.742,4.541,4.882,5.281,4.711,4.712,2.198,6.282,5.083,1.570,0.000,0.000,-1.354,-4.430,0.990,4.742,4.565,4.860,
22.360,28.924,-1.664,-5.029,1.600,0.000,6.272,1.597,1.093,0.710,1.434,3.643,4.130,1.430,4.995,4.095,1.596,0.000,3.001,0.000,0.000,0.000,0.000,0.000,0.000,0.000,0.000,0.000,0.000,0.000,3.142,6.283,0.000,1.003,1.569,1.569,4.085,6.281,1.199,4.712,0.000,0.000,-2.009,-4.449,0.990,4.742,4.541,4.882,5.281,4.711,4.712,2.198,6.282,5.083,1.570,0.000,0.000,-1.354,-4.430,0.990,4.742,4.565,4.860,
22.460,29.024,-1.664,-5.029,1.600,0.000,6.272,1.597,1.093,0.710,1.434,3.643,4.130,1.430,4.995,4.095,1.596,0.000,3.001,0.000,0.000,0.000,0.000,0.000,0.000,0.000,0.000,0.000,0.000,0.000,3.142,6.283,0.000,1.003,1.569,1.569,4.085,6.281,1.199,4.712,0.000,0.000,-2.009,-4.449,0.990,4.742,4.541,4.882,5.281,4.711,4.712,2.198,6.282,5.083,1.570,0.000,0.000,-1.354,-4.430,0.990,4.742,4.565,4.860,
22.560,29.124,-1.664,-5.029,1.600,0.000,6.272,1.597,1.093,0.710,1.434,3.643,4.130,1.430,4.995,4.095,1.596,0.000,3.001,0.000,0.000,0.000,0.000,0.000,0.000,0.000,0.000,0.000,0.000,0.000,3.142,6.283,0.000,1.003,1.569,1.569,4.085,6.281,1.199,4.712,0.000,0.000,-2.009,-4.449,0.990,4.742,4.541,4.882,5.281,4.711,4.712,2.198,6.282,5.083,1.570,0.000,0.000,-1.354,-4.430,0.990,4.742,4.565,4.860,
22.660,29.224,-1.664,-5.029,1.600,0.000,6.272,1.597,1.093,0.710,1.434,3.643,4.130,1.430,4.995,4.095,1.596,0.000,3.001,0.000,0.000,0.000,0.000,0.000,0.000,0.000,0.000,0.000,0.000,0.000,3.142,6.283,0.000,1.003,1.569,1.569,4.085,6.281,1.199,4.712,0.000,0.000,-2.009,-4.449,0.990,4.742,4.541,4.882,5.281,4.711,4.712,2.198,6.282,5.083,1.570,0.000,0.000,-1.354,-4.430,0.990,4.742,4.565,4.860,
22.753,29.316,-1.664,-5.029,1.600,0.000,6.272,1.597,1.093,0.710,1.434,3.643,4.130,1.430,4.995,4.095,1.596,0.000,3.001,0.000,0.000,0.000,0.000,0.000,0.000,0.000,0.000,0.000,0.000,0.000,3.142,6.283,0.000,1.003,1.569,1.569,4.085,6.281,1.199,4.712,0.000,0.000,-2.009,-4.449,0.990,4.742,4.541,4.882,5.281,4.711,4.712,2.198,6.282,5.083,1.570,0.000,0.000,-1.354,-4.430,0.990,4.742,4.565,4.860,
22.860,29.424,-1.664,-5.029,1.600,0.000,6.272,1.597,1.093,0.710,1.434,3.643,4.130,1.430,4.995,4.095,1.596,0.000,3.001,0.000,0.000,0.000,0.000,0.000,0.000,0.000,0.000,0.000,0.000,0.000,3.142,6.283,0.000,1.003,1.569,1.569,4.085,6.281,1.199,4.712,0.000,0.000,-2.009,-4.449,0.990,4.742,4.541,4.882,5.281,4.711,4.712,2.198,6.282,5.083,1.570,0.000,0.000,-1.354,-4.430,0.990,4.742,4.565,4.860,
22.960,29.524,-1.664,-5.029,1.600,0.000,6.272,1.597,1.093,0.710,1.434,3.643,4.130,1.430,4.995,4.095,1.596,0.000,3.001,0.000,0.000,0.000,0.000,0.000,0.000,0.000,0.000,0.000,0.000,0.000,3.142,6.283,0.000,1.003,1.569,1.569,4.085,6.281,1.199,4.712,0.000,0.000,-2.009,-4.449,0.990,4.742,4.541,4.882,5.281,4.711,4.712,2.198,6.282,5.083,1.570,0.000,0.000,-1.354,-4.430,0.990,4.742,4.565,4.860,
23.060,29.624,-1.664,-5.029,1.600,0.000,6.272,1.597,1.093,0.710,1.434,3.643,4.130,1.430,4.995,4.095,1.596,0.000,3.001,0.000,0.000,0.000,0.000,0.000,0.000,0.000,0.000,0.000,0.000,0.000,3.142,6.283,0.000,1.003,1.569,1.569,4.085,6.281,1.199,4.712,0.000,0.000,-2.009,-4.449,0.990,4.742,4.541,4.882,5.281,4.711,4.712,2.198,6.282,5.083,1.570,0.000,0.000,-1.354,-4.430,0.990,4.742,4.565,4.860,
23.160,29.724,-1.664,-5.029,1.600,0.000,6.272,1.597,1.093,0.710,1.434,3.643,4.130,1.430,4.995,4.095,1.596,0.000,3.001,0.000,0.000,0.000,0.000,0.000,0.000,0.000,0.000,0.000,0.000,0.000,3.142,6.283,0.000,1.003,1.569,1.569,4.085,6.281,1.199,4.712,0.000,0.000,-2.009,-4.449,0.990,4.742,4.541,4.882,5.281,4.711,4.712,2.198,6.282,5.083,1.570,0.000,0.000,-1.354,-4.430,0.990,4.742,4.565,4.860,
23.260,29.824,-1.664,-5.029,1.600,0.000,6.272,1.597,1.093,0.710,1.434,3.643,4.130,1.430,4.995,4.095,1.596,0.000,3.001,0.000,0.000,0.000,0.000,0.000,0.000,0.000,0.000,0.000,0.000,0.000,3.142,6.283,0.000,1.003,1.569,1.569,4.085,6.281,1.199,4.712,0.000,0.000,-2.009,-4.449,0.990,4.742,4.541,4.882,5.281,4.711,4.712,2.198,6.282,5.083,1.570,0.000,0.000,-1.354,-4.430,0.990,4.742,4.565,4.860,
23.360,29.924,-1.664,-5.029,1.600,0.000,6.272,1.597,1.093,0.710,1.434,3.643,4.130,1.430,4.995,4.095,1.596,0.000,3.001,0.000,0.000,0.000,0.000,0.000,0.000,0.000,0.000,0.000,0.000,0.000,3.142,6.283,0.000,1.003,1.569,1.569,4.085,6.281,1.199,4.712,0.000,0.000,-2.009,-4.449,0.990,4.742,4.541,4.882,5.281,4.711,4.712,2.198,6.282,5.083,1.570,0.000,0.000,-1.354,-4.430,0.990,4.742,4.565,4.860,
23.460,30.024,-1.664,-5.029,1.600,0.000,6.272,1.597,1.093,0.710,1.434,3.643,4.130,1.430,4.995,4.095,1.596,0.000,3.001,0.000,0.000,0.000,0.000,0.000,0.000,0.000,0.000,0.000,0.000,0.000,3.142,6.283,0.000,1.003,1.569,1.569,4.085,6.281,1.199,4.712,0.000,0.000,-2.009,-4.449,0.990,4.742,4.541,4.882,5.281,4.711,4.712,2.198,6.282,5.083,1.570,0.000,0.000,-1.354,-4.430,0.990,4.742,4.565,4.860,
23.548,30.111,-1.664,-5.029,1.600,0.000,6.272,1.597,1.093,0.710,1.434,3.643,4.130,1.430,4.995,4.095,1.596,0.000,3.001,0.000,0.000,0.000,0.000,0.000,0.000,0.000,0.000,0.000,0.000,0.000,3.142,6.283,0.000,1.003,1.569,1.569,4.085,6.281,1.199,4.712,0.000,0.000,-2.009,-4.449,0.990,4.742,4.541,4.882,5.281,4.711,4.712,2.198,6.282,5.083,1.570,0.000,0.000,-1.354,-4.430,0.990,4.742,4.565,4.860,
23.660,30.224,-1.664,-5.029,1.600,0.000,6.272,1.597,1.093,0.710,1.434,3.643,4.130,1.430,4.995,4.095,1.596,0.000,3.001,0.000,0.000,0.000,0.000,0.000,0.000,0.000,0.000,0.000,0.000,0.000,3.142,6.283,0.000,1.003,1.569,1.569,4.085,6.281,1.199,4.712,0.000,0.000,-2.009,-4.449,0.990,4.742,4.541,4.882,5.281,4.711,4.712,2.198,6.282,5.083,1.570,0.000,0.000,-1.354,-4.430,0.990,4.742,4.565,4.860,
23.760,30.324,-1.664,-5.029,1.600,0.000,6.272,1.597,1.093,0.710,1.434,3.643,4.130,1.430,4.995,4.095,1.596,0.000,3.001,0.000,0.000,0.000,0.000,0.000,0.000,0.000,0.000,0.000,0.000,0.000,3.142,6.283,0.000,1.003,1.569,1.569,4.085,6.281,1.199,4.712,0.000,0.000,-2.009,-4.449,0.990,4.742,4.541,4.882,5.281,4.711,4.712,2.198,6.282,5.083,1.570,0.000,0.000,-1.354,-4.430,0.990,4.742,4.565,4.860,
23.860,30.424,-1.664,-5.029,1.600,0.000,6.272,1.597,1.093,0.710,1.434,3.643,4.130,1.430,4.995,4.095,1.596,0.000,3.001,0.000,0.000,0.000,0.000,0.000,0.000,0.000,0.000,0.000,0.000,0.000,3.142,6.283,0.000,1.003,1.569,1.569,4.085,6.281,1.199,4.712,0.000,0.000,-2.009,-4.449,0.990,4.742,4.541,4.882,5.281,4.711,4.712,2.198,6.282,5.083,1.570,0.000,0.000,-1.354,-4.430,0.990,4.742,4.565,4.860,
23.960,30.524,-1.664,-5.029,1.600,0.000,6.272,1.597,1.093,0.710,1.434,3.643,4.130,1.430,4.995,4.095,1.596,0.000,3.001,0.000,0.000,0.000,0.000,0.000,0.000,0.000,0.000,0.000,0.000,0.000,3.142,6.283,0.000,1.003,1.569,1.569,4.085,6.281,1.199,4.712,0.000,0.000,-2.009,-4.449,0.990,4.742,4.541,4.882,5.281,4.711,4.712,2.198,6.282,5.083,1.570,0.000,0.000,-1.354,-4.430,0.990,4.742,4.565,4.860,
24.058,30.622,-1.664,-5.029,1.600,0.000,6.272,1.597,1.093,0.710,1.434,3.643,4.130,1.430,4.995,4.095,1.596,0.000,3.001,0.000,0.000,0.000,0.000,0.000,0.000,0.000,0.000,0.000,0.000,0.000,3.142,6.283,0.000,1.003,1.569,1.569,4.085,6.281,1.199,4.712,0.000,0.000,-2.009,-4.449,0.990,4.742,4.541,4.882,5.281,4.711,4.712,2.198,6.282,5.083,1.570,0.000,0.000,-1.354,-4.430,0.990,4.742,4.565,4.860,
24.160,30.724,-1.664,-5.029,1.600,0.000,6.272,1.597,1.093,0.710,1.434,3.643,4.130,1.430,4.995,4.095,1.596,0.000,3.001,0.000,0.000,0.000,0.000,0.000,0.000,0.000,0.000,0.000,0.000,0.000,3.142,6.283,0.000,1.003,1.569,1.569,4.085,6.281,1.199,4.712,0.000,0.000,-2.009,-4.449,0.990,4.742,4.541,4.882,5.281,4.711,4.712,2.198,6.282,5.083,1.570,0.000,0.000,-1.354,-4.430,0.990,4.742,4.565,4.860,
24.260,30.824,-1.664,-5.029,1.600,0.000,6.272,1.597,1.093,0.710,1.434,3.643,4.130,1.430,4.995,4.095,1.596,0.000,3.001,0.000,0.000,0.000,0.000,0.000,0.000,0.000,0.000,0.000,0.000,0.000,3.142,6.283,0.000,1.003,1.569,1.569,4.085,6.281,1.199,4.712,0.000,0.000,-2.009,-4.449,0.990,4.742,4.541,4.882,5.281,4.711,4.712,2.198,6.282,5.083,1.570,0.000,0.000,-1.354,-4.430,0.990,4.742,4.565,4.860,
24.341,30.905,-1.664,-5.029,1.600,0.000,6.272,1.597,1.093,0.710,1.434,3.643,4.130,1.430,4.995,4.095,1.596,0.000,3.001,0.000,0.000,0.000,0.000,0.000,0.000,0.000,0.000,0.000,0.000,0.000,3.142,6.283,0.000,1.003,1.569,1.569,4.085,6.281,1.199,4.712,0.000,0.000,-2.009,-4.449,0.990,4.742,4.541,4.882,5.281,4.711,4.712,2.198,6.282,5.083,1.570,0.000,0.000,-1.354,-4.430,0.990,4.742,4.565,4.860,
24.460,31.024,-1.664,-5.029,1.600,0.000,6.272,1.597,1.093,0.710,1.434,3.643,4.130,1.430,4.995,4.095,1.596,0.000,3.001,0.000,0.000,0.000,0.000,0.000,0.000,0.000,0.000,0.000,0.000,0.000,3.142,6.283,0.000,1.003,1.569,1.569,4.085,6.281,1.199,4.712,0.000,0.000,-2.009,-4.449,0.990,4.742,4.541,4.882,5.281,4.711,4.712,2.198,6.282,5.083,1.570,0.000,0.000,-1.354,-4.430,0.990,4.742,4.565,4.860,
24.554,31.118,-1.664,-5.029,1.600,0.000,6.272,1.597,1.093,0.710,1.434,3.643,4.130,1.430,4.995,4.095,1.596,0.000,3.001,0.000,0.000,0.000,0.000,0.000,0.000,0.000,0.000,0.000,0.000,0.000,3.142,6.283,0.000,1.003,1.569,1.569,4.085,6.281,1.199,4.712,0.000,0.000,-2.009,-4.449,0.990,4.742,4.541,4.882,5.281,4.711,4.712,2.198,6.282,5.083,1.570,0.000,0.000,-1.354,-4.430,0.990,4.742,4.565,4.860,
24.660,31.224,-1.664,-5.029,1.600,0.000,6.272,1.597,1.093,0.710,1.434,3.643,4.130,1.430,4.995,4.095,1.596,0.000,3.001,0.000,0.000,0.000,0.000,0.000,0.000,0.000,0.000,0.000,0.000,0.000,3.142,6.283,0.000,1.003,1.569,1.569,4.085,6.281,1.199,4.712,0.000,0.000,-2.009,-4.449,0.990,4.742,4.541,4.882,5.281,4.711,4.712,2.198,6.282,5.083,1.570,0.000,0.000,-1.354,-4.430,0.990,4.742,4.565,4.860,
24.760,31.324,-1.664,-5.029,1.600,0.000,6.272,1.597,1.093,0.710,1.434,3.643,4.130,1.430,4.995,4.095,1.596,0.000,3.001,0.000,0.000,0.000,0.000,0.000,0.000,0.000,0.000,0.000,0.000,0.000,3.142,6.283,0.000,1.003,1.569,1.569,4.085,6.281,1.199,4.712,0.000,0.000,-2.009,-4.449,0.990,4.742,4.541,4.882,5.281,4.711,4.712,2.198,6.282,5.083,1.570,0.000,0.000,-1.354,-4.430,0.990,4.742,4.565,4.860,
24.860,31.424,-1.664,-5.029,1.600,0.000,6.272,1.597,1.093,0.710,1.434,3.643,4.130,1.430,4.995,4.095,1.596,0.000,3.001,0.000,0.000,0.000,0.000,0.000,0.000,0.000,0.000,0.000,0.000,0.000,3.142,6.283,0.000,1.003,1.569,1.569,4.085,6.281,1.199,4.712,0.000,0.000,-2.009,-4.449,0.990,4.742,4.541,4.882,5.281,4.711,4.712,2.198,6.282,5.083,1.570,0.000,0.000,-1.354,-4.430,0.990,4.742,4.565,4.860,
24.960,31.524,-1.664,-5.029,1.600,0.000,6.272,1.597,1.093,0.710,1.434,3.643,4.130,1.430,4.995,4.095,1.596,0.000,3.001,0.000,0.000,0.000,0.000,0.000,0.000,0.000,0.000,0.000,0.000,0.000,3.142,6.283,0.000,1.003,1.569,1.569,4.085,6.281,1.199,4.712,0.000,0.000,-2.009,-4.449,0.990,4.742,4.541,4.882,5.281,4.711,4.712,2.198,6.282,5.083,1.570,0.000,0.000,-1.354,-4.430,0.990,4.742,4.565,4.860,
25.060,31.624,-1.664,-5.029,1.600,0.000,6.272,1.597,1.093,0.710,1.434,3.643,4.130,1.430,4.995,4.095,1.596,0.000,3.001,0.000,0.000,0.000,0.000,0.000,0.000,0.000,0.000,0.000,0.000,0.000,3.142,6.283,0.000,1.003,1.569,1.569,4.085,6.281,1.199,4.712,0.000,0.000,-2.009,-4.449,0.990,4.742,4.541,4.882,5.281,4.711,4.712,2.198,6.282,5.083,1.570,0.000,0.000,-1.354,-4.430,0.990,4.742,4.565,4.860,
25.160,31.724,-1.664,-5.029,1.600,0.000,6.272,1.597,1.093,0.710,1.434,3.643,4.130,1.430,4.995,4.095,1.596,0.000,3.001,0.000,0.000,0.000,0.000,0.000,0.000,0.000,0.000,0.000,0.000,0.000,3.142,6.283,0.000,1.003,1.569,1.569,4.085,6.281,1.199,4.712,0.000,0.000,-2.009,-4.449,0.990,4.742,4.541,4.882,5.281,4.711,4.712,2.198,6.282,5.083,1.570,0.000,0.000,-1.354,-4.430,0.990,4.742,4.565,4.860,
25.260,31.824,-1.664,-5.029,1.600,0.000,6.272,1.597,1.093,0.710,1.434,3.643,4.130,1.430,4.995,4.095,1.596,0.000,3.001,0.000,0.000,0.000,0.000,0.000,0.000,0.000,0.000,0.000,0.000,0.000,3.142,6.283,0.000,1.003,1.569,1.569,4.085,6.281,1.199,4.712,0.000,0.000,-2.009,-4.449,0.990,4.742,4.541,4.882,5.281,4.711,4.712,2.198,6.282,5.083,1.570,0.000,0.000,-1.354,-4.430,0.990,4.742,4.565,4.860,
25.360,31.924,-1.664,-5.029,1.600,0.000,6.272,1.597,1.093,0.710,1.434,3.643,4.130,1.430,4.995,4.095,1.596,0.000,3.001,0.000,0.000,0.000,0.000,0.000,0.000,0.000,0.000,0.000,0.000,0.000,3.142,6.283,0.000,1.003,1.569,1.569,4.085,6.281,1.199,4.712,0.000,0.000,-2.009,-4.449,0.990,4.742,4.541,4.882,5.281,4.711,4.712,2.198,6.282,5.083,1.570,0.000,0.000,-1.354,-4.430,0.990,4.742,4.565,4.860,
25.460,32.024,-1.664,-5.029,1.600,0.000,6.272,1.597,1.093,0.710,1.434,3.643,4.130,1.430,4.995,4.095,1.596,0.000,3.001,0.000,0.000,0.000,0.000,0.000,0.000,0.000,0.000,0.000,0.000,0.000,3.142,6.283,0.000,1.003,1.569,1.569,4.085,6.281,1.199,4.712,0.000,0.000,-2.009,-4.449,0.990,4.742,4.541,4.882,5.281,4.711,4.712,2.198,6.282,5.083,1.570,0.000,0.000,-1.354,-4.430,0.990,4.742,4.565,4.860,
25.558,32.122,-1.664,-5.029,1.600,0.000,6.272,1.597,1.093,0.710,1.434,3.643,4.130,1.430,4.995,4.095,1.596,0.000,3.001,0.000,0.000,0.000,0.000,0.000,0.000,0.000,0.000,0.000,0.000,0.000,3.142,6.283,0.000,1.003,1.569,1.569,4.085,6.281,1.199,4.712,0.000,0.000,-2.009,-4.449,0.990,4.742,4.541,4.882,5.281,4.711,4.712,2.198,6.282,5.083,1.570,0.000,0.000,-1.354,-4.430,0.990,4.742,4.565,4.860,
25.660,32.224,-1.664,-5.029,1.600,0.000,6.272,1.597,1.093,0.710,1.434,3.643,4.130,1.430,4.995,4.095,1.596,0.000,3.001,0.000,0.000,0.000,0.000,0.000,0.000,0.000,0.000,0.000,0.000,0.000,3.142,6.283,0.000,1.003,1.569,1.569,4.085,6.281,1.199,4.712,0.000,0.000,-2.009,-4.449,0.990,4.742,4.541,4.882,5.281,4.711,4.712,2.198,6.282,5.083,1.570,0.000,0.000,-1.354,-4.430,0.990,4.742,4.565,4.860,
25.760,32.324,-1.664,-5.029,1.600,0.000,6.272,1.597,1.093,0.710,1.434,3.643,4.130,1.430,4.995,4.095,1.596,0.000,3.001,0.000,0.000,0.000,0.000,0.000,0.000,0.000,0.000,0.000,0.000,0.000,3.142,6.283,0.000,1.003,1.569,1.569,4.085,6.281,1.199,4.712,0.000,0.000,-2.009,-4.449,0.990,4.742,4.541,4.882,5.281,4.711,4.712,2.198,6.282,5.083,1.570,0.000,0.000,-1.354,-4.430,0.990,4.742,4.565,4.860,
25.860,32.424,-1.664,-5.029,1.600,0.000,6.272,1.597,1.093,0.710,1.434,3.643,4.130,1.430,4.995,4.095,1.596,0.000,3.001,0.000,0.000,0.000,0.000,0.000,0.000,0.000,0.000,0.000,0.000,0.000,3.142,6.283,0.000,1.003,1.569,1.569,4.085,6.281,1.199,4.712,0.000,0.000,-2.009,-4.449,0.990,4.742,4.541,4.882,5.281,4.711,4.712,2.198,6.282,5.083,1.570,0.000,0.000,-1.354,-4.430,0.990,4.742,4.565,4.860,
25.960,32.524,-1.664,-5.029,1.600,0.000,6.272,1.597,1.093,0.710,1.434,3.643,4.130,1.430,4.995,4.095,1.596,0.000,3.001,0.000,0.000,0.000,0.000,0.000,0.000,0.000,0.000,0.000,0.000,0.000,3.142,6.283,0.000,1.003,1.569,1.569,4.085,6.281,1.199,4.712,0.000,0.000,-2.009,-4.449,0.990,4.742,4.541,4.882,5.281,4.711,4.712,2.198,6.282,5.083,1.570,0.000,0.000,-1.354,-4.430,0.990,4.742,4.565,4.860,
26.060,32.624,-1.664,-5.029,1.600,0.000,6.272,1.597,1.093,0.710,1.434,3.643,4.130,1.430,4.995,4.095,1.596,0.000,3.001,0.000,0.000,0.000,0.000,0.000,0.000,0.000,0.000,0.000,0.000,0.000,3.142,6.283,0.000,1.003,1.569,1.569,4.085,6.281,1.199,4.712,0.000,0.000,-2.009,-4.449,0.990,4.742,4.541,4.882,5.281,4.711,4.712,2.198,6.282,5.083,1.570,0.000,0.000,-1.354,-4.430,0.990,4.742,4.565,4.860,
26.160,32.724,-1.664,-5.029,1.600,0.000,6.272,1.597,1.093,0.710,1.434,3.643,4.130,1.430,4.995,4.095,1.596,0.000,3.001,0.000,0.000,0.000,0.000,0.000,0.000,0.000,0.000,0.000,0.000,0.000,3.142,6.283,0.000,1.003,1.569,1.569,4.085,6.281,1.199,4.712,0.000,0.000,-2.009,-4.449,0.990,4.742,4.541,4.882,5.281,4.711,4.712,2.198,6.282,5.083,1.570,0.000,0.000,-1.354,-4.430,0.990,4.742,4.565,4.860,
26.260,32.824,-1.664,-5.029,1.600,0.000,6.272,1.597,1.093,0.710,1.434,3.643,4.130,1.430,4.995,4.095,1.596,0.000,3.001,0.000,0.000,0.000,0.000,0.000,0.000,0.000,0.000,0.000,0.000,0.000,3.142,6.283,0.000,1.003,1.569,1.569,4.085,6.281,1.199,4.712,0.000,0.000,-2.009,-4.449,0.990,4.742,4.541,4.882,5.281,4.711,4.712,2.198,6.282,5.083,1.570,0.000,0.000,-1.354,-4.430,0.990,4.742,4.565,4.860,
26.357,32.921,-1.664,-5.029,1.600,0.000,6.272,1.597,1.093,0.710,1.434,3.643,4.130,1.430,4.995,4.095,1.596,0.000,3.001,0.000,0.000,0.000,0.000,0.000,0.000,0.000,0.000,0.000,0.000,0.000,3.142,6.283,0.000,1.003,1.569,1.569,4.085,6.281,1.199,4.712,0.000,0.000,-2.009,-4.449,0.990,4.742,4.541,4.882,5.281,4.711,4.712,2.198,6.282,5.083,1.570,0.000,0.000,-1.354,-4.430,0.990,4.742,4.565,4.860,
26.460,33.024,-1.664,-5.029,1.600,0.000,6.272,1.597,1.093,0.710,1.434,3.643,4.130,1.430,4.995,4.095,1.596,0.000,3.001,0.000,0.000,0.000,0.000,0.000,0.000,0.000,0.000,0.000,0.000,0.000,3.142,6.283,0.000,1.003,1.569,1.569,4.085,6.281,1.199,4.712,0.000,0.000,-2.009,-4.449,0.990,4.742,4.541,4.882,5.281,4.711,4.712,2.198,6.282,5.083,1.570,0.000,0.000,-1.354,-4.430,0.990,4.742,4.565,4.860,
26.560,33.124,-1.664,-5.029,1.600,0.000,6.272,1.597,1.093,0.710,1.434,3.643,4.130,1.430,4.995,4.095,1.596,0.000,3.001,0.000,0.000,0.000,0.000,0.000,0.000,0.000,0.000,0.000,0.000,0.000,3.142,6.283,0.000,1.003,1.569,1.569,4.085,6.281,1.199,4.712,0.000,0.000,-2.009,-4.449,0.990,4.742,4.541,4.882,5.281,4.711,4.712,2.198,6.282,5.083,1.570,0.000,0.000,-1.354,-4.430,0.990,4.742,4.565,4.860,
26.647,33.210,-1.664,-5.029,1.600,0.000,6.272,1.597,1.093,0.710,1.434,3.643,4.130,1.430,4.995,4.095,1.596,0.000,3.001,0.000,0.000,0.000,0.000,0.000,0.000,0.000,0.000,0.000,0.000,0.000,3.142,6.283,0.000,1.003,1.569,1.569,4.085,6.281,1.199,4.712,0.000,0.000,-2.009,-4.449,0.990,4.742,4.541,4.882,5.281,4.711,4.712,2.198,6.282,5.083,1.570,0.000,0.000,-1.354,-4.430,0.990,4.742,4.565,4.860,
26.760,33.324,-1.664,-5.029,1.600,0.000,6.272,1.597,1.093,0.710,1.434,3.643,4.130,1.430,4.995,4.095,1.596,0.000,3.001,0.000,0.000,0.000,0.000,0.000,0.000,0.000,0.000,0.000,0.000,0.000,3.142,6.283,0.000,1.003,1.569,1.569,4.085,6.281,1.199,4.712,0.000,0.000,-2.009,-4.449,0.990,4.742,4.541,4.882,5.281,4.711,4.712,2.198,6.282,5.083,1.570,0.000,0.000,-1.354,-4.430,0.990,4.742,4.565,4.860,
26.860,33.423,-1.664,-5.029,1.600,0.000,6.272,1.597,1.093,0.710,1.434,3.643,4.130,1.430,4.995,0.000,1.596,0.000,3.001,0.000,0.000,0.000,0.000,0.000,0.000,0.000,0.000,0.681,0.000,0.000,3.142,6.283,0.000,1.003,1.569,1.569,4.085,6.281,1.199,4.712,0.000,0.000,-2.009,-4.449,0.990,4.742,4.541,4.882,5.281,4.711,4.712,2.198,6.282,5.083,1.570,0.000,0.000,-1.354,-4.430,0.990,4.742,4.565,4.860,
26.960,33.524,-1.664,-5.029,1.600,0.000,6.272,1.597,1.093,0.710,1.434,3.643,4.130,1.430,4.995,0.000,1.596,0.000,3.001,0.000,0.000,0.000,0.000,0.000,0.000,0.000,0.000,0.573,0.000,0.000,3.142,6.283,0.000,1.003,1.569,1.569,4.085,6.281,1.199,4.712,0.000,0.000,-2.009,-4.449,0.990,4.742,4.541,4.882,5.281,4.711,4.712,2.198,6.282,5.083,1.570,0.000,0.000,-1.354,-4.430,0.990,4.742,4.565,4.860,
27.060,33.624,-1.664,-5.029,1.600,0.000,6.272,1.597,1.093,0.710,1.434,3.643,4.130,1.430,4.995,0.000,1.596,0.000,3.001,0.000,0.000,0.000,0.000,0.000,0.000,0.000,0.000,0.446,0.000,0.000,3.142,6.283,0.000,1.003,1.569,1.569,4.085,6.281,1.199,4.712,0.000,0.000,-2.009,-4.449,0.990,4.742,4.541,4.882,5.281,4.711,4.712,2.198,6.282,5.083,1.570,0.000,0.000,-1.354,-4.430,0.990,4.742,4.565,4.860,
27.148,33.712,-1.664,-5.029,1.600,0.000,6.272,1.597,1.093,0.710,1.434,3.643,4.130,1.430,4.995,0.000,1.596,0.000,3.001,0.000,0.000,0.000,0.000,0.000,0.000,0.000,0.000,0.443,0.000,0.000,3.142,6.283,0.000,1.003,1.569,1.569,4.085,6.281,1.199,4.712,0.000,0.000,-2.009,-4.449,0.990,4.742,4.541,4.882,5.281,4.711,4.712,2.198,6.282,5.083,1.570,0.000,0.000,-1.354,-4.430,0.990,4.742,4.565,4.860,
27.260,33.824,-1.664,-5.029,1.600,0.000,6.272,1.597,1.093,0.710,1.434,3.643,4.130,1.430,4.995,0.000,1.596,0.000,3.001,0.000,0.000,0.000,0.000,0.000,0.000,0.000,0.000,0.440,0.000,0.000,3.142,6.283,0.000,1.003,1.569,1.569,4.085,6.281,1.199,4.712,0.000,0.000,-2.009,-4.449,0.990,4.742,4.541,4.882,5.281,4.711,4.712,2.198,6.282,5.083,1.570,0.000,0.000,-1.354,-4.430,0.990,4.742,4.565,4.860,
27.360,33.924,-1.664,-5.029,1.600,0.000,6.272,1.597,1.093,0.710,1.434,3.643,4.130,1.430,4.995,0.000,1.596,0.000,3.001,0.000,0.000,0.000,0.000,0.000,0.000,0.000,0.000,0.438,0.000,0.000,3.142,6.283,0.000,1.003,1.569,1.569,4.085,6.281,1.199,4.712,0.000,0.000,-2.009,-4.449,0.990,4.742,4.541,4.882,5.281,4.711,4.712,2.198,6.282,5.083,1.570,0.000,0.000,-1.354,-4.430,0.990,4.742,4.565,4.860,
27.445,34.008,-1.664,-5.029,1.600,0.000,6.272,1.597,1.093,0.710,1.434,3.643,4.130,1.430,4.995,0.000,1.596,0.000,3.001,0.000,0.000,0.000,0.000,0.000,0.000,0.000,0.000,0.436,0.000,0.000,3.142,6.283,0.000,1.003,1.569,1.569,4.085,6.281,1.199,4.712,0.000,0.000,-2.009,-4.449,0.990,4.742,4.541,4.882,5.281,4.711,4.712,2.198,6.282,5.083,1.570,0.000,0.000,-1.354,-4.430,0.990,4.742,4.565,4.860,
27.560,34.124,-1.664,-5.029,1.600,0.000,6.272,1.597,1.093,0.710,1.434,3.643,4.130,1.430,4.995,0.000,1.596,0.000,3.001,0.000,0.000,0.000,0.000,0.000,0.000,0.000,0.000,0.436,0.000,0.000,3.142,6.283,0.000,1.003,1.569,1.569,4.085,6.281,1.199,4.712,0.000,0.000,-2.009,-4.449,0.990,4.742,4.541,4.882,5.281,4.711,4.712,2.198,6.282,5.083,1.570,0.000,0.000,-1.354,-4.430,0.990,4.742,4.565,4.860,
27.659,34.222,-1.664,-5.029,1.600,0.000,6.272,1.597,1.093,0.710,1.434,3.643,4.130,1.430,4.995,0.000,1.596,0.000,3.001,0.000,0.000,0.000,0.000,0.000,0.000,0.000,0.000,0.442,0.000,0.000,3.142,6.283,0.000,1.003,1.569,1.569,4.085,6.281,1.199,4.712,0.000,0.000,-2.009,-4.449,0.990,4.742,4.541,4.882,5.281,4.711,4.712,2.198,6.282,5.083,1.570,0.000,0.000,-1.354,-4.430,0.990,4.742,4.565,4.860,
27.760,34.324,-1.664,-5.029,1.600,0.000,6.272,1.597,1.093,0.710,1.434,3.643,4.130,1.430,4.995,0.000,1.596,0.000,3.001,0.000,0.000,0.000,0.000,0.000,0.000,0.000,0.000,0.458,0.000,0.000,3.142,6.283,0.000,1.003,1.569,1.569,4.085,6.281,1.199,4.712,0.000,0.000,-2.009,-4.449,0.990,4.742,4.541,4.882,5.281,4.711,4.712,2.198,6.282,5.083,1.570,0.000,0.000,-1.354,-4.430,0.990,4.742,4.565,4.860,
27.860,34.424,-1.664,-5.029,1.600,0.000,6.272,1.597,1.093,0.710,1.434,3.643,4.130,1.430,4.995,0.000,1.596,0.000,3.001,0.000,0.000,0.000,0.000,0.000,0.000,0.000,0.000,0.511,0.000,0.000,3.142,6.283,0.000,1.003,1.569,1.569,4.085,6.281,1.199,4.712,0.000,0.000,-2.009,-4.449,0.990,4.742,4.541,4.882,5.281,4.711,4.712,2.198,6.282,5.083,1.570,0.000,0.000,-1.354,-4.430,0.990,4.742,4.565,4.860,
27.951,34.515,-1.664,-5.029,1.600,0.000,6.272,1.597,1.093,0.710,1.434,3.643,4.130,1.430,4.995,0.000,1.596,0.000,3.001,0.000,0.000,0.000,0.000,0.000,0.000,0.000,0.000,0.552,0.000,0.000,3.142,6.283,0.000,1.003,1.569,1.569,4.085,6.281,1.199,4.712,0.000,0.000,-2.009,-4.449,0.990,4.742,4.541,4.882,5.281,4.711,4.712,2.198,6.282,5.083,1.570,0.000,0.000,-1.354,-4.430,0.990,4.742,4.565,4.860,
28.060,34.624,-1.664,-5.029,1.600,0.000,6.272,1.597,1.093,0.710,1.434,3.643,4.130,1.430,4.995,0.000,1.596,0.000,3.001,0.000,0.000,0.000,0.000,0.000,0.000,0.000,0.000,0.610,0.000,0.000,3.142,6.283,0.000,1.003,1.569,1.569,4.085,6.281,1.199,4.712,0.000,0.000,-2.009,-4.449,0.990,4.742,4.541,4.882,5.281,4.711,4.712,2.198,6.282,5.083,1.570,0.000,0.000,-1.354,-4.430,0.990,4.742,4.565,4.860,
28.159,34.722,-1.664,-5.029,1.600,0.000,6.272,1.597,1.093,0.710,1.434,3.643,4.130,1.430,4.995,0.000,1.596,0.000,3.001,0.000,0.000,0.000,0.000,0.000,0.000,0.000,0.000,0.765,0.000,0.000,3.142,6.283,0.000,1.003,1.569,1.569,4.085,6.281,1.199,4.712,0.000,0.000,-2.009,-4.449,0.990,4.742,4.541,4.882,5.281,4.711,4.712,2.198,6.282,5.083,1.570,0.000,0.000,-1.354,-4.430,0.990,4.742,4.565,4.860,
28.260,34.824,-1.664,-5.029,1.600,0.000,6.272,1.597,1.093,0.710,1.434,3.643,4.130,1.430,4.995,4.095,1.596,0.000,3.001,0.000,0.000,0.000,0.000,0.000,0.000,0.000,0.000,0.000,0.000,0.000,3.142,6.283,0.000,1.003,1.569,1.569,4.085,6.281,1.199,4.712,0.000,0.000,-2.009,-4.449,0.990,4.742,4.541,4.882,5.281,4.711,4.712,2.198,6.282,5.083,1.570,0.000,0.000,-1.354,-4.430,0.990,4.742,4.565,4.860,
28.360,34.924,-1.664,-5.029,1.600,0.000,6.272,1.597,1.093,0.710,1.434,3.643,4.130,1.430,4.995,4.095,1.596,0.000,3.001,0.000,0.000,0.000,0.000,0.000,0.000,0.000,0.000,0.000,0.000,0.000,3.142,6.283,0.000,1.003,1.569,1.569,4.085,6.281,1.199,4.712,0.000,0.000,-2.009,-4.449,0.990,4.742,4.541,4.882,5.281,4.711,4.712,2.198,6.282,5.083,1.570,0.000,0.000,-1.354,-4.430,0.990,4.742,4.565,4.860,
28.457,35.021,-1.664,-5.029,1.600,0.000,6.272,1.597,1.093,0.710,1.434,3.643,4.130,1.430,4.995,4.095,1.596,0.000,3.001,0.000,0.000,0.000,0.000,0.000,0.000,0.000,0.000,0.000,0.000,0.000,3.142,6.283,0.000,1.003,1.569,1.569,4.085,6.281,1.199,4.712,0.000,0.000,-2.009,-4.449,0.990,4.742,4.541,4.882,5.281,4.711,4.712,2.198,6.282,5.083,1.570,0.000,0.000,-1.354,-4.430,0.990,4.742,4.565,4.860,
28.560,35.124,-1.664,-5.029,1.600,0.000,6.272,1.597,1.093,0.710,1.434,3.643,4.130,1.430,4.995,4.095,1.596,0.000,3.001,0.000,0.000,0.000,0.000,0.000,0.000,0.000,0.000,0.000,0.000,0.000,3.142,6.283,0.000,1.003,1.569,1.569,4.085,6.281,1.199,4.712,0.000,0.000,-2.009,-4.449,0.990,4.742,4.541,4.882,5.281,4.711,4.712,2.198,6.282,5.083,1.570,0.000,0.000,-1.354,-4.430,0.990,4.742,4.565,4.860,
28.660,35.224,-1.664,-5.029,1.600,0.000,6.272,1.597,1.093,0.710,1.434,3.643,4.130,1.430,4.995,4.095,1.596,0.000,3.001,0.000,0.000,0.000,0.000,0.000,0.000,0.000,0.000,0.000,0.000,0.000,3.142,6.283,0.000,1.003,1.569,1.569,4.085,6.281,1.199,4.712,0.000,0.000,-2.009,-4.449,0.990,4.742,4.541,4.882,5.281,4.711,4.712,2.198,6.282,5.083,1.570,0.000,0.000,-1.354,-4.430,0.990,4.742,4.565,4.860,
28.747,35.310,-1.664,-5.029,1.600,0.000,6.272,1.597,1.093,0.710,1.434,3.643,4.130,1.430,4.995,4.095,1.596,0.000,3.001,0.000,0.000,0.000,0.000,0.000,0.000,0.000,0.000,0.000,0.000,0.000,3.142,6.283,0.000,1.003,1.569,1.569,4.085,6.281,1.199,4.712,0.000,0.000,-2.009,-4.449,0.990,4.742,4.541,4.882,5.281,4.711,4.712,2.198,6.282,5.083,1.570,0.000,0.000,-1.354,-4.430,0.990,4.742,4.565,4.860,
28.860,35.424,-1.664,-5.029,1.600,0.000,6.272,1.597,1.093,0.710,1.434,3.643,4.130,1.430,4.995,4.095,1.596,0.000,3.001,0.000,0.000,0.000,0.000,0.000,0.000,0.000,0.000,0.000,0.000,0.000,3.142,6.283,0.000,1.003,1.569,1.569,4.085,6.281,1.199,4.712,0.000,0.000,-2.009,-4.449,0.990,4.742,4.541,4.882,5.281,4.711,4.712,2.198,6.282,5.083,1.570,0.000,0.000,-1.354,-4.430,0.990,4.742,4.565,4.860,
28.946,35.510,-1.664,-5.029,1.600,0.000,6.272,1.597,1.093,0.710,1.434,3.643,4.130,1.430,4.995,4.095,1.596,0.000,3.001,0.000,0.000,0.000,0.000,0.000,0.000,0.000,0.000,0.000,0.000,0.000,3.142,6.283,0.000,1.003,1.569,1.569,4.085,6.281,1.199,4.712,0.000,0.000,-2.009,-4.449,0.990,4.742,4.541,4.882,5.281,4.711,4.712,2.198,6.282,5.083,1.570,0.000,0.000,-1.354,-4.430,0.990,4.742,4.565,4.860,
29.060,35.624,-1.664,-5.029,1.600,0.000,6.272,1.597,1.093,0.710,1.434,3.643,4.130,1.430,4.995,4.095,1.596,0.000,3.001,0.000,0.000,0.000,0.000,0.000,0.000,0.000,0.000,0.000,0.000,0.000,3.142,6.283,0.000,1.003,1.569,1.569,4.085,6.281,1.199,4.712,0.000,0.000,-2.009,-4.449,0.990,4.742,4.541,4.882,5.281,4.711,4.712,2.198,6.282,5.083,1.570,0.000,0.000,-1.354,-4.430,0.990,4.742,4.565,4.860,
29.160,35.724,-1.664,-5.029,1.600,0.000,6.272,1.597,1.093,0.710,1.434,3.643,4.130,1.430,4.995,4.095,1.596,0.000,3.001,0.000,0.000,0.000,0.000,0.000,0.000,0.000,0.000,0.000,0.000,0.000,3.142,6.283,0.000,1.003,1.569,1.569,4.085,6.281,1.199,4.712,0.000,0.000,-2.009,-4.449,0.990,4.742,4.541,4.882,5.281,4.711,4.712,2.198,6.282,5.083,1.570,0.000,0.000,-1.354,-4.430,0.990,4.742,4.565,4.860,
29.245,35.809,-1.664,-5.029,1.600,0.000,6.272,1.597,1.093,0.710,1.434,3.643,4.130,1.430,4.995,4.095,1.596,0.000,3.001,0.000,0.000,0.000,0.000,0.000,0.000,0.000,0.000,0.000,0.000,0.000,3.142,6.283,0.000,1.003,1.569,1.569,4.085,6.281,1.199,4.712,0.000,0.000,-2.009,-4.449,0.990,4.742,4.541,4.882,5.281,4.711,4.712,2.198,6.282,5.083,1.570,0.000,0.000,-1.354,-4.430,0.990,4.742,4.565,4.860,
29.360,35.924,-1.664,-5.029,1.600,0.000,6.272,1.597,1.093,0.710,1.434,3.643,4.130,1.430,4.995,4.095,1.596,0.000,3.001,0.000,0.000,0.000,0.000,0.000,0.000,0.000,0.000,0.000,0.000,0.000,3.142,6.283,0.000,1.003,1.569,1.569,4.085,6.281,1.199,4.712,0.000,0.000,-2.009,-4.449,0.990,4.742,4.541,4.882,5.281,4.711,4.712,2.198,6.282,5.083,1.570,0.000,0.000,-1.354,-4.430,0.990,4.742,4.565,4.860,
29.460,36.024,-1.664,-5.029,1.600,0.000,6.272,1.597,1.093,0.710,1.434,3.643,4.130,1.430,4.995,4.095,1.596,0.000,3.001,0.000,0.000,0.000,0.000,0.000,0.000,0.000,0.000,0.000,0.000,0.000,3.142,6.283,0.000,1.003,1.569,1.569,4.085,6.281,1.199,4.712,0.000,0.000,-2.009,-4.449,0.990,4.742,4.541,4.882,5.281,4.711,4.712,2.198,6.282,5.083,1.570,0.000,0.000,-1.354,-4.430,0.990,4.742,4.565,4.860,
29.560,36.124,-1.664,-5.029,1.600,0.000,6.272,1.597,1.093,0.710,1.434,3.643,4.130,1.430,4.995,4.095,1.596,0.000,3.001,0.000,0.000,0.000,0.000,0.000,0.000,0.000,0.000,0.000,0.000,0.000,3.142,6.283,0.000,1.003,1.569,1.569,4.085,6.281,1.199,4.712,0.000,0.000,-2.009,-4.449,0.990,4.742,4.541,4.882,5.281,4.711,4.712,2.198,6.282,5.083,1.570,0.000,0.000,-1.354,-4.430,0.990,4.742,4.565,4.860,
29.660,36.224,-1.664,-5.029,1.600,0.000,6.272,1.597,1.093,0.710,1.434,3.643,4.130,1.430,4.995,4.095,1.596,0.000,3.001,0.000,0.000,0.000,0.000,0.000,0.000,0.000,0.000,0.000,0.000,0.000,3.142,6.283,0.000,1.003,1.569,1.569,4.085,6.281,1.199,4.712,0.000,0.000,-2.009,-4.449,0.990,4.742,4.541,4.882,5.281,4.711,4.712,2.198,6.282,5.083,1.570,0.000,0.000,-1.354,-4.430,0.990,4.742,4.565,4.860,
29.750,36.314,-1.664,-5.029,1.600,0.000,6.272,1.597,1.093,0.710,1.434,3.643,4.130,1.430,4.995,4.095,1.596,0.000,3.001,0.000,0.000,0.000,0.000,0.000,0.000,0.000,0.000,0.000,0.000,0.000,3.142,6.283,0.000,1.003,1.569,1.569,4.085,6.281,1.199,4.712,0.000,0.000,-2.009,-4.449,0.990,4.742,4.541,4.882,5.281,4.711,4.712,2.198,6.282,5.083,1.570,0.000,0.000,-1.354,-4.430,0.990,4.742,4.565,4.860,
29.860,36.424,-1.664,-5.029,1.600,0.000,6.272,1.597,1.093,0.710,1.434,3.643,4.130,1.430,4.995,4.095,1.596,0.000,3.001,0.000,0.000,0.000,0.000,0.000,0.000,0.000,0.000,0.000,0.000,0.000,3.142,6.283,0.000,1.003,1.569,1.569,4.085,6.281,1.199,4.712,0.000,0.000,-2.009,-4.449,0.990,4.742,4.541,4.882,5.281,4.711,4.712,2.198,6.282,5.083,1.570,0.000,0.000,-1.354,-4.430,0.990,4.742,4.565,4.860,
29.960,36.523,-1.664,-5.029,1.600,0.000,6.272,1.597,1.093,0.710,1.434,3.643,4.130,1.430,4.995,4.095,1.596,0.000,3.001,0.000,0.000,0.000,0.000,0.000,0.000,0.000,0.000,0.000,0.000,0.000,3.142,6.283,0.000,1.003,1.569,1.569,4.085,6.281,1.199,4.712,0.000,0.000,-2.009,-4.449,0.990,4.742,4.541,4.882,5.281,4.711,4.712,2.198,6.282,5.083,1.570,0.000,0.000,-1.354,-4.430,0.990,4.742,4.565,4.860,
30.060,36.624,-1.664,-5.029,1.600,0.000,6.272,1.597,1.093,0.710,1.434,3.643,4.130,1.430,4.995,4.095,1.596,0.000,3.001,0.000,0.000,0.000,0.000,0.000,0.000,0.000,0.000,0.000,0.000,0.000,3.142,6.283,0.000,1.003,1.569,1.569,4.085,6.281,1.199,4.712,0.000,0.000,-2.009,-4.449,0.990,4.742,4.541,4.882,5.281,4.711,4.712,2.198,6.282,5.083,1.570,0.000,0.000,-1.354,-4.430,0.990,4.742,4.565,4.860,
30.160,36.724,-1.664,-5.029,1.600,0.000,6.272,1.597,1.093,0.710,1.434,3.643,4.130,1.430,4.995,4.095,1.596,0.000,3.001,0.000,0.000,0.000,0.000,0.000,0.000,0.000,0.000,0.000,0.000,0.000,3.142,6.283,0.000,1.003,1.569,1.569,4.085,6.281,1.199,4.712,0.000,0.000,-2.009,-4.449,0.990,4.742,4.541,4.882,5.281,4.711,4.712,2.198,6.282,5.083,1.570,0.000,0.000,-1.354,-4.430,0.990,4.742,4.565,4.860,
30.255,36.818,-1.664,-5.029,1.600,0.000,6.272,1.597,1.093,0.710,1.434,3.643,4.130,1.430,4.995,4.095,1.596,0.000,3.001,0.000,0.000,0.000,0.000,0.000,0.000,0.000,0.000,0.000,0.000,0.000,3.142,6.283,0.000,1.003,1.569,1.569,4.085,6.281,1.199,4.712,0.000,0.000,-2.009,-4.449,0.990,4.742,4.541,4.882,5.281,4.711,4.712,2.198,6.282,5.083,1.570,0.000,0.000,-1.354,-4.430,0.990,4.742,4.565,4.860,
30.360,36.924,-1.664,-5.029,1.600,0.000,6.272,1.597,1.093,0.710,1.434,3.643,4.130,1.430,4.995,4.095,1.596,0.000,3.001,0.000,0.000,0.000,0.000,0.000,0.000,0.000,0.000,0.000,0.000,0.000,3.142,6.283,0.000,1.003,1.569,1.569,4.085,6.281,1.199,4.712,0.000,0.000,-2.009,-4.449,0.990,4.742,4.541,4.882,5.281,4.711,4.712,2.198,6.282,5.083,1.570,0.000,0.000,-1.354,-4.430,0.990,4.742,4.565,4.860,
30.460,37.024,-1.664,-5.029,1.600,0.000,6.272,1.597,1.093,0.710,1.434,3.643,4.130,1.430,4.995,4.095,1.596,0.000,3.001,0.000,0.000,0.000,0.000,0.000,0.000,0.000,0.000,0.000,0.000,0.000,3.142,6.283,0.000,1.003,1.569,1.569,4.085,6.281,1.199,4.712,0.000,0.000,-2.009,-4.449,0.990,4.742,4.541,4.882,5.281,4.711,4.712,2.198,6.282,5.083,1.570,0.000,0.000,-1.354,-4.430,0.990,4.742,4.565,4.860,
30.560,37.124,-1.664,-5.029,1.600,0.000,6.272,1.597,1.093,0.710,1.434,3.643,4.130,1.430,4.995,4.095,1.596,0.000,3.001,0.000,0.000,0.000,0.000,0.000,0.000,0.000,0.000,0.000,0.000,0.000,3.142,6.283,0.000,1.003,1.569,1.569,4.085,6.281,1.199,4.712,0.000,0.000,-2.009,-4.449,0.990,4.742,4.541,4.882,5.281,4.711,4.712,2.198,6.282,5.083,1.570,0.000,0.000,-1.354,-4.430,0.990,4.742,4.565,4.860,
30.660,37.224,-1.664,-5.029,1.600,0.000,6.272,1.597,1.093,0.710,1.434,3.643,4.130,1.430,4.995,4.095,1.596,0.000,3.001,0.000,0.000,0.000,0.000,0.000,0.000,0.000,0.000,0.000,0.000,0.000,3.142,6.283,0.000,1.003,1.569,1.569,4.085,6.281,1.199,4.712,0.000,0.000,-2.009,-4.449,0.990,4.742,4.541,4.882,5.281,4.711,4.712,2.198,6.282,5.083,1.570,0.000,0.000,-1.354,-4.430,0.990,4.742,4.565,4.860,
30.754,37.317,-1.664,-5.029,1.600,0.000,6.272,1.597,1.093,0.710,1.434,3.643,4.130,1.430,4.995,4.095,1.596,0.000,3.001,0.000,0.000,0.000,0.000,0.000,0.000,0.000,0.000,0.000,0.000,0.000,3.142,6.283,0.000,1.003,1.569,1.569,4.085,6.281,1.199,4.712,0.000,0.000,-2.009,-4.449,0.990,4.742,4.541,4.882,5.281,4.711,4.712,2.198,6.282,5.083,1.570,0.000,0.000,-1.354,-4.430,0.990,4.742,4.565,4.860,
30.860,37.424,-1.664,-5.029,1.600,0.000,6.272,1.597,1.093,0.710,1.434,3.643,4.130,1.430,4.995,4.095,1.596,0.000,3.001,0.000,0.000,0.000,0.000,0.000,0.000,0.000,0.000,0.000,0.000,0.000,3.142,6.283,0.000,1.003,1.569,1.569,4.085,6.281,1.199,4.712,0.000,0.000,-2.009,-4.449,0.990,4.742,4.541,4.882,5.281,4.711,4.712,2.198,6.282,5.083,1.570,0.000,0.000,-1.354,-4.430,0.990,4.742,4.565,4.860,
30.960,37.524,-1.664,-5.029,1.600,0.000,6.272,1.597,1.093,0.710,1.434,3.643,4.130,1.430,4.995,4.095,1.596,0.000,3.001,0.000,0.000,0.000,0.000,0.000,0.000,0.000,0.000,0.000,0.000,0.000,3.142,6.283,0.000,1.003,1.569,1.569,4.085,6.281,1.199,4.712,0.000,0.000,-2.009,-4.449,0.990,4.742,4.541,4.882,5.281,4.711,4.712,2.198,6.282,5.083,1.570,0.000,0.000,-1.354,-4.430,0.990,4.742,4.565,4.860,
31.060,37.624,-1.664,-5.029,1.600,0.000,6.272,1.597,1.093,0.710,1.434,3.643,4.130,1.430,4.995,4.095,1.596,0.000,3.001,0.000,0.000,0.000,0.000,0.000,0.000,0.000,0.000,0.000,0.000,0.000,3.142,6.283,0.000,1.003,1.569,1.569,4.085,6.281,1.199,4.712,0.000,0.000,-2.009,-4.449,0.990,4.742,4.541,4.882,5.281,4.711,4.712,2.198,6.282,5.083,1.570,0.000,0.000,-1.354,-4.430,0.990,4.742,4.565,4.860,
31.160,37.724,-1.664,-5.029,1.600,0.000,6.272,1.597,1.093,0.710,1.434,3.643,4.130,1.430,4.995,4.095,1.596,0.000,3.001,0.000,0.000,0.000,0.000,0.000,0.000,0.000,0.000,0.000,0.000,0.000,3.142,6.283,0.000,1.003,1.569,1.569,4.085,6.281,1.199,4.712,0.000,0.000,-2.009,-4.449,0.990,4.742,4.541,4.882,5.281,4.711,4.712,2.198,6.282,5.083,1.570,0.000,0.000,-1.354,-4.430,0.990,4.742,4.565,4.860,
31.260,37.824,-1.664,-5.029,1.600,0.000,6.272,1.597,1.093,0.710,1.434,3.643,4.130,1.430,4.995,4.095,1.596,0.000,3.001,0.000,0.000,0.000,0.000,0.000,0.000,0.000,0.000,0.000,0.000,0.000,3.142,6.283,0.000,1.003,1.569,1.569,4.085,6.281,1.199,4.712,0.000,0.000,-2.009,-4.449,0.990,4.742,4.541,4.882,5.281,4.711,4.712,2.198,6.282,5.083,1.570,0.000,0.000,-1.354,-4.430,0.990,4.742,4.565,4.860,
31.360,37.924,-1.664,-5.029,1.600,0.000,6.272,1.597,1.093,0.710,1.434,3.643,4.130,1.430,4.995,4.095,1.596,0.000,3.001,0.000,0.000,0.000,0.000,0.000,0.000,0.000,0.000,0.000,0.000,0.000,3.142,6.283,0.000,1.003,1.569,1.569,4.085,6.281,1.199,4.712,0.000,0.000,-2.009,-4.449,0.990,4.742,4.541,4.882,5.281,4.711,4.712,2.198,6.282,5.083,1.570,0.000,0.000,-1.354,-4.430,0.990,4.742,4.565,4.860,
31.460,38.024,-1.664,-5.029,1.600,0.000,6.272,1.597,1.093,0.710,1.434,3.643,4.130,1.430,4.995,4.095,1.596,0.000,3.001,0.000,0.000,0.000,0.000,0.000,0.000,0.000,0.000,0.000,0.000,0.000,3.142,6.283,0.000,1.003,1.569,1.569,4.085,6.281,1.199,4.712,0.000,0.000,-2.009,-4.449,0.990,4.742,4.541,4.882,5.281,4.711,4.712,2.198,6.282,5.083,1.570,0.000,0.000,-1.354,-4.430,0.990,4.742,4.565,4.860,
31.560,38.124,-1.664,-5.029,1.600,0.000,6.272,1.597,1.093,0.710,1.434,3.643,4.130,1.430,4.995,4.095,1.596,0.000,3.001,0.000,0.000,0.000,0.000,0.000,0.000,0.000,0.000,0.000,0.000,0.000,3.142,6.283,0.000,1.003,1.569,1.569,4.085,6.281,1.199,4.712,0.000,0.000,-2.009,-4.449,0.990,4.742,4.541,4.882,5.281,4.711,4.712,2.198,6.282,5.083,1.570,0.000,0.000,-1.354,-4.430,0.990,4.742,4.565,4.860,
31.660,38.224,-1.664,-5.029,1.600,0.000,6.272,1.597,1.093,0.710,1.434,3.643,4.130,1.430,4.995,4.095,1.596,0.000,3.001,0.000,0.000,0.000,0.000,0.000,0.000,0.000,0.000,0.000,0.000,0.000,3.142,6.283,0.000,1.003,1.569,1.569,4.085,6.281,1.199,4.712,0.000,0.000,-2.009,-4.449,0.990,4.742,4.541,4.882,5.281,4.711,4.712,2.198,6.282,5.083,1.570,0.000,0.000,-1.354,-4.430,0.990,4.742,4.565,4.860,
31.757,38.320,-1.664,-5.029,1.600,0.000,6.272,1.597,1.093,0.710,1.434,3.643,4.130,1.430,4.995,4.095,1.596,0.000,3.001,0.000,0.000,0.000,0.000,0.000,0.000,0.000,0.000,0.000,0.000,0.000,3.142,6.283,0.000,1.003,1.569,1.569,4.085,6.281,1.199,4.712,0.000,0.000,-2.009,-4.449,0.990,4.742,4.541,4.882,5.281,4.711,4.712,2.198,6.282,5.083,1.570,0.000,0.000,-1.354,-4.430,0.990,4.742,4.565,4.860,
31.860,38.424,-1.664,-5.029,1.600,0.000,6.272,1.597,1.093,0.710,1.434,3.643,4.130,1.430,4.995,4.095,1.596,0.000,3.001,0.000,0.000,0.000,0.000,0.000,0.000,0.000,0.000,0.000,0.000,0.000,3.142,6.283,0.000,1.003,1.569,1.569,4.085,6.281,1.199,4.712,0.000,0.000,-2.009,-4.449,0.990,4.742,4.541,4.882,5.281,4.711,4.712,2.198,6.282,5.083,1.570,0.000,0.000,-1.354,-4.430,0.990,4.742,4.565,4.860,
31.960,38.524,-1.664,-5.029,1.600,0.000,6.272,1.597,1.093,0.710,1.434,3.643,4.130,1.430,4.995,4.095,1.596,0.000,3.001,0.000,0.000,0.000,0.000,0.000,0.000,0.000,0.000,0.000,0.000,0.000,3.142,6.283,0.000,1.003,1.569,1.569,4.085,6.281,1.199,4.712,0.000,0.000,-2.009,-4.449,0.990,4.742,4.541,4.882,5.281,4.711,4.712,2.198,6.282,5.083,1.570,0.000,0.000,-1.354,-4.430,0.990,4.742,4.565,4.860,
32.049,38.612,-1.664,-5.029,1.600,0.000,6.272,1.597,1.093,0.710,1.434,3.643,4.130,1.430,4.995,4.095,1.596,0.000,3.001,0.000,0.000,0.000,0.000,0.000,0.000,0.000,0.000,0.000,0.000,0.000,3.142,6.283,0.000,1.003,1.569,1.569,4.085,6.281,1.199,4.712,0.000,0.000,-2.009,-4.449,0.990,4.742,4.541,4.882,5.281,4.711,4.712,2.198,6.282,5.083,1.570,0.000,0.000,-1.354,-4.430,0.990,4.742,4.565,4.860,
32.160,38.724,-1.664,-5.029,1.600,0.000,6.272,1.597,1.093,0.710,1.434,3.643,4.130,1.430,4.995,4.095,1.596,0.000,3.001,0.000,0.000,0.000,0.000,0.000,0.000,0.000,0.000,0.000,0.000,0.000,3.142,6.283,0.000,1.003,1.569,1.569,4.085,6.281,1.199,4.712,0.000,0.000,-2.009,-4.449,0.990,4.742,4.541,4.882,5.281,4.711,4.712,2.198,6.282,5.083,1.570,0.000,0.000,-1.354,-4.430,0.990,4.742,4.565,4.860,
32.260,38.824,-1.664,-5.029,1.600,0.000,6.272,1.597,1.093,0.710,1.434,3.643,4.130,1.430,4.995,4.095,1.596,0.000,3.001,0.000,0.000,0.000,0.000,0.000,0.000,0.000,0.000,0.000,0.000,0.000,3.142,6.283,0.000,1.003,1.569,1.569,4.085,6.281,1.199,4.712,0.000,0.000,-2.009,-4.449,0.990,4.742,4.541,4.882,5.281,4.711,4.712,2.198,6.282,5.083,1.570,0.000,0.000,-1.354,-4.430,0.990,4.742,4.565,4.860,
32.360,38.924,-1.664,-5.029,1.600,0.000,6.272,1.597,1.093,0.710,1.434,3.643,4.130,1.430,4.995,4.095,1.596,0.000,3.001,0.000,0.000,0.000,0.000,0.000,0.000,0.000,0.000,0.000,0.000,0.000,3.142,6.283,0.000,1.003,1.569,1.569,4.085,6.281,1.199,4.712,0.000,0.000,-2.009,-4.449,0.990,4.742,4.541,4.882,5.281,4.711,4.712,2.198,6.282,5.083,1.570,0.000,0.000,-1.354,-4.430,0.990,4.742,4.565,4.860,
32.460,39.024,-1.664,-5.029,1.600,0.000,6.272,1.597,1.093,0.710,1.434,3.643,4.130,1.430,4.995,4.095,1.596,0.000,3.001,0.000,0.000,0.000,0.000,0.000,0.000,0.000,0.000,0.000,0.000,0.000,3.142,6.283,0.000,1.003,1.569,1.569,4.085,6.281,1.199,4.712,0.000,0.000,-2.009,-4.449,0.990,4.742,4.541,4.882,5.281,4.711,4.712,2.198,6.282,5.083,1.570,0.000,0.000,-1.354,-4.430,0.990,4.742,4.565,4.860,
32.560,39.124,-1.664,-5.029,1.600,0.000,6.272,1.597,1.093,0.710,1.434,3.643,4.130,1.430,4.995,4.095,1.596,0.000,3.001,0.000,0.000,0.000,0.000,0.000,0.000,0.000,0.000,0.000,0.000,0.000,3.142,6.283,0.000,1.003,1.569,1.569,4.085,6.281,1.199,4.712,0.000,0.000,-2.009,-4.449,0.990,4.742,4.541,4.882,5.281,4.711,4.712,2.198,6.282,5.083,1.570,0.000,0.000,-1.354,-4.430,0.990,4.742,4.565,4.860,
32.660,39.224,-1.664,-5.029,1.600,0.000,6.272,1.597,1.093,0.710,1.434,3.643,4.130,1.430,4.995,4.095,1.596,0.000,3.001,0.000,0.000,0.000,0.000,0.000,0.000,0.000,0.000,0.000,0.000,0.000,3.142,6.283,0.000,1.003,1.569,1.569,4.085,6.281,1.199,4.712,0.000,0.000,-2.009,-4.449,0.990,4.742,4.541,4.882,5.281,4.711,4.712,2.198,6.282,5.083,1.570,0.000,0.000,-1.354,-4.430,0.990,4.742,4.565,4.860,
32.754,39.317,-1.664,-5.029,1.600,0.000,6.272,1.597,1.093,0.710,1.434,3.643,4.130,1.430,4.995,4.095,1.596,0.000,3.001,0.000,0.000,0.000,0.000,0.000,0.000,0.000,0.000,0.000,0.000,0.000,3.142,6.283,0.000,1.003,1.569,1.569,4.085,6.281,1.199,4.712,0.000,0.000,-2.009,-4.449,0.990,4.742,4.541,4.882,5.281,4.711,4.712,2.198,6.282,5.083,1.570,0.000,0.000,-1.354,-4.430,0.990,4.742,4.565,4.860,
32.860,39.424,-1.664,-5.029,1.600,0.000,6.272,1.597,1.093,0.710,1.434,3.643,4.130,1.430,4.995,4.095,1.596,0.000,3.001,0.000,0.000,0.000,0.000,0.000,0.000,0.000,0.000,0.000,0.000,0.000,3.142,6.283,0.000,1.003,1.569,1.569,4.085,6.281,1.199,4.712,0.000,0.000,-2.009,-4.449,0.990,4.742,4.541,4.882,5.281,4.711,4.712,2.198,6.282,5.083,1.570,0.000,0.000,-1.354,-4.430,0.990,4.742,4.565,4.860,
32.960,39.524,-1.664,-5.029,1.600,0.000,6.272,1.597,1.093,0.710,1.434,3.643,4.130,1.430,4.995,4.095,1.596,0.000,3.001,0.000,0.000,0.000,0.000,0.000,0.000,0.000,0.000,0.000,0.000,0.000,3.142,6.283,0.000,1.003,1.569,1.569,4.085,6.281,1.199,4.712,0.000,0.000,-2.009,-4.449,0.990,4.742,4.541,4.882,5.281,4.711,4.712,2.198,6.282,5.083,1.570,0.000,0.000,-1.354,-4.430,0.990,4.742,4.565,4.860,
33.044,39.608,-1.664,-5.029,1.600,0.000,6.272,1.597,1.093,0.710,1.434,3.643,4.130,1.430,4.995,4.095,1.596,0.000,3.001,0.000,0.000,0.000,0.000,0.000,0.000,0.000,0.000,0.000,0.000,0.000,3.142,6.283,0.000,1.003,1.569,1.569,4.085,6.281,1.199,4.712,0.000,0.000,-2.009,-4.449,0.990,4.742,4.541,4.882,5.281,4.711,4.712,2.198,6.282,5.083,1.570,0.000,0.000,-1.354,-4.430,0.990,4.742,4.565,4.860,
33.160,39.724,-1.664,-5.029,1.600,0.000,6.272,1.597,1.093,0.710,1.434,3.643,4.130,1.430,4.995,4.095,1.596,0.000,3.001,0.000,0.000,0.000,0.000,0.000,0.000,0.000,0.000,0.000,0.000,0.000,3.142,6.283,0.000,1.003,1.569,1.569,4.085,6.281,1.199,4.712,0.000,0.000,-2.009,-4.449,0.990,4.742,4.541,4.882,5.281,4.711,4.712,2.198,6.282,5.083,1.570,0.000,0.000,-1.354,-4.430,0.990,4.742,4.565,4.860,
33.260,39.824,-1.664,-5.029,1.600,0.000,6.272,1.597,1.093,0.710,1.434,3.643,4.130,1.430,4.995,4.095,1.596,0.000,3.001,0.000,0.000,0.000,0.000,0.000,0.000,0.000,0.000,0.000,0.000,0.000,3.142,6.283,0.000,1.003,1.569,1.569,4.085,6.281,1.199,4.712,0.000,0.000,-2.009,-4.449,0.990,4.742,4.541,4.882,5.281,4.711,4.712,2.198,6.282,5.083,1.570,0.000,0.000,-1.354,-4.430,0.990,4.742,4.565,4.860,
33.360,39.924,-1.664,-5.029,1.600,0.000,6.272,1.597,1.093,0.710,1.434,3.643,4.130,1.430,4.995,4.095,1.596,0.000,3.001,0.000,0.000,0.000,0.000,0.000,0.000,0.000,0.000,0.000,0.000,0.000,3.142,6.283,0.000,1.003,1.569,1.569,4.085,6.281,1.199,4.712,0.000,0.000,-2.009,-4.449,0.990,4.742,4.541,4.882,5.281,4.711,4.712,2.198,6.282,5.083,1.570,0.000,0.000,-1.354,-4.430,0.990,4.742,4.565,4.860,
33.460,40.024,-1.664,-5.029,1.600,0.000,6.272,1.597,1.093,0.710,1.434,3.643,4.130,1.430,4.995,4.095,1.596,0.000,3.001,0.000,0.000,0.000,0.000,0.000,0.000,0.000,0.000,0.000,0.000,0.000,3.142,6.283,0.000,1.003,1.569,1.569,4.085,6.281,1.199,4.712,0.000,0.000,-2.009,-4.449,0.990,4.742,4.541,4.882,5.281,4.711,4.712,2.198,6.282,5.083,1.570,0.000,0.000,-1.354,-4.430,0.990,4.742,4.565,4.860,
33.540,40.104,-1.664,-5.029,1.600,0.000,6.272,1.597,1.093,0.710,1.434,3.643,0.000,1.430,4.995,4.095,1.596,0.000,3.142,0.000,0.000,0.000,0.000,0.000,2.334,0.000,0.000,0.000,0.000,0.000,3.106,6.283,0.000,1.003,1.569,1.569,4.085,6.281,1.199,4.712,0.000,0.000,-2.009,-4.449,0.990,4.742,4.541,4.882,5.281,4.711,4.712,2.198,6.282,5.083,1.570,0.000,0.000,-1.354,-4.430,0.990,4.742,4.565,4.860,
33.660,40.224,-1.664,-5.029,1.600,0.000,6.272,1.597,1.093,0.710,1.434,3.643,0.000,1.430,4.995,4.095,1.596,0.000,3.142,0.000,0.000,0.000,0.000,0.000,2.264,0.000,0.000,0.000,0.000,0.000,3.071,6.283,0.000,1.003,1.569,1.569,4.085,6.281,1.199,4.712,0.000,0.000,-2.009,-4.449,0.990,4.742,4.541,4.882,5.281,4.711,4.712,2.198,6.282,5.083,1.570,0.000,0.000,-1.354,-4.430,0.990,4.742,4.565,4.860,
33.755,40.319,-1.664,-5.029,1.600,0.000,6.272,1.597,1.093,0.710,1.434,3.643,0.000,1.430,4.995,4.095,1.596,0.000,3.142,0.000,0.000,0.000,0.000,0.000,2.252,0.000,0.000,0.000,0.000,0.000,3.001,6.283,0.000,1.003,1.569,1.569,4.085,6.281,1.199,4.712,0.000,0.000,-2.009,-4.449,0.990,4.742,4.541,4.882,5.281,4.711,4.712,2.198,6.282,5.083,1.570,0.000,0.000,-1.354,-4.430,0.990,4.742,4.565,4.860,
33.860,40.424,-1.664,-5.029,1.600,0.000,6.272,1.597,1.093,0.710,1.434,3.643,0.000,1.430,4.995,4.095,1.596,0.000,3.142,0.000,0.000,0.000,0.000,0.000,2.252,0.000,0.000,0.000,0.000,0.000,3.001,6.283,0.000,1.003,1.569,1.569,4.085,6.281,1.199,4.712,0.000,0.000,-2.009,-4.449,0.990,4.742,4.541,4.882,5.281,4.711,4.712,2.198,6.282,5.083,1.570,0.000,0.000,-1.354,-4.430,0.990,4.742,4.565,4.860,
33.960,40.524,-1.664,-5.029,1.600,0.000,6.272,1.597,1.093,0.710,1.434,3.643,0.000,1.430,4.995,4.095,1.596,0.000,3.142,0.000,0.000,0.000,0.000,0.000,2.252,0.000,0.000,0.000,0.000,0.000,3.001,6.283,0.000,1.003,1.569,1.569,4.085,6.281,1.199,4.712,0.000,0.000,-2.009,-4.449,0.990,4.742,4.541,4.882,5.281,4.711,4.712,2.198,6.282,5.083,1.570,0.000,0.000,-1.354,-4.430,0.990,4.742,4.565,4.860,
34.060,40.624,-1.664,-5.029,1.600,0.000,6.272,1.597,1.093,0.710,1.434,3.643,0.000,1.430,4.995,4.095,1.596,0.000,3.142,0.000,0.000,0.000,0.000,0.000,2.244,0.000,0.000,0.000,0.000,0.000,3.001,6.283,0.000,1.003,1.569,1.569,4.085,6.281,1.199,4.712,0.000,0.000,-2.009,-4.449,0.990,4.742,4.541,4.882,5.281,4.711,4.712,2.198,6.282,5.083,1.570,0.000,0.000,-1.354,-4.430,0.990,4.742,4.565,4.860,
34.160,40.724,-1.664,-5.029,1.600,0.000,6.272,1.597,1.093,0.710,1.434,3.643,0.000,1.430,4.995,4.095,1.596,0.000,3.142,0.000,0.000,0.000,0.000,0.000,2.230,0.000,0.000,0.000,0.000,0.000,3.001,6.283,0.000,1.003,1.569,1.569,4.085,6.281,1.199,4.712,0.000,0.000,-2.009,-4.449,0.990,4.742,4.541,4.882,5.281,4.711,4.712,2.198,6.282,5.083,1.570,0.000,0.000,-1.354,-4.430,0.990,4.742,4.565,4.860,
34.260,40.824,-1.664,-5.029,1.600,0.000,6.272,1.597,1.093,0.710,1.434,3.643,0.000,1.430,4.995,4.095,1.596,0.000,3.142,0.000,0.000,0.000,0.000,0.000,2.181,0.000,0.000,0.000,0.000,0.000,3.001,6.283,0.000,1.003,1.569,1.569,4.085,6.281,1.199,4.712,0.000,0.000,-2.009,-4.449,0.990,4.742,4.541,4.882,5.281,4.711,4.712,2.198,6.282,5.083,1.570,0.000,0.000,-1.354,-4.430,0.990,4.742,4.565,4.860,
34.360,40.924,-1.664,-5.029,1.600,0.000,6.272,1.597,1.093,0.710,1.434,3.643,0.000,1.430,4.995,4.095,1.596,0.000,3.142,0.000,0.000,0.000,0.000,0.000,2.141,0.000,0.000,0.000,0.000,0.000,3.001,6.283,0.000,1.003,1.569,1.569,4.085,6.281,1.199,4.712,0.000,0.000,-2.009,-4.449,0.990,4.742,4.541,4.882,5.281,4.711,4.712,2.198,6.282,5.083,1.570,0.000,0.000,-1.354,-4.430,0.990,4.742,4.565,4.860,
34.460,41.024,-1.664,-5.029,1.600,0.000,6.272,1.597,1.093,0.710,1.434,3.643,0.000,1.430,4.995,4.095,1.596,0.000,3.142,0.000,0.000,0.000,0.000,0.000,2.056,0.000,0.000,0.000,0.000,0.000,3.001,6.283,0.000,1.003,1.569,1.569,4.085,6.281,1.199,4.712,0.000,0.000,-2.009,-4.449,0.990,4.742,4.541,4.882,5.281,4.711,4.712,2.198,6.282,5.083,1.570,0.000,0.000,-1.354,-4.430,0.990,4.742,4.565,4.860,
34.543,41.107,-1.664,-5.029,1.600,0.000,6.272,1.597,1.093,0.710,1.434,3.643,0.000,1.430,4.995,4.095,1.596,0.000,3.142,0.000,0.000,0.000,0.000,0.000,2.003,0.000,0.000,0.000,0.000,0.000,3.001,6.283,0.000,1.003,1.569,1.569,4.085,6.281,1.199,4.712,0.000,0.000,-2.009,-4.449,0.990,4.742,4.541,4.882,5.281,4.711,4.712,2.198,6.282,5.083,1.570,0.000,0.000,-1.354,-4.430,0.990,4.742,4.565,4.860,
34.660,41.224,-1.664,-5.029,1.600,0.000,6.272,1.597,1.093,0.710,1.434,3.643,0.000,1.430,4.995,4.095,1.596,0.000,3.142,0.000,0.000,0.000,0.000,0.000,1.943,0.000,0.000,0.000,0.000,0.000,3.001,6.283,0.000,1.003,1.569,1.569,4.085,6.281,1.199,4.712,0.000,0.000,-2.009,-4.449,0.990,4.742,4.541,4.882,5.281,4.711,4.712,2.198,6.282,5.083,1.570,0.000,0.000,-1.354,-4.430,0.990,4.742,4.565,4.860,
34.758,41.322,-1.664,-5.029,1.600,0.000,6.272,1.597,1.093,0.710,1.434,3.643,0.000,1.430,4.995,4.095,1.596,0.000,3.142,0.000,0.000,0.000,0.000,0.000,1.811,0.000,0.000,0.000,0.000,0.000,3.001,6.283,0.000,1.003,1.569,1.569,4.085,6.281,1.199,4.712,0.000,0.000,-2.009,-4.449,0.990,4.742,4.541,4.882,5.281,4.711,4.712,2.198,6.282,5.083,1.570,0.000,0.000,-1.354,-4.430,0.990,4.742,4.565,4.860,
34.860,41.424,-1.664,-5.029,1.600,0.000,6.272,1.597,1.093,0.710,1.434,3.643,0.000,1.430,4.995,4.095,1.596,0.000,3.142,0.000,0.000,0.000,0.000,0.000,1.734,0.000,0.000,0.000,0.000,0.000,3.036,6.283,0.000,1.003,1.569,1.569,4.085,6.281,1.199,4.712,0.000,0.000,-2.009,-4.449,0.990,4.742,4.541,4.882,5.281,4.711,4.712,2.198,6.282,5.083,1.570,0.000,0.000,-1.354,-4.430,0.990,4.742,4.565,4.860,
34.960,41.524,-1.664,-5.029,1.600,0.000,6.272,1.597,1.093,0.710,1.434,3.643,0.000,1.430,4.995,4.095,1.596,0.000,3.142,0.000,0.000,0.000,0.000,0.000,1.578,0.000,0.000,0.000,0.000,0.000,3.036,6.283,0.000,1.003,1.569,1.569,4.085,6.281,1.199,4.712,0.000,0.000,-2.009,-4.449,0.990,4.742,4.541,4.882,5.281,4.711,4.712,2.198,6.282,5.083,1.570,0.000,0.000,-1.354,-4.430,0.990,4.742,4.565,4.860,
35.060,41.624,-1.664,-5.029,1.600,0.000,6.272,1.597,1.093,0.710,1.434,3.643,0.000,1.430,4.995,4.095,1.596,0.000,3.142,0.000,0.000,0.000,0.000,0.000,1.499,0.000,0.000,0.000,0.000,0.000,3.036,6.283,0.000,1.003,1.569,1.569,4.085,6.281,1.199,4.712,0.000,0.000,-2.009,-4.449,0.990,4.742,4.541,4.882,5.281,4.711,4.712,2.198,6.282,5.083,1.570,0.000,0.000,-1.354,-4.430,0.990,4.742,4.565,4.860,
35.160,41.724,-1.664,-5.029,1.600,0.000,6.272,1.597,1.093,0.710,1.434,3.643,0.000,1.430,4.995,4.095,1.596,0.000,3.142,0.000,0.000,0.000,0.000,0.000,1.428,0.000,0.000,0.000,0.000,0.000,3.071,6.283,0.000,1.003,1.569,1.569,4.085,6.281,1.199,4.712,0.000,0.000,-2.009,-4.449,0.990,4.742,4.541,4.882,5.281,4.711,4.712,2.198,6.282,5.083,1.570,0.000,0.000,-1.354,-4.430,0.990,4.742,4.565,4.860,
35.260,41.824,-1.664,-5.029,1.600,0.000,6.272,1.597,1.093,0.710,1.434,3.643,0.000,1.430,4.995,4.095,1.596,0.000,3.142,0.000,0.000,0.000,0.000,0.000,1.291,0.000,0.000,0.000,0.000,0.000,3.071,6.283,0.000,1.003,1.569,1.569,4.085,6.281,1.199,4.712,0.000,0.000,-2.009,-4.449,0.990,4.742,4.541,4.882,5.281,4.711,4.712,2.198,6.282,5.083,1.570,0.000,0.000,-1.354,-4.430,0.990,4.742,4.565,4.860,
35.348,41.912,-1.664,-5.029,1.600,0.000,6.272,1.597,1.093,0.710,1.434,3.643,0.000,1.430,4.995,4.095,1.596,0.000,3.142,0.000,0.000,0.000,0.000,0.000,1.231,0.000,0.000,0.000,0.000,0.000,3.106,6.283,0.000,1.003,1.569,1.569,4.085,6.281,1.199,4.712,0.000,0.000,-2.009,-4.449,0.990,4.742,4.541,4.882,5.281,4.711,4.712,2.198,6.282,5.083,1.570,0.000,0.000,-1.354,-4.430,0.990,4.742,4.565,4.860,
35.460,42.024,-1.664,-5.029,1.600,0.000,6.272,1.597,1.093,0.710,1.434,3.643,0.000,1.430,4.995,4.095,1.596,0.000,3.142,0.000,0.000,0.000,0.000,0.000,1.221,0.000,0.000,0.000,0.000,0.000,3.106,6.283,0.000,1.003,1.569,1.569,4.085,6.281,1.199,4.712,0.000,0.000,-2.009,-4.449,0.990,4.742,4.541,4.882,5.281,4.711,4.712,2.198,6.282,5.083,1.570,0.000,0.000,-1.354,-4.430,0.990,4.742,4.565,4.860,
35.548,42.112,-1.664,-5.029,1.600,0.000,6.272,1.597,1.093,0.710,1.434,3.643,4.130,1.430,4.995,4.095,1.596,0.000,3.001,0.000,0.000,0.000,0.000,0.000,0.000,0.000,0.000,0.000,0.000,0.000,3.142,6.283,0.000,1.003,1.569,1.569,4.085,6.281,1.199,4.712,0.000,0.000,-2.009,-4.449,0.990,4.742,4.541,4.882,5.281,4.711,4.712,2.198,6.282,5.083,1.570,0.000,0.000,-1.354,-4.430,0.990,4.742,4.565,4.860,
35.660,42.224,-1.664,-5.029,1.600,0.000,6.272,1.597,1.093,0.710,1.434,3.643,4.130,1.430,4.995,4.095,1.596,0.000,3.001,0.000,0.000,0.000,0.000,0.000,0.000,0.000,0.000,0.000,0.000,0.000,3.142,6.283,0.000,1.003,1.569,1.569,4.085,6.281,1.199,4.712,0.000,0.000,-2.009,-4.449,0.990,4.742,4.541,4.882,5.281,4.711,4.712,2.198,6.282,5.083,1.570,0.000,0.000,-1.354,-4.430,0.990,4.742,4.565,4.860,
35.758,42.322,-1.664,-5.029,1.600,0.000,6.272,1.597,1.093,0.710,1.434,3.643,4.130,0.000,4.995,4.095,1.596,0.000,3.001,0.000,0.000,0.000,0.000,0.000,0.000,0.732,0.000,0.000,0.000,0.000,3.142,6.283,0.000,1.003,1.569,1.569,4.085,6.281,1.199,4.712,0.000,0.000,-2.009,-4.449,0.990,4.742,4.541,4.882,5.281,4.711,4.712,2.198,6.282,5.083,1.570,0.000,0.000,-1.354,-4.430,0.990,4.742,4.565,4.860,
35.860,42.424,-1.664,-5.029,1.600,0.000,6.272,1.597,1.093,0.710,1.434,3.643,4.130,0.000,4.995,4.095,1.596,0.000,3.001,0.000,0.000,0.000,0.000,0.000,0.000,0.619,0.000,0.000,0.000,0.000,3.142,6.283,0.000,1.003,1.569,1.569,4.085,6.281,1.199,4.712,0.000,0.000,-2.009,-4.449,0.990,4.742,4.541,4.882,5.281,4.711,4.712,2.198,6.282,5.083,1.570,0.000,0.000,-1.354,-4.430,0.990,4.742,4.565,4.860,
35.960,42.524,-1.664,-5.029,1.600,0.000,6.272,1.597,1.093,0.710,1.434,3.643,4.130,0.000,4.995,4.095,1.596,0.000,3.001,0.000,0.000,0.000,0.000,0.000,0.000,0.525,0.000,0.000,0.000,0.000,3.142,6.283,0.000,1.003,1.569,1.569,4.085,6.281,1.199,4.712,0.000,0.000,-2.009,-4.449,0.990,4.742,4.541,4.882,5.281,4.711,4.712,2.198,6.282,5.083,1.570,0.000,0.000,-1.354,-4.430,0.990,4.742,4.565,4.860,
36.041,42.604,-1.664,-5.029,1.600,0.000,6.272,1.597,1.093,0.710,1.434,3.643,4.130,0.000,4.995,4.095,1.596,0.000,3.001,0.000,0.000,0.000,0.000,0.000,0.000,0.533,0.000,0.000,0.000,0.000,3.142,6.283,0.000,1.003,1.569,1.569,4.085,6.281,1.199,4.712,0.000,0.000,-2.009,-4.449,0.990,4.742,4.541,4.882,5.281,4.711,4.712,2.198,6.282,5.083,1.570,0.000,0.000,-1.354,-4.430,0.990,4.742,4.565,4.860,
36.160,42.724,-1.664,-5.029,1.600,0.000,6.272,1.597,1.093,0.710,1.434,3.643,4.130,0.000,4.995,4.095,1.596,0.000,3.001,0.000,0.000,0.000,0.000,0.000,0.000,0.597,0.000,0.000,0.000,0.000,3.142,6.283,0.000,1.003,1.569,1.569,4.085,6.281,1.199,4.712,0.000,0.000,-2.009,-4.449,0.990,4.742,4.541,4.882,5.281,4.711,4.712,2.198,6.282,5.083,1.570,0.000,0.000,-1.354,-4.430,0.990,4.742,4.565,4.860,
36.260,42.824,-1.664,-5.029,1.600,0.000,6.272,1.597,1.093,0.710,1.434,3.643,4.130,1.430,0.000,4.095,1.596,0.000,3.001,0.000,0.000,0.000,0.000,0.000,0.000,0.000,0.569,0.000,0.000,0.000,3.142,6.283,0.000,1.003,1.569,1.569,4.085,6.281,1.199,4.712,0.000,0.000,-2.009,-4.449,0.990,4.742,4.541,4.882,5.281,4.711,4.712,2.198,6.282,5.083,1.570,0.000,0.000,-1.354,-4.430,0.990,4.742,4.565,4.860,
36.360,42.924,-1.664,-5.029,1.600,0.000,6.272,1.597,1.093,0.710,1.434,3.643,4.130,1.430,0.000,4.095,1.596,0.000,3.001,0.000,0.000,0.000,0.000,0.000,0.000,0.000,0.608,0.000,0.000,0.000,3.142,6.283,0.000,1.003,1.569,1.569,4.085,6.281,1.199,4.712,0.000,0.000,-2.009,-4.449,0.990,4.742,4.541,4.882,5.281,4.711,4.712,2.198,6.282,5.083,1.570,0.000,0.000,-1.354,-4.430,0.990,4.742,4.565,4.860,
36.460,43.024,-1.664,-5.029,1.600,0.000,6.272,1.597,1.093,0.710,1.434,3.643,4.130,1.430,0.000,4.095,1.596,0.000,3.001,0.000,0.000,0.000,0.000,0.000,0.000,0.000,0.670,0.000,0.000,0.000,3.142,6.283,0.000,1.003,1.569,1.569,4.085,6.281,1.199,4.712,0.000,0.000,-2.009,-4.449,0.990,4.742,4.541,4.882,5.281,4.711,4.712,2.198,6.282,5.083,1.570,0.000,0.000,-1.354,-4.430,0.990,4.742,4.565,4.860,
36.544,43.108,-1.664,-5.029,1.600,0.000,6.272,1.597,1.093,0.710,1.434,3.643,4.130,1.430,0.000,4.095,1.596,0.000,3.001,0.000,0.000,0.000,0.000,0.000,0.000,0.000,0.855,0.000,0.000,0.000,3.142,6.283,0.000,1.003,1.569,1.569,4.085,6.281,1.199,4.712,0.000,0.000,-2.009,-4.449,0.990,4.742,4.541,4.882,5.281,4.711,4.712,2.198,6.282,5.083,1.570,0.000,0.000,-1.354,-4.430,0.990,4.742,4.565,4.860,
36.660,43.224,-1.664,-5.029,1.600,0.000,6.272,1.597,1.093,0.710,1.434,3.643,4.130,1.430,0.000,4.095,1.596,0.000,3.001,0.000,0.000,0.000,0.000,0.000,0.000,0.000,0.994,0.000,0.000,0.000,3.142,6.283,0.000,1.003,1.569,1.569,4.085,6.281,1.199,4.712,0.000,0.000,-2.009,-4.449,0.990,4.742,4.541,4.882,5.281,4.711,4.712,2.198,6.282,5.083,1.570,0.000,0.000,-1.354,-4.430,0.990,4.742,4.565,4.860,
36.758,43.321,-1.664,-5.029,1.600,0.000,6.272,1.597,1.093,0.710,1.434,3.643,4.130,1.430,4.995,4.095,1.596,0.000,3.001,0.000,0.000,0.000,0.000,0.000,0.000,0.000,0.000,0.000,0.000,0.000,3.142,6.283,0.000,1.003,1.569,1.569,4.085,6.281,1.199,4.712,0.000,0.000,-2.009,-4.449,0.990,4.742,4.541,4.882,5.281,4.711,4.712,2.198,6.282,5.083,1.570,0.000,0.000,-1.354,-4.430,0.990,4.742,4.565,4.860,
36.860,43.424,-1.664,-5.029,1.600,0.000,6.272,1.597,1.093,0.710,1.434,3.643,4.130,1.430,4.995,4.095,1.596,0.000,3.001,0.000,0.000,0.000,0.000,0.000,0.000,0.000,0.000,0.000,0.000,0.000,3.142,6.283,0.000,1.003,1.569,1.569,4.085,6.281,1.199,4.712,0.000,0.000,-2.009,-4.449,0.990,4.742,4.541,4.882,5.281,4.711,4.712,2.198,6.282,5.083,1.570,0.000,0.000,-1.354,-4.430,0.990,4.742,4.565,4.860,
36.960,43.524,-1.664,-5.029,1.600,0.000,6.272,1.597,1.093,0.710,1.434,3.643,4.130,1.430,4.995,4.095,1.596,0.000,3.001,0.000,0.000,0.000,0.000,0.000,0.000,0.000,0.000,0.000,0.000,0.000,3.142,6.283,0.000,1.003,1.569,1.569,4.085,6.281,1.199,4.712,0.000,0.000,-2.009,-4.449,0.990,4.742,4.541,4.882,5.281,4.711,4.712,2.198,6.282,5.083,1.570,0.000,0.000,-1.354,-4.430,0.990,4.742,4.565,4.860,
37.060,43.624,-1.664,-5.029,1.600,0.000,6.272,1.597,1.093,0.710,1.434,3.643,4.130,1.430,4.995,4.095,1.596,0.000,3.001,0.000,0.000,0.000,0.000,0.000,0.000,0.000,0.000,0.000,0.000,0.000,3.142,6.283,0.000,1.003,1.569,1.569,4.085,6.281,1.199,4.712,0.000,0.000,-2.009,-4.449,0.990,4.742,4.541,4.882,5.281,4.711,4.712,2.198,6.282,5.083,1.570,0.000,0.000,-1.354,-4.430,0.990,4.742,4.565,4.860,
37.160,43.724,-1.664,-5.029,1.600,0.000,6.272,1.597,1.093,0.710,1.434,3.643,4.130,1.430,4.995,4.095,1.596,0.000,3.001,0.000,0.000,0.000,0.000,0.000,0.000,0.000,0.000,0.000,0.000,0.000,3.142,6.283,0.000,1.003,1.569,1.569,4.085,6.281,1.199,4.712,0.000,0.000,-2.009,-4.449,0.990,4.742,4.541,4.882,5.281,4.711,4.712,2.198,6.282,5.083,1.570,0.000,0.000,-1.354,-4.430,0.990,4.742,4.565,4.860,
37.260,43.824,-1.664,-5.029,1.600,0.000,6.272,1.597,1.093,0.710,1.434,3.643,4.130,1.430,4.995,4.095,1.596,0.000,3.001,0.000,0.000,0.000,0.000,0.000,0.000,0.000,0.000,0.000,0.000,0.000,3.142,6.283,0.000,1.003,1.569,1.569,4.085,6.281,1.199,4.712,0.000,0.000,-2.009,-4.449,0.990,4.742,4.541,4.882,5.281,4.711,4.712,2.198,6.282,5.083,1.570,0.000,0.000,-1.354,-4.430,0.990,4.742,4.565,4.860,
37.360,43.924,-1.664,-5.029,1.600,0.000,6.272,1.597,1.093,0.710,1.434,3.643,4.130,1.430,4.995,4.095,1.596,0.000,3.001,0.000,0.000,0.000,0.000,0.000,0.000,0.000,0.000,0.000,0.000,0.000,3.142,6.283,0.000,1.003,1.569,1.569,4.085,6.281,1.199,4.712,0.000,0.000,-2.009,-4.449,0.990,4.742,4.541,4.882,5.281,4.711,4.712,2.198,6.282,5.083,1.570,0.000,0.000,-1.354,-4.430,0.990,4.742,4.565,4.860,
37.460,44.024,-1.664,-5.029,1.600,0.000,6.272,1.597,1.093,0.710,1.434,3.643,4.130,1.430,4.995,4.095,1.596,0.000,3.001,0.000,0.000,0.000,0.000,0.000,0.000,0.000,0.000,0.000,0.000,0.000,3.142,6.283,0.000,1.003,1.569,1.569,4.085,6.281,1.199,4.712,0.000,0.000,-2.009,-4.449,0.990,4.742,4.541,4.882,5.281,4.711,4.712,2.198,6.282,5.083,1.570,0.000,0.000,-1.354,-4.430,0.990,4.742,4.565,4.860,
37.541,44.105,-1.664,-5.029,1.600,0.000,6.272,1.597,1.093,0.710,1.434,3.643,4.130,1.430,4.995,4.095,1.596,0.000,3.001,0.000,0.000,0.000,0.000,0.000,0.000,0.000,0.000,0.000,0.000,0.000,3.142,6.283,0.000,1.003,1.569,1.569,4.085,6.281,1.199,4.712,0.000,0.000,-2.009,-4.449,0.990,4.742,4.541,4.882,5.281,4.711,4.712,2.198,6.282,5.083,1.570,0.000,0.000,-1.354,-4.430,0.990,4.742,4.565,4.860,
37.660,44.224,-1.664,-5.029,1.600,0.000,6.272,1.597,1.093,0.710,1.434,3.643,4.130,1.430,4.995,4.095,1.596,0.000,3.001,0.000,0.000,0.000,0.000,0.000,0.000,0.000,0.000,0.000,0.000,0.000,3.142,6.283,0.000,1.003,1.569,1.569,4.085,6.281,1.199,4.712,0.000,0.000,-2.009,-4.449,0.990,4.742,4.541,4.882,5.281,4.711,4.712,2.198,6.282,5.083,1.570,0.000,0.000,-1.354,-4.430,0.990,4.742,4.565,4.860,
