deveshdatwani/Gopher/Assets/Data/07-21 07-03-00/Obstacle Handling_robot_value.csv
game_time,true_time,x,y,az,vx,vaz,dis_to_obs_0,dis_to_obs_36,dis_to_obs_72,dis_to_obs_108,dis_to_obs_144,dis_to_obs_180,dis_to_obs_-144,dis_to_obs_-108,dis_to_obs_-72,dis_to_obs_-36,dis_to_min_obs,direction_to_min_obs,dis_to_human_0,dis_to_human_36,dis_to_human_72,dis_to_human_108,dis_to_human_144,dis_to_human_180,dis_to_human_-144,dis_to_human_-108,dis_to_human_-72,dis_to_human_-36,dis_to_min_human,direction_to_min_human,main_cam_yaw,main_cam_pitch,left_joint_1,left_joint_2,left_joint_3,left_joint_4,left_joint_5,left_joint_6,left_joint_7,left_joint_gripper,left_is_grasping,left_end_x,left_end_y,left_end_z,left_end_ax,left_end_ay,left_end_az,right_joint_1,right_joint_2,right_joint_3,right_joint_4,right_joint_5,right_joint_6,right_joint_7,right_joint_gripper,right_is_grasping,right_end_x,right_end_y,right_end_z,right_end_ax,right_end_ay,right_end_az,
7.474,51.041,0.996,-9.922,1.577,1.013,6.265,3.423,0.000,2.130,1.256,2.120,4.990,3.365,2.098,1.698,4.169,0.000,3.071,0.000,0.000,0.000,0.000,0.000,0.000,0.000,0.000,0.000,0.000,0.000,3.142,6.282,0.000,1.004,1.569,1.569,4.085,6.281,1.199,4.712,0.000,0.000,0.664,-9.335,0.990,4.720,4.052,5.372,5.281,4.711,4.711,2.198,6.282,5.083,1.570,0.000,0.000,1.320,-9.330,0.990,4.720,4.099,5.325,
7.580,51.147,0.995,-9.804,1.577,0.998,6.266,3.305,0.000,1.692,1.256,2.120,0.000,3.364,2.099,1.699,3.486,0.000,3.142,0.000,0.000,0.000,0.000,0.000,0.000,0.000,0.000,0.000,0.000,0.000,3.142,6.282,0.000,1.004,1.569,1.569,4.085,6.281,1.199,4.712,0.000,0.000,0.663,-9.217,0.990,4.721,4.119,5.305,5.281,4.711,4.711,2.198,6.282,5.083,1.570,0.000,0.000,1.319,-9.212,0.990,4.721,4.143,5.281,
7.680,51.247,0.995,-9.705,1.590,1.013,0.533,3.207,0.000,1.645,1.292,2.159,0.000,3.310,2.092,0.000,3.379,0.000,3.142,0.000,0.000,0.000,0.000,0.000,0.000,0.000,0.000,0.000,0.000,0.000,3.142,0.001,0.000,1.003,1.570,1.572,4.086,6.281,1.199,4.712,0.000,0.000,0.656,-9.122,0.990,4.729,4.411,5.013,5.281,4.712,4.714,2.199,6.281,5.083,1.571,0.000,0.000,1.312,-9.109,0.991,4.729,4.504,4.920,
7.780,51.347,0.991,-9.605,1.678,1.018,1.385,3.129,0.000,1.634,1.319,2.501,0.000,2.982,2.050,0.000,3.551,0.000,3.142,0.000,0.000,0.000,0.000,0.000,0.000,0.000,0.000,0.000,0.000,0.000,3.142,0.002,0.000,1.003,1.571,1.572,4.086,6.281,1.199,4.712,0.000,0.000,0.603,-9.054,0.990,4.817,4.668,4.756,5.282,4.713,4.714,2.198,6.282,5.083,1.571,0.000,0.000,1.255,-8.984,0.991,4.817,4.685,4.739,
7.880,51.447,0.977,-9.505,1.800,1.012,1.222,3.099,0.000,1.652,1.381,3.231,0.000,2.668,1.630,0.000,3.243,0.000,3.142,0.000,3.238,0.000,0.000,0.000,0.000,0.000,0.000,0.000,0.000,0.000,3.142,0.001,0.000,1.003,1.570,1.569,4.085,6.282,1.199,4.712,0.000,0.000,0.523,-9.006,0.990,4.942,4.693,4.730,5.282,4.712,4.712,2.198,6.283,5.083,1.570,0.000,0.000,1.163,-8.857,0.991,4.941,4.698,4.726,
7.980,51.547,0.952,-9.409,1.885,1.017,0.832,3.077,0.000,1.872,1.435,4.083,4.689,2.524,1.650,4.875,3.044,0.000,3.106,0.000,3.050,0.000,0.000,0.000,0.000,0.000,0.000,0.000,0.000,0.000,3.142,0.001,0.000,1.003,1.570,1.569,4.085,6.282,1.199,4.712,0.000,0.000,0.457,-8.950,0.990,5.028,4.697,4.726,5.282,4.712,4.712,2.198,6.282,5.083,1.570,0.000,0.000,1.081,-8.747,0.991,5.027,4.701,4.723,
8.080,51.647,0.926,-9.333,1.942,1.015,0.870,3.061,0.000,1.826,1.469,0.000,3.682,2.460,1.679,4.421,2.919,0.000,3.036,0.000,3.033,0.000,0.000,0.000,0.000,0.000,0.000,0.000,0.000,0.000,3.142,0.001,0.000,1.003,1.570,1.570,4.086,6.281,1.199,4.712,0.000,0.000,0.407,-8.902,0.990,5.083,4.699,4.724,5.282,4.712,4.712,2.198,6.282,5.083,1.570,0.000,0.000,1.019,-8.665,0.991,5.082,4.703,4.721,
8.180,51.747,0.880,-9.223,2.045,1.010,1.090,3.127,0.000,1.742,1.554,0.000,3.891,2.372,0.000,3.800,2.307,0.000,2.966,0.000,0.000,0.000,0.000,0.000,0.000,0.000,0.000,0.000,0.000,0.000,3.142,0.001,0.000,1.003,1.570,1.570,4.086,6.282,1.199,4.712,0.000,0.000,0.319,-8.848,0.990,5.186,4.702,4.721,5.282,4.712,4.713,2.198,6.282,5.083,1.570,0.000,0.000,0.903,-8.548,0.991,5.185,4.705,4.718,
8.280,51.847,0.832,-9.135,2.138,1.014,1.036,2.803,0.000,1.676,1.656,0.000,4.033,2.327,0.000,3.385,2.638,0.000,2.861,0.000,0.000,0.000,0.000,0.000,0.000,0.000,0.000,0.000,0.000,0.000,3.142,0.001,0.000,1.003,1.570,1.570,4.085,6.282,1.199,4.712,0.000,0.000,0.238,-8.815,0.990,5.280,4.704,4.719,5.282,4.712,4.712,2.198,6.282,5.083,1.570,0.000,0.000,0.792,-8.462,0.991,5.279,4.706,4.717,
8.380,51.947,0.777,-9.052,2.191,1.015,0.162,2.805,0.000,1.653,1.682,0.000,3.825,1.922,0.000,3.149,2.552,0.000,2.826,0.000,0.000,0.000,0.000,0.000,0.000,0.000,0.000,0.000,0.000,0.000,3.142,6.283,0.000,1.004,1.568,1.567,4.085,6.282,1.199,4.712,0.000,0.000,0.165,-8.765,0.990,5.336,4.704,4.718,5.281,4.711,4.709,2.198,6.283,5.083,1.570,0.000,0.000,0.699,-8.383,0.990,5.335,4.705,4.717,
8.475,52.042,0.730,-8.987,2.191,1.011,6.270,2.725,0.000,1.667,1.602,0.000,3.903,1.971,0.000,3.068,2.487,0.000,2.826,0.000,0.000,0.000,0.000,0.000,0.000,0.000,0.000,0.000,0.000,0.000,3.142,6.282,0.000,1.004,1.569,1.569,4.085,6.281,1.199,4.712,0.000,0.000,0.120,-8.699,0.990,5.333,4.704,4.718,5.281,4.711,4.711,2.198,6.282,5.083,1.570,0.000,0.000,0.654,-8.317,0.990,5.333,4.704,4.718,
8.580,52.147,0.661,-8.890,2.191,1.010,6.269,2.605,0.000,1.366,1.541,0.000,4.022,2.043,0.000,2.948,2.390,0.000,2.861,0.000,0.000,0.000,0.000,0.000,0.000,0.000,0.000,0.000,0.000,0.000,3.142,6.282,0.000,1.004,1.569,1.569,4.085,6.281,1.199,4.712,0.000,0.000,0.051,-8.602,0.990,5.334,4.704,4.718,5.281,4.711,4.711,2.198,6.282,5.083,1.570,0.000,0.000,0.584,-8.220,0.990,5.334,4.704,4.718,
8.680,52.247,0.603,-8.809,2.201,1.012,0.446,2.521,0.000,1.242,1.561,0.000,4.070,2.098,0.000,2.830,2.310,0.000,2.826,0.000,0.000,0.000,0.000,0.000,0.000,0.000,0.000,0.000,0.000,0.000,3.142,0.001,0.000,1.003,1.570,1.571,4.086,6.281,1.199,4.712,0.000,0.000,-0.008,-8.526,0.990,5.340,4.704,4.719,5.281,4.712,4.713,2.199,6.281,5.083,1.570,0.000,0.000,0.522,-8.140,0.991,5.340,4.706,4.717,
8.780,52.347,0.543,-8.730,2.282,1.011,1.355,0.000,0.000,1.221,1.605,0.000,3.763,2.113,0.000,2.591,2.240,0.000,2.755,0.000,0.000,0.000,0.000,0.000,0.000,0.000,0.000,0.000,0.000,0.000,3.142,0.002,0.000,1.003,1.571,1.572,4.086,6.281,1.199,4.712,0.000,0.000,-0.089,-8.497,0.990,5.421,4.705,4.717,5.282,4.713,4.714,2.198,6.282,5.083,1.571,0.000,0.000,0.408,-8.069,0.991,5.421,4.708,4.715,
8.880,52.447,0.476,-8.656,2.406,1.016,1.262,0.000,3.740,1.288,1.722,0.000,3.405,3.311,4.281,1.871,2.210,0.000,2.650,2.436,0.000,0.000,0.000,0.000,0.000,0.000,0.000,0.000,0.000,0.000,3.142,0.001,0.000,1.003,1.570,1.569,4.085,6.282,1.199,4.712,0.000,0.000,-0.182,-8.504,0.990,5.548,4.706,4.715,5.282,4.712,4.712,2.198,6.283,5.083,1.570,0.000,0.000,0.259,-8.018,0.991,5.547,4.708,4.715,
8.980,52.547,0.400,-8.590,2.494,1.022,0.833,0.000,1.505,1.295,1.941,0.000,3.261,0.000,3.619,2.205,2.194,0.000,2.580,2.333,0.000,0.000,0.000,0.000,0.000,0.000,0.000,0.000,0.000,0.000,3.142,0.001,0.000,1.003,1.570,1.569,4.085,6.282,1.199,4.712,0.000,0.000,-0.269,-8.497,0.990,5.636,4.706,4.715,5.282,4.712,4.711,2.198,6.282,5.083,1.570,0.000,0.000,0.127,-7.974,0.991,5.636,4.708,4.714,
9.080,52.647,0.335,-8.543,2.529,1.015,0.223,0.000,1.437,1.192,1.945,0.000,3.258,0.000,3.371,2.130,2.170,0.000,2.545,2.317,0.000,0.000,0.000,0.000,0.000,0.000,0.000,0.000,0.000,0.000,3.142,6.283,0.000,1.004,1.569,1.567,4.085,6.282,1.199,4.712,0.000,0.000,-0.337,-8.474,0.990,5.673,4.706,4.714,5.281,4.711,4.710,2.198,6.282,5.083,1.570,0.000,0.000,0.041,-7.937,0.991,5.673,4.707,4.714,
9.180,52.747,0.238,-8.474,2.531,1.005,6.266,0.000,3.490,0.876,1.739,0.000,3.372,0.000,3.251,2.058,2.098,0.000,2.755,2.201,0.000,0.000,0.000,0.000,0.000,0.000,0.000,0.000,0.000,0.000,3.142,6.282,0.000,1.004,1.569,1.569,4.085,6.281,1.199,4.712,0.000,0.000,-0.433,-8.406,0.990,5.673,4.707,4.715,5.281,4.711,4.711,2.198,6.282,5.083,1.570,0.000,0.000,-0.058,-7.868,0.990,5.673,4.707,4.715,
9.280,52.847,0.156,-8.418,2.531,1.012,6.267,0.000,3.409,0.842,1.719,0.000,3.471,0.000,3.156,1.999,2.219,0.000,2.755,2.101,0.000,0.000,0.000,0.000,0.000,0.000,0.000,0.000,0.000,0.000,3.142,6.282,0.000,1.004,1.569,1.569,4.085,6.281,1.199,4.712,0.000,0.000,-0.515,-8.349,0.990,5.673,4.707,4.715,5.281,4.711,4.711,2.198,6.282,5.083,1.570,0.000,0.000,-0.139,-7.812,0.990,5.673,4.707,4.715,
9.365,52.932,0.075,-8.360,2.531,1.015,6.268,0.000,3.327,0.851,1.700,0.000,3.570,0.000,3.061,1.939,1.512,0.000,2.791,1.999,0.000,0.000,0.000,0.000,0.000,0.000,0.000,0.000,0.000,0.000,3.142,6.282,0.000,1.004,1.569,1.569,4.085,6.281,1.199,4.712,0.000,0.000,-0.597,-8.292,0.990,5.673,4.707,4.715,5.281,4.711,4.711,2.198,6.282,5.083,1.570,0.000,0.000,-0.221,-7.755,0.990,5.673,4.707,4.715,
9.480,53.047,-0.007,-8.303,2.532,1.011,6.267,0.000,3.245,0.860,1.680,0.000,3.669,0.000,2.966,1.879,1.452,0.000,2.826,1.898,0.000,0.000,0.000,0.000,0.000,0.000,0.000,0.000,0.000,0.000,3.142,6.282,0.000,1.004,1.569,1.569,4.085,6.281,1.199,4.712,0.000,0.000,-0.678,-8.235,0.990,5.674,4.707,4.715,5.281,4.711,4.711,2.198,6.282,5.083,1.570,0.000,0.000,-0.303,-7.698,0.990,5.674,4.707,4.715,
9.580,53.147,-0.081,-8.252,2.544,0.802,0.534,0.000,3.173,0.864,1.673,0.000,3.728,0.000,2.835,1.819,1.552,0.000,2.826,1.839,0.000,0.000,0.000,0.000,0.000,0.000,0.000,0.000,0.000,0.000,3.142,0.002,0.000,1.002,1.571,1.573,4.088,6.281,1.200,4.712,0.000,0.000,-0.753,-8.189,0.990,5.681,4.705,4.716,5.281,4.713,4.714,2.199,6.281,5.083,1.571,0.000,0.000,-0.383,-7.648,0.991,5.682,4.708,4.715,
9.677,53.244,-0.141,-8.213,2.632,0.696,1.374,3.363,3.140,0.843,1.754,0.000,3.597,0.000,1.862,1.742,1.569,0.000,2.755,0.000,0.000,0.000,0.000,0.000,0.000,0.000,0.000,0.000,0.000,0.000,3.142,0.002,0.000,1.003,1.571,1.571,4.086,6.281,1.199,4.712,0.000,0.000,-0.815,-8.211,0.990,5.772,4.707,4.714,5.282,4.713,4.714,2.198,6.282,5.083,1.571,0.000,0.000,-0.495,-7.638,0.991,5.771,4.709,4.714,
9.780,53.347,-0.206,-8.179,2.753,0.811,1.226,4.498,3.179,0.818,1.904,0.000,3.033,0.000,2.187,1.683,3.984,0.000,2.650,0.000,0.000,0.000,0.000,0.000,0.000,0.000,0.000,0.000,0.000,0.000,3.142,0.000,0.000,1.004,1.569,1.568,4.084,6.282,1.199,4.712,0.000,0.000,-0.875,-8.261,0.990,5.897,4.708,4.713,5.282,4.712,4.711,2.198,6.283,5.083,1.570,0.000,0.000,-0.627,-7.653,0.991,5.896,4.709,4.713,
9.880,53.447,-0.292,-8.146,2.808,1.068,0.042,0.000,2.849,0.797,1.953,0.000,3.063,0.000,2.054,1.647,3.997,0.000,2.615,0.000,0.000,0.000,0.000,0.000,0.000,0.000,0.000,0.000,0.000,0.000,3.142,6.281,0.000,1.005,1.567,1.565,4.083,6.282,1.199,4.711,0.000,0.000,-0.956,-8.267,0.990,5.955,4.708,4.712,5.281,4.710,4.708,2.198,6.283,5.083,1.570,0.000,0.000,-0.742,-7.646,0.991,5.954,4.708,4.713,
9.980,53.547,-0.375,-8.118,2.807,1.129,6.278,0.000,2.849,0.781,1.897,0.000,3.152,0.000,2.019,1.618,3.959,0.000,2.615,0.000,0.000,0.000,0.000,0.000,0.000,0.000,0.000,0.000,0.000,0.000,3.142,6.282,0.000,1.004,1.569,1.569,4.084,6.281,1.199,4.712,0.000,0.000,-1.039,-8.235,0.990,5.949,4.708,4.713,5.281,4.711,4.711,2.197,6.282,5.083,1.570,0.000,0.000,-0.825,-7.615,0.990,5.949,4.707,4.714,
10.080,53.647,-0.493,-8.077,2.807,0.980,6.273,0.000,2.983,0.757,0.873,0.000,3.277,0.000,1.968,1.139,3.908,0.000,2.650,0.000,0.000,0.000,0.000,0.000,0.000,0.000,0.000,0.000,0.000,0.000,3.142,6.283,0.001,1.003,1.569,1.569,4.086,6.281,1.199,4.712,0.000,0.000,-1.158,-8.194,0.990,5.949,4.707,4.713,5.281,4.711,4.711,2.197,6.282,5.083,1.570,0.000,0.000,-0.942,-7.574,0.990,5.949,4.707,4.713,
10.173,53.740,-0.564,-8.052,2.807,0.951,6.272,0.000,3.063,0.743,0.857,0.000,3.352,0.000,1.937,2.384,3.878,0.000,2.685,0.000,0.000,0.000,0.000,0.000,0.000,0.000,0.000,0.000,0.000,0.000,3.142,6.282,0.000,1.004,1.569,1.569,4.085,6.281,1.199,4.712,0.000,0.000,-1.229,-8.169,0.990,5.949,4.707,4.713,5.281,4.711,4.711,2.197,6.282,5.083,1.570,0.000,0.000,-1.014,-7.550,0.990,5.949,4.707,4.713,
10.280,53.847,-0.674,-8.014,2.807,1.029,6.270,0.000,2.709,0.721,0.832,0.000,3.469,3.727,1.890,1.216,3.992,0.000,2.720,0.000,0.000,0.000,0.000,0.000,0.000,0.000,0.000,0.000,0.000,0.000,3.142,6.282,0.000,1.004,1.569,1.569,4.084,6.281,1.199,4.712,0.000,0.000,-1.339,-8.131,0.990,5.950,4.708,4.713,5.281,4.711,4.711,2.197,6.282,5.083,1.570,0.000,0.000,-1.124,-7.511,0.990,5.950,4.707,4.713,
10.380,53.947,-0.752,-7.987,2.807,1.042,6.270,0.000,2.627,1.442,0.814,0.000,3.551,3.808,1.856,1.189,3.859,0.000,2.720,0.000,0.000,0.000,0.000,0.000,0.000,0.000,0.000,0.000,0.000,0.000,3.142,6.282,0.000,1.004,1.569,1.569,4.085,6.281,1.199,4.712,0.000,0.000,-1.416,-8.104,0.990,5.949,4.707,4.713,5.281,4.711,4.711,2.198,6.282,5.083,1.570,0.000,0.000,-1.201,-7.484,0.990,5.949,4.707,4.713,
10.480,54.047,-0.866,-7.947,2.807,1.002,6.269,4.987,2.507,1.491,0.787,0.000,3.671,4.940,1.807,1.149,3.663,0.000,2.755,0.000,0.000,0.000,0.000,0.000,0.000,0.000,0.000,0.000,0.000,0.000,3.142,6.282,0.000,1.004,1.569,1.569,4.085,6.281,1.199,4.712,0.000,0.000,-1.530,-8.064,0.990,5.949,4.707,4.713,5.281,4.711,4.711,2.198,6.282,5.083,1.570,0.000,0.000,-1.315,-7.445,0.990,5.949,4.707,4.713,
10.580,54.147,-0.935,-7.923,2.792,0.431,5.814,0.000,2.424,1.537,0.765,0.000,3.764,0.000,1.797,1.125,3.619,0.000,2.826,0.000,0.000,0.000,0.000,0.000,0.000,0.000,0.000,0.000,0.000,0.000,3.142,0.001,0.001,1.001,1.570,1.569,4.090,6.281,1.200,4.712,0.000,0.000,-1.602,-8.030,0.989,5.934,4.704,4.714,5.281,4.711,4.711,2.197,6.282,5.083,1.570,0.000,0.000,-1.377,-7.414,0.990,5.935,4.706,4.713,
10.680,54.247,-0.951,-7.917,2.731,0.094,4.995,3.568,2.366,1.621,0.737,0.000,3.875,0.000,1.882,1.123,3.530,0.000,2.861,0.000,0.000,0.000,0.000,0.000,0.000,0.000,0.000,0.000,0.000,0.000,3.142,6.281,0.001,1.003,1.568,1.566,4.087,6.281,1.199,4.712,0.000,0.000,-1.623,-7.985,0.990,5.876,4.706,4.713,5.281,4.711,4.709,2.197,6.282,5.083,1.570,0.000,0.000,-1.361,-7.383,0.990,5.875,4.707,4.713,
10.780,54.347,-0.970,-7.908,2.566,0.365,4.772,0.000,2.622,2.666,0.722,1.093,4.734,0.000,2.218,1.146,3.717,0.000,3.036,0.854,0.000,0.000,0.000,0.000,0.000,0.000,0.000,0.000,0.000,0.000,3.142,6.279,0.000,1.006,1.568,1.567,4.082,6.281,1.199,4.712,0.000,0.000,-1.643,-7.865,0.990,5.710,4.708,4.713,5.283,4.711,4.710,2.197,6.282,5.083,1.570,0.000,0.000,-1.286,-7.313,0.991,5.709,4.708,4.714,
10.868,54.435,-0.992,-7.893,2.477,0.260,5.261,0.000,0.000,2.460,1.171,0.985,0.000,0.000,2.472,1.161,0.000,0.000,3.142,0.805,0.000,0.000,0.000,0.000,0.000,0.000,0.000,0.000,0.000,0.000,3.142,6.282,0.001,1.003,1.570,1.570,4.088,6.281,1.199,4.712,0.000,0.000,-1.659,-7.787,0.989,5.617,4.704,4.716,5.282,4.712,4.713,2.198,6.281,5.083,1.570,0.000,0.000,-1.253,-7.271,0.991,5.616,4.707,4.715,
10.980,54.547,-0.995,-7.891,2.386,-0.118,5.375,0.000,0.000,2.318,1.382,0.899,0.000,0.000,2.861,1.531,4.996,0.000,3.142,0.816,0.000,0.000,0.000,0.000,0.000,0.000,0.000,0.000,0.000,0.000,3.142,6.282,0.001,1.002,1.569,1.569,4.087,6.281,1.199,4.712,0.000,0.000,-1.649,-7.726,0.990,5.528,4.705,4.716,5.281,4.712,4.712,2.198,6.282,5.083,1.570,0.000,0.000,-1.199,-7.249,0.990,5.527,4.706,4.716,
11.065,54.632,-0.988,-7.899,2.295,-0.081,5.184,0.000,0.000,2.618,1.438,0.829,0.000,0.000,2.381,1.108,4.586,0.000,3.142,0.857,0.000,0.000,0.000,0.000,0.000,0.000,0.000,0.000,0.000,0.000,3.142,6.281,0.000,1.004,1.569,1.568,4.084,6.281,1.199,4.712,0.000,0.000,-1.625,-7.675,0.990,5.438,4.706,4.716,5.281,4.711,4.711,2.198,6.282,5.083,1.570,0.000,0.000,-1.133,-7.240,0.990,5.437,4.706,4.717,
11.180,54.747,-0.987,-7.900,2.200,0.033,5.159,0.000,4.822,2.401,1.522,0.776,0.000,4.039,4.419,1.716,0.000,0.000,3.142,0.889,0.000,0.000,0.000,0.000,0.000,0.000,0.000,0.000,0.000,0.000,3.142,6.280,0.000,1.004,1.569,1.568,4.084,6.281,1.199,4.712,0.000,0.000,-1.600,-7.619,0.990,5.344,4.705,4.717,5.282,4.711,4.710,2.198,6.282,5.083,1.570,0.000,0.000,-1.070,-7.231,0.991,5.343,4.705,4.717,
11.261,54.828,-0.995,-7.888,2.100,0.325,5.356,0.000,3.501,2.322,3.115,0.741,0.000,3.921,0.000,1.841,1.094,0.000,3.142,0.937,0.000,0.000,0.000,0.000,0.000,0.000,0.000,0.000,0.000,0.000,3.142,6.279,0.000,1.005,1.568,1.568,4.082,6.281,1.199,4.712,0.000,0.000,-1.576,-7.547,0.990,5.243,4.706,4.717,5.282,4.711,4.711,2.197,6.282,5.083,1.571,0.000,0.000,-1.010,-7.214,0.991,5.243,4.705,4.718,
11.380,54.947,-1.016,-7.851,2.070,0.491,6.256,0.000,3.297,2.284,2.978,0.755,0.000,3.998,0.000,1.841,1.060,0.000,3.142,0.927,0.000,0.000,0.000,0.000,0.000,0.000,0.000,0.000,0.000,0.000,3.142,6.282,0.000,1.004,1.570,1.570,4.085,6.281,1.199,4.712,0.000,0.000,-1.586,-7.491,0.990,5.210,4.702,4.720,5.281,4.712,4.712,2.198,6.282,5.083,1.570,0.000,0.000,-1.010,-7.177,0.990,5.211,4.704,4.720,
11.461,55.028,-1.035,-7.815,2.071,0.336,6.261,0.000,3.217,2.265,2.952,0.778,0.000,4.018,0.000,1.791,1.024,0.000,3.142,0.969,0.000,0.000,0.000,0.000,0.000,0.000,0.000,0.000,0.000,0.000,3.142,0.000,0.001,1.003,1.570,1.570,4.087,6.281,1.200,4.712,0.000,0.000,-1.606,-7.455,0.990,5.212,4.700,4.722,5.281,4.712,4.712,2.198,6.282,5.083,1.570,0.000,0.000,-1.030,-7.141,0.990,5.212,4.703,4.720,
11.580,55.147,-1.045,-7.797,2.072,0.252,0.044,0.000,3.175,2.255,2.938,0.791,0.000,4.028,0.000,1.764,1.005,0.000,3.142,1.021,0.000,0.000,0.000,0.000,0.000,0.000,0.000,0.000,0.000,0.000,3.142,6.283,0.000,1.003,1.570,1.570,4.086,6.281,1.199,4.712,0.000,0.000,-1.616,-7.437,0.990,5.213,4.702,4.721,5.281,4.711,4.712,2.198,6.282,5.083,1.570,0.000,0.000,-1.041,-7.122,0.990,5.213,4.703,4.720,
11.680,55.247,-1.061,-7.768,2.072,0.338,6.261,0.000,3.112,2.239,2.918,0.855,0.000,4.043,0.000,1.724,0.976,0.000,3.142,1.227,0.000,0.000,0.000,0.000,0.000,0.000,0.000,0.000,0.000,0.000,3.142,6.282,0.000,1.004,1.569,1.569,4.084,6.281,1.199,4.712,0.000,0.000,-1.633,-7.410,0.990,5.215,4.703,4.719,5.281,4.711,4.711,2.198,6.282,5.083,1.570,0.000,0.000,-1.058,-7.094,0.990,5.215,4.703,4.720,
11.777,55.344,-1.074,-7.744,2.073,0.379,6.261,3.277,3.056,2.226,2.900,0.911,0.000,4.057,4.139,1.690,0.952,0.000,3.142,0.000,0.000,0.000,0.000,0.000,0.000,0.000,0.000,0.000,0.000,0.000,3.142,6.282,0.000,1.004,1.569,1.569,4.085,6.281,1.199,4.712,0.000,0.000,-1.646,-7.386,0.990,5.215,4.702,4.720,5.281,4.711,4.711,2.198,6.282,5.083,1.570,0.000,0.000,-1.071,-7.070,0.990,5.215,4.703,4.720,
11.880,55.447,-1.094,-7.708,2.074,0.333,6.262,3.237,2.973,2.206,2.872,0.994,0.000,4.077,4.061,1.640,0.915,0.000,3.142,0.000,0.000,0.000,0.000,0.000,0.000,0.000,0.000,0.000,0.000,0.000,3.142,6.283,0.000,1.003,1.569,1.569,4.086,6.281,1.199,4.712,0.000,0.000,-1.666,-7.350,0.990,5.215,4.702,4.721,5.281,4.711,4.711,2.198,6.282,5.083,1.570,0.000,0.000,-1.092,-7.034,0.990,5.216,4.703,4.720,
11.980,55.547,-1.106,-7.686,2.074,0.313,6.262,3.213,2.924,2.194,2.856,1.043,0.000,4.089,4.074,1.610,0.987,0.000,3.142,0.000,0.000,0.000,0.000,0.000,0.000,0.000,0.000,0.000,0.000,0.000,3.142,6.283,0.000,1.003,1.569,1.569,4.085,6.281,1.199,4.712,0.000,0.000,-1.678,-7.329,0.990,5.216,4.702,4.720,5.281,4.711,4.711,2.198,6.282,5.083,1.570,0.000,0.000,-1.104,-7.012,0.990,5.216,4.703,4.720,
12.080,55.647,-1.131,-7.642,2.102,0.594,0.824,3.214,3.001,2.183,2.910,1.083,0.000,4.066,0.000,0.946,3.958,0.000,3.142,0.000,0.000,0.000,0.000,0.000,0.000,0.000,0.000,0.000,0.000,0.000,3.142,6.283,6.283,1.004,1.570,1.571,4.084,6.281,1.199,4.712,0.000,0.000,-1.711,-7.300,0.990,5.241,4.705,4.719,5.282,4.712,4.713,2.199,6.281,5.083,1.571,0.000,0.000,-1.146,-6.968,0.991,5.241,4.706,4.718,
12.178,55.745,-1.157,-7.599,2.184,0.677,1.409,3.125,0.000,2.207,3.192,1.018,0.000,4.388,3.647,1.363,0.000,0.000,3.142,0.000,0.000,0.000,0.000,0.000,0.000,0.000,0.000,0.000,1.437,0.000,3.142,0.001,0.000,1.003,1.570,1.571,4.085,6.281,1.199,4.712,0.000,0.000,-1.764,-7.306,0.990,5.324,4.704,4.718,5.282,4.713,4.713,2.198,6.282,5.083,1.571,0.000,0.000,-1.227,-6.928,0.991,5.324,4.707,4.716,
12.280,55.847,-1.219,-7.519,2.275,1.083,0.124,2.697,4.491,2.219,3.555,1.081,0.000,0.000,2.637,0.841,0.000,0.000,3.142,0.000,0.000,0.000,0.000,0.000,0.000,0.000,0.000,0.000,1.506,0.000,3.142,6.281,0.000,1.006,1.567,1.564,4.081,6.282,1.199,4.711,0.000,0.000,-1.853,-7.286,0.990,5.423,4.708,4.714,5.282,4.710,4.707,2.198,6.283,5.083,1.570,0.000,0.000,-1.353,-6.860,0.991,5.422,4.706,4.716,
12.371,55.938,-1.278,-7.449,2.274,1.186,6.272,2.608,4.431,2.154,3.436,1.192,0.000,0.000,2.458,0.760,0.000,0.000,3.142,0.000,0.000,0.000,0.000,0.000,0.000,0.000,0.000,0.000,1.637,0.000,3.142,6.282,0.000,1.004,1.569,1.569,4.084,6.281,1.199,4.712,0.000,0.000,-1.910,-7.213,0.990,5.417,4.706,4.717,5.281,4.711,4.711,2.197,6.282,5.083,1.570,0.000,0.000,-1.410,-6.788,0.990,5.417,4.705,4.718,
12.480,56.047,-1.361,-7.351,2.274,0.970,6.275,2.483,4.346,2.063,3.268,1.398,0.000,0.000,2.206,0.706,3.900,0.000,3.142,0.000,0.000,0.000,0.000,0.000,0.000,0.000,0.000,0.000,0.000,0.000,3.142,6.283,0.001,1.003,1.569,1.569,4.086,6.281,1.199,4.712,0.000,0.000,-1.993,-7.114,0.990,5.416,4.704,4.718,5.281,4.711,4.711,2.197,6.282,5.083,1.570,0.000,0.000,-1.493,-6.690,0.990,5.416,4.705,4.718,
12.580,56.147,-1.421,-7.281,2.274,0.934,6.273,2.393,4.285,2.037,3.149,1.545,0.000,0.000,0.986,0.820,3.915,0.000,3.142,0.000,0.000,0.000,0.000,0.000,0.000,0.000,0.000,0.000,0.000,0.000,3.142,6.282,0.000,1.004,1.569,1.569,4.084,6.281,1.199,4.712,0.000,0.000,-2.052,-7.045,0.990,5.417,4.706,4.717,5.281,4.711,4.711,2.197,6.282,5.083,1.570,0.000,0.000,-1.553,-6.620,0.990,5.417,4.705,4.717,
12.665,56.232,-1.470,-7.223,2.274,1.016,6.272,2.318,4.829,2.182,3.050,1.667,0.000,0.000,1.875,0.916,3.947,0.000,3.142,0.000,0.000,0.000,0.000,0.000,0.000,0.000,0.000,0.000,0.000,0.000,3.142,6.281,0.000,1.004,1.569,1.568,4.084,6.281,1.199,4.712,0.000,0.000,-2.102,-6.987,0.990,5.417,4.706,4.716,5.281,4.711,4.710,2.197,6.282,5.083,1.570,0.000,0.000,-1.602,-6.562,0.990,5.417,4.705,4.717,
12.780,56.347,-1.550,-7.129,2.274,1.051,6.271,2.197,2.743,4.533,2.890,1.865,0.000,0.000,0.857,1.071,3.999,0.000,3.142,0.000,0.000,0.000,0.000,0.000,0.000,0.000,0.000,0.000,0.000,0.000,3.142,6.282,0.000,1.004,1.569,1.569,4.085,6.281,1.199,4.712,0.000,0.000,-2.182,-6.892,0.990,5.416,4.705,4.717,5.281,4.711,4.711,2.198,6.282,5.083,1.570,0.000,0.000,-1.682,-6.468,0.990,5.416,4.705,4.717,
12.863,56.430,-1.611,-7.056,2.255,0.857,5.639,2.151,1.663,0.000,2.681,2.109,0.000,0.000,0.701,0.000,3.882,0.000,3.142,0.000,0.000,0.000,0.000,0.000,0.000,0.000,0.000,1.852,0.000,0.000,3.142,6.282,0.001,1.003,1.568,1.567,4.086,6.281,1.199,4.712,0.000,0.000,-2.240,-6.809,0.990,5.400,4.704,4.717,5.281,4.710,4.709,2.197,6.282,5.083,1.570,0.000,0.000,-1.732,-6.394,0.990,5.400,4.704,4.718,
12.980,56.547,-1.660,-6.995,2.159,0.775,4.880,2.354,1.514,4.885,2.500,2.162,0.000,0.000,0.710,1.815,3.612,0.000,3.142,0.000,0.000,0.000,0.000,0.000,0.000,0.000,0.000,0.000,0.000,0.000,3.142,6.280,0.001,1.004,1.568,1.566,4.085,6.281,1.199,4.712,0.000,0.000,-2.262,-6.689,0.990,5.305,4.704,4.718,5.282,4.711,4.709,2.197,6.282,5.083,1.570,0.000,0.000,-1.716,-6.324,0.991,5.304,4.705,4.717,
13.071,56.638,-1.694,-6.942,2.060,0.853,4.986,2.335,1.438,0.000,2.308,2.228,2.143,0.000,0.794,1.015,4.467,0.000,1.492,0.000,0.000,0.000,0.000,0.000,0.000,0.000,0.000,0.000,0.000,0.000,3.142,6.280,0.000,1.005,1.568,1.567,4.084,6.281,1.199,4.712,0.000,0.000,-2.262,-6.577,0.990,5.203,4.703,4.719,5.282,4.711,4.710,2.197,6.282,5.083,1.570,0.000,0.000,-1.683,-6.268,0.991,5.202,4.705,4.718,
13.180,56.747,-1.741,-6.846,1.951,0.921,5.442,2.111,1.469,0.000,2.011,4.151,1.931,0.000,0.746,0.977,3.236,0.000,1.632,0.000,0.000,0.000,0.000,0.000,0.000,0.000,0.000,0.000,0.000,0.000,3.142,6.281,0.001,1.004,1.569,1.568,4.085,6.281,1.199,4.712,0.000,0.000,-2.265,-6.421,0.990,5.094,4.699,4.723,5.282,4.711,4.711,2.197,6.282,5.083,1.570,0.000,0.000,-1.656,-6.177,0.991,5.093,4.701,4.722,
13.270,56.836,-1.772,-6.764,1.877,0.866,5.372,1.966,1.503,4.428,2.213,4.285,1.997,0.000,0.775,0.960,3.217,0.000,2.720,0.000,0.000,0.000,0.000,0.000,0.000,0.000,0.000,0.000,0.000,0.000,3.142,6.281,0.001,1.004,1.569,1.568,4.085,6.281,1.199,4.712,0.000,0.000,-2.264,-6.301,0.990,5.020,4.696,4.727,5.281,4.711,4.710,2.197,6.282,5.083,1.570,0.000,0.000,-1.639,-6.103,0.990,5.020,4.697,4.726,
13.380,56.947,-1.796,-6.684,1.790,0.839,5.227,2.367,1.578,1.313,4.476,3.263,2.269,0.000,0.802,0.933,3.363,0.000,2.826,0.000,0.000,0.000,0.000,0.000,0.000,0.000,0.000,0.000,0.000,0.000,3.142,6.280,0.001,1.004,1.568,1.567,4.085,6.281,1.199,4.712,0.000,0.000,-2.246,-6.181,0.990,4.933,4.690,4.732,5.282,4.711,4.710,2.197,6.282,5.083,1.570,0.000,0.000,-1.605,-6.038,0.991,4.933,4.692,4.731,
13.480,57.047,-1.812,-6.602,1.697,0.871,5.247,4.506,1.696,1.204,4.994,2.690,2.576,0.000,0.829,0.906,2.799,0.000,2.931,0.000,0.000,0.000,0.000,0.000,0.000,0.000,0.000,0.000,0.000,0.000,3.142,6.280,0.001,1.004,1.569,1.567,4.085,6.281,1.199,4.712,0.000,0.000,-2.214,-6.059,0.990,4.841,4.676,4.747,5.282,4.711,4.710,2.197,6.282,5.083,1.570,0.000,0.000,-1.563,-5.976,0.991,4.840,4.679,4.744,
13.580,57.147,-1.821,-6.516,1.610,0.884,5.311,3.581,1.856,1.217,0.000,2.699,2.643,0.000,0.855,0.882,2.431,0.000,3.001,0.000,0.000,0.000,0.000,0.000,0.000,0.000,0.000,0.000,0.000,0.000,3.142,6.281,0.001,1.004,1.569,1.568,4.085,6.281,1.199,4.712,0.000,0.000,-2.174,-5.940,0.990,4.753,4.594,4.829,5.282,4.711,4.710,2.197,6.282,5.083,1.570,0.000,0.000,-1.518,-5.914,0.991,4.753,4.603,4.820,
13.680,57.247,-1.823,-6.430,1.525,0.867,5.291,2.997,2.074,1.246,0.000,2.381,2.730,0.000,0.880,0.859,4.603,0.000,3.106,0.000,0.000,0.000,0.000,0.000,0.000,0.000,0.000,0.000,0.000,0.000,3.142,6.281,0.001,1.004,1.569,1.567,4.085,6.281,1.199,4.712,0.000,0.000,-2.126,-5.826,0.990,4.757,1.682,1.458,5.282,4.711,4.710,2.197,6.282,5.083,1.570,0.000,0.000,-1.470,-5.856,0.991,4.757,1.670,1.471,
13.780,57.347,-1.818,-6.345,1.437,0.861,5.271,3.040,1.661,1.297,1.316,2.356,4.738,0.000,0.907,0.836,4.769,0.000,2.440,0.000,0.000,0.000,0.000,0.000,0.000,0.000,0.000,0.000,0.000,0.000,3.142,6.280,0.001,1.004,1.568,1.567,4.085,6.281,1.199,4.712,0.000,0.000,-2.066,-5.717,0.990,4.844,1.607,1.533,5.282,4.711,4.710,2.197,6.282,5.083,1.570,0.000,0.000,-1.415,-5.805,0.991,4.845,1.604,1.537,
13.880,57.447,-1.804,-6.261,1.348,0.870,5.268,3.540,1.495,1.372,1.204,0.000,4.756,2.803,0.936,0.812,0.000,0.000,2.545,0.000,0.000,0.000,0.000,0.000,0.000,0.000,0.000,0.000,0.000,0.000,3.142,6.281,0.001,1.004,1.569,1.567,4.085,6.281,1.199,4.712,0.000,0.000,-1.996,-5.614,0.990,4.933,1.593,1.548,5.282,4.711,4.710,2.197,6.282,5.083,1.570,0.000,0.000,-1.356,-5.758,0.991,4.934,1.590,1.551,
13.980,57.547,-1.782,-6.172,1.298,1.014,0.055,3.108,1.544,1.439,1.220,0.000,4.514,2.766,0.939,1.284,0.000,0.000,2.615,0.000,0.000,0.000,0.000,0.000,0.000,0.000,0.000,0.000,0.000,0.000,3.142,6.282,0.000,1.004,1.570,1.571,4.084,6.280,1.199,4.712,0.000,0.000,-1.939,-5.517,0.990,4.988,1.586,1.556,5.282,4.712,4.713,2.198,6.281,5.083,1.571,0.000,0.000,-1.307,-5.693,0.991,4.988,1.585,1.557,
14.080,57.647,-1.760,-6.092,1.325,1.084,0.851,3.385,1.503,1.442,1.246,0.000,0.000,2.993,0.897,1.264,0.000,0.000,3.142,0.000,0.000,0.000,0.000,0.000,0.000,0.000,0.000,0.000,0.000,0.000,3.142,0.001,0.000,1.003,1.571,1.572,4.086,6.281,1.199,4.712,0.000,0.000,-1.933,-5.441,0.990,4.962,1.591,1.551,5.281,4.712,4.714,2.199,6.281,5.083,1.571,0.000,0.000,-1.297,-5.601,0.991,4.961,1.584,1.558,
14.180,57.747,-1.734,-5.970,1.460,1.009,1.434,2.642,1.246,1.375,1.301,2.803,0.000,0.000,0.806,1.263,1.995,0.000,3.142,0.000,0.000,0.000,0.000,0.000,0.000,0.000,0.000,0.000,0.000,0.000,3.142,0.002,0.000,1.003,1.571,1.570,4.086,6.282,1.199,4.712,0.000,0.000,-1.994,-5.348,0.990,4.824,1.615,1.526,5.282,4.713,4.713,2.198,6.282,5.083,1.571,0.000,0.000,-1.342,-5.421,0.991,4.825,1.600,1.542,
14.280,57.847,-1.726,-5.873,1.547,0.984,0.353,2.405,1.200,1.340,1.342,2.738,3.285,0.000,0.876,1.231,2.057,0.000,3.071,0.000,0.000,0.000,0.000,0.000,0.000,0.000,0.000,0.000,0.000,0.000,3.142,6.283,0.000,1.004,1.568,1.566,4.085,6.282,1.199,4.711,0.000,0.000,-2.042,-5.276,0.990,4.733,1.798,1.342,5.281,4.711,4.709,2.198,6.283,5.083,1.570,0.000,0.000,-1.386,-5.292,0.991,4.733,1.772,1.368,
14.380,57.947,-1.723,-5.775,1.548,1.016,6.267,2.306,1.080,1.341,1.345,2.856,3.383,0.000,1.184,0.000,2.058,0.000,3.071,0.000,0.000,0.000,0.000,0.000,0.000,0.000,0.000,2.870,0.000,0.000,3.142,6.282,0.000,1.004,1.569,1.569,4.084,6.281,1.199,4.712,0.000,0.000,-2.039,-5.179,0.990,4.735,1.769,1.372,5.281,4.711,4.711,2.197,6.282,5.083,1.570,0.000,0.000,-1.383,-5.193,0.990,4.735,1.796,1.345,
14.480,58.047,-1.721,-5.674,1.548,1.025,6.274,2.207,1.072,1.344,1.347,2.980,3.484,1.266,1.291,4.523,2.053,0.000,3.071,0.000,0.000,0.000,0.000,0.000,0.000,0.000,0.000,0.000,0.000,0.000,3.142,6.282,0.000,1.004,1.569,1.569,4.084,6.281,1.199,4.712,0.000,0.000,-2.037,-5.078,0.990,4.735,1.778,1.362,5.281,4.711,4.711,2.197,6.282,5.083,1.570,0.000,0.000,-1.381,-5.092,0.990,4.735,1.790,1.351,
14.573,58.140,-1.719,-5.594,1.548,1.012,6.273,2.127,1.076,1.346,1.349,3.079,3.564,1.263,1.289,4.494,2.049,0.000,3.071,0.000,0.000,0.000,0.000,0.000,0.000,0.000,0.000,0.000,0.000,0.000,3.142,6.282,0.000,1.004,1.569,1.569,4.085,6.281,1.199,4.712,0.000,0.000,-2.035,-4.997,0.990,4.735,1.779,1.362,5.281,4.711,4.711,2.197,6.282,5.083,1.570,0.000,0.000,-1.379,-5.012,0.990,4.735,1.785,1.356,
14.680,58.247,-1.717,-5.475,1.548,1.005,6.272,2.010,1.081,1.349,1.352,3.225,3.683,1.259,1.286,0.000,2.044,0.000,3.071,0.000,0.000,0.000,0.000,0.000,0.000,0.000,0.000,0.000,0.000,0.000,3.142,6.282,0.000,1.004,1.569,1.569,4.085,6.281,1.199,4.712,0.000,0.000,-2.032,-4.879,0.990,4.735,1.774,1.366,5.281,4.711,4.711,2.197,6.282,5.083,1.570,0.000,0.000,-1.376,-4.893,0.990,4.735,1.781,1.360,
14.780,58.347,-1.714,-5.376,1.548,1.013,6.271,1.912,1.085,1.351,1.354,3.347,3.782,1.255,1.284,4.663,2.040,0.000,3.071,0.000,0.000,0.000,0.000,0.000,0.000,0.000,0.000,0.000,0.000,0.000,3.142,6.282,0.000,1.004,1.569,1.569,4.085,6.281,1.199,4.712,0.000,0.000,-2.030,-4.780,0.990,4.735,1.773,1.368,5.281,4.711,4.711,2.197,6.282,5.083,1.570,0.000,0.000,-1.374,-4.794,0.990,4.735,1.779,1.362,
14.870,58.437,-1.712,-5.276,1.548,1.015,6.270,1.813,1.089,1.354,1.356,3.470,3.882,1.251,1.281,4.326,2.036,0.000,3.071,0.000,0.000,0.000,0.000,0.000,0.000,0.000,0.000,0.000,0.000,0.000,3.142,6.282,0.000,1.004,1.569,1.569,4.085,6.281,1.199,4.712,0.000,0.000,-2.027,-4.680,0.990,4.735,1.775,1.366,5.281,4.711,4.711,2.198,6.282,5.083,1.570,0.000,0.000,-1.371,-4.694,0.990,4.735,1.777,1.364,
14.980,58.547,-1.710,-5.177,1.548,1.011,6.269,1.715,1.092,0.899,1.359,0.000,3.982,1.247,1.226,4.071,1.840,0.000,3.071,0.000,0.000,0.000,0.000,0.000,0.000,0.000,0.000,0.000,0.000,0.000,3.142,6.282,0.000,1.004,1.569,1.569,4.085,6.281,1.199,4.712,0.000,0.000,-2.025,-4.580,0.990,4.735,1.776,1.364,5.281,4.711,4.711,2.198,6.282,5.083,1.570,0.000,0.000,-1.369,-4.595,0.990,4.735,1.776,1.365,
15.080,58.647,-1.708,-5.097,1.548,1.010,6.269,1.636,1.095,0.675,1.361,0.000,4.061,1.293,1.265,4.069,1.498,0.000,3.071,0.000,0.000,0.000,0.000,0.000,0.000,0.000,0.000,0.000,0.000,0.000,3.142,6.282,0.000,1.004,1.569,1.569,4.085,6.281,1.199,4.712,0.000,0.000,-2.023,-4.501,0.990,4.735,1.777,1.364,5.281,4.711,4.711,2.198,6.282,5.083,1.570,0.000,0.000,-1.367,-4.515,0.990,4.735,1.776,1.365,
15.180,58.747,-1.705,-4.978,1.548,1.012,6.268,1.518,2.208,0.678,1.364,0.000,4.180,1.439,4.388,4.066,1.592,0.000,3.071,0.000,0.000,0.000,0.000,0.000,0.000,0.000,0.000,0.000,0.000,0.000,3.142,6.282,0.000,1.004,1.569,1.569,4.085,6.281,1.199,4.712,0.000,0.000,-2.021,-4.381,0.990,4.735,1.778,1.363,5.281,4.711,4.711,2.198,6.282,5.083,1.570,0.000,0.000,-1.365,-4.396,0.990,4.735,1.777,1.364,
15.280,58.847,-1.704,-4.902,1.548,0.484,6.265,1.442,2.210,0.679,1.366,0.000,4.257,1.532,4.630,4.065,1.497,0.000,3.071,0.000,0.000,0.000,0.000,0.000,0.000,0.000,0.000,0.000,0.000,0.000,3.142,0.002,0.001,1.001,1.571,1.572,4.090,6.281,1.200,4.712,0.000,0.000,-2.017,-4.304,0.989,4.739,1.856,1.285,5.281,4.712,4.713,2.198,6.282,5.083,1.570,0.000,0.000,-1.362,-4.320,0.990,4.737,1.761,1.380,
15.380,58.947,-1.703,-4.876,1.549,0.205,6.265,1.416,2.210,0.680,1.366,0.000,4.282,1.563,4.713,1.342,1.465,0.000,3.071,0.000,0.000,0.000,0.000,0.000,0.000,0.000,0.000,0.000,0.000,0.000,3.142,0.001,0.001,1.002,1.570,1.570,4.088,6.281,1.200,4.712,0.000,0.000,-2.018,-4.279,0.990,4.736,1.836,1.305,5.281,4.712,4.712,2.198,6.282,5.083,1.570,0.000,0.000,-1.362,-4.294,0.990,4.736,1.774,1.367,
15.472,59.039,-1.703,-4.867,1.549,0.011,6.269,1.406,2.208,0.680,1.367,0.000,4.291,1.576,4.752,1.307,1.452,0.000,3.071,0.000,0.000,0.000,0.000,0.000,0.000,0.000,0.000,0.000,0.000,0.000,3.142,6.283,0.001,1.003,1.569,1.569,4.086,6.281,1.199,4.712,0.000,0.000,-2.019,-4.271,0.990,4.735,1.816,1.325,5.281,4.711,4.712,2.198,6.282,5.083,1.570,0.000,0.000,-1.363,-4.285,0.990,4.734,1.785,1.356,
15.580,59.147,-1.703,-4.867,1.549,0.000,6.271,1.406,2.208,0.680,1.367,0.000,4.291,1.576,4.753,1.307,1.452,0.000,3.071,0.000,0.000,0.000,0.000,0.000,0.000,0.000,0.000,0.000,0.000,0.000,3.142,6.283,0.000,1.003,1.569,1.569,4.085,6.281,1.199,4.712,0.000,0.000,-2.019,-4.271,0.990,4.734,1.800,1.341,5.281,4.711,4.712,2.198,6.282,5.083,1.570,0.000,0.000,-1.363,-4.285,0.990,4.734,1.771,1.370,
15.680,59.247,-1.703,-4.867,1.549,0.000,6.271,1.406,2.208,0.680,1.367,0.000,4.291,1.576,4.753,1.307,1.452,0.000,3.071,0.000,0.000,0.000,0.000,0.000,0.000,0.000,0.000,0.000,0.000,0.000,3.142,6.283,0.000,1.003,1.569,1.569,4.085,6.281,1.199,4.712,0.000,0.000,-2.019,-4.271,0.990,4.734,1.800,1.341,5.281,4.711,4.712,2.198,6.282,5.083,1.570,0.000,0.000,-1.363,-4.285,0.990,4.734,1.771,1.370,
15.763,59.330,-1.703,-4.867,1.549,0.000,6.271,1.406,2.208,0.680,1.367,0.000,4.291,1.576,4.753,1.307,1.452,0.000,3.071,0.000,0.000,0.000,0.000,0.000,0.000,0.000,0.000,0.000,0.000,0.000,3.142,6.283,0.000,1.003,1.569,1.569,4.085,6.281,1.199,4.712,0.000,0.000,-2.019,-4.271,0.990,4.734,1.800,1.341,5.281,4.711,4.712,2.198,6.282,5.083,1.570,0.000,0.000,-1.363,-4.285,0.990,4.734,1.771,1.370,
15.880,59.447,-1.703,-4.867,1.549,0.000,6.271,1.406,2.208,0.680,1.367,0.000,4.291,1.576,4.753,1.307,1.452,0.000,3.071,0.000,0.000,0.000,0.000,0.000,0.000,0.000,0.000,0.000,0.000,0.000,3.142,6.283,0.000,1.003,1.569,1.569,4.085,6.281,1.199,4.712,0.000,0.000,-2.019,-4.271,0.990,4.734,1.800,1.341,5.281,4.711,4.712,2.198,6.282,5.083,1.570,0.000,0.000,-1.363,-4.285,0.990,4.734,1.771,1.370,
15.980,59.547,-1.703,-4.867,1.549,0.000,6.271,1.406,2.208,0.680,1.367,0.000,4.291,1.576,4.753,1.307,1.452,0.000,3.071,0.000,0.000,0.000,0.000,0.000,0.000,0.000,0.000,0.000,0.000,0.000,3.142,6.283,0.000,1.003,1.569,1.569,4.085,6.281,1.199,4.712,0.000,0.000,-2.019,-4.271,0.990,4.734,1.800,1.341,5.281,4.711,4.712,2.198,6.282,5.083,1.570,0.000,0.000,-1.363,-4.285,0.990,4.734,1.771,1.370,
16.064,59.631,-1.703,-4.867,1.549,0.000,6.271,1.406,2.208,0.680,1.367,0.000,4.291,1.576,4.753,1.307,1.452,0.000,3.071,0.000,0.000,0.000,0.000,0.000,0.000,0.000,0.000,0.000,0.000,0.000,3.142,6.283,0.000,1.003,1.569,1.569,4.085,6.281,1.199,4.712,0.000,0.000,-2.019,-4.271,0.990,4.734,1.800,1.341,5.281,4.711,4.712,2.198,6.282,5.083,1.570,0.000,0.000,-1.363,-4.285,0.990,4.734,1.771,1.370,
16.180,59.747,-1.703,-4.867,1.549,0.000,6.271,1.406,2.208,0.680,1.367,0.000,4.291,1.576,4.753,1.307,1.452,0.000,3.071,0.000,0.000,0.000,0.000,0.000,0.000,0.000,0.000,0.000,0.000,0.000,3.142,6.283,0.000,1.003,1.569,1.569,4.085,6.281,1.199,4.712,0.000,0.000,-2.019,-4.271,0.990,4.734,1.800,1.340,5.281,4.711,4.712,2.198,6.282,5.083,1.570,0.000,0.000,-1.363,-4.285,0.990,4.734,1.771,1.370,
16.280,59.847,-1.703,-4.867,1.549,0.000,6.271,1.406,2.208,0.680,1.367,0.000,4.291,1.576,4.753,1.307,1.452,0.000,3.071,0.000,0.000,0.000,0.000,0.000,0.000,0.000,0.000,0.000,0.000,0.000,3.142,6.283,0.000,1.003,1.569,1.569,4.085,6.281,1.199,4.712,0.000,0.000,-2.019,-4.271,0.990,4.734,1.800,1.341,5.281,4.711,4.712,2.198,6.282,5.083,1.570,0.000,0.000,-1.363,-4.285,0.990,4.734,1.771,1.370,
16.380,59.947,-1.703,-4.867,1.549,0.000,6.271,1.406,2.208,0.680,1.367,0.000,4.291,1.576,4.753,1.307,1.452,0.000,3.071,0.000,0.000,0.000,0.000,0.000,0.000,0.000,0.000,0.000,0.000,0.000,3.142,6.283,0.000,1.003,1.569,1.569,4.085,6.281,1.199,4.712,0.000,0.000,-2.019,-4.271,0.990,4.734,1.800,1.341,5.281,4.711,4.712,2.198,6.282,5.083,1.570,0.000,0.000,-1.363,-4.285,0.990,4.734,1.771,1.370,
16.480,60.047,-1.703,-4.867,1.549,0.000,6.271,1.406,2.208,0.680,1.367,0.000,4.291,1.576,4.753,1.307,1.452,0.000,3.071,0.000,0.000,0.000,0.000,0.000,0.000,0.000,0.000,0.000,0.000,0.000,3.142,6.283,0.000,1.003,1.569,1.569,4.085,6.281,1.199,4.712,0.000,0.000,-2.019,-4.271,0.990,4.734,1.800,1.341,5.281,4.711,4.712,2.198,6.282,5.083,1.570,0.000,0.000,-1.363,-4.285,0.990,4.734,1.771,1.370,
16.580,60.147,-1.703,-4.867,1.549,0.000,6.271,1.406,2.208,0.680,1.367,0.000,4.291,1.576,4.753,1.307,1.452,0.000,3.071,0.000,0.000,0.000,0.000,0.000,0.000,0.000,0.000,0.000,0.000,0.000,3.142,6.283,0.000,1.003,1.569,1.569,4.085,6.281,1.199,4.712,0.000,0.000,-2.019,-4.271,0.990,4.734,1.800,1.341,5.281,4.711,4.712,2.198,6.282,5.083,1.570,0.000,0.000,-1.363,-4.285,0.990,4.734,1.771,1.370,
16.665,60.232,-1.703,-4.867,1.549,0.000,6.271,1.406,2.208,0.680,1.367,0.000,4.291,1.576,4.753,1.307,1.452,0.000,3.071,0.000,0.000,0.000,0.000,0.000,0.000,0.000,0.000,0.000,0.000,0.000,3.142,6.283,0.000,1.003,1.569,1.569,4.085,6.281,1.199,4.712,0.000,0.000,-2.019,-4.271,0.990,4.734,1.800,1.341,5.281,4.711,4.712,2.198,6.282,5.083,1.570,0.000,0.000,-1.363,-4.285,0.990,4.734,1.771,1.370,
16.780,60.347,-1.703,-4.867,1.549,0.000,6.271,1.406,2.208,0.680,1.367,0.000,4.291,1.576,4.753,1.307,1.452,0.000,3.071,0.000,0.000,0.000,0.000,0.000,0.000,0.000,0.000,0.000,0.000,0.000,3.142,6.283,0.000,1.003,1.569,1.569,4.085,6.281,1.199,4.712,0.000,0.000,-2.019,-4.271,0.990,4.734,1.800,1.341,5.281,4.711,4.712,2.198,6.282,5.083,1.570,0.000,0.000,-1.363,-4.285,0.990,4.734,1.771,1.370,
16.880,60.447,-1.703,-4.867,1.549,0.000,6.271,1.406,2.208,0.680,1.367,0.000,4.291,1.576,4.753,1.307,1.452,0.000,3.071,0.000,0.000,0.000,0.000,0.000,0.000,0.000,0.000,0.000,0.000,0.000,3.142,6.283,0.000,1.003,1.569,1.569,4.085,6.281,1.199,4.712,0.000,0.000,-2.019,-4.271,0.990,4.734,1.800,1.341,5.281,4.711,4.712,2.198,6.282,5.083,1.570,0.000,0.000,-1.363,-4.285,0.990,4.734,1.771,1.370,
16.980,60.547,-1.703,-4.867,1.549,0.000,6.271,1.406,2.208,0.680,1.367,0.000,4.291,1.576,4.753,1.307,1.452,0.000,3.071,0.000,0.000,0.000,0.000,0.000,0.000,0.000,0.000,0.000,0.000,0.000,3.142,6.283,0.000,1.003,1.569,1.569,4.085,6.281,1.199,4.712,0.000,0.000,-2.019,-4.271,0.990,4.734,1.800,1.341,5.281,4.711,4.712,2.198,6.282,5.083,1.570,0.000,0.000,-1.363,-4.285,0.990,4.734,1.771,1.370,
17.080,60.647,-1.703,-4.867,1.549,0.000,6.271,1.406,2.208,0.680,1.367,0.000,4.291,1.576,4.753,1.307,1.452,0.000,3.071,0.000,0.000,0.000,0.000,0.000,0.000,0.000,0.000,0.000,0.000,0.000,3.142,6.283,0.000,1.003,1.569,1.569,4.085,6.281,1.199,4.712,0.000,0.000,-2.019,-4.271,0.990,4.734,1.800,1.341,5.281,4.711,4.712,2.198,6.282,5.083,1.570,0.000,0.000,-1.363,-4.285,0.990,4.734,1.771,1.370,
17.180,60.747,-1.703,-4.867,1.549,0.000,6.271,1.406,2.208,0.680,1.367,0.000,4.291,1.576,4.753,1.307,1.452,0.000,3.071,0.000,0.000,0.000,0.000,0.000,0.000,0.000,0.000,0.000,0.000,0.000,3.142,6.283,0.000,1.003,1.569,1.569,4.085,6.281,1.199,4.712,0.000,0.000,-2.019,-4.271,0.990,4.734,1.800,1.341,5.281,4.711,4.712,2.198,6.282,5.083,1.570,0.000,0.000,-1.363,-4.285,0.990,4.734,1.771,1.370,
17.278,60.845,-1.703,-4.867,1.549,0.000,6.271,1.406,2.208,0.680,1.367,0.000,4.291,1.576,4.753,1.307,1.452,0.000,3.071,0.000,0.000,0.000,0.000,0.000,0.000,0.000,0.000,0.000,0.000,0.000,3.142,6.283,0.000,1.003,1.569,1.569,4.085,6.281,1.199,4.712,0.000,0.000,-2.019,-4.271,0.990,4.734,1.800,1.341,5.281,4.711,4.712,2.198,6.282,5.083,1.570,0.000,0.000,-1.363,-4.285,0.990,4.734,1.771,1.370,
17.380,60.947,-1.703,-4.867,1.549,0.000,6.271,1.406,2.208,0.680,1.367,0.000,4.291,1.576,4.753,1.307,1.452,0.000,3.071,0.000,0.000,0.000,0.000,0.000,0.000,0.000,0.000,0.000,0.000,0.000,3.142,6.283,0.000,1.003,1.569,1.569,4.085,6.281,1.199,4.712,0.000,0.000,-2.019,-4.271,0.990,4.734,1.800,1.341,5.281,4.711,4.712,2.198,6.282,5.083,1.570,0.000,0.000,-1.363,-4.285,0.990,4.734,1.771,1.370,
17.480,61.047,-1.703,-4.867,1.549,0.000,6.271,1.406,2.208,0.680,1.367,0.000,4.291,1.576,4.753,1.307,1.452,0.000,3.071,0.000,0.000,0.000,0.000,0.000,0.000,0.000,0.000,0.000,0.000,0.000,3.142,6.283,0.000,1.003,1.569,1.569,4.085,6.281,1.199,4.712,0.000,0.000,-2.019,-4.271,0.990,4.734,1.800,1.341,5.281,4.711,4.712,2.198,6.282,5.083,1.570,0.000,0.000,-1.363,-4.285,0.990,4.734,1.771,1.370,
17.573,61.140,-1.703,-4.867,1.549,0.000,6.271,1.406,2.208,0.680,1.367,0.000,4.291,1.576,4.753,1.307,1.452,0.000,3.071,0.000,0.000,0.000,0.000,0.000,0.000,0.000,0.000,0.000,0.000,0.000,3.142,6.283,0.000,1.003,1.569,1.569,4.085,6.281,1.199,4.712,0.000,0.000,-2.019,-4.271,0.990,4.734,1.800,1.341,5.281,4.711,4.712,2.198,6.282,5.083,1.570,0.000,0.000,-1.363,-4.285,0.990,4.734,1.771,1.370,
17.663,61.230,-1.703,-4.867,1.549,0.000,6.271,1.406,2.208,0.680,1.367,0.000,4.291,1.576,4.753,1.307,1.452,0.000,3.071,0.000,0.000,0.000,0.000,0.000,0.000,0.000,0.000,0.000,0.000,0.000,3.142,6.283,0.000,1.003,1.569,1.569,4.085,6.281,1.199,4.712,0.000,0.000,-2.019,-4.271,0.990,4.734,1.800,1.341,5.281,4.711,4.712,2.198,6.282,5.083,1.570,0.000,0.000,-1.363,-4.285,0.990,4.734,1.771,1.370,
17.780,61.347,-1.703,-4.867,1.549,0.000,6.271,1.406,2.208,0.680,1.367,0.000,4.291,1.576,4.753,1.307,1.452,0.000,3.071,0.000,0.000,0.000,0.000,0.000,0.000,0.000,0.000,0.000,0.000,0.000,3.142,6.283,0.000,1.003,1.569,1.569,4.085,6.281,1.199,4.712,0.000,0.000,-2.019,-4.271,0.990,4.734,1.800,1.341,5.281,4.711,4.712,2.198,6.282,5.083,1.570,0.000,0.000,-1.363,-4.285,0.990,4.734,1.771,1.370,
17.877,61.444,-1.703,-4.867,1.549,0.000,6.271,1.406,2.208,0.680,1.367,0.000,4.291,1.576,4.753,1.307,1.452,0.000,3.071,0.000,0.000,0.000,0.000,0.000,0.000,0.000,0.000,0.000,0.000,0.000,3.142,6.283,0.000,1.003,1.569,1.569,4.085,6.281,1.199,4.712,0.000,0.000,-2.019,-4.271,0.990,4.734,1.800,1.341,5.281,4.711,4.712,2.198,6.282,5.083,1.570,0.000,0.000,-1.363,-4.285,0.990,4.734,1.771,1.370,
17.980,61.547,-1.703,-4.867,1.549,0.000,6.271,1.406,2.208,0.680,1.367,0.000,4.291,1.576,4.753,1.307,1.452,0.000,3.071,0.000,0.000,0.000,0.000,0.000,0.000,0.000,0.000,0.000,0.000,0.000,3.142,6.283,0.000,1.003,1.569,1.569,4.085,6.281,1.199,4.712,0.000,0.000,-2.019,-4.271,0.990,4.734,1.800,1.341,5.281,4.711,4.712,2.198,6.282,5.083,1.570,0.000,0.000,-1.363,-4.285,0.990,4.734,1.771,1.370,
18.080,61.647,-1.703,-4.867,1.549,0.000,6.271,1.406,2.208,0.680,1.367,0.000,4.291,1.576,4.753,1.307,1.452,0.000,3.071,0.000,0.000,0.000,0.000,0.000,0.000,0.000,0.000,0.000,0.000,0.000,3.142,6.283,0.000,1.003,1.569,1.569,4.085,6.281,1.199,4.712,0.000,0.000,-2.019,-4.271,0.990,4.734,1.800,1.341,5.281,4.711,4.712,2.198,6.282,5.083,1.570,0.000,0.000,-1.363,-4.285,0.990,4.734,1.771,1.370,
18.173,61.740,-1.703,-4.867,1.549,0.000,6.271,1.406,2.208,0.680,1.367,0.000,4.291,1.576,4.753,1.307,1.452,0.000,3.071,0.000,0.000,0.000,0.000,0.000,0.000,0.000,0.000,0.000,0.000,0.000,3.142,6.283,0.000,1.003,1.569,1.569,4.085,6.281,1.199,4.712,0.000,0.000,-2.019,-4.271,0.990,4.734,1.800,1.341,5.281,4.711,4.712,2.198,6.282,5.083,1.570,0.000,0.000,-1.363,-4.285,0.990,4.734,1.771,1.370,
18.280,61.847,-1.703,-4.867,1.549,0.000,6.271,1.406,2.208,0.680,1.367,0.000,4.291,1.576,4.753,1.307,1.452,0.000,3.071,0.000,0.000,0.000,0.000,0.000,0.000,0.000,0.000,0.000,0.000,0.000,3.142,6.283,0.000,1.003,1.569,1.569,4.085,6.281,1.199,4.712,0.000,0.000,-2.019,-4.271,0.990,4.734,1.800,1.341,5.281,4.711,4.712,2.198,6.282,5.083,1.570,0.000,0.000,-1.363,-4.285,0.990,4.734,1.771,1.370,
18.380,61.947,-1.703,-4.867,1.549,0.000,6.271,1.406,2.208,0.680,1.367,0.000,4.291,1.576,4.753,1.307,1.452,0.000,3.071,0.000,0.000,0.000,0.000,0.000,0.000,0.000,0.000,0.000,0.000,0.000,3.142,6.283,0.000,1.003,1.569,1.569,4.085,6.281,1.199,4.712,0.000,0.000,-2.019,-4.271,0.990,4.734,1.800,1.341,5.281,4.711,4.712,2.198,6.282,5.083,1.570,0.000,0.000,-1.363,-4.285,0.990,4.734,1.771,1.370,
18.480,62.047,-1.703,-4.867,1.549,0.000,6.271,1.406,2.208,0.680,1.367,0.000,4.291,1.576,4.753,1.307,1.452,0.000,3.071,0.000,0.000,0.000,0.000,0.000,0.000,0.000,0.000,0.000,0.000,0.000,3.142,6.283,0.000,1.003,1.569,1.569,4.085,6.281,1.199,4.712,0.000,0.000,-2.019,-4.271,0.990,4.734,1.800,1.341,5.281,4.711,4.712,2.198,6.282,5.083,1.570,0.000,0.000,-1.363,-4.285,0.990,4.734,1.771,1.370,
18.580,62.147,-1.703,-4.867,1.549,0.000,6.271,1.406,2.208,0.680,1.367,0.000,4.291,1.576,4.753,1.307,1.452,0.000,3.071,0.000,0.000,0.000,0.000,0.000,0.000,0.000,0.000,0.000,0.000,0.000,3.142,6.283,0.000,1.003,1.569,1.569,4.085,6.281,1.199,4.712,0.000,0.000,-2.019,-4.271,0.990,4.734,1.800,1.341,5.281,4.711,4.712,2.198,6.282,5.083,1.570,0.000,0.000,-1.363,-4.285,0.990,4.734,1.771,1.370,
18.680,62.247,-1.703,-4.867,1.549,0.000,6.271,1.406,2.208,0.680,1.367,0.000,4.291,1.576,4.753,1.307,1.452,0.000,3.071,0.000,0.000,0.000,0.000,0.000,0.000,0.000,0.000,0.000,0.000,0.000,3.142,6.283,0.000,1.003,1.569,1.569,4.085,6.281,1.199,4.712,0.000,0.000,-2.019,-4.271,0.990,4.734,1.800,1.341,5.281,4.711,4.712,2.198,6.282,5.083,1.570,0.000,0.000,-1.363,-4.285,0.990,4.734,1.771,1.370,
18.776,62.343,-1.703,-4.867,1.549,0.000,6.271,1.406,2.208,0.680,1.367,0.000,4.291,1.576,4.753,1.307,1.452,0.000,3.071,0.000,0.000,0.000,0.000,0.000,0.000,0.000,0.000,0.000,0.000,0.000,3.142,6.283,0.000,1.003,1.569,1.569,4.085,6.281,1.199,4.712,0.000,0.000,-2.019,-4.271,0.990,4.734,1.800,1.340,5.281,4.711,4.712,2.198,6.282,5.083,1.570,0.000,0.000,-1.363,-4.285,0.990,4.734,1.771,1.370,
18.862,62.429,-1.703,-4.867,1.549,0.000,6.271,1.406,2.208,0.680,1.367,0.000,4.291,1.576,4.753,1.307,1.452,0.000,3.071,0.000,0.000,0.000,0.000,0.000,0.000,0.000,0.000,0.000,0.000,0.000,3.142,6.283,0.000,1.003,1.569,1.569,4.085,6.281,1.199,4.712,0.000,0.000,-2.019,-4.271,0.990,4.734,1.800,1.341,5.281,4.711,4.712,2.198,6.282,5.083,1.570,0.000,0.000,-1.363,-4.285,0.990,4.734,1.771,1.370,
18.980,62.547,-1.703,-4.867,1.549,0.000,6.271,1.406,2.208,0.680,1.367,0.000,4.291,1.576,4.753,1.307,1.452,0.000,3.071,0.000,0.000,0.000,0.000,0.000,0.000,0.000,0.000,0.000,0.000,0.000,3.142,6.283,0.000,1.003,1.569,1.569,4.085,6.281,1.199,4.712,0.000,0.000,-2.019,-4.271,0.990,4.734,1.800,1.341,5.281,4.711,4.712,2.198,6.282,5.083,1.570,0.000,0.000,-1.363,-4.285,0.990,4.734,1.771,1.370,
19.080,62.647,-1.703,-4.867,1.549,0.000,6.271,1.406,2.208,0.680,1.367,0.000,4.291,1.576,4.753,1.307,1.452,0.000,3.071,0.000,0.000,0.000,0.000,0.000,0.000,0.000,0.000,0.000,0.000,0.000,3.142,6.283,0.000,1.003,1.569,1.569,4.085,6.281,1.199,4.712,0.000,0.000,-2.019,-4.271,0.990,4.734,1.800,1.341,5.281,4.711,4.712,2.198,6.282,5.083,1.570,0.000,0.000,-1.363,-4.285,0.990,4.734,1.771,1.370,
19.180,62.747,-1.703,-4.867,1.549,0.000,6.271,1.406,2.208,0.680,1.367,0.000,4.291,1.576,4.753,1.307,1.452,0.000,3.071,0.000,0.000,0.000,0.000,0.000,0.000,0.000,0.000,0.000,0.000,0.000,3.142,6.283,0.000,1.003,1.569,1.569,4.085,6.281,1.199,4.712,0.000,0.000,-2.019,-4.271,0.990,4.734,1.800,1.341,5.281,4.711,4.712,2.198,6.282,5.083,1.570,0.000,0.000,-1.363,-4.285,0.990,4.734,1.771,1.370,
19.280,62.847,-1.703,-4.867,1.549,0.000,6.271,1.406,2.208,0.680,1.367,0.000,4.291,1.576,4.753,1.307,1.452,0.000,3.071,0.000,0.000,0.000,0.000,0.000,0.000,0.000,0.000,0.000,0.000,0.000,3.142,6.283,0.000,1.003,1.569,1.569,4.085,6.281,1.199,4.712,0.000,0.000,-2.019,-4.271,0.990,4.734,1.800,1.341,5.281,4.711,4.712,2.198,6.282,5.083,1.570,0.000,0.000,-1.363,-4.285,0.990,4.734,1.771,1.370,
19.377,62.944,-1.703,-4.867,1.549,0.000,6.271,1.406,2.208,0.680,1.367,0.000,4.291,1.576,4.753,1.307,1.452,0.000,3.071,0.000,0.000,0.000,0.000,0.000,0.000,0.000,0.000,0.000,0.000,0.000,3.142,6.283,0.000,1.003,1.569,1.569,4.085,6.281,1.199,4.712,0.000,0.000,-2.019,-4.271,0.990,4.734,1.800,1.341,5.281,4.711,4.712,2.198,6.282,5.083,1.570,0.000,0.000,-1.363,-4.285,0.990,4.734,1.771,1.370,
19.461,63.028,-1.703,-4.867,1.549,0.000,6.271,1.406,2.208,0.680,1.367,0.000,4.291,1.576,4.753,1.307,1.452,0.000,3.071,0.000,0.000,0.000,0.000,0.000,0.000,0.000,0.000,0.000,0.000,0.000,3.142,6.283,0.000,1.003,1.569,1.569,4.085,6.281,1.199,4.712,0.000,0.000,-2.019,-4.271,0.990,4.734,1.800,1.341,5.281,4.711,4.712,2.198,6.282,5.083,1.570,0.000,0.000,-1.363,-4.285,0.990,4.734,1.771,1.370,
19.580,63.147,-1.703,-4.867,1.549,0.000,6.271,1.406,2.208,0.680,1.367,0.000,4.291,1.576,4.753,1.307,1.452,0.000,3.071,0.000,0.000,0.000,0.000,0.000,0.000,0.000,0.000,0.000,0.000,0.000,3.142,6.283,0.000,1.003,1.569,1.569,4.085,6.281,1.199,4.712,0.000,0.000,-2.019,-4.271,0.990,4.734,1.800,1.341,5.281,4.711,4.712,2.198,6.282,5.083,1.570,0.000,0.000,-1.363,-4.285,0.990,4.734,1.771,1.370,
19.680,63.247,-1.703,-4.867,1.549,0.000,6.271,1.406,2.208,0.680,1.367,0.000,4.291,1.576,4.753,1.307,1.452,0.000,3.071,0.000,0.000,0.000,0.000,0.000,0.000,0.000,0.000,0.000,0.000,0.000,3.142,6.283,0.000,1.003,1.569,1.569,4.085,6.281,1.199,4.712,0.000,0.000,-2.019,-4.271,0.990,4.734,1.800,1.341,5.281,4.711,4.712,2.198,6.282,5.083,1.570,0.000,0.000,-1.363,-4.285,0.990,4.734,1.771,1.370,
19.780,63.347,-1.703,-4.867,1.549,0.000,6.271,1.406,2.208,0.680,1.367,0.000,4.291,1.576,4.753,1.307,1.452,0.000,3.071,0.000,0.000,0.000,0.000,0.000,0.000,0.000,0.000,0.000,0.000,0.000,3.142,6.283,0.000,1.003,1.569,1.569,4.085,6.281,1.199,4.712,0.000,0.000,-2.019,-4.271,0.990,4.734,1.800,1.341,5.281,4.711,4.712,2.198,6.282,5.083,1.570,0.000,0.000,-1.363,-4.285,0.990,4.734,1.771,1.370,
19.880,63.447,-1.703,-4.867,1.549,0.000,6.271,1.406,2.208,0.680,1.367,0.000,4.291,1.576,4.753,1.307,1.452,0.000,3.071,0.000,0.000,0.000,0.000,0.000,0.000,0.000,0.000,0.000,0.000,0.000,3.142,6.283,0.000,1.003,1.569,1.569,4.085,6.281,1.199,4.712,0.000,0.000,-2.019,-4.271,0.990,4.734,1.800,1.341,5.281,4.711,4.712,2.198,6.282,5.083,1.570,0.000,0.000,-1.363,-4.285,0.990,4.734,1.771,1.370,
19.980,63.547,-1.703,-4.867,1.549,0.000,6.271,1.406,2.208,0.680,1.367,0.000,4.291,1.576,4.753,1.307,1.452,0.000,3.071,0.000,0.000,0.000,0.000,0.000,0.000,0.000,0.000,0.000,0.000,0.000,3.142,6.283,0.000,1.003,1.569,1.569,4.085,6.281,1.199,4.712,0.000,0.000,-2.019,-4.271,0.990,4.734,1.800,1.341,5.281,4.711,4.712,2.198,6.282,5.083,1.570,0.000,0.000,-1.363,-4.285,0.990,4.734,1.771,1.370,
20.080,63.647,-1.703,-4.867,1.549,0.000,6.271,1.406,2.208,0.680,1.367,0.000,4.291,1.576,4.753,1.307,1.452,0.000,3.071,0.000,0.000,0.000,0.000,0.000,0.000,0.000,0.000,0.000,0.000,0.000,3.142,6.283,0.000,1.003,1.569,1.569,4.085,6.281,1.199,4.712,0.000,0.000,-2.019,-4.271,0.990,4.734,1.800,1.341,5.281,4.711,4.712,2.198,6.282,5.083,1.570,0.000,0.000,-1.363,-4.285,0.990,4.734,1.771,1.370,
20.180,63.747,-1.703,-4.867,1.549,0.000,6.271,1.406,2.208,0.680,1.367,0.000,4.291,1.576,4.753,1.307,1.452,0.000,3.071,0.000,0.000,0.000,0.000,0.000,0.000,0.000,0.000,0.000,0.000,0.000,3.142,6.283,0.000,1.003,1.569,1.569,4.085,6.281,1.199,4.712,0.000,0.000,-2.019,-4.271,0.990,4.734,1.800,1.341,5.281,4.711,4.712,2.198,6.282,5.083,1.570,0.000,0.000,-1.363,-4.285,0.990,4.734,1.771,1.370,
20.280,63.847,-1.703,-4.867,1.549,0.000,6.271,1.406,2.208,0.680,1.367,0.000,4.291,1.576,4.753,1.307,1.452,0.000,3.071,0.000,0.000,0.000,0.000,0.000,0.000,0.000,0.000,0.000,0.000,0.000,3.142,6.283,0.000,1.003,1.569,1.569,4.085,6.281,1.199,4.712,0.000,0.000,-2.019,-4.271,0.990,4.734,1.800,1.341,5.281,4.711,4.712,2.198,6.282,5.083,1.570,0.000,0.000,-1.363,-4.285,0.990,4.734,1.771,1.370,
20.373,63.940,-1.703,-4.867,1.549,0.000,6.271,1.406,2.208,0.680,1.367,0.000,4.291,1.576,4.753,1.307,1.452,0.000,3.071,0.000,0.000,0.000,0.000,0.000,0.000,0.000,0.000,0.000,0.000,0.000,3.142,6.283,0.000,1.003,1.569,1.569,4.085,6.281,1.199,4.712,0.000,0.000,-2.019,-4.271,0.990,4.734,1.800,1.341,5.281,4.711,4.712,2.198,6.282,5.083,1.570,0.000,0.000,-1.363,-4.285,0.990,4.734,1.771,1.370,
20.480,64.047,-1.703,-4.867,1.549,0.000,6.271,1.406,2.208,0.680,1.367,0.000,4.291,1.576,4.753,1.307,1.452,0.000,3.071,0.000,0.000,0.000,0.000,0.000,0.000,0.000,0.000,0.000,0.000,0.000,3.142,6.283,0.000,1.003,1.569,1.569,4.085,6.281,1.199,4.712,0.000,0.000,-2.019,-4.271,0.990,4.734,1.800,1.341,5.281,4.711,4.712,2.198,6.282,5.083,1.570,0.000,0.000,-1.363,-4.285,0.990,4.734,1.771,1.370,
20.580,64.147,-1.703,-4.867,1.549,0.000,6.271,1.406,2.208,0.680,1.367,0.000,4.291,1.576,4.753,1.307,1.452,0.000,3.071,0.000,0.000,0.000,0.000,0.000,0.000,0.000,0.000,0.000,0.000,0.000,3.142,6.283,0.000,1.003,1.569,1.569,4.085,6.281,1.199,4.712,0.000,0.000,-2.019,-4.271,0.990,4.734,1.800,1.341,5.281,4.711,4.712,2.198,6.282,5.083,1.570,0.000,0.000,-1.363,-4.285,0.990,4.734,1.771,1.370,
20.674,64.241,-1.703,-4.867,1.549,0.000,6.271,1.406,2.208,0.680,1.367,0.000,4.291,1.576,4.753,1.307,1.452,0.000,3.071,0.000,0.000,0.000,0.000,0.000,0.000,0.000,0.000,0.000,0.000,0.000,3.142,6.283,0.000,1.003,1.569,1.569,4.085,6.281,1.199,4.712,0.000,0.000,-2.019,-4.271,0.990,4.734,1.800,1.341,5.281,4.711,4.712,2.198,6.282,5.083,1.570,0.000,0.000,-1.363,-4.285,0.990,4.734,1.771,1.370,
20.780,64.347,-1.703,-4.867,1.549,0.000,6.271,1.406,2.208,0.680,1.367,0.000,4.291,1.576,4.753,1.307,1.452,0.000,3.071,0.000,0.000,0.000,0.000,0.000,0.000,0.000,0.000,0.000,0.000,0.000,3.142,6.283,0.000,1.003,1.569,1.569,4.085,6.281,1.199,4.712,0.000,0.000,-2.019,-4.271,0.990,4.734,1.800,1.341,5.281,4.711,4.712,2.198,6.282,5.083,1.570,0.000,0.000,-1.363,-4.285,0.990,4.734,1.771,1.370,
20.880,64.447,-1.703,-4.867,1.549,0.000,6.271,1.406,2.208,0.680,1.367,0.000,4.291,1.576,4.753,1.307,1.452,0.000,3.071,0.000,0.000,0.000,0.000,0.000,0.000,0.000,0.000,0.000,0.000,0.000,3.142,6.283,0.000,1.003,1.569,1.569,4.085,6.281,1.199,4.712,0.000,0.000,-2.019,-4.271,0.990,4.734,1.800,1.341,5.281,4.711,4.712,2.198,6.282,5.083,1.570,0.000,0.000,-1.363,-4.285,0.990,4.734,1.771,1.370,
20.969,64.536,-1.703,-4.867,1.549,0.000,6.271,1.406,2.208,0.680,1.367,0.000,4.291,1.576,4.753,1.307,1.452,0.000,3.071,0.000,0.000,0.000,0.000,0.000,0.000,0.000,0.000,0.000,0.000,0.000,3.142,6.283,0.000,1.003,1.569,1.569,4.085,6.281,1.199,4.712,0.000,0.000,-2.019,-4.271,0.990,4.734,1.800,1.341,5.281,4.711,4.712,2.198,6.282,5.083,1.570,0.000,0.000,-1.363,-4.285,0.990,4.734,1.771,1.370,
21.080,64.647,-1.703,-4.867,1.549,0.000,6.271,1.406,2.208,0.680,1.367,0.000,4.291,1.576,4.753,1.307,1.452,0.000,3.071,0.000,0.000,0.000,0.000,0.000,0.000,0.000,0.000,0.000,0.000,0.000,3.142,6.283,0.000,1.003,1.569,1.569,4.085,6.281,1.199,4.712,0.000,0.000,-2.019,-4.271,0.990,4.734,1.800,1.341,5.281,4.711,4.712,2.198,6.282,5.083,1.570,0.000,0.000,-1.363,-4.285,0.990,4.734,1.771,1.370,
21.180,64.747,-1.703,-4.867,1.549,0.000,6.271,1.406,2.208,0.680,1.367,0.000,4.291,1.576,4.753,1.307,1.452,0.000,3.071,0.000,0.000,0.000,0.000,0.000,0.000,0.000,0.000,0.000,0.000,0.000,3.142,6.283,0.000,1.003,1.569,1.569,4.085,6.281,1.199,4.712,0.000,0.000,-2.019,-4.271,0.990,4.734,1.800,1.341,5.281,4.711,4.712,2.198,6.282,5.083,1.570,0.000,0.000,-1.363,-4.285,0.990,4.734,1.771,1.370,
21.279,64.846,-1.703,-4.867,1.549,0.000,6.271,1.406,2.208,0.680,1.367,0.000,4.291,1.576,4.753,1.307,1.452,0.000,3.071,0.000,0.000,0.000,0.000,0.000,0.000,0.000,0.000,0.000,0.000,0.000,3.142,6.283,0.000,1.003,1.569,1.569,4.085,6.281,1.199,4.712,0.000,0.000,-2.019,-4.271,0.990,4.734,1.800,1.341,5.281,4.711,4.712,2.198,6.282,5.083,1.570,0.000,0.000,-1.363,-4.285,0.990,4.734,1.771,1.370,
21.380,64.947,-1.703,-4.867,1.549,0.000,6.271,1.406,2.208,0.680,1.367,0.000,4.291,1.576,4.753,1.307,1.452,0.000,3.071,0.000,0.000,0.000,0.000,0.000,0.000,0.000,0.000,0.000,0.000,0.000,3.142,6.283,0.000,1.003,1.569,1.569,4.085,6.281,1.199,4.712,0.000,0.000,-2.019,-4.271,0.990,4.734,1.800,1.341,5.281,4.711,4.712,2.198,6.282,5.083,1.570,0.000,0.000,-1.363,-4.285,0.990,4.734,1.771,1.370,
21.480,65.047,-1.703,-4.867,1.549,0.000,6.271,1.406,2.208,0.680,1.367,0.000,4.291,1.576,4.753,1.307,1.452,0.000,3.071,0.000,0.000,0.000,0.000,0.000,0.000,0.000,0.000,0.000,0.000,0.000,3.142,6.283,0.000,1.003,1.569,1.569,4.085,6.281,1.199,4.712,0.000,0.000,-2.019,-4.271,0.990,4.734,1.800,1.341,5.281,4.711,4.712,2.198,6.282,5.083,1.570,0.000,0.000,-1.363,-4.285,0.990,4.734,1.771,1.370,
21.576,65.143,-1.703,-4.867,1.549,0.000,6.271,1.406,2.208,0.680,1.367,0.000,4.291,1.576,4.753,1.307,1.452,0.000,3.071,0.000,0.000,0.000,0.000,0.000,0.000,0.000,0.000,0.000,0.000,0.000,3.142,6.283,0.000,1.003,1.569,1.569,4.085,6.281,1.199,4.712,0.000,0.000,-2.019,-4.271,0.990,4.734,1.800,1.341,5.281,4.711,4.712,2.198,6.282,5.083,1.570,0.000,0.000,-1.363,-4.285,0.990,4.734,1.771,1.370,
21.661,65.228,-1.703,-4.867,1.549,0.000,6.271,1.406,2.208,0.680,1.367,0.000,4.291,1.576,4.753,1.307,1.452,0.000,3.071,0.000,0.000,0.000,0.000,0.000,0.000,0.000,0.000,0.000,0.000,0.000,3.142,6.283,0.000,1.003,1.569,1.569,4.085,6.281,1.199,4.712,0.000,0.000,-2.019,-4.271,0.990,4.734,1.800,1.341,5.281,4.711,4.712,2.198,6.282,5.083,1.570,0.000,0.000,-1.363,-4.285,0.990,4.734,1.771,1.370,
21.780,65.347,-1.703,-4.867,1.549,0.000,6.271,1.406,2.208,0.680,1.367,0.000,4.291,1.576,4.753,1.307,1.452,0.000,3.071,0.000,0.000,0.000,0.000,0.000,0.000,0.000,0.000,0.000,0.000,0.000,3.142,6.283,0.000,1.003,1.569,1.569,4.085,6.281,1.199,4.712,0.000,0.000,-2.019,-4.271,0.990,4.734,1.800,1.341,5.281,4.711,4.712,2.198,6.282,5.083,1.570,0.000,0.000,-1.363,-4.285,0.990,4.734,1.771,1.370,
21.880,65.447,-1.703,-4.867,1.549,0.000,6.271,1.406,2.208,0.680,1.367,0.000,4.291,1.576,4.753,1.307,1.452,0.000,3.071,0.000,0.000,0.000,0.000,0.000,0.000,0.000,0.000,0.000,0.000,0.000,3.142,6.283,0.000,1.003,1.569,1.569,4.085,6.281,1.199,4.712,0.000,0.000,-2.019,-4.271,0.990,4.734,1.800,1.341,5.281,4.711,4.712,2.198,6.282,5.083,1.570,0.000,0.000,-1.363,-4.285,0.990,4.734,1.771,1.370,
21.980,65.547,-1.703,-4.867,1.549,0.000,6.271,1.406,2.208,0.680,1.367,0.000,4.291,1.576,4.753,1.307,1.452,0.000,3.071,0.000,0.000,0.000,0.000,0.000,0.000,0.000,0.000,0.000,0.000,0.000,3.142,6.283,0.000,1.003,1.569,1.569,4.085,6.281,1.199,4.712,0.000,0.000,-2.019,-4.271,0.990,4.734,1.800,1.341,5.281,4.711,4.712,2.198,6.282,5.083,1.570,0.000,0.000,-1.363,-4.285,0.990,4.734,1.771,1.370,
22.080,65.647,-1.703,-4.867,1.549,0.000,6.271,1.406,2.208,0.680,1.367,0.000,4.291,1.576,4.753,1.307,1.452,0.000,3.071,0.000,0.000,0.000,0.000,0.000,0.000,0.000,0.000,0.000,0.000,0.000,3.142,6.283,0.000,1.003,1.569,1.569,4.085,6.281,1.199,4.712,0.000,0.000,-2.019,-4.271,0.990,4.734,1.800,1.341,5.281,4.711,4.712,2.198,6.282,5.083,1.570,0.000,0.000,-1.363,-4.285,0.990,4.734,1.771,1.370,
22.180,65.747,-1.703,-4.867,1.549,0.000,6.271,1.406,2.208,0.680,1.367,0.000,4.291,1.576,4.753,1.307,1.452,0.000,3.071,0.000,0.000,0.000,0.000,0.000,0.000,0.000,0.000,0.000,0.000,0.000,3.142,6.283,0.000,1.003,1.569,1.569,4.085,6.281,1.199,4.712,0.000,0.000,-2.019,-4.271,0.990,4.734,1.800,1.341,5.281,4.711,4.712,2.198,6.282,5.083,1.570,0.000,0.000,-1.363,-4.285,0.990,4.734,1.771,1.370,
22.267,65.834,-1.703,-4.867,1.549,0.000,6.271,1.406,2.208,0.680,1.367,0.000,4.291,1.576,4.753,1.307,1.452,0.000,3.071,0.000,0.000,0.000,0.000,0.000,0.000,0.000,0.000,0.000,0.000,0.000,3.142,6.283,0.000,1.003,1.569,1.569,4.085,6.281,1.199,4.712,0.000,0.000,-2.019,-4.271,0.990,4.734,1.800,1.341,5.281,4.711,4.712,2.198,6.282,5.083,1.570,0.000,0.000,-1.363,-4.285,0.990,4.734,1.771,1.370,
22.380,65.947,-1.703,-4.867,1.549,0.000,6.271,1.406,2.208,0.680,1.367,0.000,4.291,1.576,4.753,1.307,1.452,0.000,3.071,0.000,0.000,0.000,0.000,0.000,0.000,0.000,0.000,0.000,0.000,0.000,3.142,6.283,0.000,1.003,1.569,1.569,4.085,6.281,1.199,4.712,0.000,0.000,-2.019,-4.271,0.990,4.734,1.800,1.341,5.281,4.711,4.712,2.198,6.282,5.083,1.570,0.000,0.000,-1.363,-4.285,0.990,4.734,1.771,1.370,
22.480,66.047,-1.703,-4.867,1.549,0.000,6.271,1.406,2.208,0.680,1.367,0.000,4.291,1.576,4.753,1.307,1.452,0.000,3.071,0.000,0.000,0.000,0.000,0.000,0.000,0.000,0.000,0.000,0.000,0.000,3.142,6.283,0.000,1.003,1.569,1.569,4.085,6.281,1.199,4.712,0.000,0.000,-2.019,-4.271,0.990,4.734,1.800,1.341,5.281,4.711,4.712,2.198,6.282,5.083,1.570,0.000,0.000,-1.363,-4.285,0.990,4.734,1.771,1.370,
22.580,66.147,-1.703,-4.867,1.549,0.000,6.271,1.406,2.208,0.680,1.367,0.000,4.291,1.576,4.753,1.307,1.452,0.000,3.071,0.000,0.000,0.000,0.000,0.000,0.000,0.000,0.000,0.000,0.000,0.000,3.142,6.283,0.000,1.003,1.569,1.569,4.085,6.281,1.199,4.712,0.000,0.000,-2.019,-4.271,0.990,4.734,1.800,1.341,5.281,4.711,4.712,2.198,6.282,5.083,1.570,0.000,0.000,-1.363,-4.285,0.990,4.734,1.771,1.370,
22.680,66.247,-1.703,-4.867,1.549,0.000,6.271,1.406,2.208,0.680,1.367,0.000,4.291,1.576,4.753,1.307,1.452,0.000,3.071,0.000,0.000,0.000,0.000,0.000,0.000,0.000,0.000,0.000,0.000,0.000,3.142,6.283,0.000,1.003,1.569,1.569,4.085,6.281,1.199,4.712,0.000,0.000,-2.019,-4.271,0.990,4.734,1.800,1.341,5.281,4.711,4.712,2.198,6.282,5.083,1.570,0.000,0.000,-1.363,-4.285,0.990,4.734,1.771,1.370,
22.780,66.347,-1.703,-4.867,1.549,0.000,6.271,1.406,2.208,0.680,1.367,0.000,4.291,1.576,4.753,1.307,1.452,0.000,3.071,0.000,0.000,0.000,0.000,0.000,0.000,0.000,0.000,0.000,0.000,0.000,3.142,6.283,0.000,1.003,1.569,1.569,4.085,6.281,1.199,4.712,0.000,0.000,-2.019,-4.271,0.990,4.734,1.800,1.341,5.281,4.711,4.712,2.198,6.282,5.083,1.570,0.000,0.000,-1.363,-4.285,0.990,4.734,1.771,1.370,
22.880,66.447,-1.703,-4.867,1.549,0.000,6.271,1.406,2.208,0.680,1.367,0.000,4.291,1.576,4.753,1.307,1.452,0.000,3.071,0.000,0.000,0.000,0.000,0.000,0.000,0.000,0.000,0.000,0.000,0.000,3.142,6.283,0.000,1.003,1.569,1.569,4.085,6.281,1.199,4.712,0.000,0.000,-2.019,-4.271,0.990,4.734,1.800,1.341,5.281,4.711,4.712,2.198,6.282,5.083,1.570,0.000,0.000,-1.363,-4.285,0.990,4.734,1.771,1.370,
22.980,66.547,-1.703,-4.867,1.549,0.000,6.271,1.406,2.208,0.680,1.367,0.000,4.291,1.576,4.753,1.307,1.452,0.000,3.071,0.000,0.000,0.000,0.000,0.000,0.000,0.000,0.000,0.000,0.000,0.000,3.142,6.283,0.000,1.003,1.569,1.569,4.085,6.281,1.199,4.712,0.000,0.000,-2.019,-4.271,0.990,4.734,1.800,1.341,5.281,4.711,4.712,2.198,6.282,5.083,1.570,0.000,0.000,-1.363,-4.285,0.990,4.734,1.771,1.370,
23.080,66.647,-1.703,-4.867,1.549,0.000,6.271,1.406,2.208,0.680,1.367,0.000,4.291,1.576,4.753,1.307,1.452,0.000,3.071,0.000,0.000,0.000,0.000,0.000,0.000,0.000,0.000,0.000,0.000,0.000,3.142,6.283,0.000,1.003,1.569,1.569,4.085,6.281,1.199,4.712,0.000,0.000,-2.019,-4.271,0.990,4.734,1.800,1.341,5.281,4.711,4.712,2.198,6.282,5.083,1.570,0.000,0.000,-1.363,-4.285,0.990,4.734,1.771,1.370,
23.162,66.729,-1.703,-4.867,1.549,0.000,6.271,1.406,2.208,0.680,1.367,0.000,4.291,1.576,4.753,1.307,1.452,0.000,3.071,0.000,0.000,0.000,0.000,0.000,0.000,0.000,0.000,0.000,0.000,0.000,3.142,6.283,0.000,1.003,1.569,1.569,4.085,6.281,1.199,4.712,0.000,0.000,-2.019,-4.271,0.990,4.734,1.800,1.341,5.281,4.711,4.712,2.198,6.282,5.083,1.570,0.000,0.000,-1.363,-4.285,0.990,4.734,1.771,1.370,
23.280,66.847,-1.703,-4.867,1.549,0.000,6.271,1.406,2.208,0.680,1.367,0.000,4.291,1.576,4.753,1.307,1.452,0.000,3.071,0.000,0.000,0.000,0.000,0.000,0.000,0.000,0.000,0.000,0.000,0.000,3.142,6.283,0.000,1.003,1.569,1.569,4.085,6.281,1.199,4.712,0.000,0.000,-2.019,-4.271,0.990,4.734,1.800,1.341,5.281,4.711,4.712,2.198,6.282,5.083,1.570,0.000,0.000,-1.363,-4.285,0.990,4.734,1.771,1.370,
23.380,66.947,-1.703,-4.867,1.549,0.000,6.271,1.406,2.208,0.680,1.367,0.000,4.291,1.576,4.753,1.307,1.452,0.000,3.071,0.000,0.000,0.000,0.000,0.000,0.000,0.000,0.000,0.000,0.000,0.000,3.142,6.283,0.000,1.003,1.569,1.569,4.085,6.281,1.199,4.712,0.000,0.000,-2.019,-4.271,0.990,4.734,1.800,1.341,5.281,4.711,4.712,2.198,6.282,5.083,1.570,0.000,0.000,-1.363,-4.285,0.990,4.734,1.771,1.370,
23.480,67.047,-1.703,-4.867,1.549,0.000,6.271,1.406,2.208,0.680,1.367,0.000,4.291,1.576,4.753,1.307,1.452,0.000,3.071,0.000,0.000,0.000,0.000,0.000,0.000,0.000,0.000,0.000,0.000,0.000,3.142,6.283,0.000,1.003,1.569,1.569,4.085,6.281,1.199,4.712,0.000,0.000,-2.019,-4.271,0.990,4.734,1.800,1.341,5.281,4.711,4.712,2.198,6.282,5.083,1.570,0.000,0.000,-1.363,-4.285,0.990,4.734,1.771,1.370,
23.580,67.147,-1.703,-4.867,1.549,0.000,6.271,1.406,2.208,0.680,1.367,0.000,4.291,1.576,4.753,1.307,1.452,0.000,3.071,0.000,0.000,0.000,0.000,0.000,0.000,0.000,0.000,0.000,0.000,0.000,3.142,6.283,0.000,1.003,1.569,1.569,4.085,6.281,1.199,4.712,0.000,0.000,-2.019,-4.271,0.990,4.734,1.800,1.341,5.281,4.711,4.712,2.198,6.282,5.083,1.570,0.000,0.000,-1.363,-4.285,0.990,4.734,1.771,1.370,
23.680,67.247,-1.703,-4.867,1.549,0.000,6.271,1.406,2.208,0.680,1.367,0.000,4.291,1.576,4.753,1.307,1.452,0.000,3.071,0.000,0.000,0.000,0.000,0.000,0.000,0.000,0.000,0.000,0.000,0.000,3.142,6.283,0.000,1.003,1.569,1.569,4.085,6.281,1.199,4.712,0.000,0.000,-2.019,-4.271,0.990,4.734,1.800,1.341,5.281,4.711,4.712,2.198,6.282,5.083,1.570,0.000,0.000,-1.363,-4.285,0.990,4.734,1.771,1.370,
23.777,67.344,-1.703,-4.867,1.549,0.000,6.271,1.406,2.208,0.680,1.367,0.000,4.291,1.576,4.753,1.307,1.452,0.000,3.071,0.000,0.000,0.000,0.000,0.000,0.000,0.000,0.000,0.000,0.000,0.000,3.142,6.283,0.000,1.003,1.569,1.569,4.085,6.281,1.199,4.712,0.000,0.000,-2.019,-4.271,0.990,4.734,1.800,1.341,5.281,4.711,4.712,2.198,6.282,5.083,1.570,0.000,0.000,-1.363,-4.285,0.990,4.734,1.771,1.370,
23.880,67.447,-1.703,-4.867,1.549,0.000,6.271,1.406,2.208,0.680,1.367,0.000,4.291,1.576,4.753,1.307,1.452,0.000,3.071,0.000,0.000,0.000,0.000,0.000,0.000,0.000,0.000,0.000,0.000,0.000,3.142,6.283,0.000,1.003,1.569,1.569,4.085,6.281,1.199,4.712,0.000,0.000,-2.019,-4.271,0.990,4.734,1.800,1.341,5.281,4.711,4.712,2.198,6.282,5.083,1.570,0.000,0.000,-1.363,-4.285,0.990,4.734,1.771,1.370,
23.980,67.547,-1.703,-4.867,1.549,0.000,6.271,1.406,2.208,0.680,1.367,0.000,4.291,1.576,4.753,1.307,1.452,0.000,3.071,0.000,0.000,0.000,0.000,0.000,0.000,0.000,0.000,0.000,0.000,0.000,3.142,6.283,0.000,1.003,1.569,1.569,4.085,6.281,1.199,4.712,0.000,0.000,-2.019,-4.271,0.990,4.734,1.800,1.341,5.281,4.711,4.712,2.198,6.282,5.083,1.570,0.000,0.000,-1.363,-4.285,0.990,4.734,1.771,1.370,
24.078,67.645,-1.703,-4.867,1.549,0.000,6.271,1.406,2.208,0.680,1.367,0.000,4.291,1.576,4.753,1.307,1.452,0.000,3.071,0.000,0.000,0.000,0.000,0.000,0.000,0.000,0.000,0.000,0.000,0.000,3.142,6.283,0.000,1.003,1.569,1.569,4.085,6.281,1.199,4.712,0.000,0.000,-2.019,-4.271,0.990,4.734,1.800,1.341,5.281,4.711,4.712,2.198,6.282,5.083,1.570,0.000,0.000,-1.363,-4.285,0.990,4.734,1.771,1.370,
24.180,68.449,-1.703,-4.867,1.549,0.000,6.271,1.406,2.208,0.680,1.367,0.000,4.291,1.576,4.753,1.307,1.452,0.000,3.071,0.000,0.000,0.000,0.000,0.000,0.000,0.000,0.000,0.000,0.000,0.000,3.142,6.283,0.000,1.003,1.569,1.569,4.085,6.281,1.199,4.712,0.000,0.000,-2.019,-4.271,0.990,4.734,1.800,1.341,5.281,4.711,4.712,2.198,6.282,5.083,1.570,0.000,0.000,-1.363,-4.285,0.990,4.734,1.771,1.370,
24.280,68.549,-1.703,-4.867,1.549,0.000,6.271,1.406,2.208,0.680,1.367,0.000,4.291,1.576,4.753,1.307,1.452,0.000,3.071,0.000,0.000,0.000,0.000,0.000,0.000,0.000,0.000,0.000,0.000,0.000,3.142,6.283,0.000,1.003,1.569,1.569,4.085,6.281,1.199,4.712,0.000,0.000,-2.019,-4.271,0.990,4.734,1.800,1.341,5.281,4.711,4.712,2.198,6.282,5.083,1.570,0.000,0.000,-1.363,-4.285,0.990,4.734,1.771,1.370,
24.380,68.649,-1.703,-4.867,1.549,0.000,6.271,1.406,2.208,0.680,1.367,0.000,4.291,1.576,4.753,1.307,1.452,0.000,3.071,0.000,0.000,0.000,0.000,0.000,0.000,0.000,0.000,0.000,0.000,0.000,3.142,6.283,0.000,1.003,1.569,1.569,4.085,6.281,1.199,4.712,0.000,0.000,-2.019,-4.271,0.990,4.734,1.800,1.341,5.281,4.711,4.712,2.198,6.282,5.083,1.570,0.000,0.000,-1.363,-4.285,0.990,4.734,1.771,1.370,
24.480,68.749,-1.703,-4.867,1.549,0.000,6.271,1.406,2.208,0.680,1.367,0.000,4.291,1.576,4.753,1.307,1.452,0.000,3.071,0.000,0.000,0.000,0.000,0.000,0.000,0.000,0.000,0.000,0.000,0.000,3.142,6.283,0.000,1.003,1.569,1.569,4.085,6.281,1.199,4.712,0.000,0.000,-2.019,-4.271,0.990,4.734,1.800,1.341,5.281,4.711,4.712,2.198,6.282,5.083,1.570,0.000,0.000,-1.363,-4.285,0.990,4.734,1.771,1.370,
24.580,68.849,-1.703,-4.867,1.549,0.000,6.271,1.406,2.208,0.680,1.367,0.000,4.291,1.576,4.753,1.307,1.452,0.000,3.071,0.000,0.000,0.000,0.000,0.000,0.000,0.000,0.000,0.000,0.000,0.000,3.142,6.283,0.000,1.003,1.569,1.569,4.085,6.281,1.199,4.712,0.000,0.000,-2.019,-4.271,0.990,4.734,1.800,1.341,5.281,4.711,4.712,2.198,6.282,5.083,1.570,0.000,0.000,-1.363,-4.285,0.990,4.734,1.771,1.370,
24.667,68.937,-1.703,-4.867,1.549,0.000,6.271,1.406,2.208,0.680,1.367,0.000,4.291,1.576,4.753,1.307,1.452,0.000,3.071,0.000,0.000,0.000,0.000,0.000,0.000,0.000,0.000,0.000,0.000,0.000,3.142,6.283,0.000,1.003,1.569,1.569,4.085,6.281,1.199,4.712,0.000,0.000,-2.019,-4.271,0.990,4.734,1.800,1.341,5.281,4.711,4.712,2.198,6.282,5.083,1.570,0.000,0.000,-1.363,-4.285,0.990,4.734,1.771,1.370,
24.780,69.049,-1.703,-4.867,1.549,0.000,6.271,1.406,2.208,0.680,1.367,0.000,4.291,1.576,4.753,1.307,1.452,0.000,3.071,0.000,0.000,0.000,0.000,0.000,0.000,0.000,0.000,0.000,0.000,0.000,3.142,6.283,0.000,1.003,1.569,1.569,4.085,6.281,1.199,4.712,0.000,0.000,-2.019,-4.271,0.990,4.734,1.800,1.341,5.281,4.711,4.712,2.198,6.282,5.083,1.570,0.000,0.000,-1.363,-4.285,0.990,4.734,1.771,1.370,
24.880,69.149,-1.703,-4.867,1.549,0.000,6.271,1.406,2.208,0.680,1.367,0.000,4.291,1.576,4.753,1.307,1.452,0.000,3.071,0.000,0.000,0.000,0.000,0.000,0.000,0.000,0.000,0.000,0.000,0.000,3.142,6.283,0.000,1.003,1.569,1.569,4.085,6.281,1.199,4.712,0.000,0.000,-2.019,-4.271,0.990,4.734,1.800,1.341,5.281,4.711,4.712,2.198,6.282,5.083,1.570,0.000,0.000,-1.363,-4.285,0.990,4.734,1.771,1.370,
24.980,69.249,-1.703,-4.867,1.549,0.000,6.271,1.406,2.208,0.680,1.367,0.000,4.291,1.576,4.753,1.307,1.452,0.000,3.071,0.000,0.000,0.000,0.000,0.000,0.000,0.000,0.000,0.000,0.000,0.000,3.142,6.283,0.000,1.003,1.569,1.569,4.085,6.281,1.199,4.712,0.000,0.000,-2.019,-4.271,0.990,4.734,1.800,1.341,5.281,4.711,4.712,2.198,6.282,5.083,1.570,0.000,0.000,-1.363,-4.285,0.990,4.734,1.771,1.370,
25.073,69.342,-1.703,-4.867,1.549,0.000,6.271,1.406,2.208,0.680,1.367,0.000,4.291,1.576,4.753,1.307,1.452,0.000,3.071,0.000,0.000,0.000,0.000,0.000,0.000,0.000,0.000,0.000,0.000,0.000,3.142,6.283,0.000,1.003,1.569,1.569,4.085,6.281,1.199,4.712,0.000,0.000,-2.019,-4.271,0.990,4.734,1.800,1.341,5.281,4.711,4.712,2.198,6.282,5.083,1.570,0.000,0.000,-1.363,-4.285,0.990,4.734,1.771,1.370,
25.180,69.449,-1.703,-4.867,1.549,0.000,6.271,1.406,2.208,0.680,1.367,0.000,4.291,1.576,4.753,1.307,1.452,0.000,3.071,0.000,0.000,0.000,0.000,0.000,0.000,0.000,0.000,0.000,0.000,0.000,3.142,6.283,0.000,1.003,1.569,1.569,4.085,6.281,1.199,4.712,0.000,0.000,-2.019,-4.271,0.990,4.734,1.800,1.341,5.281,4.711,4.712,2.198,6.282,5.083,1.570,0.000,0.000,-1.363,-4.285,0.990,4.734,1.771,1.370,
25.280,69.549,-1.703,-4.867,1.549,0.000,6.271,1.406,2.208,0.680,1.367,0.000,4.291,1.576,4.753,1.307,1.452,0.000,3.071,0.000,0.000,0.000,0.000,0.000,0.000,0.000,0.000,0.000,0.000,0.000,3.142,6.283,0.000,1.003,1.569,1.569,4.085,6.281,1.199,4.712,0.000,0.000,-2.019,-4.271,0.990,4.734,1.800,1.341,5.281,4.711,4.712,2.198,6.282,5.083,1.570,0.000,0.000,-1.363,-4.285,0.990,4.734,1.771,1.370,
25.376,69.645,-1.703,-4.867,1.549,0.000,6.271,1.406,2.208,0.680,1.367,0.000,4.291,1.576,4.753,1.307,1.452,0.000,3.071,0.000,0.000,0.000,0.000,0.000,0.000,0.000,0.000,0.000,0.000,0.000,3.142,6.283,0.000,1.003,1.569,1.569,4.085,6.281,1.199,4.712,0.000,0.000,-2.019,-4.271,0.990,4.734,1.800,1.341,5.281,4.711,4.712,2.198,6.282,5.083,1.570,0.000,0.000,-1.363,-4.285,0.990,4.734,1.771,1.370,
25.480,69.749,-1.703,-4.867,1.549,0.000,6.271,1.406,2.208,0.680,1.367,0.000,4.291,1.576,4.753,1.307,1.452,0.000,3.071,0.000,0.000,0.000,0.000,0.000,0.000,0.000,0.000,0.000,0.000,0.000,3.142,6.283,0.000,1.003,1.569,1.569,4.085,6.281,1.199,4.712,0.000,0.000,-2.019,-4.271,0.990,4.734,1.800,1.340,5.281,4.711,4.712,2.198,6.282,5.083,1.570,0.000,0.000,-1.363,-4.285,0.990,4.734,1.771,1.370,
25.580,69.849,-1.703,-4.867,1.549,0.000,6.271,1.406,2.208,0.680,1.367,0.000,4.291,1.576,4.753,1.307,1.452,0.000,3.071,0.000,0.000,0.000,0.000,0.000,0.000,0.000,0.000,0.000,0.000,0.000,3.142,6.283,0.000,1.003,1.569,1.569,4.085,6.281,1.199,4.712,0.000,0.000,-2.019,-4.271,0.990,4.734,1.800,1.341,5.281,4.711,4.712,2.198,6.282,5.083,1.570,0.000,0.000,-1.363,-4.285,0.990,4.734,1.771,1.370,
25.679,69.948,-1.703,-4.867,1.549,0.000,6.271,1.406,2.208,0.680,1.367,0.000,4.291,1.576,4.753,1.307,1.452,0.000,3.071,0.000,0.000,0.000,0.000,0.000,0.000,0.000,0.000,0.000,0.000,0.000,3.142,6.283,0.000,1.003,1.569,1.569,4.085,6.281,1.199,4.712,0.000,0.000,-2.019,-4.271,0.990,4.734,1.800,1.341,5.281,4.711,4.712,2.198,6.282,5.083,1.570,0.000,0.000,-1.363,-4.285,0.990,4.734,1.771,1.370,
25.780,70.049,-1.703,-4.867,1.549,0.000,6.271,1.406,2.208,0.680,1.367,0.000,4.291,1.576,4.753,1.307,1.452,0.000,3.071,0.000,0.000,0.000,0.000,0.000,0.000,0.000,0.000,0.000,0.000,0.000,3.142,6.283,0.000,1.003,1.569,1.569,4.085,6.281,1.199,4.712,0.000,0.000,-2.019,-4.271,0.990,4.734,1.800,1.341,5.281,4.711,4.712,2.198,6.282,5.083,1.570,0.000,0.000,-1.363,-4.285,0.990,4.734,1.771,1.370,
25.880,70.149,-1.703,-4.867,1.549,0.000,6.271,1.406,2.208,0.680,1.367,0.000,4.291,1.576,4.753,1.307,1.452,0.000,3.071,0.000,0.000,0.000,0.000,0.000,0.000,0.000,0.000,0.000,0.000,0.000,3.142,6.283,0.000,1.003,1.569,1.569,4.085,6.281,1.199,4.712,0.000,0.000,-2.019,-4.271,0.990,4.734,1.800,1.341,5.281,4.711,4.712,2.198,6.282,5.083,1.570,0.000,0.000,-1.363,-4.285,0.990,4.734,1.771,1.370,
25.979,70.249,-1.703,-4.867,1.549,0.000,6.271,1.406,2.208,0.680,1.367,0.000,4.291,1.576,4.753,1.307,1.452,0.000,3.071,0.000,0.000,0.000,0.000,0.000,0.000,0.000,0.000,0.000,0.000,0.000,3.142,6.283,0.000,1.003,1.569,1.569,4.085,6.281,1.199,4.712,0.000,0.000,-2.019,-4.271,0.990,4.734,1.800,1.341,5.281,4.711,4.712,2.198,6.282,5.083,1.570,0.000,0.000,-1.363,-4.285,0.990,4.734,1.771,1.370,
26.080,70.349,-1.703,-4.867,1.549,0.000,6.271,1.406,2.208,0.680,1.367,0.000,4.291,1.576,4.753,1.307,1.452,0.000,3.071,0.000,0.000,0.000,0.000,0.000,0.000,0.000,0.000,0.000,0.000,0.000,3.142,6.283,0.000,1.003,1.569,1.569,4.085,6.281,1.199,4.712,0.000,0.000,-2.019,-4.271,0.990,4.734,1.800,1.341,5.281,4.711,4.712,2.198,6.282,5.083,1.570,0.000,0.000,-1.363,-4.285,0.990,4.734,1.771,1.370,
26.180,70.449,-1.703,-4.867,1.549,0.000,6.271,1.406,2.208,0.680,1.367,0.000,4.291,1.576,4.753,1.307,1.452,0.000,3.071,0.000,0.000,0.000,0.000,0.000,0.000,0.000,0.000,0.000,0.000,0.000,3.142,6.283,0.000,1.003,1.569,1.569,4.085,6.281,1.199,4.712,0.000,0.000,-2.019,-4.271,0.990,4.734,1.800,1.341,5.281,4.711,4.712,2.198,6.282,5.083,1.570,0.000,0.000,-1.363,-4.285,0.990,4.734,1.771,1.370,
26.280,70.549,-1.703,-4.867,1.549,0.000,6.271,1.406,2.208,0.680,1.367,0.000,4.291,1.576,4.753,1.307,1.452,0.000,3.071,0.000,0.000,0.000,0.000,0.000,0.000,0.000,0.000,0.000,0.000,0.000,3.142,6.283,0.000,1.003,1.569,1.569,4.085,6.281,1.199,4.712,0.000,0.000,-2.019,-4.271,0.990,4.734,1.800,1.341,5.281,4.711,4.712,2.198,6.282,5.083,1.570,0.000,0.000,-1.363,-4.285,0.990,4.734,1.771,1.370,
26.380,70.649,-1.703,-4.867,1.549,0.000,6.271,1.406,2.208,0.680,1.367,0.000,4.291,1.576,4.753,1.307,1.452,0.000,3.071,0.000,0.000,0.000,0.000,0.000,0.000,0.000,0.000,0.000,0.000,0.000,3.142,6.283,0.000,1.003,1.569,1.569,4.085,6.281,1.199,4.712,0.000,0.000,-2.019,-4.271,0.990,4.734,1.800,1.341,5.281,4.711,4.712,2.198,6.282,5.083,1.570,0.000,0.000,-1.363,-4.285,0.990,4.734,1.771,1.370,
26.467,70.737,-1.703,-4.867,1.549,0.000,6.271,1.406,2.208,0.680,1.367,0.000,4.291,1.576,4.753,1.307,1.452,0.000,3.071,0.000,0.000,0.000,0.000,0.000,0.000,0.000,0.000,0.000,0.000,0.000,3.142,6.283,0.000,1.003,1.569,1.569,4.085,6.281,1.199,4.712,0.000,0.000,-2.019,-4.271,0.990,4.734,1.800,1.341,5.281,4.711,4.712,2.198,6.282,5.083,1.570,0.000,0.000,-1.363,-4.285,0.990,4.734,1.771,1.370,
26.580,70.849,-1.703,-4.867,1.549,0.000,6.271,1.406,2.208,0.680,1.367,0.000,4.291,1.576,4.753,1.307,1.452,0.000,3.071,0.000,0.000,0.000,0.000,0.000,0.000,0.000,0.000,0.000,0.000,0.000,3.142,6.283,0.000,1.003,1.569,1.569,4.085,6.281,1.199,4.712,0.000,0.000,-2.019,-4.271,0.990,4.734,1.800,1.341,5.281,4.711,4.712,2.198,6.282,5.083,1.570,0.000,0.000,-1.363,-4.285,0.990,4.734,1.771,1.370,
26.680,70.949,-1.703,-4.867,1.549,0.000,6.271,1.406,2.208,0.680,1.367,0.000,4.291,1.576,4.753,1.307,1.452,0.000,3.071,0.000,0.000,0.000,0.000,0.000,0.000,0.000,0.000,0.000,0.000,0.000,3.142,6.283,0.000,1.003,1.569,1.569,4.085,6.281,1.199,4.712,0.000,0.000,-2.019,-4.271,0.990,4.734,1.800,1.341,5.281,4.711,4.712,2.198,6.282,5.083,1.570,0.000,0.000,-1.363,-4.285,0.990,4.734,1.771,1.370,
26.765,71.035,-1.703,-4.867,1.549,0.000,6.271,1.406,2.208,0.680,1.367,0.000,4.291,1.576,4.753,1.307,1.452,0.000,3.071,0.000,0.000,0.000,0.000,0.000,0.000,0.000,0.000,0.000,0.000,0.000,3.142,6.283,0.000,1.003,1.569,1.569,4.085,6.281,1.199,4.712,0.000,0.000,-2.019,-4.271,0.990,4.734,1.800,1.341,5.281,4.711,4.712,2.198,6.282,5.083,1.570,0.000,0.000,-1.363,-4.285,0.990,4.734,1.771,1.370,
26.880,71.149,-1.703,-4.867,1.549,0.000,6.271,1.406,2.208,0.680,1.367,0.000,4.291,1.576,4.753,1.307,1.452,0.000,3.071,0.000,0.000,0.000,0.000,0.000,0.000,0.000,0.000,0.000,0.000,0.000,3.142,6.283,0.000,1.003,1.569,1.569,4.085,6.281,1.199,4.712,0.000,0.000,-2.019,-4.271,0.990,4.734,1.800,1.341,5.281,4.711,4.712,2.198,6.282,5.083,1.570,0.000,0.000,-1.363,-4.285,0.990,4.734,1.771,1.370,
26.980,71.249,-1.703,-4.867,1.549,0.000,6.271,1.406,2.208,0.680,1.367,0.000,4.291,1.576,4.753,1.307,1.452,0.000,3.071,0.000,0.000,0.000,0.000,0.000,0.000,0.000,0.000,0.000,0.000,0.000,3.142,6.283,0.000,1.003,1.569,1.569,4.085,6.281,1.199,4.712,0.000,0.000,-2.019,-4.271,0.990,4.734,1.800,1.341,5.281,4.711,4.712,2.198,6.282,5.083,1.570,0.000,0.000,-1.363,-4.285,0.990,4.734,1.771,1.370,
27.080,71.349,-1.703,-4.867,1.549,0.000,6.271,1.406,2.208,0.680,1.367,0.000,4.291,1.576,4.753,1.307,1.452,0.000,3.071,0.000,0.000,0.000,0.000,0.000,0.000,0.000,0.000,0.000,0.000,0.000,3.142,6.283,0.000,1.003,1.569,1.569,4.085,6.281,1.199,4.712,0.000,0.000,-2.019,-4.271,0.990,4.734,1.800,1.341,5.281,4.711,4.712,2.198,6.282,5.083,1.570,0.000,0.000,-1.363,-4.285,0.990,4.734,1.771,1.370,
27.180,71.449,-1.703,-4.867,1.549,0.000,6.271,1.406,2.208,0.680,1.367,0.000,4.291,1.576,4.753,1.307,1.452,0.000,3.071,0.000,0.000,0.000,0.000,0.000,0.000,0.000,0.000,0.000,0.000,0.000,3.142,6.283,0.000,1.003,1.569,1.569,4.085,6.281,1.199,4.712,0.000,0.000,-2.019,-4.271,0.990,4.734,1.800,1.341,5.281,4.711,4.712,2.198,6.282,5.083,1.570,0.000,0.000,-1.363,-4.285,0.990,4.734,1.771,1.370,
27.280,71.549,-1.703,-4.867,1.549,0.000,6.271,1.406,2.208,0.680,1.367,0.000,4.291,1.576,4.753,1.307,1.452,0.000,3.071,0.000,0.000,0.000,0.000,0.000,0.000,0.000,0.000,0.000,0.000,0.000,3.142,6.283,0.000,1.003,1.569,1.569,4.085,6.281,1.199,4.712,0.000,0.000,-2.019,-4.271,0.990,4.734,1.800,1.341,5.281,4.711,4.712,2.198,6.282,5.083,1.570,0.000,0.000,-1.363,-4.285,0.990,4.734,1.771,1.370,
27.371,71.640,-1.703,-4.867,1.549,0.000,6.271,1.406,2.208,0.680,1.367,0.000,4.291,1.576,4.753,1.307,1.452,0.000,3.071,0.000,0.000,0.000,0.000,0.000,0.000,0.000,0.000,0.000,0.000,0.000,3.142,6.283,0.000,1.003,1.569,1.569,4.085,6.281,1.199,4.712,0.000,0.000,-2.019,-4.271,0.990,4.734,1.800,1.341,5.281,4.711,4.712,2.198,6.282,5.083,1.570,0.000,0.000,-1.363,-4.285,0.990,4.734,1.771,1.370,
27.461,71.730,-1.703,-4.867,1.549,0.000,6.271,1.406,2.208,0.680,1.367,0.000,4.291,1.576,4.753,1.307,1.452,0.000,3.071,0.000,0.000,0.000,0.000,0.000,0.000,0.000,0.000,0.000,0.000,0.000,3.142,6.283,0.000,1.003,1.569,1.569,4.085,6.281,1.199,4.712,0.000,0.000,-2.019,-4.271,0.990,4.734,1.800,1.341,5.281,4.711,4.712,2.198,6.282,5.083,1.570,0.000,0.000,-1.363,-4.285,0.990,4.734,1.771,1.370,
27.580,71.849,-1.703,-4.867,1.549,0.000,6.271,1.406,2.208,0.680,1.367,0.000,4.291,1.576,0.000,1.307,1.452,0.000,3.071,0.000,0.000,0.000,0.000,0.000,0.000,0.000,1.716,0.000,0.000,0.000,3.142,6.283,0.000,1.003,1.569,1.569,4.085,6.281,1.199,4.712,0.000,0.000,-2.019,-4.271,0.990,4.734,1.800,1.341,5.281,4.711,4.712,2.198,6.282,5.083,1.570,0.000,0.000,-1.363,-4.285,0.990,4.734,1.771,1.370,
27.680,71.949,-1.703,-4.867,1.549,0.000,6.271,1.406,2.208,0.680,1.367,0.000,4.291,1.576,0.000,1.307,1.452,0.000,3.071,0.000,0.000,0.000,0.000,0.000,0.000,0.000,1.565,0.000,0.000,0.000,3.142,6.283,0.000,1.003,1.569,1.569,4.085,6.281,1.199,4.712,0.000,0.000,-2.019,-4.271,0.990,4.734,1.800,1.341,5.281,4.711,4.712,2.198,6.282,5.083,1.570,0.000,0.000,-1.363,-4.285,0.990,4.734,1.771,1.370,
27.772,72.041,-1.703,-4.867,1.549,0.000,6.271,1.406,2.208,0.680,1.367,0.000,4.291,1.576,0.000,1.307,1.452,0.000,3.071,0.000,0.000,0.000,0.000,0.000,0.000,0.000,1.323,0.000,0.000,0.000,3.142,6.283,0.000,1.003,1.569,1.569,4.085,6.281,1.199,4.712,0.000,0.000,-2.019,-4.271,0.990,4.734,1.800,1.341,5.281,4.711,4.712,2.198,6.282,5.083,1.570,0.000,0.000,-1.363,-4.285,0.990,4.734,1.771,1.370,
27.880,72.149,-1.703,-4.867,1.549,0.000,6.271,1.406,2.208,0.680,1.367,0.000,4.291,1.576,0.000,1.307,1.452,0.000,3.071,0.000,0.000,0.000,0.000,0.000,0.000,0.000,1.198,0.000,0.000,0.000,3.142,6.283,0.000,1.003,1.569,1.569,4.085,6.281,1.199,4.712,0.000,0.000,-2.019,-4.271,0.990,4.734,1.800,1.341,5.281,4.711,4.712,2.198,6.282,5.083,1.570,0.000,0.000,-1.363,-4.285,0.990,4.734,1.771,1.370,
27.980,72.249,-1.703,-4.867,1.549,0.000,6.271,1.406,2.208,0.680,1.367,0.000,4.291,1.576,0.000,1.307,1.452,0.000,3.071,0.000,0.000,0.000,0.000,0.000,0.000,0.000,1.075,0.000,0.000,0.000,3.142,6.283,0.000,1.003,1.569,1.569,4.085,6.281,1.199,4.712,0.000,0.000,-2.019,-4.271,0.990,4.734,1.800,1.341,5.281,4.711,4.712,2.198,6.282,5.083,1.570,0.000,0.000,-1.363,-4.285,0.990,4.734,1.771,1.370,
28.076,72.345,-1.703,-4.867,1.549,0.000,6.271,1.406,2.208,0.680,1.367,0.000,4.291,1.576,0.000,1.307,1.452,0.000,3.071,0.000,0.000,0.000,0.000,0.000,0.000,0.000,0.910,0.000,0.000,0.000,3.142,6.283,0.000,1.003,1.569,1.569,4.085,6.281,1.199,4.712,0.000,0.000,-2.019,-4.271,0.990,4.734,1.800,1.341,5.281,4.711,4.712,2.198,6.282,5.083,1.570,0.000,0.000,-1.363,-4.285,0.990,4.734,1.771,1.370,
28.180,72.449,-1.703,-4.867,1.549,0.000,6.271,1.406,2.208,0.680,1.367,0.000,4.291,1.576,0.000,1.307,1.452,0.000,3.071,0.000,0.000,0.000,0.000,0.000,0.000,0.000,0.789,0.000,0.000,0.000,3.142,6.283,0.000,1.003,1.569,1.569,4.085,6.281,1.199,4.712,0.000,0.000,-2.019,-4.271,0.990,4.734,1.800,1.341,5.281,4.711,4.712,2.198,6.282,5.083,1.570,0.000,0.000,-1.363,-4.285,0.990,4.734,1.771,1.370,
28.280,72.549,-1.703,-4.867,1.549,0.000,6.271,1.406,2.208,0.680,1.367,0.000,4.291,1.576,0.000,1.307,1.452,0.000,3.071,0.000,0.000,0.000,0.000,0.000,0.000,0.000,0.711,0.000,0.000,0.000,3.142,6.283,0.000,1.003,1.569,1.569,4.085,6.281,1.199,4.712,0.000,0.000,-2.019,-4.271,0.990,4.734,1.800,1.341,5.281,4.711,4.712,2.198,6.282,5.083,1.570,0.000,0.000,-1.363,-4.285,0.990,4.734,1.771,1.370,
28.367,72.637,-1.703,-4.867,1.549,0.000,6.271,1.406,2.208,0.680,1.367,0.000,4.291,1.576,0.000,1.307,1.452,0.000,3.071,0.000,0.000,0.000,0.000,0.000,0.000,0.000,0.649,0.000,0.000,0.000,3.142,6.283,0.000,1.003,1.569,1.569,4.085,6.281,1.199,4.712,0.000,0.000,-2.019,-4.271,0.990,4.734,1.800,1.341,5.281,4.711,4.712,2.198,6.282,5.083,1.570,0.000,0.000,-1.363,-4.285,0.990,4.734,1.771,1.370,
28.480,72.749,-1.703,-4.867,1.549,0.000,6.271,1.406,2.208,0.680,1.367,0.000,4.291,1.576,0.000,1.307,1.452,0.000,3.071,0.000,0.000,0.000,0.000,0.000,0.000,0.000,0.535,0.000,0.000,0.000,3.142,6.283,0.000,1.003,1.569,1.569,4.085,6.281,1.199,4.712,0.000,0.000,-2.019,-4.271,0.990,4.734,1.800,1.341,5.281,4.711,4.712,2.198,6.282,5.083,1.570,0.000,0.000,-1.363,-4.285,0.990,4.734,1.771,1.370,
28.580,72.849,-1.703,-4.867,1.549,0.000,6.271,1.406,2.208,0.680,1.367,0.000,4.291,1.576,0.000,1.307,1.452,0.000,3.071,0.000,0.000,0.000,0.000,0.000,0.000,0.000,0.483,0.000,0.000,0.000,3.142,6.283,0.000,1.003,1.569,1.569,4.085,6.281,1.199,4.712,0.000,0.000,-2.019,-4.271,0.990,4.734,1.800,1.341,5.281,4.711,4.712,2.198,6.282,5.083,1.570,0.000,0.000,-1.363,-4.285,0.990,4.734,1.771,1.370,
28.675,72.945,-1.703,-4.867,1.549,0.000,6.271,1.406,2.208,0.680,1.367,0.000,4.291,1.576,0.000,1.307,1.452,0.000,3.071,0.000,0.000,0.000,0.000,0.000,0.000,0.000,0.466,0.000,0.000,0.000,3.142,6.283,0.000,1.003,1.569,1.569,4.085,6.281,1.199,4.712,0.000,0.000,-2.019,-4.271,0.990,4.734,1.800,1.341,5.281,4.711,4.712,2.198,6.282,5.083,1.570,0.000,0.000,-1.363,-4.285,0.990,4.734,1.771,1.370,
28.761,73.030,-1.703,-4.867,1.549,0.000,6.271,1.406,2.208,0.680,1.367,0.000,4.291,1.576,0.000,1.307,1.452,0.000,3.071,0.000,0.000,0.000,0.000,0.000,0.000,0.000,0.472,0.000,0.000,0.000,3.142,6.283,0.000,1.003,1.569,1.569,4.085,6.281,1.199,4.712,0.000,0.000,-2.019,-4.271,0.990,4.734,1.800,1.341,5.281,4.711,4.712,2.198,6.282,5.083,1.570,0.000,0.000,-1.363,-4.285,0.990,4.734,1.771,1.370,
28.880,73.149,-1.703,-4.867,1.549,0.000,6.271,1.406,2.208,0.680,1.367,0.000,4.291,1.576,0.000,1.307,1.452,0.000,3.071,0.000,0.000,0.000,0.000,0.000,0.000,0.000,0.477,0.000,0.000,0.000,3.142,6.283,0.000,1.003,1.569,1.569,4.085,6.281,1.199,4.712,0.000,0.000,-2.019,-4.271,0.990,4.734,1.800,1.341,5.281,4.711,4.712,2.198,6.282,5.083,1.570,0.000,0.000,-1.363,-4.285,0.990,4.734,1.771,1.370,
28.980,73.249,-1.703,-4.867,1.549,0.000,6.271,1.406,2.208,0.680,1.367,0.000,4.291,1.576,0.000,1.307,1.452,0.000,3.071,0.000,0.000,0.000,0.000,0.000,0.000,0.000,0.481,0.000,0.000,0.000,3.142,6.283,0.000,1.003,1.569,1.569,4.085,6.281,1.199,4.712,0.000,0.000,-2.019,-4.271,0.990,4.734,1.800,1.341,5.281,4.711,4.712,2.198,6.282,5.083,1.570,0.000,0.000,-1.363,-4.285,0.990,4.734,1.771,1.370,
29.080,73.349,-1.703,-4.867,1.549,0.000,6.271,1.406,2.208,0.680,1.367,0.000,4.291,1.576,0.000,1.307,1.452,0.000,3.071,0.000,0.000,0.000,0.000,0.000,0.000,0.000,0.482,0.000,0.000,0.000,3.142,6.283,0.000,1.003,1.569,1.569,4.085,6.281,1.199,4.712,0.000,0.000,-2.019,-4.271,0.990,4.734,1.800,1.341,5.281,4.711,4.712,2.198,6.282,5.083,1.570,0.000,0.000,-1.363,-4.285,0.990,4.734,1.771,1.370,
29.162,73.431,-1.703,-4.867,1.549,0.000,6.271,1.406,2.208,0.680,1.367,0.000,4.291,1.576,0.000,1.307,1.452,0.000,3.071,0.000,0.000,0.000,0.000,0.000,0.000,0.000,0.489,0.000,0.000,0.000,3.142,6.283,0.000,1.003,1.569,1.569,4.085,6.281,1.199,4.712,0.000,0.000,-2.019,-4.271,0.990,4.734,1.800,1.341,5.281,4.711,4.712,2.198,6.282,5.083,1.570,0.000,0.000,-1.363,-4.285,0.990,4.734,1.771,1.370,
29.280,73.549,-1.703,-4.867,1.549,0.000,6.271,1.406,2.208,0.680,1.367,0.000,4.291,1.576,0.000,1.307,1.452,0.000,3.071,0.000,0.000,0.000,0.000,0.000,0.000,0.000,0.503,0.000,0.000,0.000,3.142,6.283,0.000,1.003,1.569,1.569,4.085,6.281,1.199,4.712,0.000,0.000,-2.019,-4.271,0.990,4.734,1.800,1.341,5.281,4.711,4.712,2.198,6.282,5.083,1.570,0.000,0.000,-1.363,-4.285,0.990,4.734,1.771,1.370,
29.380,73.649,-1.703,-4.867,1.549,0.000,6.271,1.406,2.208,0.680,1.367,0.000,4.291,1.576,0.000,1.307,1.452,0.000,3.071,0.000,0.000,0.000,0.000,0.000,0.000,0.000,0.524,0.000,0.000,0.000,3.142,6.283,0.000,1.003,1.569,1.569,4.085,6.281,1.199,4.712,0.000,0.000,-2.019,-4.271,0.990,4.734,1.800,1.341,5.281,4.711,4.712,2.198,6.282,5.083,1.570,0.000,0.000,-1.363,-4.285,0.990,4.734,1.771,1.370,
29.472,73.741,-1.703,-4.867,1.549,0.000,6.271,1.406,2.208,0.680,1.367,0.000,4.291,1.576,0.000,1.307,1.452,0.000,3.071,0.000,0.000,0.000,0.000,0.000,0.000,0.000,0.580,0.000,0.000,0.000,3.142,6.283,0.000,1.003,1.569,1.569,4.085,6.281,1.199,4.712,0.000,0.000,-2.019,-4.271,0.990,4.734,1.800,1.341,5.281,4.711,4.712,2.198,6.282,5.083,1.570,0.000,0.000,-1.363,-4.285,0.990,4.734,1.771,1.370,
29.580,73.849,-1.703,-4.867,1.549,0.000,6.271,1.406,2.208,0.680,1.367,0.000,4.291,1.576,0.000,1.307,1.452,0.000,3.071,0.000,0.000,0.000,0.000,0.000,0.000,0.000,0.622,0.000,0.000,0.000,3.142,6.283,0.000,1.003,1.569,1.569,4.085,6.281,1.199,4.712,0.000,0.000,-2.019,-4.271,0.990,4.734,1.800,1.341,5.281,4.711,4.712,2.198,6.282,5.083,1.570,0.000,0.000,-1.363,-4.285,0.990,4.734,1.771,1.370,
29.680,73.949,-1.703,-4.867,1.549,0.000,6.271,1.406,2.208,0.680,1.367,0.000,4.291,1.576,0.000,1.307,1.452,0.000,3.071,0.000,0.000,0.000,0.000,0.000,0.000,0.000,0.672,0.000,0.000,0.000,3.142,6.283,0.000,1.003,1.569,1.569,4.085,6.281,1.199,4.712,0.000,0.000,-2.019,-4.271,0.990,4.734,1.800,1.341,5.281,4.711,4.712,2.198,6.282,5.083,1.570,0.000,0.000,-1.363,-4.285,0.990,4.734,1.771,1.370,
29.780,74.049,-1.703,-4.867,1.549,0.000,6.271,1.406,2.208,0.680,1.367,0.000,4.291,1.576,0.000,1.307,1.452,0.000,3.071,0.000,0.000,0.000,0.000,0.000,0.000,0.000,0.732,0.000,0.000,0.000,3.142,6.283,0.000,1.003,1.569,1.569,4.085,6.281,1.199,4.712,0.000,0.000,-2.019,-4.271,0.990,4.734,1.800,1.341,5.281,4.711,4.712,2.198,6.282,5.083,1.570,0.000,0.000,-1.363,-4.285,0.990,4.734,1.771,1.370,
29.880,74.149,-1.703,-4.867,1.549,0.000,6.271,1.406,2.208,0.680,1.367,0.000,4.291,1.576,0.000,1.307,1.452,0.000,3.071,0.000,0.000,0.000,0.000,0.000,0.000,0.000,0.869,0.000,0.000,0.000,3.142,6.283,0.000,1.003,1.569,1.569,4.085,6.281,1.199,4.712,0.000,0.000,-2.019,-4.271,0.990,4.734,1.800,1.341,5.281,4.711,4.712,2.198,6.282,5.083,1.570,0.000,0.000,-1.363,-4.285,0.990,4.734,1.771,1.370,
29.980,74.249,-1.703,-4.867,1.549,0.000,6.271,1.406,2.208,0.680,1.367,0.000,4.291,1.576,0.000,1.307,1.452,0.000,3.071,0.000,0.000,0.000,0.000,0.000,0.000,0.000,0.958,0.000,0.000,0.000,3.142,6.283,0.000,1.003,1.569,1.569,4.085,6.281,1.199,4.712,0.000,0.000,-2.019,-4.271,0.990,4.734,1.800,1.341,5.281,4.711,4.712,2.198,6.282,5.083,1.570,0.000,0.000,-1.363,-4.285,0.990,4.734,1.771,1.370,
30.072,74.341,-1.703,-4.867,1.549,0.000,6.271,1.406,2.208,0.680,1.367,0.000,4.291,1.576,0.000,1.307,1.452,0.000,3.071,0.000,0.000,0.000,0.000,0.000,0.000,0.000,1.038,0.000,0.000,0.000,3.142,6.283,0.000,1.003,1.569,1.569,4.085,6.281,1.199,4.712,0.000,0.000,-2.019,-4.271,0.990,4.734,1.800,1.341,5.281,4.711,4.712,2.198,6.282,5.083,1.570,0.000,0.000,-1.363,-4.285,0.990,4.734,1.771,1.370,
30.180,74.449,-1.703,-4.867,1.549,0.000,6.271,1.406,2.208,0.680,1.367,0.000,4.291,1.576,0.000,1.307,1.452,0.000,3.071,0.000,0.000,0.000,0.000,0.000,0.000,0.000,1.246,0.000,0.000,0.000,3.142,6.283,0.000,1.003,1.569,1.569,4.085,6.281,1.199,4.712,0.000,0.000,-2.019,-4.271,0.990,4.734,1.800,1.341,5.281,4.711,4.712,2.198,6.282,5.083,1.570,0.000,0.000,-1.363,-4.285,0.990,4.734,1.771,1.370,
30.280,74.549,-1.703,-4.867,1.549,0.000,6.271,1.406,2.208,0.680,1.367,0.000,4.291,1.576,0.000,1.307,1.452,0.000,3.071,0.000,0.000,0.000,0.000,0.000,0.000,0.000,1.365,0.000,0.000,0.000,3.142,6.283,0.000,1.003,1.569,1.569,4.085,6.281,1.199,4.712,0.000,0.000,-2.019,-4.271,0.990,4.734,1.800,1.341,5.281,4.711,4.712,2.198,6.282,5.083,1.570,0.000,0.000,-1.363,-4.285,0.990,4.734,1.771,1.370,
30.374,74.644,-1.703,-4.867,1.549,0.000,6.271,1.406,2.208,0.680,1.367,0.000,4.291,1.576,0.000,1.307,1.452,0.000,3.071,0.000,0.000,0.000,0.000,0.000,0.000,0.000,1.616,0.000,0.000,0.000,3.142,6.283,0.000,1.003,1.569,1.569,4.085,6.281,1.199,4.712,0.000,0.000,-2.019,-4.271,0.990,4.734,1.800,1.341,5.281,4.711,4.712,2.198,6.282,5.083,1.570,0.000,0.000,-1.363,-4.285,0.990,4.734,1.771,1.370,
30.480,74.749,-1.703,-4.867,1.549,0.000,6.271,1.406,2.208,0.680,1.367,0.000,4.291,1.576,0.000,1.307,1.452,0.000,3.071,0.000,0.000,0.000,0.000,0.000,0.000,0.000,1.788,0.000,0.000,0.000,3.142,6.283,0.000,1.003,1.569,1.569,4.085,6.281,1.199,4.712,0.000,0.000,-2.019,-4.271,0.990,4.734,1.800,1.341,5.281,4.711,4.712,2.198,6.282,5.083,1.570,0.000,0.000,-1.363,-4.285,0.990,4.734,1.771,1.370,
30.580,74.849,-1.703,-4.867,1.549,0.000,6.271,1.406,2.208,0.680,1.367,0.000,4.291,1.576,4.753,1.307,1.452,0.000,3.071,0.000,0.000,0.000,0.000,0.000,0.000,0.000,0.000,0.000,0.000,0.000,3.142,6.283,0.000,1.003,1.569,1.569,4.085,6.281,1.199,4.712,0.000,0.000,-2.019,-4.271,0.990,4.734,1.800,1.341,5.281,4.711,4.712,2.198,6.282,5.083,1.570,0.000,0.000,-1.363,-4.285,0.990,4.734,1.771,1.370,
30.680,74.949,-1.703,-4.867,1.549,0.000,6.271,1.406,2.208,0.680,1.367,0.000,4.291,1.576,4.753,1.307,1.452,0.000,3.071,0.000,0.000,0.000,0.000,0.000,0.000,0.000,0.000,0.000,0.000,0.000,3.142,6.283,0.000,1.003,1.569,1.569,4.085,6.281,1.199,4.712,0.000,0.000,-2.019,-4.271,0.990,4.734,1.800,1.341,5.281,4.711,4.712,2.198,6.282,5.083,1.570,0.000,0.000,-1.363,-4.285,0.990,4.734,1.771,1.370,
30.780,75.049,-1.703,-4.867,1.549,0.000,6.271,1.406,2.208,0.680,1.367,0.000,4.291,1.576,4.753,1.307,1.452,0.000,3.071,0.000,0.000,0.000,0.000,0.000,0.000,0.000,0.000,0.000,0.000,0.000,3.142,6.283,0.000,1.003,1.569,1.569,4.085,6.281,1.199,4.712,0.000,0.000,-2.019,-4.271,0.990,4.734,1.800,1.341,5.281,4.711,4.712,2.198,6.282,5.083,1.570,0.000,0.000,-1.363,-4.285,0.990,4.734,1.771,1.370,
30.866,75.136,-1.703,-4.867,1.549,0.000,6.271,1.406,2.208,0.680,1.367,0.000,4.291,1.576,4.753,1.307,1.452,0.000,3.071,0.000,0.000,0.000,0.000,0.000,0.000,0.000,0.000,0.000,0.000,0.000,3.142,6.283,0.000,1.003,1.569,1.569,4.085,6.281,1.199,4.712,0.000,0.000,-2.019,-4.271,0.990,4.734,1.800,1.341,5.281,4.711,4.712,2.198,6.282,5.083,1.570,0.000,0.000,-1.363,-4.285,0.990,4.734,1.771,1.370,
30.980,75.249,-1.703,-4.867,1.549,0.000,6.271,1.406,2.208,0.680,1.367,0.000,4.291,1.576,4.753,1.307,1.452,0.000,3.071,0.000,0.000,0.000,0.000,0.000,0.000,0.000,0.000,0.000,0.000,0.000,3.142,6.283,0.000,1.003,1.569,1.569,4.085,6.281,1.199,4.712,0.000,0.000,-2.019,-4.271,0.990,4.734,1.800,1.341,5.281,4.711,4.712,2.198,6.282,5.083,1.570,0.000,0.000,-1.363,-4.285,0.990,4.734,1.771,1.370,
31.074,75.343,-1.703,-4.867,1.549,0.000,6.271,1.406,2.208,0.680,1.367,0.000,4.291,1.576,4.753,1.307,1.452,0.000,3.071,0.000,0.000,0.000,0.000,0.000,0.000,0.000,0.000,0.000,0.000,0.000,3.142,6.283,0.000,1.003,1.569,1.569,4.085,6.281,1.199,4.712,0.000,0.000,-2.019,-4.271,0.990,4.734,1.800,1.341,5.281,4.711,4.712,2.198,6.282,5.083,1.570,0.000,0.000,-1.363,-4.285,0.990,4.734,1.771,1.370,
31.166,75.436,-1.703,-4.867,1.549,0.000,6.271,1.406,2.208,0.680,1.367,0.000,4.291,1.576,4.753,1.307,1.452,0.000,3.071,0.000,0.000,0.000,0.000,0.000,0.000,0.000,0.000,0.000,0.000,0.000,3.142,6.283,0.000,1.003,1.569,1.569,4.085,6.281,1.199,4.712,0.000,0.000,-2.019,-4.271,0.990,4.734,1.800,1.341,5.281,4.711,4.712,2.198,6.282,5.083,1.570,0.000,0.000,-1.363,-4.285,0.990,4.734,1.771,1.370,
31.280,75.549,-1.703,-4.867,1.549,0.000,6.271,1.406,2.208,0.680,1.367,0.000,4.291,1.576,4.753,1.307,1.452,0.000,3.071,0.000,0.000,0.000,0.000,0.000,0.000,0.000,0.000,0.000,0.000,0.000,3.142,6.283,0.000,1.003,1.569,1.569,4.085,6.281,1.199,4.712,0.000,0.000,-2.019,-4.271,0.990,4.734,1.800,1.341,5.281,4.711,4.712,2.198,6.282,5.083,1.570,0.000,0.000,-1.363,-4.285,0.990,4.734,1.771,1.370,
31.380,75.649,-1.703,-4.867,1.549,0.000,6.271,1.406,2.208,0.680,1.367,0.000,4.291,1.576,4.753,1.307,1.452,0.000,3.071,0.000,0.000,0.000,0.000,0.000,0.000,0.000,0.000,0.000,0.000,0.000,3.142,6.283,0.000,1.003,1.569,1.569,4.085,6.281,1.199,4.712,0.000,0.000,-2.019,-4.271,0.990,4.734,1.800,1.341,5.281,4.711,4.712,2.198,6.282,5.083,1.570,0.000,0.000,-1.363,-4.285,0.990,4.734,1.771,1.370,
31.478,75.747,-1.703,-4.867,1.549,0.000,6.271,1.406,2.208,0.680,1.367,0.000,4.291,1.576,4.753,1.307,1.452,0.000,3.071,0.000,0.000,0.000,0.000,0.000,0.000,0.000,0.000,0.000,0.000,0.000,3.142,6.283,0.000,1.003,1.569,1.569,4.085,6.281,1.199,4.712,0.000,0.000,-2.019,-4.271,0.990,4.734,1.800,1.341,5.281,4.711,4.712,2.198,6.282,5.083,1.570,0.000,0.000,-1.363,-4.285,0.990,4.734,1.771,1.370,
31.580,75.849,-1.703,-4.867,1.549,0.000,6.271,1.406,2.208,0.680,1.367,0.000,4.291,1.576,4.753,1.307,1.452,0.000,3.071,0.000,0.000,0.000,0.000,0.000,0.000,0.000,0.000,0.000,0.000,0.000,3.142,6.283,0.000,1.003,1.569,1.569,4.085,6.281,1.199,4.712,0.000,0.000,-2.019,-4.271,0.990,4.734,1.800,1.341,5.281,4.711,4.712,2.198,6.282,5.083,1.570,0.000,0.000,-1.363,-4.285,0.990,4.734,1.771,1.370,
31.680,75.949,-1.703,-4.867,1.549,0.000,6.271,1.406,2.208,0.680,1.367,0.000,4.291,1.576,4.753,1.307,1.452,0.000,3.071,0.000,0.000,0.000,0.000,0.000,0.000,0.000,0.000,0.000,0.000,0.000,3.142,6.283,0.000,1.003,1.569,1.569,4.085,6.281,1.199,4.712,0.000,0.000,-2.019,-4.271,0.990,4.734,1.800,1.341,5.281,4.711,4.712,2.198,6.282,5.083,1.570,0.000,0.000,-1.363,-4.285,0.990,4.734,1.771,1.370,
31.780,76.049,-1.703,-4.867,1.549,0.000,6.271,1.406,2.208,0.680,1.367,0.000,4.291,1.576,4.753,1.307,1.452,0.000,3.071,0.000,0.000,0.000,0.000,0.000,0.000,0.000,0.000,0.000,0.000,0.000,3.142,6.283,0.000,1.003,1.569,1.569,4.085,6.281,1.199,4.712,0.000,0.000,-2.019,-4.271,0.990,4.734,1.800,1.341,5.281,4.711,4.712,2.198,6.282,5.083,1.570,0.000,0.000,-1.363,-4.285,0.990,4.734,1.771,1.370,
31.880,76.149,-1.703,-4.867,1.549,0.000,6.271,1.406,2.208,0.680,1.367,0.000,4.291,1.576,4.753,1.307,1.452,0.000,3.071,0.000,0.000,0.000,0.000,0.000,0.000,0.000,0.000,0.000,0.000,0.000,3.142,6.283,0.000,1.003,1.569,1.569,4.085,6.281,1.199,4.712,0.000,0.000,-2.019,-4.271,0.990,4.734,1.800,1.341,5.281,4.711,4.712,2.198,6.282,5.083,1.570,0.000,0.000,-1.363,-4.285,0.990,4.734,1.771,1.370,
31.980,76.249,-1.703,-4.867,1.549,0.000,6.271,1.406,2.208,0.680,1.367,0.000,4.291,1.576,4.753,1.307,1.452,0.000,3.071,0.000,0.000,0.000,0.000,0.000,0.000,0.000,0.000,0.000,0.000,0.000,3.142,6.283,0.000,1.003,1.569,1.569,4.085,6.281,1.199,4.712,0.000,0.000,-2.019,-4.271,0.990,4.734,1.800,1.341,5.281,4.711,4.712,2.198,6.282,5.083,1.570,0.000,0.000,-1.363,-4.285,0.990,4.734,1.771,1.370,
32.080,76.349,-1.703,-4.867,1.549,0.000,6.271,1.406,2.208,0.680,1.367,0.000,4.291,1.576,4.753,1.307,1.452,0.000,3.071,0.000,0.000,0.000,0.000,0.000,0.000,0.000,0.000,0.000,0.000,0.000,3.142,6.283,0.000,1.003,1.569,1.569,4.085,6.281,1.199,4.712,0.000,0.000,-2.019,-4.271,0.990,4.734,1.800,1.341,5.281,4.711,4.712,2.198,6.282,5.083,1.570,0.000,0.000,-1.363,-4.285,0.990,4.734,1.771,1.370,
32.180,76.449,-1.703,-4.867,1.549,0.000,6.271,1.406,2.208,0.680,1.367,0.000,4.291,1.576,4.753,1.307,1.452,0.000,3.071,0.000,0.000,0.000,0.000,0.000,0.000,0.000,0.000,0.000,0.000,0.000,3.142,6.283,0.000,1.003,1.569,1.569,4.085,6.281,1.199,4.712,0.000,0.000,-2.019,-4.271,0.990,4.734,1.800,1.341,5.281,4.711,4.712,2.198,6.282,5.083,1.570,0.000,0.000,-1.363,-4.285,0.990,4.734,1.771,1.370,
32.266,76.535,-1.703,-4.867,1.549,0.000,6.271,1.406,2.208,0.680,1.367,0.000,4.291,1.576,4.753,1.307,1.452,0.000,3.071,0.000,0.000,0.000,0.000,0.000,0.000,0.000,0.000,0.000,0.000,0.000,3.142,6.283,0.000,1.003,1.569,1.569,4.085,6.281,1.199,4.712,0.000,0.000,-2.019,-4.271,0.990,4.734,1.800,1.341,5.281,4.711,4.712,2.198,6.282,5.083,1.570,0.000,0.000,-1.363,-4.285,0.990,4.734,1.771,1.370,
32.380,76.649,-1.703,-4.867,1.549,0.000,6.271,1.406,2.208,0.680,1.367,0.000,4.291,1.576,4.753,1.307,1.452,0.000,3.071,0.000,0.000,0.000,0.000,0.000,0.000,0.000,0.000,0.000,0.000,0.000,3.142,6.283,0.000,1.003,1.569,1.569,4.085,6.281,1.199,4.712,0.000,0.000,-2.019,-4.271,0.990,4.734,1.800,1.341,5.281,4.711,4.712,2.198,6.282,5.083,1.570,0.000,0.000,-1.363,-4.285,0.990,4.734,1.771,1.370,
32.480,76.749,-1.703,-4.867,1.549,0.000,6.271,1.406,2.208,0.680,1.367,0.000,4.291,1.576,4.753,1.307,1.452,0.000,3.071,0.000,0.000,0.000,0.000,0.000,0.000,0.000,0.000,0.000,0.000,0.000,3.142,6.283,0.000,1.003,1.569,1.569,4.085,6.281,1.199,4.712,0.000,0.000,-2.019,-4.271,0.990,4.734,1.800,1.341,5.281,4.711,4.712,2.198,6.282,5.083,1.570,0.000,0.000,-1.363,-4.285,0.990,4.734,1.771,1.370,
32.575,76.844,-1.703,-4.867,1.549,0.000,6.271,1.406,2.208,0.680,1.367,0.000,4.291,1.576,4.753,1.307,1.452,0.000,3.071,0.000,0.000,0.000,0.000,0.000,0.000,0.000,0.000,0.000,0.000,0.000,3.142,6.283,0.000,1.003,1.569,1.569,4.085,6.281,1.199,4.712,0.000,0.000,-2.019,-4.271,0.990,4.734,1.800,1.341,5.281,4.711,4.712,2.198,6.282,5.083,1.570,0.000,0.000,-1.363,-4.285,0.990,4.734,1.771,1.370,
32.663,76.932,-1.703,-4.867,1.549,0.000,6.271,1.406,2.208,0.680,1.367,0.000,4.291,1.576,4.753,1.307,1.452,0.000,3.071,0.000,0.000,0.000,0.000,0.000,0.000,0.000,0.000,0.000,0.000,0.000,3.142,6.283,0.000,1.003,1.569,1.569,4.085,6.281,1.199,4.712,0.000,0.000,-2.019,-4.271,0.990,4.734,1.800,1.341,5.281,4.711,4.712,2.198,6.282,5.083,1.570,0.000,0.000,-1.363,-4.285,0.990,4.734,1.771,1.370,
32.780,77.049,-1.703,-4.867,1.549,0.000,6.271,1.406,2.208,0.680,1.367,0.000,4.291,1.576,4.753,1.307,1.452,0.000,3.071,0.000,0.000,0.000,0.000,0.000,0.000,0.000,0.000,0.000,0.000,0.000,3.142,6.283,0.000,1.003,1.569,1.569,4.085,6.281,1.199,4.712,0.000,0.000,-2.019,-4.271,0.990,4.734,1.800,1.341,5.281,4.711,4.712,2.198,6.282,5.083,1.570,0.000,0.000,-1.363,-4.285,0.990,4.734,1.771,1.370,
32.880,77.149,-1.703,-4.867,1.549,0.000,6.271,1.406,2.208,0.680,1.367,0.000,4.291,1.576,4.753,1.307,1.452,0.000,3.071,0.000,0.000,0.000,0.000,0.000,0.000,0.000,0.000,0.000,0.000,0.000,3.142,6.283,0.000,1.003,1.569,1.569,4.085,6.281,1.199,4.712,0.000,0.000,-2.019,-4.271,0.990,4.734,1.800,1.341,5.281,4.711,4.712,2.198,6.282,5.083,1.570,0.000,0.000,-1.363,-4.285,0.990,4.734,1.771,1.370,
32.980,77.249,-1.703,-4.867,1.549,0.000,6.271,1.406,2.208,0.680,1.367,0.000,4.291,1.576,4.753,1.307,1.452,0.000,3.071,0.000,0.000,0.000,0.000,0.000,0.000,0.000,0.000,0.000,0.000,0.000,3.142,6.283,0.000,1.003,1.569,1.569,4.085,6.281,1.199,4.712,0.000,0.000,-2.019,-4.271,0.990,4.734,1.800,1.341,5.281,4.711,4.712,2.198,6.282,5.083,1.570,0.000,0.000,-1.363,-4.285,0.990,4.734,1.771,1.370,
