deveshdatwani/Gopher/Assets/Data/07-16 22-39-14/Obstacle Handling_robot_value.csv
game_time,true_time,x,y,az,vx,vaz,dis_to_obs_0,dis_to_obs_36,dis_to_obs_72,dis_to_obs_108,dis_to_obs_144,dis_to_obs_180,dis_to_obs_-144,dis_to_obs_-108,dis_to_obs_-72,dis_to_obs_-36,dis_to_min_obs,direction_to_min_obs,dis_to_human_0,dis_to_human_36,dis_to_human_72,dis_to_human_108,dis_to_human_144,dis_to_human_180,dis_to_human_-144,dis_to_human_-108,dis_to_human_-72,dis_to_human_-36,dis_to_min_human,direction_to_min_human,main_cam_yaw,main_cam_pitch,left_joint_1,left_joint_2,left_joint_3,left_joint_4,left_joint_5,left_joint_6,left_joint_7,left_joint_gripper,left_is_grasping,left_end_x,left_end_y,left_end_z,left_end_ax,left_end_ay,left_end_az,right_joint_1,right_joint_2,right_joint_3,right_joint_4,right_joint_5,right_joint_6,right_joint_7,right_joint_gripper,right_is_grasping,right_end_x,right_end_y,right_end_z,right_end_ax,right_end_ay,right_end_az,
9.000,31.458,0.967,-9.904,1.853,1.017,0.927,3.563,0.000,1.448,1.419,3.725,0.000,2.567,2.034,0.000,3.600,0.000,3.142,0.000,0.000,0.000,0.000,0.000,0.000,0.000,0.000,0.000,0.000,0.000,3.142,0.001,0.000,1.003,1.570,1.569,4.085,6.282,1.199,4.712,0.000,0.000,0.487,-9.430,0.990,4.996,4.696,4.727,5.282,4.712,4.711,2.198,6.283,5.083,1.570,0.000,0.000,1.117,-9.247,0.991,4.995,4.700,4.724,
9.100,31.558,0.944,-9.828,1.910,1.004,0.812,3.552,0.000,1.421,1.453,0.000,4.382,2.491,2.058,4.682,3.458,0.000,3.071,0.000,0.000,0.000,0.000,0.000,0.000,0.000,0.000,0.000,0.000,0.000,3.142,0.001,0.000,1.003,1.570,1.570,4.086,6.281,1.199,4.712,0.000,0.000,0.438,-9.382,0.990,5.052,4.697,4.726,5.281,4.712,4.712,2.198,6.282,5.083,1.570,0.000,0.000,1.056,-9.163,0.991,5.052,4.702,4.722,
9.198,31.657,0.902,-9.717,1.924,1.009,5.788,3.450,0.000,1.471,1.415,0.000,4.344,2.518,1.701,0.000,3.330,0.000,3.071,0.000,0.000,0.000,0.000,0.000,0.000,0.000,0.000,0.000,0.000,0.000,3.142,6.281,0.001,1.005,1.568,1.566,4.084,6.281,1.199,4.712,0.000,0.000,0.388,-9.279,0.990,5.069,4.700,4.723,5.281,4.710,4.708,2.197,6.282,5.083,1.570,0.000,0.000,1.004,-9.051,0.990,5.069,4.697,4.726,
9.300,31.758,0.869,-9.622,1.833,1.015,4.882,3.249,0.000,1.667,1.281,3.213,0.000,2.732,2.133,0.000,3.326,0.000,3.142,0.000,0.000,0.000,0.000,0.000,0.000,0.000,0.000,0.000,0.000,0.000,3.142,6.280,0.001,1.005,1.568,1.565,4.085,6.281,1.199,4.711,0.000,0.000,0.397,-9.140,0.990,4.979,4.694,4.728,5.282,4.710,4.708,2.197,6.282,5.083,1.570,0.000,0.000,1.031,-8.969,0.991,4.978,4.696,4.727,
9.400,31.858,0.846,-9.525,1.709,1.008,5.009,3.062,0.000,1.476,1.257,2.328,0.000,3.095,2.185,0.000,3.404,0.000,3.142,0.000,0.000,0.000,0.000,0.000,0.000,0.000,0.000,0.000,0.000,0.000,3.142,6.280,0.001,1.004,1.569,1.568,4.085,6.281,1.199,4.712,0.000,0.000,0.438,-8.987,0.990,4.852,4.676,4.747,5.282,4.711,4.710,2.197,6.282,5.083,1.570,0.000,0.000,1.089,-8.897,0.991,4.851,4.686,4.738,
9.500,31.958,0.836,-9.447,1.632,1.006,5.322,2.956,0.000,1.387,1.344,1.999,0.000,3.389,2.231,0.000,3.464,0.000,3.142,0.000,3.456,0.000,0.000,0.000,0.000,0.000,0.000,0.000,0.000,0.000,3.142,6.281,0.001,1.004,1.569,1.568,4.085,6.281,1.199,4.712,0.000,0.000,0.471,-8.879,0.990,4.774,4.634,4.789,5.282,4.711,4.711,2.197,6.282,5.083,1.570,0.000,0.000,1.127,-8.839,0.991,4.774,4.646,4.778,
9.585,32.043,0.832,-9.327,1.539,1.019,5.389,2.827,3.103,1.654,1.494,1.729,0.000,3.838,2.299,0.000,3.540,0.000,3.142,0.000,0.000,0.000,0.000,0.000,0.000,0.000,0.000,0.000,0.000,0.000,3.142,6.281,0.001,1.004,1.569,1.567,4.085,6.281,1.199,4.712,0.000,0.000,0.521,-8.728,0.990,4.742,1.732,1.409,5.282,4.711,4.710,2.197,6.282,5.083,1.570,0.000,0.000,1.177,-8.748,0.990,4.743,1.720,1.420,
9.700,32.158,0.837,-9.227,1.455,1.013,5.258,2.740,2.821,0.000,1.655,1.562,0.000,3.975,2.372,0.000,3.078,0.000,3.142,0.000,0.000,0.000,0.000,0.000,0.000,0.000,0.000,0.000,0.000,0.000,3.142,6.280,0.001,1.004,1.568,1.567,4.085,6.281,1.199,4.712,0.000,0.000,0.577,-8.604,0.990,4.826,1.614,1.527,5.282,4.711,4.710,2.197,6.282,5.083,1.570,0.000,0.000,1.229,-8.679,0.991,4.827,1.610,1.531,
9.783,32.241,0.850,-9.129,1.363,1.009,5.235,2.227,2.908,0.000,1.492,1.483,0.000,3.902,2.470,0.000,3.860,0.000,3.142,0.000,0.000,0.000,0.000,0.000,0.000,0.000,0.000,0.000,0.000,0.000,3.142,6.280,0.001,1.004,1.569,1.567,4.085,6.281,1.199,4.712,0.000,0.000,0.649,-8.484,0.990,4.918,1.595,1.546,5.282,4.711,4.710,2.197,6.282,5.083,1.570,0.000,0.000,1.291,-8.619,0.991,4.918,1.592,1.549,
9.900,32.358,0.873,-9.032,1.274,1.014,5.293,2.633,2.698,4.649,1.367,1.576,3.618,4.048,2.584,0.000,4.129,0.000,1.632,0.000,0.000,0.000,0.000,0.000,0.000,0.000,0.000,0.000,0.000,0.000,3.142,6.280,0.001,1.004,1.568,1.567,4.085,6.281,1.199,4.712,0.000,0.000,0.729,-8.372,0.990,5.007,1.587,1.554,5.282,4.711,4.710,2.197,6.282,5.083,1.570,0.000,0.000,1.357,-8.563,0.991,5.008,1.586,1.555,
10.000,32.458,0.897,-8.955,1.205,1.016,5.305,2.612,2.558,4.914,1.432,1.664,3.026,0.000,2.689,2.105,4.406,0.000,1.702,0.000,0.000,0.000,0.000,0.000,0.000,0.000,0.000,0.000,0.000,0.000,3.142,6.281,0.001,1.004,1.568,1.567,4.085,6.281,1.199,4.712,0.000,0.000,0.799,-8.287,0.990,5.076,1.584,1.557,5.282,4.711,4.710,2.197,6.282,5.083,1.570,0.000,0.000,1.413,-8.521,0.991,5.076,1.583,1.558,
10.094,32.552,0.943,-8.845,1.101,1.012,5.281,2.606,2.383,0.000,4.227,1.820,2.491,0.000,2.885,1.978,4.159,0.000,1.843,0.000,0.000,0.000,0.000,0.000,0.000,0.000,0.000,0.000,0.000,0.000,3.142,6.281,0.001,1.004,1.568,1.567,4.085,6.281,1.199,4.712,0.000,0.000,0.915,-8.170,0.990,5.180,1.581,1.560,5.282,4.711,4.710,2.197,6.282,5.083,1.570,0.000,0.000,1.501,-8.467,0.991,5.181,1.581,1.561,
10.182,32.641,0.990,-8.757,1.013,1.012,5.268,2.632,2.266,2.612,0.000,1.977,2.218,0.000,3.100,1.657,0.000,0.000,1.948,0.000,0.000,0.000,0.000,0.000,0.000,0.000,0.000,0.000,0.000,0.000,3.142,6.281,0.001,1.004,1.569,1.567,4.085,6.281,1.199,4.712,0.000,0.000,1.022,-8.082,0.990,5.268,1.580,1.562,5.282,4.711,4.710,2.197,6.282,5.083,1.570,0.000,0.000,1.579,-8.429,0.991,5.269,1.579,1.563,
10.300,32.758,1.041,-8.677,0.926,0.753,5.366,2.689,2.177,2.755,0.000,1.702,2.040,0.000,3.376,1.644,0.000,0.000,2.053,0.000,0.000,0.000,0.000,0.000,0.000,0.000,0.000,0.000,0.000,0.000,3.142,0.000,0.001,1.001,1.570,1.570,4.091,6.281,1.199,4.712,0.000,0.000,1.134,-8.007,0.989,5.358,1.584,1.559,5.281,4.712,4.712,2.198,6.282,5.083,1.570,0.000,0.000,1.658,-8.403,0.990,5.358,1.579,1.563,
10.381,32.839,1.055,-8.658,0.868,-0.193,5.754,2.787,2.161,2.578,0.000,1.603,1.967,0.000,3.655,1.664,0.000,0.000,2.124,0.000,0.000,0.000,0.000,0.000,0.000,0.000,0.000,0.000,0.000,0.000,3.142,0.002,0.001,0.999,1.571,1.572,4.092,6.280,1.200,4.712,0.000,0.000,1.188,-7.996,0.990,5.419,1.583,1.560,5.280,4.713,4.714,2.198,6.281,5.083,1.570,0.000,0.000,1.687,-8.421,0.990,5.418,1.579,1.564,
10.500,32.958,1.038,-8.678,0.814,-0.386,5.268,2.947,1.746,2.516,0.000,1.514,1.934,0.000,4.042,1.723,0.000,0.000,2.159,0.000,0.000,0.000,0.000,0.000,0.000,0.000,0.000,0.000,0.000,0.000,3.142,6.282,0.001,1.003,1.569,1.568,4.086,6.281,1.199,4.712,0.000,0.000,1.202,-8.023,0.990,5.467,1.577,1.564,5.281,4.711,4.710,2.198,6.282,5.083,1.570,0.000,0.000,1.680,-8.474,0.990,5.468,1.577,1.565,
10.600,33.058,1.024,-8.692,0.707,-0.003,5.017,2.640,2.243,2.398,4.640,1.652,1.920,0.000,4.335,1.839,0.000,0.000,2.264,0.000,0.000,0.000,0.000,0.000,0.000,0.000,0.000,0.000,0.000,0.000,3.142,6.279,0.000,1.006,1.568,1.567,4.081,6.282,1.199,4.712,0.000,0.000,1.256,-8.058,0.990,5.573,1.574,1.567,5.282,4.711,4.710,2.197,6.282,5.083,1.570,0.000,0.000,1.684,-8.556,0.991,5.574,1.576,1.567,
10.688,33.146,1.031,-8.686,0.596,0.138,5.054,3.794,2.306,2.292,4.997,1.977,1.958,3.618,4.256,2.473,0.000,0.000,2.404,0.000,0.000,0.000,0.000,0.000,0.000,0.000,0.000,0.000,0.000,0.000,3.142,6.280,0.001,1.004,1.569,1.568,4.085,6.281,1.199,4.712,0.000,0.000,1.333,-8.082,0.990,5.685,1.577,1.566,5.282,4.711,4.711,2.197,6.282,5.083,1.570,0.000,0.000,1.703,-8.625,0.991,5.686,1.576,1.567,
10.782,33.240,1.038,-8.681,0.483,0.003,5.331,4.548,2.409,2.222,0.000,4.316,2.023,2.774,0.000,2.716,2.430,0.000,2.510,0.000,0.000,0.000,0.000,0.000,0.000,0.000,0.000,0.000,0.000,0.000,3.142,6.282,0.001,1.003,1.569,1.569,4.086,6.281,1.199,4.712,0.000,0.000,1.407,-8.117,0.990,5.801,1.577,1.567,5.281,4.712,4.712,2.198,6.282,5.083,1.570,0.000,0.000,1.712,-8.698,0.990,5.801,1.576,1.568,
10.900,33.358,1.038,-8.681,0.395,0.177,5.336,0.000,2.522,2.193,2.543,0.000,1.844,2.364,0.000,2.975,2.010,0.000,2.580,0.000,0.000,0.000,0.000,0.000,0.000,0.000,0.000,0.000,0.000,0.000,3.142,6.278,0.000,1.006,1.568,1.566,4.080,6.281,1.199,4.712,0.000,0.000,1.453,-8.149,0.990,5.884,1.573,1.569,5.282,4.710,4.709,2.197,6.282,5.083,1.570,0.000,0.000,1.708,-8.754,0.991,5.885,1.576,1.568,
11.000,33.458,1.077,-8.665,0.349,0.847,5.953,0.000,2.575,2.169,2.624,0.000,1.780,2.267,0.000,3.083,1.775,0.000,2.650,0.000,0.000,0.000,0.000,0.000,0.000,0.000,0.000,0.000,0.000,0.000,3.142,6.277,6.283,1.008,1.568,1.567,4.076,6.282,1.199,4.712,0.000,0.000,1.514,-8.154,0.991,5.930,1.571,1.570,5.282,4.710,4.709,2.197,6.282,5.083,1.571,0.000,0.000,1.742,-8.769,0.991,5.931,1.575,1.569,
11.098,33.556,1.188,-8.625,0.322,1.412,5.747,0.000,2.574,2.126,2.698,0.000,1.839,2.371,0.000,3.009,1.751,0.000,2.685,0.000,0.000,0.000,0.000,0.000,0.000,0.000,0.000,0.000,0.000,0.000,3.142,6.279,0.000,1.006,1.567,1.565,4.081,6.282,1.199,4.712,0.000,0.000,1.641,-8.125,0.990,5.957,1.574,1.568,5.282,4.710,4.708,2.197,6.282,5.083,1.570,0.000,0.000,1.850,-8.747,0.990,5.957,1.576,1.568,
11.182,33.640,1.331,-8.580,0.268,1.012,5.997,0.000,2.619,2.080,2.538,0.000,1.881,2.438,0.000,2.987,1.624,0.000,2.755,0.000,0.000,0.000,0.000,0.000,0.000,0.000,0.000,0.000,0.000,0.000,3.142,0.001,0.001,1.002,1.571,1.571,4.089,6.280,1.200,4.712,0.000,0.000,1.813,-8.108,0.989,6.018,1.578,1.568,5.281,4.712,4.713,2.198,6.281,5.083,1.570,0.000,0.000,1.986,-8.740,0.990,6.017,1.576,1.569,
11.281,33.740,1.413,-8.557,0.264,0.806,6.267,0.000,2.598,2.058,2.504,0.000,1.959,2.558,0.000,2.857,1.672,0.000,2.755,0.000,0.000,0.000,0.000,0.000,0.000,0.000,0.000,0.000,0.000,0.000,3.142,6.282,0.000,1.004,1.569,1.569,4.085,6.281,1.199,4.712,0.000,0.000,1.895,-8.086,0.990,6.018,1.576,1.568,5.281,4.711,4.711,2.198,6.282,5.083,1.570,0.000,0.000,2.067,-8.719,0.990,6.018,1.576,1.569,
11.400,33.858,1.479,-8.539,0.265,0.968,6.268,0.000,2.575,2.040,2.483,0.000,2.028,2.664,0.000,2.737,1.619,0.000,2.755,0.000,0.000,0.000,0.000,0.000,0.000,0.000,0.000,0.000,0.000,0.000,3.142,6.281,0.000,1.005,1.569,1.568,4.083,6.281,1.199,4.712,0.000,0.000,1.961,-8.067,0.990,6.017,1.574,1.569,5.281,4.711,4.710,2.198,6.282,5.083,1.570,0.000,0.000,2.133,-8.700,0.990,6.017,1.576,1.569,
11.500,33.958,1.580,-8.512,0.265,1.120,6.268,0.000,2.540,2.012,2.450,0.000,2.133,2.827,0.000,2.554,1.511,0.000,2.791,0.000,0.000,0.000,0.000,0.000,0.000,0.000,0.000,0.000,0.000,0.000,3.142,6.282,0.000,1.004,1.569,1.569,4.084,6.281,1.199,4.712,0.000,0.000,2.062,-8.040,0.990,6.017,1.575,1.569,5.281,4.711,4.711,2.198,6.282,5.083,1.570,0.000,0.000,2.235,-8.673,0.990,6.017,1.576,1.569,
11.600,34.058,1.683,-8.484,0.265,1.031,6.266,0.000,1.977,1.984,2.416,0.000,2.241,2.994,0.000,2.367,1.509,0.000,2.791,0.000,0.000,0.000,0.000,0.000,0.000,0.000,0.000,0.000,0.000,0.000,3.142,6.283,0.001,1.003,1.569,1.569,4.086,6.281,1.199,4.712,0.000,0.000,2.166,-8.012,0.990,6.018,1.576,1.568,5.281,4.711,4.712,2.198,6.282,5.083,1.570,0.000,0.000,2.338,-8.645,0.990,6.018,1.576,1.569,
11.700,34.158,1.777,-8.458,0.266,0.955,6.268,0.000,1.914,1.959,2.386,0.000,2.339,3.145,0.000,2.198,1.585,0.000,2.896,0.000,0.000,0.000,0.000,0.000,0.000,0.000,0.000,0.000,0.000,0.000,3.142,6.282,0.000,1.004,1.569,1.569,4.085,6.281,1.199,4.712,0.000,0.000,2.259,-7.987,0.990,6.017,1.576,1.568,5.281,4.711,4.711,2.198,6.282,5.083,1.570,0.000,0.000,2.431,-8.619,0.990,6.017,1.576,1.569,
11.800,34.258,1.869,-8.433,0.266,1.003,6.267,0.000,2.439,1.934,2.356,0.000,2.435,3.294,0.000,1.316,1.660,0.000,2.896,0.000,0.000,0.000,0.000,0.000,0.000,0.000,0.000,0.000,0.000,0.000,3.142,6.282,0.000,1.004,1.569,1.569,4.084,6.281,1.199,4.712,0.000,0.000,2.351,-7.961,0.990,6.016,1.575,1.569,5.281,4.711,4.711,2.198,6.282,5.083,1.570,0.000,0.000,2.524,-8.594,0.990,6.016,1.576,1.569,
11.882,34.340,1.967,-8.407,0.266,1.041,6.267,0.000,2.405,1.907,2.324,0.000,2.537,3.452,0.000,1.140,1.740,0.000,2.931,0.000,0.000,0.000,0.000,0.000,0.000,0.000,0.000,0.000,0.000,0.000,3.142,6.282,0.000,1.004,1.569,1.569,4.085,6.281,1.199,4.712,0.000,0.000,2.448,-7.934,0.990,6.016,1.576,1.569,5.281,4.711,4.711,2.198,6.282,5.083,1.570,0.000,0.000,2.621,-8.567,0.990,6.016,1.576,1.569,
12.000,34.458,2.084,-8.375,0.267,1.009,6.267,0.000,2.364,1.875,2.286,0.000,2.659,3.642,0.000,0.930,1.835,0.000,2.931,0.000,0.000,0.000,0.000,0.000,0.000,0.000,0.000,0.000,0.000,0.000,3.142,6.282,0.000,1.004,1.569,1.569,4.085,6.281,1.199,4.712,0.000,0.000,2.565,-7.902,0.990,6.016,1.576,1.568,5.281,4.711,4.711,2.198,6.282,5.083,1.570,0.000,0.000,2.738,-8.535,0.990,6.016,1.576,1.569,
12.084,34.543,2.160,-8.354,0.267,0.997,6.266,0.000,2.337,1.855,2.261,0.000,2.739,3.765,0.000,0.935,1.898,0.000,2.931,0.000,0.000,0.000,0.000,0.000,0.000,0.000,0.000,0.000,0.000,0.000,3.142,6.282,0.000,1.004,1.569,1.569,4.085,6.281,1.199,4.712,0.000,0.000,2.641,-7.881,0.990,6.016,1.576,1.569,5.281,4.711,4.711,2.198,6.282,5.083,1.570,0.000,0.000,2.814,-8.514,0.990,6.016,1.576,1.569,
12.200,34.658,2.274,-8.323,0.260,1.014,5.909,0.000,2.310,1.824,1.700,0.000,2.837,3.914,0.000,0.968,1.951,0.000,2.931,0.000,0.000,0.000,0.000,0.000,0.000,0.000,0.000,0.000,0.000,0.000,3.142,6.281,0.001,1.005,1.568,1.567,4.084,6.281,1.199,4.712,0.000,0.000,2.758,-7.852,0.990,6.020,1.575,1.568,5.281,4.710,4.709,2.197,6.282,5.083,1.570,0.000,0.000,2.927,-8.486,0.990,6.020,1.576,1.568,
12.294,34.752,2.351,-8.303,0.210,1.021,5.372,0.000,2.381,1.808,2.117,0.000,2.958,3.806,0.000,0.962,1.771,0.000,3.001,0.000,0.000,0.000,0.000,0.000,0.000,0.000,0.000,0.000,0.000,0.000,3.142,6.281,0.001,1.004,1.568,1.566,4.085,6.281,1.199,4.712,0.000,0.000,2.859,-7.857,0.990,6.070,1.576,1.568,5.281,4.711,4.709,2.197,6.282,5.083,1.570,0.000,0.000,2.996,-8.499,0.990,6.071,1.576,1.569,
12.400,34.858,2.470,-8.280,0.156,1.011,6.253,0.000,2.470,1.796,2.026,3.207,3.277,3.761,0.000,0.958,1.625,0.000,3.036,0.000,0.000,0.000,0.000,0.000,0.000,0.000,0.000,0.000,0.000,0.000,3.142,6.282,0.000,1.004,1.570,1.571,4.085,6.281,1.199,4.712,0.000,0.000,3.001,-7.865,0.990,6.130,1.576,1.570,5.282,4.712,4.713,2.198,6.281,5.083,1.571,0.000,0.000,3.103,-8.513,0.991,6.129,1.575,1.570,
12.499,34.957,2.548,-8.268,0.156,1.004,6.262,0.000,2.452,1.784,2.013,3.476,3.354,3.874,0.000,0.973,1.655,0.000,3.036,0.000,0.000,0.000,0.000,0.000,0.000,0.000,0.000,0.000,0.000,0.000,3.142,6.283,0.000,1.004,1.569,1.569,4.085,6.281,1.199,4.712,0.000,0.000,3.079,-7.852,0.990,6.127,1.576,1.569,5.281,4.711,4.711,2.198,6.282,5.083,1.570,0.000,0.000,3.181,-8.500,0.990,6.127,1.575,1.569,
12.590,35.049,2.665,-8.249,0.157,1.013,6.262,0.000,2.424,1.765,1.992,3.605,3.470,4.043,0.000,0.847,1.699,0.000,3.071,0.000,0.000,0.000,0.000,0.000,0.000,0.000,0.000,0.000,0.000,0.000,3.142,6.282,0.000,1.004,1.569,1.569,4.085,6.281,1.199,4.712,0.000,0.000,3.196,-7.833,0.990,6.126,1.576,1.569,5.281,4.711,4.711,2.198,6.282,5.083,1.570,0.000,0.000,3.298,-8.481,0.990,6.126,1.575,1.569,
12.700,35.158,2.764,-8.234,0.157,1.015,6.264,0.000,2.401,1.304,1.975,3.712,3.567,4.186,0.907,0.865,1.632,0.000,3.071,0.000,0.000,0.000,0.000,0.000,0.000,0.000,0.000,0.000,0.000,0.000,3.142,6.282,0.000,1.004,1.569,1.569,4.085,6.281,1.199,4.712,0.000,0.000,3.294,-7.817,0.990,6.126,1.576,1.569,5.281,4.711,4.711,2.198,6.282,5.083,1.570,0.000,0.000,3.397,-8.465,0.990,6.125,1.575,1.569,
12.800,35.258,2.843,-8.221,0.157,1.012,6.238,0.000,2.384,1.736,1.961,3.800,3.647,4.297,0.919,0.879,1.651,0.000,3.071,0.000,0.000,0.000,0.000,0.000,0.000,0.000,0.000,0.000,0.000,0.000,3.142,6.282,0.000,1.004,1.569,1.569,4.084,6.281,1.199,4.712,0.000,0.000,3.373,-7.804,0.990,6.125,1.575,1.569,5.281,4.711,4.711,2.197,6.282,5.083,1.570,0.000,0.000,3.476,-8.452,0.990,6.125,1.576,1.569,
12.900,35.358,2.941,-8.206,0.124,1.010,5.602,0.000,2.443,1.730,1.910,3.745,3.910,4.294,0.940,0.881,1.579,0.000,3.106,0.000,0.000,0.000,0.000,0.000,0.000,0.000,0.000,0.000,0.000,0.000,3.142,6.281,0.001,1.004,1.568,1.567,4.084,6.281,1.199,4.712,0.000,0.000,3.484,-7.805,0.990,6.156,1.575,1.569,5.281,4.710,4.709,2.197,6.282,5.083,1.570,0.000,0.000,3.566,-8.457,0.990,6.157,1.576,1.569,
12.995,35.453,3.040,-8.195,0.079,1.012,6.039,0.000,2.546,1.733,1.858,3.427,0.000,4.256,0.960,0.875,1.481,0.000,3.142,0.000,0.000,0.000,0.000,0.000,0.000,0.000,0.000,0.000,0.000,0.000,3.142,6.282,0.000,1.004,1.570,1.570,4.085,6.281,1.199,4.712,0.000,0.000,3.601,-7.821,0.990,6.205,1.576,1.570,5.282,4.711,4.712,2.198,6.281,5.083,1.570,0.000,0.000,3.654,-8.475,0.991,6.205,1.575,1.570,
13.100,35.558,3.159,-8.186,0.076,1.010,6.223,0.000,1.951,1.725,1.845,3.390,0.000,4.401,0.970,0.884,0.000,0.000,3.142,0.000,0.000,0.000,0.000,0.000,0.000,0.000,0.000,0.000,0.000,0.000,3.142,6.282,0.000,1.004,1.569,1.568,4.084,6.281,1.199,4.712,0.000,0.000,3.721,-7.813,0.990,6.206,1.575,1.569,5.281,4.711,4.710,2.197,6.282,5.083,1.570,0.000,0.000,3.772,-8.467,0.990,6.206,1.576,1.570,
13.193,35.652,3.238,-8.180,0.050,1.012,5.516,0.000,1.923,1.729,1.818,2.390,0.000,4.410,0.848,0.881,0.000,0.000,3.142,0.000,0.000,0.000,0.000,0.000,0.000,0.000,0.000,0.000,0.000,0.000,3.142,6.280,0.001,1.005,1.568,1.565,4.084,6.282,1.199,4.711,0.000,0.000,3.810,-7.819,0.990,6.228,1.575,1.569,5.281,4.710,4.708,2.197,6.282,5.083,1.570,0.000,0.000,3.844,-8.475,0.990,6.229,1.576,1.569,
13.281,35.740,3.358,-8.177,6.256,1.015,5.891,0.000,2.877,1.765,1.299,2.870,0.000,4.306,0.871,0.861,1.292,0.000,3.142,0.000,0.000,0.000,0.000,0.000,0.000,0.000,0.000,0.000,0.000,0.000,3.142,6.282,0.000,1.004,1.570,1.570,4.085,6.281,1.199,4.712,0.000,0.000,3.956,-7.865,0.990,0.028,1.576,1.570,5.282,4.712,4.712,2.198,6.281,5.083,1.571,0.000,0.000,3.938,-8.521,0.991,0.028,1.575,1.570,
13.400,35.858,3.438,-8.179,6.250,1.009,6.267,0.000,2.905,1.771,1.763,2.851,0.000,4.385,0.871,0.857,0.000,0.000,3.142,0.000,0.000,0.000,0.000,0.000,0.000,0.000,0.000,0.000,0.000,0.000,3.142,6.282,0.000,1.004,1.569,1.569,4.085,6.281,1.199,4.712,0.000,0.000,4.037,-7.870,0.990,0.033,1.576,1.570,5.281,4.711,4.711,2.198,6.282,5.083,1.570,0.000,0.000,4.016,-8.526,0.990,0.033,1.575,1.570,
13.489,35.947,3.537,-8.182,6.251,1.009,6.263,0.000,2.908,1.774,1.766,2.859,0.000,4.507,0.867,0.854,0.000,0.000,3.142,0.000,0.000,0.000,0.000,0.000,0.000,0.000,0.000,0.000,0.000,0.000,3.142,6.282,0.000,1.004,1.569,1.569,4.085,6.281,1.199,4.712,0.000,0.000,4.136,-7.873,0.990,0.032,1.576,1.570,5.281,4.711,4.711,2.198,6.282,5.083,1.570,0.000,0.000,4.115,-8.529,0.990,0.032,1.575,1.570,
13.600,36.058,3.656,-8.186,6.251,1.014,6.263,0.000,2.912,1.777,1.771,2.868,0.000,4.654,0.863,0.850,0.000,0.000,3.142,0.000,0.000,0.000,0.000,0.000,0.000,0.000,0.000,0.000,0.000,0.000,3.142,6.282,0.000,1.004,1.569,1.569,4.085,6.281,1.199,4.712,0.000,0.000,4.255,-7.876,0.990,0.031,1.576,1.570,5.281,4.711,4.711,2.198,6.282,5.083,1.570,0.000,0.000,4.235,-8.532,0.990,0.031,1.575,1.570,
13.700,36.158,3.756,-8.189,6.252,1.013,6.264,0.000,2.915,1.780,1.775,2.876,0.000,4.777,0.859,0.847,0.000,0.000,3.142,0.000,0.000,0.000,0.000,0.000,0.000,0.000,0.000,0.000,0.000,0.000,3.142,6.282,0.000,1.004,1.569,1.569,4.085,6.281,1.199,4.712,0.000,0.000,4.355,-7.879,0.990,0.031,1.576,1.570,5.281,4.711,4.711,2.198,6.282,5.083,1.570,0.000,0.000,4.335,-8.535,0.990,0.031,1.575,1.570,
13.792,36.251,3.835,-8.192,6.252,1.011,6.264,0.000,2.917,1.782,1.777,2.882,0.000,4.875,0.857,0.844,4.711,0.000,3.142,0.000,0.000,0.000,0.000,0.000,0.000,0.000,0.000,0.000,0.000,0.000,3.142,6.282,0.000,1.004,1.569,1.569,4.085,6.281,1.199,4.712,0.000,0.000,4.434,-7.881,0.990,0.030,1.576,1.570,5.281,4.711,4.711,2.198,6.282,5.083,1.570,0.000,0.000,4.414,-8.537,0.990,0.030,1.575,1.570,
13.900,36.358,3.955,-8.195,6.253,1.011,6.265,0.000,2.921,1.786,1.782,2.890,0.000,0.000,0.853,0.841,2.890,0.000,3.142,0.000,0.000,0.000,0.000,0.000,0.000,0.000,0.000,0.000,0.000,0.000,3.142,6.282,0.000,1.004,1.569,1.569,4.085,6.281,1.199,4.712,0.000,0.000,4.553,-7.885,0.990,0.030,1.576,1.570,5.281,4.711,4.711,2.198,6.282,5.083,1.570,0.000,0.000,4.534,-8.540,0.990,0.030,1.575,1.570,
14.000,36.458,4.034,-8.198,6.253,1.012,6.265,4.966,2.924,1.788,1.784,2.896,0.000,1.646,0.850,0.786,2.789,0.000,3.142,0.000,0.000,0.000,0.000,0.000,0.000,0.000,0.000,0.000,0.000,0.000,3.142,6.282,0.000,1.004,1.569,1.569,4.085,6.281,1.199,4.712,0.000,0.000,4.633,-7.887,0.990,0.029,1.576,1.570,5.281,4.711,4.711,2.198,6.282,5.083,1.570,0.000,0.000,4.614,-8.542,0.990,0.029,1.575,1.570,
14.100,36.558,4.134,-8.201,6.254,1.012,6.265,4.866,3.725,1.791,1.788,2.903,0.000,1.640,0.847,0.783,2.563,0.000,3.142,0.000,0.000,0.000,0.000,0.000,0.000,0.000,0.000,0.000,0.000,0.000,3.142,6.282,0.000,1.004,1.569,1.569,4.085,6.281,1.199,4.712,0.000,0.000,4.732,-7.889,0.990,0.029,1.576,1.570,5.281,4.711,4.711,2.198,6.282,5.083,1.570,0.000,0.000,4.713,-8.545,0.990,0.029,1.575,1.570,
14.200,36.658,4.253,-8.204,6.254,1.011,6.265,4.747,3.618,1.330,1.792,2.911,0.000,1.403,0.843,0.000,2.413,0.000,3.142,0.000,0.000,0.000,0.000,0.000,0.000,0.000,0.000,0.000,0.000,0.000,3.142,6.282,0.000,1.004,1.569,1.569,4.085,6.281,1.199,4.712,0.000,0.000,4.851,-7.892,0.990,0.028,1.576,1.570,5.281,4.711,4.711,2.198,6.282,5.083,1.570,0.000,0.000,4.833,-8.548,0.990,0.028,1.575,1.570,
14.300,36.758,4.353,-8.207,6.255,1.012,6.265,4.648,0.000,1.797,1.795,2.918,0.000,1.397,0.840,0.000,1.563,0.000,3.142,0.000,0.000,0.000,0.000,0.000,0.000,0.000,0.000,0.000,0.000,0.000,3.142,6.282,0.000,1.004,1.569,1.569,4.085,6.281,1.199,4.712,0.000,0.000,4.951,-7.895,0.990,0.028,1.576,1.570,5.281,4.711,4.711,2.198,6.282,5.083,1.570,0.000,0.000,4.933,-8.551,0.990,0.028,1.575,1.570,
14.400,36.858,4.432,-8.209,6.255,1.012,6.265,4.568,0.000,1.799,1.797,2.923,0.000,1.392,0.837,0.000,1.464,0.000,3.142,0.000,0.000,0.000,0.000,0.000,0.000,0.000,0.000,0.000,0.000,0.000,3.142,6.282,0.000,1.004,1.569,1.569,4.085,6.281,1.199,4.712,0.000,0.000,5.030,-7.897,0.990,0.028,1.576,1.570,5.281,4.711,4.711,2.198,6.282,5.083,1.570,0.000,0.000,5.012,-8.553,0.990,0.027,1.575,1.570,
14.497,36.955,4.552,-8.213,6.253,1.012,6.100,4.449,2.232,1.804,1.800,2.920,0.000,1.391,0.781,0.000,1.317,0.000,3.142,0.000,0.000,0.000,0.000,0.000,0.000,0.000,0.000,0.000,0.000,0.000,3.142,6.281,0.001,1.004,1.568,1.568,4.084,6.281,1.199,4.712,0.000,0.000,5.150,-7.901,0.990,0.028,1.575,1.570,5.281,4.710,4.710,2.197,6.282,5.083,1.570,0.000,0.000,5.131,-8.556,0.990,0.028,1.576,1.570,
14.584,37.042,4.651,-8.216,6.196,1.013,5.149,3.156,0.000,1.846,1.774,2.116,0.000,1.513,0.795,0.000,1.248,0.000,3.142,0.000,0.000,0.000,0.000,0.000,0.000,0.000,0.000,0.000,0.000,0.000,3.142,6.280,0.001,1.005,1.568,1.565,4.084,6.282,1.199,4.711,0.000,0.000,5.267,-7.937,0.990,0.082,1.575,1.569,5.281,4.710,4.708,2.197,6.282,5.083,1.570,0.000,0.000,5.210,-8.592,0.990,0.083,1.576,1.570,
14.700,37.158,4.746,-8.227,6.079,0.752,5.015,3.109,4.713,1.961,1.743,2.404,0.000,1.867,0.830,4.707,1.257,0.000,3.142,0.000,0.000,0.000,0.000,0.000,0.000,0.000,0.000,0.000,0.000,0.000,3.142,0.000,0.001,1.001,1.570,1.569,4.091,6.280,1.199,4.712,0.000,0.000,5.391,-8.025,0.989,0.205,1.579,1.571,5.281,4.712,4.712,2.198,6.281,5.083,1.570,0.000,0.000,5.256,-8.668,0.990,0.206,1.575,1.571,
14.794,37.253,4.770,-8.231,6.007,-0.090,5.446,3.003,0.000,2.051,1.292,2.258,0.000,0.000,0.862,4.000,0.000,0.000,3.142,0.000,0.000,0.000,0.000,0.000,0.000,0.000,0.000,0.000,0.000,0.000,3.142,0.002,0.001,0.998,1.571,1.573,4.094,6.279,1.200,4.712,0.000,0.000,5.429,-8.079,0.989,0.282,1.580,1.573,5.280,4.712,4.715,2.198,6.280,5.083,1.570,0.000,0.000,5.247,-8.709,0.990,0.281,1.576,1.572,
14.900,37.358,4.733,-8.219,5.910,-0.343,5.228,2.241,0.000,2.181,1.720,2.083,3.676,0.000,1.005,3.942,0.000,0.000,1.141,0.000,0.000,0.000,0.000,0.000,0.000,0.000,0.000,0.000,0.000,0.000,3.142,6.281,0.000,1.004,1.569,1.568,4.084,6.281,1.199,4.712,0.000,0.000,5.402,-8.127,0.990,0.372,1.575,1.571,5.281,4.711,4.711,2.198,6.282,5.083,1.570,0.000,0.000,5.163,-8.738,0.991,0.372,1.575,1.571,
14.997,37.455,4.722,-8.214,5.832,0.010,5.187,1.870,0.000,2.323,1.724,1.978,3.930,0.000,1.083,4.097,0.000,0.000,1.211,0.000,0.000,0.000,0.000,0.000,0.000,0.000,0.000,0.000,0.000,0.000,3.142,6.279,0.000,1.006,1.568,1.567,4.081,6.281,1.199,4.712,0.000,0.000,5.395,-8.173,0.990,0.448,1.574,1.571,5.282,4.711,4.710,2.197,6.282,5.083,1.570,0.000,0.000,5.110,-8.765,0.991,0.449,1.575,1.572,
15.092,37.550,4.731,-8.219,5.730,0.146,5.101,1.531,4.289,3.261,1.758,1.883,3.271,0.000,1.198,4.806,0.000,0.000,1.316,0.000,0.000,0.000,0.000,0.000,0.000,0.000,0.000,0.000,0.000,0.000,3.142,6.280,0.001,1.004,1.569,1.568,4.085,6.281,1.199,4.712,0.000,0.000,5.405,-8.248,0.990,0.551,1.576,1.573,5.282,4.711,4.710,2.197,6.282,5.083,1.570,0.000,0.000,5.061,-8.806,0.991,0.552,1.576,1.573,
15.185,37.643,4.738,-8.223,5.614,0.005,5.281,1.198,4.263,0.000,1.820,1.807,2.778,0.000,1.387,0.959,0.000,0.000,1.422,0.000,0.000,0.000,0.000,0.000,0.000,0.000,0.000,0.000,0.000,0.000,3.142,6.282,0.001,1.003,1.570,1.569,4.086,6.281,1.199,4.712,0.000,0.000,5.404,-8.331,0.990,0.669,1.578,1.574,5.281,4.712,4.712,2.198,6.282,5.083,1.570,0.000,0.000,4.997,-8.846,0.990,0.670,1.576,1.574,
15.295,37.753,4.736,-8.221,5.525,-0.058,5.213,1.177,3.083,4.923,1.881,1.762,2.502,0.000,1.609,0.804,0.000,0.000,1.527,0.000,0.000,0.000,0.000,0.000,0.000,0.000,0.000,0.000,0.000,0.000,3.142,6.281,0.001,1.004,1.569,1.568,4.085,6.281,1.199,4.712,0.000,0.000,5.390,-8.387,0.990,0.757,1.577,1.574,5.281,4.711,4.711,2.198,6.282,5.083,1.570,0.000,0.000,4.939,-8.863,0.990,0.758,1.577,1.574,
15.400,37.858,4.733,-8.218,5.431,0.000,5.197,2.280,3.131,4.693,1.969,1.731,2.284,0.000,2.278,0.846,4.707,0.000,1.597,0.000,0.000,0.000,0.000,0.000,0.000,0.000,0.000,0.000,0.000,0.000,3.142,6.280,0.000,1.004,1.569,1.568,4.084,6.281,1.199,4.712,0.000,0.000,5.369,-8.445,0.990,0.850,1.577,1.575,5.281,4.711,4.711,2.198,6.282,5.083,1.570,0.000,0.000,4.876,-8.877,0.990,0.851,1.577,1.575,
15.500,37.958,4.734,-8.219,5.355,0.018,5.139,0.000,2.833,0.000,2.064,1.279,2.147,0.000,0.000,0.888,3.829,0.000,1.667,0.000,0.000,0.000,0.000,0.000,0.000,0.000,0.000,0.000,0.000,0.000,3.142,6.281,0.001,1.004,1.569,1.568,4.085,6.281,1.199,4.712,0.000,0.000,5.351,-8.493,0.990,0.927,1.579,1.576,5.282,4.711,4.711,2.198,6.282,5.083,1.570,0.000,0.000,4.825,-8.887,0.991,0.928,1.578,1.576,
15.600,38.058,4.735,-8.220,5.257,0.010,5.197,0.000,2.120,0.000,2.219,1.723,2.012,4.480,0.000,1.020,3.974,0.000,1.773,0.000,0.000,0.000,0.000,0.000,0.000,0.000,0.000,0.000,0.000,0.000,3.142,6.281,0.001,1.004,1.569,1.569,4.085,6.281,1.199,4.712,0.000,0.000,5.322,-8.554,0.990,1.025,1.580,1.578,5.281,4.711,4.711,2.198,6.282,5.083,1.570,0.000,0.000,4.761,-8.894,0.990,1.026,1.579,1.577,
15.687,38.145,4.749,-8.245,5.183,0.649,5.914,0.000,1.734,0.000,2.402,1.759,1.958,3.867,0.000,1.057,4.089,0.000,1.878,0.000,0.000,0.000,0.000,0.000,0.000,0.000,0.000,0.000,0.000,0.000,3.142,6.277,6.283,1.008,1.568,1.567,4.077,6.281,1.198,4.712,0.000,0.000,5.309,-8.618,0.990,1.098,1.572,1.571,5.283,4.710,4.710,2.197,6.282,5.083,1.571,0.000,0.000,4.726,-8.918,0.991,1.098,1.578,1.577,
15.799,38.257,4.795,-8.336,5.174,1.351,6.260,0.000,1.495,4.217,0.000,1.853,2.050,3.993,0.000,0.939,3.995,0.000,1.913,0.000,0.000,0.000,0.000,0.000,0.000,0.000,0.000,0.000,0.000,0.000,3.142,6.280,6.283,1.006,1.568,1.567,4.080,6.281,1.199,4.712,0.000,0.000,5.353,-8.715,0.990,1.106,1.575,1.574,5.281,4.710,4.709,2.198,6.282,5.083,1.570,0.000,0.000,4.766,-9.009,0.990,1.107,1.581,1.579,
15.891,38.349,4.866,-8.477,5.174,1.133,6.264,0.000,1.179,4.196,2.166,1.995,2.209,4.306,0.000,0.668,3.815,0.000,1.983,0.000,0.000,0.000,0.000,0.000,0.000,0.000,0.000,0.000,0.000,0.000,3.142,0.001,0.001,1.002,1.570,1.571,4.089,6.281,1.200,4.712,0.000,0.000,5.422,-8.860,0.989,1.111,1.586,1.584,5.281,4.712,4.713,2.198,6.282,5.083,1.570,0.000,0.000,4.834,-9.151,0.990,1.110,1.581,1.580,
15.993,38.451,4.907,-8.559,5.175,0.807,6.264,0.000,0.882,4.155,0.000,2.078,2.301,4.490,0.000,0.697,3.710,0.000,2.018,0.000,0.000,0.000,0.000,0.000,0.000,0.000,0.000,0.000,0.000,0.000,3.142,0.000,0.001,1.003,1.570,1.570,4.087,6.281,1.199,4.712,0.000,0.000,5.463,-8.940,0.990,1.109,1.583,1.581,5.281,4.712,4.712,2.198,6.282,5.083,1.570,0.000,0.000,4.876,-9.233,0.990,1.109,1.581,1.579,
16.090,38.548,4.936,-8.618,5.175,0.905,6.265,0.000,0.750,4.126,3.217,2.137,2.367,4.622,0.000,0.739,3.635,0.000,2.018,0.000,0.000,0.000,0.000,0.000,0.000,0.000,0.000,0.000,0.000,0.000,3.142,6.281,0.000,1.005,1.569,1.568,4.083,6.281,1.199,4.712,0.000,0.000,5.493,-8.997,0.990,1.107,1.579,1.577,5.281,4.711,4.710,2.198,6.282,5.083,1.570,0.000,0.000,4.907,-9.291,0.990,1.107,1.581,1.579,
16.200,38.658,4.990,-8.727,5.150,1.119,5.536,0.000,0.694,4.054,0.000,2.256,2.459,4.637,0.000,0.991,3.546,0.000,2.089,0.000,0.000,0.000,0.000,0.000,0.000,0.000,0.000,0.000,0.000,0.000,3.142,6.280,0.001,1.005,1.567,1.565,4.083,6.282,1.199,4.711,0.000,0.000,5.540,-9.120,0.990,1.128,1.580,1.578,5.281,4.710,4.708,2.197,6.282,5.083,1.570,0.000,0.000,4.946,-9.399,0.990,1.128,1.583,1.580,
16.300,38.758,5.027,-8.807,5.073,1.064,4.942,0.000,1.367,2.780,0.000,2.372,2.465,4.218,0.000,0.986,4.229,0.000,2.194,0.000,0.000,0.000,0.000,0.000,0.000,0.000,0.000,0.000,0.000,0.000,3.142,6.280,0.001,1.004,1.568,1.566,4.086,6.281,1.199,4.712,0.000,0.000,5.544,-9.241,0.989,1.207,1.586,1.583,5.282,4.711,4.709,2.197,6.282,5.083,1.570,0.000,0.000,4.930,-9.473,0.991,1.208,1.583,1.581,
16.395,38.854,5.059,-8.900,4.955,0.960,5.063,0.000,1.549,2.134,4.727,2.559,2.472,3.742,0.000,0.919,3.969,0.000,2.334,0.000,0.000,0.000,0.000,0.000,0.000,0.000,0.000,0.000,0.000,0.000,3.142,6.281,0.001,1.004,1.569,1.568,4.086,6.281,1.199,4.712,0.000,0.000,5.521,-9.393,0.990,1.327,1.593,1.591,5.282,4.711,4.711,2.197,6.282,5.083,1.570,0.000,0.000,4.883,-9.551,0.991,1.328,1.587,1.585,
16.488,38.947,5.083,-9.012,4.848,1.006,5.407,0.000,0.000,0.527,0.000,2.806,2.535,3.489,0.000,0.904,3.178,0.000,2.475,0.000,0.000,0.000,0.000,0.000,0.000,0.000,0.000,0.000,0.000,0.000,3.142,6.280,0.000,1.005,1.569,1.568,4.084,6.281,1.199,4.712,0.000,0.000,5.489,-9.551,0.990,1.434,1.604,1.602,5.282,4.711,4.710,2.197,6.282,5.083,1.570,0.000,0.000,4.839,-9.640,0.991,1.434,1.602,1.601,
16.600,39.058,5.095,-9.113,4.770,1.045,5.350,3.798,4.456,1.119,0.000,2.530,2.618,3.387,0.000,0.911,2.797,0.000,2.510,0.000,0.000,0.000,0.000,0.000,0.000,0.000,0.000,0.000,0.000,0.000,3.142,6.281,0.001,1.004,1.569,1.567,4.085,6.281,1.199,4.712,0.000,0.000,5.459,-9.682,0.990,1.510,1.649,1.648,5.282,4.711,4.710,2.197,6.282,5.083,1.570,0.000,0.000,4.803,-9.721,0.990,1.511,1.646,1.644,
16.691,39.150,5.099,-9.195,4.701,1.022,5.261,3.705,4.117,1.136,0.534,0.000,2.695,3.313,0.721,0.905,2.530,0.000,2.580,0.000,0.000,0.000,0.000,0.000,0.000,0.000,0.000,0.000,0.000,0.000,3.142,6.281,0.001,1.004,1.569,1.567,4.085,6.281,1.199,4.712,0.000,0.000,5.423,-9.787,0.990,1.561,4.197,4.195,5.282,4.711,4.710,2.197,6.282,5.083,1.570,0.000,0.000,4.766,-9.781,0.991,1.560,4.273,4.272,
16.784,39.242,5.094,-9.313,4.612,0.997,5.875,2.733,4.421,1.179,0.683,0.000,2.828,3.263,0.741,0.902,2.475,0.000,2.685,0.000,0.000,0.000,0.000,0.000,0.000,0.000,0.000,0.000,0.000,0.000,3.142,6.282,0.000,1.004,1.570,1.570,4.085,6.281,1.199,4.712,0.000,0.000,5.361,-9.933,0.990,1.468,4.664,4.663,5.282,4.712,4.712,2.198,6.281,5.083,1.571,0.000,0.000,4.708,-9.867,0.991,1.468,4.673,4.672,
16.900,39.358,5.084,-9.411,4.606,1.010,6.270,2.642,4.480,1.280,1.331,0.000,2.928,3.366,0.731,0.952,2.356,0.000,2.720,0.000,0.000,0.000,0.000,0.000,0.000,0.000,0.000,0.000,0.000,0.000,3.142,6.283,0.000,1.004,1.569,1.569,4.085,6.281,1.199,4.712,0.000,0.000,5.349,-10.032,0.990,1.465,4.667,4.666,5.281,4.711,4.711,2.198,6.282,5.083,1.570,0.000,0.000,4.696,-9.963,0.990,1.465,4.671,4.671,
16.993,39.452,5.074,-9.511,4.607,1.019,6.262,2.542,4.494,2.737,1.143,0.000,3.028,3.482,0.747,1.008,2.222,0.000,2.720,0.000,0.000,0.000,0.000,0.000,0.000,0.000,0.000,0.000,0.000,0.000,3.142,6.283,0.000,1.004,1.569,1.569,4.085,6.281,1.199,4.712,0.000,0.000,5.339,-10.131,0.990,1.465,4.667,4.666,5.281,4.711,4.711,2.198,6.282,5.083,1.570,0.000,0.000,4.686,-10.062,0.990,1.466,4.671,4.670,
17.100,39.558,5.063,-9.610,4.608,1.013,6.262,2.442,4.509,4.356,1.153,0.839,3.127,3.599,0.788,1.064,2.195,0.000,2.755,0.000,0.000,0.000,0.000,0.000,0.000,0.000,0.000,0.000,0.000,0.000,3.142,6.283,0.000,1.003,1.569,1.569,4.085,6.281,1.199,4.712,0.000,0.000,5.329,-10.231,0.990,1.466,4.666,4.665,5.281,4.711,4.711,2.198,6.282,5.083,1.570,0.000,0.000,4.676,-10.162,0.990,1.466,4.670,4.670,
17.200,39.658,5.055,-9.689,4.608,1.008,6.263,2.362,4.521,0.000,1.162,0.852,3.207,3.692,0.820,1.108,2.183,0.000,2.755,0.000,0.000,0.000,0.000,0.000,0.000,0.000,0.000,0.000,0.000,0.000,3.142,6.283,0.000,1.004,1.569,1.569,4.085,6.281,1.199,4.712,0.000,0.000,5.321,-10.309,0.990,1.467,4.666,4.665,5.281,4.711,4.711,2.198,6.282,5.083,1.570,0.000,0.000,4.668,-10.241,0.990,1.467,4.670,4.669,
17.290,39.748,5.045,-9.788,4.624,1.010,0.621,2.247,4.424,0.000,1.177,0.885,3.301,3.842,0.863,1.181,2.209,0.000,2.755,0.000,0.000,0.000,0.000,0.000,0.000,0.000,0.000,0.000,0.000,0.000,3.142,0.001,0.000,1.003,1.571,1.572,4.086,6.281,1.199,4.712,0.000,0.000,5.318,-10.404,0.990,1.479,4.657,4.657,5.281,4.712,4.714,2.199,6.281,5.083,1.571,0.000,0.000,4.665,-10.346,0.991,1.480,4.675,4.675,
17.400,39.858,5.038,-9.908,4.745,1.013,1.439,2.996,3.749,4.185,1.232,1.059,3.409,1.011,0.938,2.068,2.583,0.000,2.650,0.000,0.000,0.000,0.000,0.000,0.000,0.000,0.000,0.000,0.000,0.000,3.142,0.002,0.000,1.003,1.571,1.571,4.085,6.282,1.199,4.712,0.000,0.000,5.384,-10.486,0.990,1.539,1.716,1.715,5.282,4.713,4.713,2.198,6.282,5.083,1.571,0.000,0.000,4.728,-10.507,0.991,1.540,1.669,1.668,
17.500,39.958,5.042,-9.988,4.840,1.018,1.175,4.964,3.524,3.575,1.281,0.000,3.071,0.994,1.012,2.158,3.042,0.000,2.545,0.000,0.000,0.000,0.000,0.000,0.000,0.000,0.000,0.000,0.000,0.000,3.142,0.001,0.000,1.003,1.570,1.569,4.085,6.282,1.199,4.712,0.000,0.000,5.443,-10.530,0.990,1.442,1.605,1.604,5.282,4.712,4.712,2.198,6.283,5.083,1.570,0.000,0.000,4.791,-10.614,0.991,1.443,1.597,1.596,
17.596,40.054,5.057,-10.087,4.922,1.020,0.813,4.184,3.696,4.041,1.324,4.078,3.667,1.037,1.115,2.150,3.060,0.000,2.510,0.000,0.000,0.000,0.000,0.000,0.000,0.000,0.000,0.000,0.000,0.000,3.142,0.001,0.000,1.003,1.570,1.569,4.085,6.282,1.199,4.712,0.000,0.000,5.501,-10.595,0.990,1.360,1.594,1.592,5.282,4.712,4.712,2.198,6.282,5.083,1.570,0.000,0.000,4.859,-10.732,0.991,1.361,1.588,1.587,
17.680,40.139,5.085,-10.204,5.011,1.010,0.979,4.418,3.938,4.815,1.371,3.875,3.875,1.106,1.262,1.807,2.094,0.000,0.965,0.000,0.000,0.000,0.000,0.000,0.000,0.000,0.000,0.000,0.000,0.000,3.142,0.001,0.000,1.003,1.570,1.570,4.086,6.281,1.199,4.712,0.000,0.000,5.572,-10.670,0.990,1.273,1.588,1.586,5.282,4.712,4.713,2.198,6.282,5.083,1.570,0.000,0.000,4.944,-10.863,0.991,1.273,1.582,1.581,
17.782,40.241,5.109,-10.279,5.084,1.009,1.089,4.457,0.000,2.833,1.422,3.877,4.057,1.158,2.014,1.944,1.890,0.000,0.895,0.000,0.000,0.000,0.000,0.000,0.000,0.000,0.000,0.000,0.000,0.000,3.142,0.001,0.000,1.003,1.570,1.570,4.085,6.282,1.199,4.712,0.000,0.000,5.629,-10.709,0.990,1.200,1.584,1.582,5.282,4.712,4.713,2.198,6.282,5.083,1.570,0.000,0.000,5.018,-10.948,0.991,1.200,1.580,1.578,
17.881,40.339,5.148,-10.371,5.178,1.014,1.046,4.852,0.000,2.073,1.499,3.905,4.332,1.238,2.074,2.173,1.692,0.000,0.755,0.000,0.000,0.000,0.000,0.000,0.000,0.000,0.000,0.000,0.000,0.000,3.142,0.001,0.000,1.003,1.570,1.569,4.085,6.281,1.199,4.712,0.000,0.000,5.706,-10.751,0.990,1.106,1.581,1.579,5.282,4.712,4.712,2.198,6.282,5.083,1.570,0.000,0.000,5.119,-11.045,0.991,1.106,1.578,1.576,
17.990,40.449,5.195,-10.460,5.264,1.017,0.980,4.089,0.000,2.065,1.743,3.964,1.502,1.334,2.159,2.465,2.445,0.000,0.649,0.000,0.000,0.000,0.000,0.000,0.000,0.000,0.000,0.000,0.000,0.000,3.142,0.001,0.000,1.003,1.570,1.570,4.085,6.282,1.199,4.712,0.000,0.000,5.783,-10.789,0.990,1.019,1.580,1.577,5.282,4.712,4.712,2.198,6.282,5.083,1.570,0.000,0.000,5.225,-11.133,0.991,1.019,1.577,1.576,
18.098,40.557,5.249,-10.544,5.349,1.014,1.000,3.532,4.845,2.064,1.739,4.047,1.538,1.446,1.971,2.873,2.357,0.000,0.544,0.000,0.000,0.000,0.000,0.000,0.000,0.000,0.000,0.000,0.000,0.000,3.142,0.001,0.000,1.003,1.570,1.570,4.086,6.281,1.199,4.712,0.000,0.000,5.864,-10.822,0.990,0.934,1.579,1.576,5.282,4.712,4.712,2.198,6.282,5.083,1.570,0.000,0.000,5.336,-11.212,0.991,0.934,1.576,1.575,
18.181,40.639,5.310,-10.622,5.437,1.013,1.021,3.091,4.680,1.488,1.738,4.156,1.585,2.262,1.851,1.827,4.304,0.000,0.404,0.000,0.000,0.000,0.000,0.000,0.000,0.000,0.000,0.000,0.000,0.000,3.142,0.001,0.000,1.003,1.570,1.570,4.085,6.281,1.199,4.712,0.000,0.000,5.947,-10.846,0.990,0.846,1.578,1.575,5.282,4.712,4.712,2.198,6.282,5.083,1.570,0.000,0.000,5.455,-11.281,0.991,0.847,1.576,1.574,
18.293,40.751,5.378,-10.696,5.525,1.013,1.024,2.738,3.211,1.401,1.744,4.296,1.643,2.296,2.012,1.530,2.972,0.000,0.298,0.000,0.000,0.000,0.000,0.000,0.000,0.000,0.000,0.000,0.000,0.000,3.142,0.001,0.000,1.003,1.570,1.570,4.085,6.281,1.199,4.712,0.000,0.000,6.032,-10.862,0.990,0.758,1.577,1.574,5.282,4.712,4.712,2.198,6.282,5.083,1.570,0.000,0.000,5.581,-11.339,0.991,0.758,1.575,1.573,
18.396,40.854,5.452,-10.763,5.579,1.015,0.187,2.742,3.638,1.406,1.778,4.423,1.724,2.358,2.165,1.443,3.760,0.000,0.228,0.000,0.000,0.000,0.000,0.000,0.000,0.000,0.000,0.000,0.000,0.000,3.142,6.283,0.000,1.004,1.568,1.567,4.085,6.282,1.199,4.712,0.000,0.000,6.115,-10.892,0.990,0.701,1.577,1.573,5.281,4.711,4.709,2.198,6.283,5.083,1.570,0.000,0.000,5.690,-11.393,0.991,0.701,1.576,1.573,
18.497,40.955,5.543,-10.840,5.580,1.010,6.271,2.622,3.547,1.965,1.860,4.504,1.843,2.450,2.273,1.534,3.680,1.116,1.562,0.000,0.000,0.000,0.000,0.000,0.000,0.000,0.000,0.000,0.000,0.000,3.142,6.282,0.000,1.004,1.569,1.569,4.085,6.281,1.199,4.712,0.000,0.000,6.205,-10.970,0.990,0.703,1.577,1.574,5.281,4.711,4.711,2.198,6.282,5.083,1.570,0.000,0.000,5.781,-11.471,0.990,0.703,1.577,1.574,
18.600,41.058,5.619,-10.904,5.580,1.010,6.270,2.521,3.471,1.875,1.600,4.571,1.943,2.526,2.363,1.608,3.614,0.000,2.826,0.000,0.000,0.000,0.000,0.000,0.000,0.000,0.000,0.000,0.000,0.000,3.142,6.282,0.000,1.004,1.569,1.569,4.085,6.281,1.199,4.712,0.000,0.000,6.281,-11.034,0.990,0.703,1.577,1.574,5.281,4.711,4.711,2.198,6.282,5.083,1.570,0.000,0.000,5.857,-11.535,0.990,0.702,1.577,1.574,
18.697,41.155,5.680,-10.956,5.580,1.012,6.269,2.440,3.410,1.802,1.429,4.625,2.022,2.586,2.434,2.092,3.561,0.000,2.826,0.000,0.000,0.000,0.000,0.000,0.000,0.000,0.000,0.000,0.000,0.000,3.142,6.282,0.000,1.004,1.569,1.569,4.085,6.281,1.199,4.712,0.000,0.000,6.342,-11.086,0.990,0.702,1.577,1.574,5.281,4.711,4.711,2.198,6.282,5.083,1.570,0.000,0.000,5.918,-11.586,0.990,0.702,1.577,1.574,
18.786,41.244,5.756,-11.020,5.580,1.013,6.269,2.339,3.334,1.781,1.342,4.234,2.122,2.663,2.525,2.023,3.495,0.000,2.826,0.000,0.000,0.000,0.000,0.000,0.000,0.000,0.000,0.000,0.000,0.000,3.142,6.282,0.000,1.004,1.569,1.569,4.085,6.281,1.199,4.712,0.000,0.000,6.418,-11.150,0.990,0.702,1.577,1.574,5.281,4.711,4.711,2.198,6.282,5.083,1.570,0.000,0.000,5.994,-11.651,0.990,0.702,1.577,1.574,
18.899,41.357,5.832,-11.085,5.581,1.011,6.269,2.238,3.258,1.898,1.228,4.301,2.221,2.739,2.615,1.953,3.428,0.000,2.826,0.000,0.000,0.000,0.000,0.000,0.000,0.000,0.000,0.000,0.000,0.000,3.142,6.282,0.000,1.004,1.569,1.569,4.085,6.281,1.199,4.712,0.000,0.000,6.494,-11.214,0.990,0.702,1.577,1.574,5.281,4.711,4.711,2.198,6.282,5.083,1.570,0.000,0.000,6.070,-11.715,0.990,0.702,1.577,1.574,
19.000,41.458,5.923,-11.162,5.581,1.011,6.268,2.117,3.983,2.038,1.246,4.839,2.340,2.830,2.723,1.870,3.349,0.000,2.861,0.000,0.000,0.000,0.000,0.000,0.000,0.000,0.000,0.000,0.000,0.000,3.142,6.282,0.000,1.004,1.569,1.569,4.085,6.281,1.199,4.712,0.000,0.000,6.585,-11.291,0.990,0.702,1.577,1.574,5.281,4.711,4.711,2.198,6.282,5.083,1.570,0.000,0.000,6.162,-11.792,0.990,0.702,1.577,1.574,
19.100,41.558,5.999,-11.226,5.581,1.012,6.268,2.016,3.906,2.155,1.315,4.906,2.440,2.906,1.777,1.801,3.283,0.000,2.861,0.000,0.000,0.000,0.000,0.000,0.000,0.000,0.000,0.000,0.000,0.000,3.142,6.282,0.000,1.004,1.569,1.569,4.085,6.281,1.199,4.712,0.000,0.000,6.661,-11.355,0.990,0.702,1.577,1.574,5.281,4.711,4.711,2.198,6.282,5.083,1.570,0.000,0.000,6.238,-11.856,0.990,0.702,1.577,1.574,
19.195,41.653,6.060,-11.277,5.581,1.012,6.267,1.935,3.846,2.248,1.370,4.960,2.519,2.967,1.448,1.755,3.230,0.000,2.861,0.000,0.000,0.000,0.000,0.000,0.000,0.000,0.000,0.000,0.000,0.000,3.142,6.282,0.000,1.004,1.569,1.569,4.085,6.281,1.199,4.712,0.000,0.000,6.722,-11.407,0.990,0.701,1.577,1.574,5.281,4.711,4.711,2.198,6.282,5.083,1.570,0.000,0.000,6.299,-11.908,0.990,0.701,1.577,1.574,
19.298,41.756,6.136,-11.342,5.582,1.012,6.267,1.834,3.769,2.364,1.438,0.000,2.619,3.043,1.438,3.048,3.164,0.000,2.896,0.000,0.000,0.000,0.000,0.000,0.000,0.000,0.000,0.000,0.000,0.000,3.142,6.282,0.000,1.004,1.569,1.569,4.085,6.281,1.199,4.712,0.000,0.000,6.798,-11.471,0.990,0.701,1.577,1.574,5.281,4.711,4.711,2.198,6.282,5.083,1.570,0.000,0.000,6.375,-11.972,0.990,0.701,1.577,1.574,
19.391,41.850,6.209,-11.404,5.580,0.885,6.111,1.732,3.696,2.485,2.463,0.000,2.716,2.598,1.486,2.984,3.611,0.000,2.896,0.000,0.000,0.000,0.000,0.000,0.000,0.000,0.000,0.000,0.000,0.000,3.142,6.282,0.001,1.003,1.569,1.569,4.086,6.281,1.199,4.712,0.000,0.000,6.872,-11.534,0.990,0.703,1.578,1.574,5.281,4.711,4.711,2.197,6.282,5.083,1.570,0.000,0.000,6.448,-12.035,0.990,0.702,1.578,1.574,
19.486,41.945,6.265,-11.451,5.523,0.639,5.144,1.552,3.658,2.821,2.279,2.355,2.822,3.191,1.507,3.005,3.010,0.000,2.966,0.000,0.000,0.000,0.000,0.000,0.000,0.000,0.000,0.000,0.000,0.000,3.142,6.281,0.001,1.004,1.568,1.566,4.086,6.281,1.199,4.712,0.000,0.000,6.920,-11.617,0.990,0.756,1.578,1.574,5.281,4.711,4.709,2.197,6.282,5.083,1.570,0.000,0.000,6.468,-12.094,0.990,0.757,1.578,1.574,
19.598,42.057,6.309,-11.495,5.412,0.656,5.329,1.660,3.681,3.917,1.747,2.408,2.982,3.302,1.516,1.680,2.918,0.000,3.071,0.000,0.000,0.000,0.000,0.000,0.000,0.000,0.000,0.000,0.000,0.000,3.142,6.281,0.000,1.004,1.569,1.569,4.085,6.281,1.199,4.712,0.000,0.000,6.939,-11.734,0.990,0.871,1.578,1.576,5.282,4.712,4.712,2.198,6.281,5.083,1.571,0.000,0.000,6.438,-12.157,0.991,0.872,1.576,1.574,
19.695,42.153,6.359,-11.557,5.386,0.693,6.272,1.633,3.652,1.354,1.777,1.798,3.117,3.377,1.541,1.662,2.851,0.000,3.106,0.000,0.000,0.000,0.000,0.000,0.000,0.000,0.000,0.000,0.000,0.000,3.142,6.283,0.000,1.003,1.569,1.570,4.085,6.281,1.199,4.712,0.000,0.000,6.983,-11.813,0.990,0.897,1.579,1.576,5.281,4.711,4.712,2.198,6.282,5.083,1.570,0.000,0.000,6.471,-12.222,0.990,0.897,1.578,1.576,
19.781,42.239,6.392,-11.599,5.387,0.673,6.263,1.578,3.617,2.906,1.825,1.609,3.166,3.411,1.559,3.064,2.809,0.000,3.106,0.000,0.000,0.000,0.000,0.000,0.000,0.000,0.000,0.000,0.000,0.000,3.142,6.283,0.000,1.003,1.570,1.570,4.086,6.281,1.199,4.712,0.000,0.000,7.017,-11.854,0.990,0.896,1.579,1.576,5.281,4.711,4.712,2.198,6.282,5.083,1.570,0.000,0.000,6.505,-12.264,0.990,0.896,1.578,1.576,
19.883,42.342,6.433,-11.650,5.388,0.655,6.266,1.513,3.574,2.863,1.883,1.659,3.226,3.452,1.579,3.001,2.759,0.000,3.106,0.000,0.000,0.000,0.000,0.000,0.000,0.000,0.000,0.000,0.000,0.000,3.142,6.283,0.000,1.003,1.569,1.569,4.085,6.281,1.199,4.712,0.000,0.000,7.058,-11.904,0.990,0.895,1.579,1.576,5.281,4.711,4.712,2.198,6.282,5.083,1.570,0.000,0.000,6.546,-12.314,0.990,0.895,1.578,1.576,
20.000,42.458,6.473,-11.700,5.389,0.665,6.262,1.448,3.532,2.821,1.941,1.710,3.287,3.492,1.600,2.940,2.709,0.000,3.106,0.000,0.000,0.000,0.000,0.000,0.000,0.000,0.000,0.000,0.000,0.000,3.142,6.283,0.000,1.003,1.569,1.569,4.085,6.281,1.199,4.712,0.000,0.000,7.098,-11.953,0.990,0.894,1.579,1.576,5.281,4.711,4.711,2.198,6.282,5.083,1.570,0.000,0.000,6.587,-12.364,0.990,0.894,1.578,1.576,
20.100,42.558,6.522,-11.761,5.390,0.675,6.260,1.370,3.480,2.769,2.012,1.771,3.361,3.542,1.625,2.865,2.647,0.000,3.106,0.000,0.000,0.000,0.000,0.000,0.000,0.000,0.000,0.000,0.000,0.000,3.142,6.283,0.000,1.003,1.569,1.569,4.085,6.281,1.199,4.712,0.000,0.000,7.148,-12.014,0.990,0.893,1.579,1.576,5.281,4.711,4.711,2.198,6.282,5.083,1.570,0.000,0.000,6.637,-12.425,0.990,0.893,1.578,1.576,
20.185,42.643,6.553,-11.799,5.387,0.548,6.065,1.327,3.452,2.733,2.060,1.809,3.422,3.577,1.641,2.826,2.609,0.000,3.106,0.000,0.000,0.000,0.000,0.000,0.000,0.000,0.000,0.000,0.000,0.000,3.142,6.282,0.001,1.004,1.569,1.568,4.086,6.281,1.199,4.712,0.000,0.000,7.178,-12.053,0.990,0.894,1.579,1.576,5.281,4.711,4.710,2.197,6.282,5.083,1.570,0.000,0.000,6.666,-12.463,0.990,0.894,1.579,1.577,
20.295,42.753,6.581,-11.834,5.325,0.418,5.091,1.390,3.484,2.642,2.189,1.839,0.000,3.674,1.656,2.905,2.569,0.000,3.142,0.000,0.000,0.000,0.000,0.000,0.000,0.000,0.000,0.000,0.000,0.000,3.142,6.280,0.001,1.004,1.568,1.566,4.085,6.281,1.199,4.712,0.000,0.000,7.190,-12.125,0.990,0.953,1.579,1.576,5.281,4.710,4.709,2.197,6.282,5.083,1.570,0.000,0.000,6.654,-12.504,0.990,0.954,1.580,1.577,
20.392,42.851,6.605,-11.870,5.200,0.502,4.913,1.642,1.501,2.892,2.470,2.787,0.000,3.894,1.689,4.172,3.054,0.000,3.142,0.000,0.000,0.000,0.000,0.000,0.000,0.000,0.000,0.000,0.000,0.000,3.142,6.280,0.000,1.005,1.568,1.567,4.084,6.281,1.199,4.712,0.000,0.000,7.172,-12.236,0.990,1.080,1.580,1.578,5.282,4.711,4.710,2.197,6.282,5.083,1.570,0.000,0.000,6.593,-12.544,0.991,1.081,1.579,1.577,
20.495,42.953,6.632,-11.928,5.084,0.558,5.431,2.025,1.096,3.279,2.874,2.492,0.000,3.304,1.741,1.562,2.213,0.000,3.142,0.000,0.000,0.000,0.000,0.000,0.000,0.000,0.000,0.000,0.000,0.000,3.142,6.281,0.001,1.004,1.569,1.569,4.085,6.281,1.199,4.712,0.000,0.000,7.153,-12.357,0.990,1.199,1.584,1.582,5.282,4.711,4.711,2.198,6.282,5.083,1.570,0.000,0.000,6.541,-12.596,0.991,1.199,1.582,1.581,
20.585,43.043,6.647,-11.967,5.027,0.511,5.461,2.311,0.936,3.254,3.605,1.999,2.962,3.350,3.029,1.555,1.851,0.000,3.458,0.000,0.000,0.000,0.000,0.000,0.000,0.000,0.000,0.000,0.000,0.000,3.142,6.281,0.001,1.004,1.569,1.568,4.085,6.281,1.199,4.712,0.000,0.000,7.142,-12.425,0.990,1.255,1.587,1.585,5.281,4.711,4.711,2.197,6.282,5.083,1.570,0.000,0.000,6.518,-12.629,0.990,1.256,1.586,1.584,
20.682,43.141,6.661,-12.012,4.945,0.478,5.247,2.981,0.958,3.244,2.889,2.103,2.993,3.424,3.051,1.679,1.648,0.000,3.528,0.000,0.000,0.000,0.000,0.000,0.000,0.000,0.000,0.000,0.000,0.000,3.142,6.281,0.001,1.004,1.569,1.567,4.085,6.281,1.199,4.712,0.000,0.000,7.118,-12.509,0.990,1.336,1.591,1.589,5.282,4.711,4.710,2.197,6.282,5.083,1.570,0.000,0.000,6.479,-12.661,0.990,1.337,1.590,1.589,
20.791,43.250,6.671,-12.059,4.849,0.510,5.202,2.875,1.031,3.267,2.721,2.245,2.083,3.536,3.098,1.890,2.384,0.000,3.598,0.000,0.000,0.000,0.000,0.000,0.000,0.000,0.000,0.000,0.000,0.000,3.142,6.280,0.001,1.004,1.569,1.568,4.085,6.281,1.199,4.712,0.000,0.000,7.078,-12.597,0.990,1.432,1.605,1.603,5.282,4.711,4.710,2.197,6.282,5.083,1.570,0.000,0.000,6.427,-12.687,0.991,1.433,1.600,1.599,
20.892,43.350,6.676,-12.109,4.758,0.526,5.300,2.298,1.130,1.620,2.602,1.795,2.116,3.678,3.166,2.186,2.453,0.000,3.703,0.000,0.000,0.000,0.000,0.000,0.000,0.000,0.000,0.000,0.000,0.000,3.142,6.281,0.001,1.004,1.569,1.568,4.085,6.281,1.199,4.712,0.000,0.000,7.032,-12.683,0.990,1.524,1.674,1.673,5.282,4.711,4.711,2.197,6.282,5.083,1.570,0.000,0.000,6.377,-12.713,0.991,1.524,1.662,1.661,
20.999,43.458,6.678,-12.159,4.673,0.507,5.316,2.244,1.261,1.056,2.882,2.627,2.397,0.000,3.804,2.632,2.540,0.000,3.773,0.000,0.000,0.000,0.000,0.000,0.000,0.000,0.000,0.000,0.000,0.000,3.142,6.281,0.001,1.004,1.569,1.568,4.085,6.281,1.199,4.712,0.000,0.000,6.984,-12.761,0.990,1.533,4.583,4.582,5.282,4.711,4.710,2.197,6.282,5.083,1.570,0.000,0.000,6.328,-12.736,0.991,1.532,4.599,4.598,
21.100,43.558,6.674,-12.218,4.568,0.500,5.267,2.203,1.502,0.801,3.291,2.943,3.150,0.000,3.972,1.712,2.699,0.000,3.879,0.000,0.000,0.000,0.000,0.000,0.000,0.000,0.000,0.000,0.000,0.000,3.142,6.281,0.001,1.004,1.569,1.568,4.085,6.281,1.199,4.712,0.000,0.000,6.915,-12.848,0.990,1.428,4.679,4.678,5.282,4.711,4.710,2.197,6.282,5.083,1.570,0.000,0.000,6.265,-12.754,0.991,1.427,4.682,4.681,
21.200,43.658,6.668,-12.254,4.496,0.376,5.287,2.699,1.743,0.837,3.258,3.210,2.434,0.000,4.118,1.640,2.848,0.000,3.949,0.000,0.000,0.000,0.000,0.000,0.000,0.000,0.000,0.000,0.000,0.000,3.142,6.282,0.001,1.003,1.569,1.569,4.088,6.281,1.199,4.712,0.000,0.000,6.863,-12.901,0.989,1.355,4.682,4.682,5.281,4.712,4.711,2.198,6.282,5.083,1.570,0.000,0.000,6.222,-12.760,0.990,1.355,4.691,4.691,
21.284,43.742,6.666,-12.263,4.409,-0.121,5.226,2.006,2.166,0.885,3.236,3.087,2.323,3.289,3.511,1.678,4.341,0.000,4.019,0.000,0.000,0.000,0.000,0.000,0.000,0.000,0.000,0.000,0.000,0.000,3.142,6.283,0.001,1.002,1.570,1.570,4.089,6.281,1.199,4.712,0.000,0.000,6.803,-12.925,0.990,1.266,4.691,4.691,5.281,4.712,4.712,2.198,6.282,5.083,1.570,0.000,0.000,6.177,-12.727,0.990,1.266,4.697,4.697,
21.390,43.848,6.671,-12.249,4.305,-0.102,5.105,1.504,2.731,0.950,3.236,2.251,2.398,3.230,3.559,1.759,1.492,0.000,4.124,0.000,0.000,0.000,0.000,0.000,0.000,0.000,0.000,0.000,0.000,0.000,3.142,6.280,0.000,1.004,1.569,1.568,4.083,6.281,1.199,4.712,0.000,0.000,6.741,-12.920,0.990,1.165,4.705,4.704,5.282,4.711,4.711,2.198,6.282,5.083,1.570,0.000,0.000,6.138,-12.661,0.991,1.165,4.703,4.703,
21.493,43.951,6.654,-12.285,4.213,0.764,5.805,1.502,2.645,1.058,1.380,2.733,1.975,2.310,3.643,3.083,1.393,0.000,4.230,0.000,0.000,0.000,0.000,0.000,0.000,0.000,0.000,0.000,0.000,0.000,3.142,6.278,6.283,1.008,1.568,1.567,4.079,6.281,1.199,4.712,0.000,0.000,6.663,-12.958,0.990,1.074,4.708,4.708,5.283,4.711,4.710,2.197,6.282,5.083,1.571,0.000,0.000,6.085,-12.646,0.991,1.073,4.705,4.705,
21.600,44.058,6.611,-12.363,4.202,0.906,6.267,2.058,2.060,1.133,0.822,2.766,2.044,2.385,3.657,1.746,1.307,0.000,4.195,0.000,0.000,0.000,0.000,0.000,0.000,0.000,0.000,0.000,0.000,0.000,3.142,6.283,0.001,1.003,1.570,1.570,4.086,6.281,1.199,4.712,0.000,0.000,6.609,-13.038,0.990,1.060,4.701,4.702,5.281,4.711,4.712,2.198,6.282,5.083,1.570,0.000,0.000,6.037,-12.717,0.990,1.060,4.703,4.704,
21.700,44.158,6.582,-12.415,4.202,0.594,6.265,1.999,2.008,1.173,0.829,2.799,2.102,2.437,3.657,1.694,1.247,0.000,4.195,0.000,0.000,0.000,0.000,0.000,0.000,0.000,0.000,0.000,0.000,0.000,3.142,0.001,0.001,1.002,1.570,1.571,4.089,6.281,1.200,4.712,0.000,0.000,6.580,-13.090,0.989,1.059,4.699,4.699,5.281,4.712,4.713,2.198,6.282,5.083,1.570,0.000,0.000,6.008,-12.769,0.990,1.059,4.703,4.703,
21.785,44.244,6.560,-12.455,4.203,0.439,6.266,1.953,1.967,1.205,0.852,2.825,2.148,2.711,3.657,1.653,1.252,0.000,4.195,0.000,0.000,0.000,0.000,0.000,0.000,0.000,0.000,0.000,0.000,0.000,3.142,6.282,0.000,1.004,1.569,1.569,4.085,6.281,1.199,4.712,0.000,0.000,6.559,-13.130,0.990,1.061,4.702,4.703,5.281,4.711,4.711,2.198,6.282,5.083,1.570,0.000,0.000,5.987,-12.810,0.990,1.062,4.703,4.704,
21.900,44.358,6.535,-12.499,4.203,0.626,6.265,1.902,1.923,1.240,0.877,2.853,2.198,2.755,3.657,1.608,1.268,0.000,4.160,0.000,0.000,0.000,0.000,0.000,0.000,0.000,0.000,0.000,0.000,0.000,3.142,6.281,0.000,1.005,1.569,1.568,4.083,6.281,1.199,4.712,0.000,0.000,6.536,-13.174,0.990,1.063,4.705,4.705,5.281,4.711,4.710,2.198,6.282,5.083,1.570,0.000,0.000,5.962,-12.855,0.990,1.063,4.703,4.704,
21.995,44.454,6.502,-12.558,4.204,0.700,6.266,1.836,1.864,1.286,0.910,2.890,2.264,3.484,3.658,1.549,1.207,0.000,4.160,0.000,0.000,0.000,0.000,0.000,0.000,0.000,0.000,0.000,0.000,0.000,3.142,6.282,0.000,1.004,1.569,1.569,4.085,6.281,1.199,4.712,0.000,0.000,6.503,-13.232,0.990,1.062,4.702,4.703,5.281,4.711,4.711,2.198,6.282,5.083,1.570,0.000,0.000,5.930,-12.913,0.990,1.062,4.703,4.704,
22.099,44.557,6.466,-12.624,4.204,0.585,6.266,1.760,1.797,1.338,0.947,2.946,2.339,3.551,3.659,1.482,1.408,0.000,4.124,0.000,0.000,0.000,0.000,0.000,0.000,0.000,0.000,0.000,0.000,0.000,3.142,6.283,0.000,1.003,1.569,1.569,4.086,6.281,1.199,4.712,0.000,0.000,6.466,-13.298,0.990,1.062,4.702,4.702,5.281,4.711,4.711,2.198,6.282,5.083,1.570,0.000,0.000,5.893,-12.979,0.990,1.063,4.703,4.703,
22.200,44.658,6.443,-12.664,4.192,0.368,5.761,1.726,1.753,1.388,0.972,3.115,3.017,3.586,3.674,1.452,1.425,0.000,4.160,0.000,0.000,0.000,0.000,0.000,0.000,0.000,0.000,0.000,0.000,0.000,3.142,6.282,0.001,1.003,1.568,1.567,4.086,6.281,1.199,4.712,0.000,0.000,6.436,-13.340,0.990,1.053,4.701,4.701,5.281,4.710,4.709,2.197,6.282,5.083,1.570,0.000,0.000,5.867,-13.013,0.990,1.053,4.701,4.702,
22.300,44.758,6.431,-12.685,4.127,0.302,5.016,1.769,1.721,1.512,0.999,3.656,3.166,2.693,3.758,1.492,1.090,0.000,4.195,0.000,0.000,0.000,0.000,0.000,0.000,0.000,0.000,0.000,0.000,0.000,3.142,6.280,0.001,1.004,1.568,1.566,4.085,6.281,1.199,4.712,0.000,0.000,6.381,-13.359,0.990,0.990,4.704,4.704,5.281,4.710,4.709,2.197,6.282,5.083,1.570,0.000,0.000,5.834,-12.997,0.990,0.989,4.703,4.704,
22.400,44.858,6.412,-12.712,3.999,0.406,4.887,1.908,1.694,1.839,1.061,3.610,3.527,2.726,3.984,1.616,0.986,0.000,4.335,0.000,0.000,0.000,0.000,0.000,0.000,0.000,0.000,0.000,0.000,0.000,3.142,6.280,0.000,1.005,1.569,1.567,4.084,6.281,1.199,4.712,0.000,0.000,6.276,-13.373,0.990,0.859,4.706,4.706,5.282,4.711,4.710,2.197,6.282,5.083,1.570,0.000,0.000,5.779,-12.944,0.991,0.858,4.707,4.707,
22.499,44.958,6.382,-12.745,3.896,0.470,5.363,2.052,1.701,2.412,1.144,1.031,4.347,3.707,0.000,3.135,1.111,0.000,4.405,0.000,0.000,0.000,0.000,0.000,0.000,0.000,0.000,0.000,0.000,0.000,3.142,6.281,0.001,1.004,1.569,1.569,4.085,6.281,1.199,4.712,0.000,0.000,6.178,-13.388,0.990,0.755,4.706,4.707,5.282,4.711,4.711,2.198,6.282,5.083,1.570,0.000,0.000,5.728,-12.910,0.991,0.755,4.707,4.708,
22.600,45.058,6.343,-12.779,3.811,0.501,5.633,2.202,0.977,2.284,1.246,1.060,3.498,3.181,0.000,3.868,2.179,0.000,4.475,0.000,0.000,0.000,0.000,0.000,0.000,0.000,0.000,0.000,0.000,0.000,3.142,6.280,0.000,1.005,1.569,1.568,4.083,6.281,1.199,4.712,0.000,0.000,6.086,-13.403,0.990,0.671,4.708,4.708,5.282,4.711,4.711,2.197,6.282,5.083,1.570,0.000,0.000,5.678,-12.889,0.991,0.670,4.707,4.708,
22.697,45.156,6.301,-12.812,3.793,0.870,0.042,2.201,0.800,1.701,1.311,1.100,3.500,3.126,0.000,3.866,2.407,0.000,4.511,0.000,0.000,0.000,0.000,0.000,0.000,0.000,0.000,0.000,0.000,0.000,3.142,6.280,6.283,1.006,1.569,1.569,4.081,6.281,1.199,4.712,0.000,0.000,6.033,-13.429,0.990,0.651,4.709,4.710,5.282,4.711,4.711,2.198,6.282,5.083,1.571,0.000,0.000,5.634,-12.908,0.991,0.651,4.708,4.709,
22.800,45.258,6.207,-12.885,3.853,1.038,1.191,1.938,0.688,1.663,1.373,1.201,3.801,3.886,0.000,1.488,0.747,0.000,4.405,0.000,0.000,0.000,0.000,0.000,0.000,0.000,0.000,0.000,0.000,0.000,3.142,0.002,0.000,1.003,1.571,1.572,4.087,6.281,1.199,4.712,0.000,0.000,5.973,-13.518,0.990,0.708,4.705,4.707,5.282,4.713,4.715,2.199,6.282,5.083,1.571,0.000,0.000,5.545,-13.020,0.991,0.708,4.708,4.710,
22.900,45.358,6.153,-12.933,3.958,0.740,1.441,1.678,0.650,2.276,1.361,1.278,3.960,2.960,3.944,1.232,0.760,0.000,4.300,0.000,0.000,0.000,0.000,0.000,0.000,0.000,0.000,0.000,0.000,0.000,3.142,0.002,6.283,1.005,1.582,1.621,4.056,6.206,1.237,4.743,0.005,0.000,5.959,-13.545,0.990,0.695,4.694,4.722,5.282,4.714,4.714,2.198,6.282,5.083,1.571,0.000,0.000,5.509,-13.137,0.991,0.813,4.707,4.708,
22.999,45.457,6.111,-12.979,3.994,0.556,0.057,1.567,0.588,2.271,1.386,1.332,3.895,2.995,3.849,1.198,0.866,0.000,4.230,0.000,0.000,0.000,0.000,0.000,0.000,0.000,0.000,0.000,0.000,0.000,3.142,6.281,6.283,1.019,1.585,1.648,4.040,6.172,1.279,4.702,0.005,0.000,5.928,-13.576,0.975,0.673,4.641,4.648,5.282,4.710,4.710,2.197,6.282,5.083,1.570,0.000,0.000,5.477,-13.208,0.990,0.855,4.705,4.706,
23.100,45.558,6.079,-13.016,4.021,0.544,0.430,1.485,0.536,2.267,1.406,1.376,3.856,3.101,3.785,1.271,0.964,0.000,4.195,0.000,0.000,0.000,0.000,0.000,0.000,0.000,0.000,0.000,0.000,0.000,3.142,6.278,6.281,1.059,1.591,1.706,3.920,6.227,1.340,4.589,0.006,0.000,5.927,-13.579,0.979,0.697,4.660,4.589,5.282,4.711,4.713,2.198,6.281,5.083,1.570,0.000,0.000,5.450,-13.260,0.991,0.877,4.707,4.708,
23.185,45.643,6.043,-13.059,4.097,0.644,0.854,1.352,0.497,1.846,1.409,1.449,3.689,3.959,3.642,1.445,1.283,0.000,4.124,0.000,0.000,0.000,0.000,0.000,0.000,0.000,0.000,0.000,0.000,0.000,3.142,6.278,6.281,1.104,1.590,1.770,3.826,6.175,1.360,4.632,0.004,0.000,5.925,-13.576,0.981,0.664,4.689,4.666,5.282,4.710,4.711,2.198,6.281,5.083,1.570,0.000,0.000,5.436,-13.351,0.991,0.956,4.706,4.707,
23.293,45.751,6.008,-13.110,4.178,0.672,0.556,1.226,0.447,2.050,1.418,4.256,3.561,3.979,4.366,0.582,3.187,0.000,4.019,0.000,0.000,0.000,0.000,0.000,0.000,0.000,0.000,0.000,0.000,0.000,3.142,6.279,6.281,1.115,1.588,1.844,3.712,6.119,1.380,4.337,0.000,0.000,5.922,-13.571,1.003,0.614,4.773,4.454,5.282,4.710,4.711,2.197,6.281,5.083,1.570,0.000,0.000,5.426,-13.451,0.991,1.036,4.704,4.706,
23.390,45.848,5.980,-13.158,4.235,0.199,0.939,1.136,0.389,1.973,1.433,3.902,3.504,0.000,1.507,0.579,3.244,0.000,3.949,0.000,0.000,0.000,0.000,0.000,0.000,0.000,0.000,0.000,0.000,0.000,3.142,6.277,6.280,1.159,1.580,1.984,3.605,6.216,1.410,4.402,0.001,0.000,5.924,-13.573,1.001,0.627,4.798,4.601,5.280,4.715,4.720,2.200,6.280,5.083,1.571,0.000,0.000,5.413,-13.527,0.990,1.083,4.706,4.707,
23.490,45.949,5.974,-13.170,4.289,0.189,0.234,1.095,0.398,1.885,1.430,3.651,3.426,0.000,1.331,0.605,3.337,0.000,3.914,0.000,0.000,0.000,0.000,0.000,0.000,0.000,0.000,0.000,0.000,0.000,3.142,6.277,6.281,1.152,1.580,1.965,3.613,6.088,1.368,4.263,0.000,0.000,5.922,-13.566,1.010,0.569,4.827,4.456,5.281,4.711,4.710,2.198,6.283,5.083,1.570,0.000,0.000,5.435,-13.574,0.991,1.150,4.703,4.702,
23.589,46.047,5.969,-13.184,4.342,0.298,0.673,1.057,0.408,1.812,1.432,3.785,3.370,0.000,1.194,0.658,3.103,0.000,3.844,0.000,0.000,0.000,0.000,0.000,0.000,0.000,0.000,0.000,0.000,0.000,3.142,6.278,6.281,1.142,1.581,1.994,3.617,6.048,1.346,4.164,0.000,0.000,5.923,-13.563,1.016,0.551,4.843,4.375,5.282,4.712,4.712,2.198,6.282,5.083,1.571,0.000,0.000,5.450,-13.615,0.991,1.200,4.702,4.703,
23.681,46.139,5.958,-13.214,4.465,0.117,0.807,1.346,1.292,1.678,1.448,4.185,4.243,4.261,1.247,0.827,1.477,0.000,3.703,0.000,0.000,0.000,0.000,0.000,0.000,0.000,0.000,0.000,0.000,0.000,3.142,0.000,6.282,1.112,1.580,2.082,3.631,5.989,1.322,4.081,0.000,0.000,5.922,-13.562,1.018,0.533,4.840,4.327,5.282,4.712,4.712,2.197,6.282,5.083,1.570,0.000,0.000,5.496,-13.706,0.991,1.323,4.696,4.696,
23.786,46.244,5.959,-13.210,4.499,-0.163,6.254,1.580,1.316,1.644,1.453,4.994,3.289,4.152,1.278,0.873,1.427,0.000,3.668,0.000,0.000,0.000,0.000,0.000,0.000,0.000,0.000,0.000,0.000,0.000,3.142,0.001,6.283,1.082,1.580,2.101,3.665,5.992,1.311,4.001,0.000,0.000,5.924,-13.565,1.020,0.557,4.835,4.264,5.281,4.711,4.710,2.198,6.282,5.083,1.570,0.000,0.000,5.515,-13.717,0.990,1.360,4.691,4.691,
23.900,46.358,5.973,-13.144,4.487,-1.102,5.513,1.553,1.381,1.640,1.437,4.964,3.231,4.165,1.190,0.759,1.546,0.000,3.703,0.000,0.000,0.000,0.000,0.000,0.000,0.000,0.000,0.000,0.000,0.000,3.142,0.005,0.001,1.038,1.586,2.024,3.838,5.984,1.246,4.166,0.000,0.000,5.924,-13.573,1.015,0.634,4.797,4.360,5.282,4.710,4.710,2.196,6.282,5.083,1.570,0.000,0.000,5.523,-13.646,0.990,1.347,4.686,4.686,
23.999,46.457,6.004,-13.020,4.397,-1.295,5.289,1.209,1.464,1.697,1.396,3.245,3.821,0.000,1.254,0.603,3.143,0.000,3.809,0.000,0.000,0.000,0.000,0.000,0.000,0.000,0.000,0.000,0.000,0.000,3.142,0.002,0.000,1.006,1.598,1.863,4.086,6.007,1.148,4.859,0.007,0.000,5.935,-13.571,0.990,0.737,4.725,4.891,5.284,4.710,4.709,2.195,6.282,5.083,1.570,0.000,0.000,5.512,-13.480,0.991,1.259,4.697,4.697,
24.100,46.558,6.047,-12.898,4.356,-0.929,0.578,1.355,1.572,1.694,1.353,3.727,3.274,0.000,3.741,2.462,3.544,0.000,3.879,0.000,0.000,0.000,0.000,0.000,0.000,0.000,0.000,0.000,0.000,0.000,3.142,0.001,6.283,1.009,1.578,1.612,4.076,6.163,1.246,4.737,0.043,0.000,6.099,-13.540,0.976,1.060,4.613,4.622,5.281,4.713,4.716,2.200,6.281,5.083,1.571,0.000,0.000,5.532,-13.335,0.991,1.209,4.705,4.705,
24.184,46.642,6.071,-12.833,4.412,-0.887,1.004,1.503,1.671,1.599,1.330,3.858,3.785,0.000,3.617,2.701,3.386,0.000,3.844,0.000,0.000,0.000,0.000,0.000,0.000,0.000,0.000,0.000,0.000,0.000,3.142,0.002,0.000,1.002,1.568,1.564,4.087,6.281,1.200,4.712,0.000,0.000,6.214,-13.494,0.990,1.276,4.692,4.690,5.281,4.713,4.713,2.200,6.282,5.083,1.570,0.000,0.000,5.583,-13.299,0.991,1.269,4.704,4.703,
24.292,46.750,6.102,-12.722,4.461,-1.066,0.035,1.940,1.823,1.514,1.303,4.472,3.740,0.000,3.541,2.443,3.362,0.000,3.809,0.000,0.000,0.000,0.000,0.000,0.000,0.000,0.000,0.000,0.000,0.000,3.142,0.001,0.000,1.003,1.569,1.568,4.087,6.281,1.199,4.712,0.000,0.000,6.275,-13.375,0.990,1.320,4.689,4.688,5.280,4.711,4.710,2.199,6.282,5.083,1.570,0.000,0.000,5.639,-13.211,0.990,1.320,4.696,4.696,
24.400,46.858,6.129,-12.619,4.461,-1.061,6.278,2.054,1.935,1.483,1.276,4.316,3.634,0.000,3.573,1.757,3.520,0.000,3.809,0.000,0.000,0.000,0.000,0.000,0.000,0.000,0.000,0.000,0.000,0.000,3.142,6.283,0.000,1.004,1.569,1.569,4.085,6.281,1.199,4.712,0.000,0.000,6.300,-13.272,0.990,1.319,4.693,4.692,5.281,4.711,4.712,2.199,6.282,5.083,1.570,0.000,0.000,5.665,-13.108,0.990,1.319,4.696,4.695,
24.489,46.947,6.149,-12.541,4.461,-0.994,6.278,2.142,2.019,1.460,3.766,3.773,3.553,0.000,3.596,1.513,3.641,0.000,3.809,0.000,0.000,0.000,0.000,0.000,0.000,0.000,0.000,0.000,0.000,0.000,3.142,6.283,0.000,1.004,1.569,1.569,4.085,6.281,1.199,4.712,0.000,0.000,6.321,-13.194,0.990,1.319,4.693,4.693,5.281,4.711,4.711,2.199,6.282,5.083,1.570,0.000,0.000,5.685,-13.030,0.990,1.319,4.696,4.696,
24.583,47.042,6.167,-12.469,4.461,-0.469,6.277,2.223,2.636,1.438,3.748,3.664,3.479,0.000,3.617,1.290,3.751,0.000,3.844,0.000,0.000,0.000,0.000,0.000,0.000,0.000,0.000,0.000,0.000,0.000,3.142,6.281,6.283,1.006,1.568,1.567,4.081,6.281,1.199,4.712,0.000,0.000,6.341,-13.121,0.990,1.322,4.702,4.701,5.281,4.710,4.710,2.199,6.282,5.083,1.570,0.000,0.000,5.705,-12.959,0.991,1.321,4.697,4.696,
24.700,47.158,6.171,-12.457,4.449,0.140,5.807,2.133,2.637,1.444,3.741,3.694,3.477,0.000,3.648,1.203,3.821,0.000,3.844,0.000,0.000,0.000,0.000,0.000,0.000,0.000,0.000,0.000,0.000,0.000,3.142,6.279,0.000,1.007,1.567,1.565,4.080,6.282,1.199,4.711,0.000,0.000,6.339,-13.111,0.990,1.314,4.703,4.702,5.282,4.709,4.707,2.197,6.282,5.083,1.570,0.000,0.000,5.704,-12.942,0.990,1.313,4.692,4.692,
24.784,47.243,6.165,-12.476,4.361,0.187,4.859,1.799,2.016,1.541,3.735,3.594,2.975,0.000,3.876,1.123,0.851,0.000,3.949,0.000,0.000,0.000,0.000,0.000,0.000,0.000,0.000,0.000,0.000,0.000,3.142,6.280,0.001,1.004,1.568,1.566,4.086,6.281,1.199,4.712,0.000,0.000,6.273,-13.143,0.990,1.223,4.697,4.697,5.282,4.710,4.709,2.197,6.282,5.083,1.570,0.000,0.000,5.656,-12.918,0.990,1.222,4.699,4.698,
24.900,47.358,6.163,-12.483,4.230,-0.039,4.881,1.894,1.948,1.726,1.249,3.315,2.749,3.370,3.287,1.190,0.914,0.000,4.054,0.000,0.000,0.000,0.000,0.000,0.000,0.000,0.000,0.000,0.000,0.000,3.142,6.282,0.001,1.003,1.570,1.570,4.087,6.281,1.199,4.712,0.000,0.000,6.180,-13.157,0.990,1.088,4.700,4.700,5.282,4.712,4.712,2.198,6.282,5.083,1.570,0.000,0.000,5.599,-12.852,0.991,1.087,4.704,4.705,
24.997,47.455,6.165,-12.479,4.119,0.120,5.231,2.023,2.425,1.945,1.275,3.174,2.934,3.382,3.411,1.281,1.185,0.000,4.195,0.000,0.000,0.000,0.000,0.000,0.000,0.000,0.000,0.000,0.000,0.000,3.142,6.279,0.000,1.006,1.569,1.568,4.080,6.281,1.199,4.712,0.000,0.000,6.110,-13.151,0.990,0.979,4.709,4.709,5.282,4.711,4.711,2.197,6.282,5.083,1.571,0.000,0.000,5.565,-12.785,0.991,0.978,4.706,4.707,
25.100,47.558,6.125,-12.537,4.074,1.044,6.281,2.014,2.363,2.126,1.333,3.750,3.100,3.437,3.469,1.250,1.159,0.000,4.195,0.000,0.000,0.000,0.000,0.000,0.000,0.000,0.000,0.000,0.000,0.000,3.142,6.279,6.283,1.007,1.568,1.567,4.078,6.281,1.199,4.712,0.000,0.000,6.040,-13.205,0.990,0.935,4.710,4.710,5.282,4.710,4.710,2.197,6.282,5.083,1.571,0.000,0.000,5.512,-12.817,0.991,0.935,4.705,4.706,
25.200,47.658,6.070,-12.610,4.075,1.155,6.263,1.924,0.967,2.215,1.390,3.967,3.190,3.510,3.457,1.153,0.924,0.000,4.195,0.000,0.000,0.000,0.000,0.000,0.000,0.000,0.000,0.000,0.000,0.000,3.142,6.283,0.000,1.003,1.569,1.569,4.086,6.281,1.199,4.712,0.000,0.000,5.984,-13.279,0.990,0.933,4.704,4.704,5.281,4.711,4.711,2.198,6.282,5.083,1.570,0.000,0.000,5.457,-12.889,0.990,0.933,4.705,4.706,
25.281,47.740,6.022,-12.676,4.005,0.529,5.169,1.944,0.932,2.153,1.475,4.021,3.457,2.919,3.566,1.131,0.908,0.000,4.230,0.000,0.000,0.000,0.000,0.000,0.000,0.000,0.000,0.000,0.000,0.000,3.142,0.000,6.282,1.003,1.570,1.569,4.084,6.281,1.199,4.711,0.000,0.000,5.889,-13.337,0.991,0.864,4.709,4.708,5.274,4.708,4.699,2.300,0.050,4.978,1.508,0.009,0.000,5.427,-12.901,0.996,0.926,4.688,4.641,
25.400,47.858,5.993,-12.707,3.921,0.403,5.695,2.054,2.215,1.921,1.562,3.973,3.787,2.747,3.739,1.174,1.174,0.000,4.300,0.000,0.000,0.000,0.000,0.000,0.000,0.000,0.000,0.000,0.000,0.000,3.142,6.283,6.281,1.004,1.570,1.571,4.080,6.281,1.199,4.712,0.000,0.000,5.805,-13.353,0.992,0.777,4.712,4.712,5.274,4.712,4.701,2.335,0.206,4.949,1.418,0.000,0.000,5.421,-12.899,1.001,0.988,4.704,4.596,
25.500,47.958,5.966,-12.734,3.856,0.388,5.433,3.240,1.530,1.833,1.647,1.444,4.526,2.808,3.912,1.208,1.657,0.000,4.370,0.000,0.000,0.000,0.000,0.000,0.000,0.000,0.000,0.000,0.000,0.000,3.142,6.282,6.281,1.004,1.569,1.569,4.078,6.282,1.199,4.712,0.000,0.000,5.738,-13.367,0.992,0.717,4.714,4.713,5.270,4.714,4.697,2.381,0.273,4.916,1.367,0.000,0.000,5.410,-12.891,1.006,0.994,4.722,4.562,
25.589,48.048,5.935,-12.759,3.766,0.551,6.197,3.540,1.482,1.741,1.780,1.466,3.884,3.847,0.000,3.487,2.317,0.000,4.440,0.000,0.000,0.000,0.000,0.000,0.000,0.000,0.000,0.000,0.000,0.000,3.142,6.280,6.283,1.006,1.570,1.573,4.081,6.280,1.199,4.713,0.000,0.000,5.649,-13.367,0.990,0.620,4.709,4.711,5.280,4.712,4.710,2.340,0.029,5.055,1.529,0.000,0.000,5.307,-12.819,1.036,0.650,4.849,4.759,
25.695,48.154,5.873,-12.804,3.807,0.490,0.405,3.320,1.418,1.720,1.805,1.530,0.000,2.916,0.000,1.100,1.868,0.000,3.142,0.000,0.000,0.000,0.000,0.000,0.000,0.000,0.000,0.000,0.000,0.000,3.142,0.003,0.000,1.001,1.571,1.571,4.089,6.281,1.199,4.712,0.000,0.000,5.611,-13.426,0.990,0.664,4.705,4.706,5.275,4.714,4.718,2.221,6.261,5.023,1.499,0.035,0.000,5.208,-12.898,0.979,0.639,4.654,4.600,
25.800,48.258,5.859,-12.815,3.768,0.038,5.779,3.450,1.423,1.683,1.870,1.542,3.982,3.904,0.000,1.132,2.759,0.000,4.440,0.000,0.000,0.000,0.000,0.000,0.000,0.000,0.000,0.000,0.000,0.000,3.142,6.283,0.000,1.003,1.570,1.570,4.086,6.281,1.199,4.712,0.000,0.000,5.574,-13.426,0.990,0.625,4.707,4.708,5.276,4.712,4.716,2.215,6.267,5.025,1.529,0.030,0.000,5.191,-12.887,0.977,0.608,4.650,4.631,
25.900,48.358,5.862,-12.813,3.750,-0.252,6.115,3.407,1.433,1.674,1.891,1.538,3.927,3.926,0.000,1.170,2.244,0.000,4.440,0.000,0.000,0.000,0.000,0.000,0.000,0.000,0.000,0.000,0.000,0.000,3.142,0.003,0.001,1.000,1.571,1.573,4.091,6.281,1.200,4.712,0.000,0.000,5.563,-13.418,0.989,0.604,4.703,4.706,5.276,4.714,4.719,2.203,6.266,5.048,1.530,0.036,0.000,5.188,-12.872,0.979,0.584,4.666,4.641,
25.992,48.450,5.916,-12.775,3.743,-1.062,6.115,3.457,1.476,1.710,1.833,1.484,3.844,3.895,0.000,3.523,1.560,0.000,4.475,0.000,0.000,0.000,0.000,0.000,0.000,0.000,0.000,0.000,0.000,0.000,3.142,0.004,0.001,0.999,1.571,1.573,4.094,6.280,1.200,4.712,0.000,0.000,5.612,-13.379,0.989,0.597,4.701,4.704,5.280,4.713,4.714,2.200,6.280,5.082,1.569,0.002,0.000,5.244,-12.836,0.990,0.597,4.707,4.707,
26.098,48.556,6.024,-12.701,3.740,-1.422,6.273,3.582,1.556,1.786,1.703,1.376,3.704,3.486,0.000,3.668,1.456,0.000,4.511,0.000,0.000,0.000,0.000,0.000,0.000,0.000,0.000,0.000,0.000,0.000,3.142,0.000,0.000,1.003,1.570,1.570,4.086,6.281,1.199,4.712,0.000,0.000,5.722,-13.304,0.990,0.597,4.706,4.708,5.280,4.712,4.712,2.199,6.282,5.083,1.570,0.000,0.000,5.353,-12.762,0.990,0.597,4.707,4.709,
26.182,48.640,6.139,-12.623,3.740,-0.897,6.276,3.723,1.638,1.869,1.561,1.261,3.566,3.145,0.000,3.811,1.361,0.000,4.546,0.000,0.000,0.000,0.000,0.000,0.000,0.000,0.000,0.000,0.000,0.000,3.142,6.281,6.283,1.005,1.569,1.568,4.082,6.281,1.199,4.712,0.000,0.000,5.839,-13.227,0.990,0.600,4.709,4.709,5.281,4.711,4.710,2.199,6.282,5.083,1.570,0.000,0.000,5.468,-12.685,0.991,0.600,4.708,4.709,
26.300,48.758,6.192,-12.587,3.740,-0.801,6.275,3.789,1.702,1.907,1.495,1.208,3.502,2.987,0.000,3.877,1.318,0.000,4.546,0.000,0.000,0.000,0.000,0.000,0.000,0.000,0.000,0.000,0.000,0.000,3.142,0.000,0.000,1.003,1.570,1.570,4.086,6.281,1.199,4.712,0.000,0.000,5.890,-13.190,0.990,0.598,4.706,4.708,5.280,4.712,4.712,2.199,6.282,5.083,1.570,0.000,0.000,5.521,-12.648,0.990,0.598,4.708,4.709,
26.387,48.845,6.266,-12.537,3.741,-1.033,6.274,3.880,1.937,1.960,1.403,1.134,3.414,2.770,0.000,3.968,1.257,0.000,4.581,0.000,0.000,0.000,0.000,0.000,0.000,0.000,0.000,0.000,0.000,0.000,3.142,0.001,0.001,1.002,1.570,1.571,4.088,6.281,1.200,4.712,0.000,0.000,5.963,-13.140,0.990,0.597,4.705,4.707,5.280,4.712,4.713,2.199,6.282,5.083,1.570,0.000,0.000,5.594,-12.597,0.990,0.597,4.707,4.709,
26.500,48.958,6.373,-12.463,3.741,-1.102,6.274,4.013,1.167,2.559,1.270,3.527,3.285,2.563,0.000,4.101,1.332,0.000,4.616,0.000,0.000,0.000,0.000,0.000,0.000,0.000,0.000,0.000,0.000,0.000,3.142,6.283,0.000,1.003,1.570,1.570,4.085,6.281,1.199,4.712,0.000,0.000,6.072,-13.067,0.990,0.599,4.706,4.708,5.281,4.711,4.712,2.199,6.282,5.083,1.570,0.000,0.000,5.702,-12.525,0.990,0.599,4.707,4.709,
26.584,49.042,6.441,-12.416,3.741,-0.998,6.275,4.098,1.202,2.608,1.185,3.459,3.203,2.513,0.000,4.186,1.417,0.000,4.616,0.000,0.000,0.000,0.000,0.000,0.000,0.000,0.000,0.000,0.000,0.000,3.142,6.283,0.000,1.004,1.569,1.569,4.085,6.281,1.199,4.712,0.000,0.000,6.141,-13.020,0.990,0.600,4.707,4.708,5.281,4.711,4.711,2.199,6.282,5.083,1.570,0.000,0.000,5.770,-12.479,0.990,0.600,4.708,4.709,
26.685,49.144,6.535,-12.352,3.735,-0.966,5.928,4.194,1.351,2.233,1.074,3.365,3.076,2.451,0.000,3.458,1.539,0.000,4.651,0.000,0.000,0.000,0.000,0.000,0.000,0.000,0.000,0.000,0.000,0.000,3.142,6.282,0.001,1.004,1.569,1.568,4.085,6.281,1.199,4.712,0.000,0.000,6.231,-12.955,0.990,0.595,4.706,4.708,5.281,4.711,4.710,2.198,6.282,5.083,1.570,0.000,0.000,5.864,-12.411,0.990,0.595,4.707,4.708,
26.800,49.258,6.586,-12.318,3.679,-0.198,5.711,1.398,1.354,2.663,1.057,3.320,2.910,2.468,3.305,3.515,1.640,0.000,4.721,0.000,0.000,0.000,0.000,0.000,0.000,0.000,0.000,0.000,0.000,0.000,3.142,6.277,6.283,1.008,1.567,1.566,4.076,6.281,1.199,4.712,0.000,0.000,6.252,-12.903,0.991,0.542,4.713,4.712,5.282,4.709,4.709,2.197,6.282,5.083,1.570,0.000,0.000,5.913,-12.341,0.991,0.541,4.708,4.710,
26.881,49.340,6.571,-12.327,3.610,0.372,5.175,1.288,2.099,2.615,1.144,1.359,2.817,2.558,3.269,3.561,1.679,0.000,4.791,0.000,0.000,0.000,0.000,0.000,0.000,0.000,0.000,0.000,0.000,0.000,3.142,6.279,0.000,1.006,1.567,1.565,4.082,6.282,1.199,4.712,0.000,0.000,6.196,-12.888,0.990,0.474,4.708,4.709,5.282,4.710,4.708,2.197,6.283,5.083,1.570,0.000,0.000,5.898,-12.303,0.990,0.473,4.707,4.709,
26.995,49.453,6.548,-12.338,3.492,0.084,4.887,1.561,2.184,2.069,1.333,0.878,3.020,2.754,2.345,3.684,3.035,0.000,4.897,0.000,0.000,0.000,0.000,0.000,0.000,0.000,0.000,0.000,0.000,0.000,3.142,6.282,0.001,1.002,1.570,1.569,4.089,6.281,1.199,4.712,0.000,0.000,6.107,-12.849,0.989,0.351,4.705,4.709,5.282,4.712,4.712,2.197,6.282,5.083,1.570,0.000,0.000,5.882,-12.233,0.990,0.350,4.708,4.710,
27.084,49.542,6.553,-12.337,3.379,-0.121,5.071,2.234,2.373,2.069,1.546,0.905,3.443,2.998,2.347,0.000,3.714,0.000,5.037,0.000,0.000,0.000,0.000,0.000,0.000,0.000,0.000,0.000,0.000,0.000,3.142,6.282,0.000,1.002,1.570,1.570,4.086,6.281,1.199,4.712,0.000,0.000,6.057,-12.795,0.990,0.237,4.707,4.710,5.281,4.712,4.712,2.198,6.282,5.083,1.570,0.000,0.000,5.903,-12.156,0.991,0.236,4.709,4.711,
27.200,49.658,6.562,-12.335,3.284,-0.067,5.362,1.918,2.586,2.593,1.797,0.932,3.372,3.272,3.279,0.000,3.887,0.000,5.107,0.000,0.000,0.000,0.000,0.000,0.000,0.000,0.000,0.000,0.000,0.000,3.142,6.281,0.000,1.004,1.569,1.569,4.084,6.281,1.199,4.712,0.000,0.000,6.026,-12.744,0.990,0.143,4.708,4.711,5.281,4.711,4.712,2.198,6.282,5.083,1.570,0.000,0.000,5.932,-12.095,0.991,0.143,4.708,4.711,
27.294,49.752,6.563,-12.335,3.225,0.031,5.364,1.514,3.836,2.261,2.027,0.960,3.348,2.677,2.818,0.000,4.017,0.000,5.177,0.000,0.000,0.000,0.000,0.000,0.000,0.000,0.000,0.000,0.000,0.000,3.142,6.280,0.000,1.004,1.569,1.568,4.084,6.281,1.199,4.712,0.000,0.000,6.004,-12.713,0.990,0.085,4.708,4.711,5.281,4.711,4.710,2.197,6.282,5.083,1.570,0.000,0.000,5.949,-12.058,0.990,0.085,4.708,4.711,
27.400,49.858,6.558,-12.336,3.115,0.032,5.123,1.561,4.257,1.472,2.697,1.037,3.343,3.073,2.423,0.000,4.315,0.000,5.283,0.000,0.000,0.000,0.000,0.000,0.000,0.000,0.000,0.000,0.000,0.000,3.142,6.281,0.001,1.004,1.569,1.568,4.085,6.281,1.199,4.712,0.000,0.000,5.960,-12.649,0.990,6.258,4.707,4.711,5.281,4.711,4.711,2.198,6.282,5.083,1.570,0.000,0.000,5.978,-11.993,0.990,6.257,4.708,4.712,
27.483,49.941,6.557,-12.336,3.031,-0.017,5.079,1.617,1.348,1.310,2.634,1.109,1.489,2.915,2.505,3.311,3.511,0.000,5.353,0.000,0.000,0.000,0.000,0.000,0.000,0.000,0.000,0.000,0.000,0.000,3.142,6.281,0.001,1.003,1.569,1.569,4.086,6.281,1.199,4.712,0.000,0.000,5.935,-12.598,0.990,6.173,4.707,4.712,5.282,4.712,4.711,2.198,6.282,5.083,1.570,0.000,0.000,6.008,-11.945,0.991,6.172,4.708,4.712,
27.600,50.058,6.560,-12.337,2.925,-0.031,5.122,3.001,1.343,2.103,2.083,1.222,0.860,2.760,2.644,2.355,3.611,0.000,5.493,0.000,0.000,0.000,0.000,0.000,0.000,0.000,0.000,0.000,0.000,0.000,3.142,6.281,0.000,1.004,1.569,1.569,4.085,6.281,1.199,4.712,0.000,0.000,5.914,-12.531,0.990,6.067,4.708,4.712,5.282,4.712,4.711,2.198,6.282,5.083,1.570,0.000,0.000,6.055,-11.890,0.991,6.067,4.708,4.712,
27.696,50.154,6.562,-12.337,2.829,-0.015,5.234,3.078,1.704,2.232,2.067,1.364,0.880,3.309,2.815,2.342,3.746,0.000,5.564,0.000,0.000,0.000,0.000,0.000,0.000,0.000,0.000,0.000,0.000,0.000,3.142,6.281,0.000,1.004,1.569,1.568,4.085,6.281,1.199,4.712,0.000,0.000,5.901,-12.469,0.990,5.971,4.708,4.713,5.282,4.711,4.711,2.198,6.282,5.083,1.570,0.000,0.000,6.102,-11.845,0.991,5.971,4.708,4.713,
27.800,50.258,6.525,-12.324,2.738,0.754,5.850,3.698,2.371,2.408,2.083,1.621,0.952,3.465,1.682,2.336,0.000,0.000,5.669,0.000,0.000,0.000,0.000,0.000,0.000,0.000,0.000,0.000,0.000,0.000,3.142,6.278,6.283,1.008,1.568,1.567,4.078,6.281,1.199,4.712,0.000,0.000,5.856,-12.397,0.990,5.882,4.711,4.712,5.283,4.711,4.709,2.197,6.282,5.083,1.571,0.000,0.000,6.111,-11.792,0.991,5.882,4.708,4.713,
27.900,50.358,6.456,-12.294,2.701,1.085,5.564,3.680,2.043,2.525,2.618,1.856,1.044,3.508,1.696,2.314,0.000,0.000,5.669,0.000,0.000,0.000,0.000,0.000,0.000,0.000,0.000,0.000,0.000,0.000,3.142,6.279,0.000,1.006,1.567,1.565,4.082,6.281,1.199,4.712,0.000,0.000,5.782,-12.343,0.990,5.848,4.708,4.713,5.282,4.710,4.708,2.197,6.282,5.083,1.570,0.000,0.000,6.061,-11.749,0.990,5.847,4.707,4.713,
28.000,50.458,6.354,-12.244,2.592,0.743,5.058,3.777,1.344,3.978,1.355,2.541,1.227,3.558,3.356,3.225,0.000,0.000,5.774,0.000,0.000,0.000,0.000,0.000,0.000,0.000,0.000,0.000,0.000,0.000,3.142,6.282,0.001,1.002,1.569,1.568,4.088,6.281,1.199,4.712,0.000,0.000,5.679,-12.216,0.989,5.734,4.704,4.715,5.281,4.711,4.711,2.197,6.282,5.083,1.570,0.000,0.000,6.023,-11.657,0.990,5.733,4.707,4.714,
28.100,50.558,6.312,-12.217,2.507,0.575,5.156,3.939,1.346,1.135,2.289,2.845,1.351,3.588,2.792,2.875,0.000,0.000,5.844,0.000,0.000,0.000,0.000,0.000,0.000,0.000,0.000,0.000,0.000,0.000,3.142,6.281,0.001,1.003,1.569,1.568,4.086,6.281,1.199,4.712,0.000,0.000,5.642,-12.133,0.990,5.649,4.706,4.715,5.282,4.711,4.711,2.197,6.282,5.083,1.570,0.000,0.000,6.032,-11.604,0.991,5.649,4.707,4.715,
28.197,50.655,6.261,-12.178,2.427,0.850,5.767,3.152,1.352,1.347,2.146,2.302,1.508,3.651,3.310,2.439,0.000,0.000,5.915,0.000,0.000,0.000,0.000,0.000,0.000,0.000,0.000,0.000,0.000,0.000,3.142,6.279,0.000,1.006,1.569,1.569,4.081,6.281,1.199,4.712,0.000,0.000,5.602,-12.041,0.990,5.569,4.709,4.714,5.282,4.711,4.711,2.197,6.281,5.083,1.571,0.000,0.000,6.031,-11.544,0.991,5.569,4.707,4.715,
28.300,50.758,6.164,-12.092,2.418,1.233,6.263,3.027,2.553,1.527,2.245,2.386,1.650,3.752,3.407,2.641,0.000,0.000,5.915,0.000,0.000,0.000,0.000,0.000,0.000,0.000,0.000,0.000,0.000,0.000,3.142,6.282,0.000,1.004,1.569,1.569,4.084,6.281,1.199,4.712,0.000,0.000,5.504,-11.949,0.990,5.561,4.707,4.715,5.281,4.711,4.711,2.198,6.282,5.083,1.570,0.000,0.000,5.939,-11.457,0.990,5.561,4.707,4.716,
28.400,50.858,6.078,-12.017,2.418,1.035,6.281,2.913,2.467,1.668,2.326,2.463,1.763,3.838,4.457,2.863,0.000,0.000,5.915,0.000,0.000,0.000,0.000,0.000,0.000,0.000,0.000,0.000,0.000,0.000,3.142,6.283,0.001,1.003,1.570,1.570,4.087,6.281,1.199,4.712,0.000,0.000,5.419,-11.873,0.990,5.559,4.705,4.717,5.281,4.711,4.712,2.197,6.282,5.083,1.570,0.000,0.000,5.853,-11.381,0.990,5.560,4.706,4.716,
28.500,50.958,6.009,-11.955,2.391,0.898,5.478,2.837,2.403,1.867,2.420,2.510,1.903,3.919,1.846,2.855,0.000,0.000,5.950,0.000,0.000,0.000,0.000,0.000,0.000,0.000,0.000,0.000,0.000,0.000,3.142,6.281,0.001,1.004,1.568,1.565,4.084,6.281,1.199,4.711,0.000,0.000,5.353,-11.796,0.990,5.537,4.706,4.715,5.281,4.710,4.708,2.197,6.282,5.083,1.570,0.000,0.000,5.800,-11.315,0.990,5.537,4.705,4.716,
28.600,51.058,5.956,-11.905,2.308,0.976,4.871,2.823,2.378,1.049,1.142,2.523,2.148,4.026,3.443,2.531,2.776,0.000,6.020,0.000,0.000,0.000,0.000,0.000,0.000,0.000,0.000,0.000,0.000,0.000,3.142,6.279,0.001,1.005,1.567,1.565,4.083,6.281,1.199,4.711,0.000,0.000,5.315,-11.692,0.990,5.454,4.706,4.715,5.282,4.710,4.708,2.197,6.282,5.083,1.570,0.000,0.000,5.801,-11.250,0.991,5.453,4.706,4.716,
28.700,51.158,5.890,-11.828,2.219,1.067,5.870,2.810,2.359,1.008,1.282,1.768,2.502,2.345,3.391,2.308,2.729,0.000,6.090,0.000,0.000,0.000,0.000,0.000,0.000,0.000,0.000,0.000,0.000,0.000,3.142,6.281,0.000,1.004,1.570,1.571,4.085,6.280,1.199,4.712,0.000,0.000,5.273,-11.556,0.990,5.358,4.704,4.718,5.282,4.712,4.713,2.198,6.281,5.083,1.571,0.000,0.000,5.796,-11.160,0.991,5.358,4.706,4.717,
28.800,51.258,5.827,-11.745,2.215,1.028,6.263,2.711,2.835,0.977,1.385,3.158,2.619,2.602,3.452,2.406,2.596,0.000,6.090,0.000,0.000,0.000,0.000,0.000,0.000,0.000,0.000,0.000,0.000,0.000,3.142,6.283,0.000,1.003,1.570,1.570,4.086,6.281,1.199,4.712,0.000,0.000,5.211,-11.471,0.990,5.356,4.704,4.718,5.281,4.711,4.712,2.198,6.282,5.083,1.570,0.000,0.000,5.735,-11.077,0.990,5.357,4.705,4.717,
28.900,51.358,5.756,-11.651,2.215,0.983,6.223,2.593,2.762,2.281,1.497,3.253,2.735,4.330,3.528,2.532,2.502,0.000,6.090,0.000,0.000,0.000,0.000,0.000,0.000,0.000,0.000,0.000,0.000,0.000,3.142,6.282,0.000,1.004,1.569,1.568,4.084,6.281,1.199,4.712,0.000,0.000,5.139,-11.378,0.990,5.358,4.705,4.717,5.281,4.711,4.711,2.197,6.282,5.083,1.570,0.000,0.000,5.663,-10.984,0.990,5.358,4.704,4.718,
29.000,51.458,5.710,-11.589,2.190,1.004,5.519,2.543,2.734,2.211,1.599,3.312,2.913,4.414,3.547,2.522,2.439,0.000,6.090,0.000,0.000,0.000,0.000,0.000,0.000,0.000,0.000,0.000,0.000,0.000,3.142,6.280,0.001,1.005,1.567,1.565,4.084,6.282,1.199,4.711,0.000,0.000,5.098,-11.302,0.990,5.336,4.705,4.717,5.281,4.710,4.708,2.197,6.282,5.083,1.570,0.000,0.000,5.632,-10.920,0.990,5.336,4.703,4.718,
29.089,51.548,5.643,-11.489,2.072,1.026,5.308,2.574,2.784,2.071,1.013,2.700,3.654,2.390,3.509,2.283,2.404,0.000,6.231,0.000,0.000,0.000,0.000,0.000,0.000,0.000,0.000,0.000,0.000,0.000,3.142,6.281,0.000,1.004,1.569,1.569,4.085,6.281,1.199,4.712,0.000,0.000,5.071,-11.130,0.990,5.215,4.702,4.720,5.282,4.711,4.711,2.198,6.281,5.083,1.570,0.000,0.000,5.646,-10.814,0.991,5.214,4.705,4.718,
29.200,51.658,5.596,-11.400,2.042,1.012,0.029,2.522,2.772,2.010,0.981,1.513,3.927,2.440,3.537,2.277,2.324,0.000,6.231,0.000,0.000,0.000,0.000,0.000,0.000,0.000,0.000,0.000,0.000,0.000,3.142,6.283,0.000,1.003,1.570,1.571,4.085,6.281,1.199,4.712,0.000,0.000,5.036,-11.023,0.990,5.182,4.701,4.721,5.281,4.712,4.712,2.198,6.281,5.083,1.570,0.000,0.000,5.621,-10.726,0.990,5.182,4.703,4.720,
29.300,51.758,5.551,-11.312,2.043,1.003,6.266,2.422,2.721,1.965,0.997,1.601,3.590,2.642,3.583,2.345,2.234,0.000,6.231,0.000,0.000,0.000,0.000,0.000,0.000,0.000,0.000,0.000,0.000,0.000,3.142,6.283,0.000,1.003,1.569,1.569,4.085,6.281,1.199,4.712,0.000,0.000,4.990,-10.936,0.990,5.185,4.702,4.721,5.281,4.711,4.711,2.198,6.282,5.083,1.570,0.000,0.000,5.574,-10.638,0.990,5.185,4.703,4.720,
29.398,51.856,5.515,-11.241,2.044,1.009,6.261,2.343,2.680,1.929,1.171,1.671,3.664,2.803,3.620,1.741,2.163,0.000,6.231,0.000,0.000,0.000,0.000,0.000,0.000,0.000,0.000,0.000,0.000,0.000,3.142,6.283,0.000,1.003,1.569,1.569,4.085,6.281,1.199,4.712,0.000,0.000,4.954,-10.867,0.990,5.185,4.702,4.721,5.281,4.711,4.711,2.198,6.282,5.083,1.570,0.000,0.000,5.538,-10.568,0.990,5.186,4.703,4.720,
29.490,51.948,5.460,-11.135,2.045,1.016,6.260,2.223,2.618,1.874,1.432,1.779,3.776,3.046,3.676,1.590,2.005,0.000,6.231,0.000,0.000,0.000,0.000,0.000,0.000,0.000,0.000,0.000,0.000,0.000,3.142,6.283,0.000,1.003,1.569,1.569,4.085,6.281,1.199,4.712,0.000,0.000,4.899,-10.761,0.990,5.186,4.702,4.721,5.281,4.711,4.711,2.198,6.282,5.083,1.570,0.000,0.000,5.482,-10.461,0.990,5.187,4.703,4.720,
29.594,52.052,5.415,-11.048,2.041,0.955,6.030,2.131,1.811,1.827,1.659,1.867,4.322,3.218,3.720,1.474,1.918,0.000,6.195,0.000,0.000,0.000,0.000,0.000,0.000,0.000,0.000,0.000,0.000,0.000,3.142,6.282,0.001,1.004,1.568,1.568,4.085,6.281,1.199,4.712,0.000,0.000,4.854,-10.672,0.990,5.185,4.702,4.721,5.281,4.710,4.710,2.197,6.282,5.083,1.570,0.000,0.000,5.439,-10.374,0.990,5.185,4.701,4.722,
29.700,52.158,5.375,-10.967,1.978,0.895,5.082,4.902,1.731,1.837,2.399,1.968,3.742,3.023,3.729,1.454,1.857,0.000,6.266,0.000,0.000,0.000,0.000,0.000,0.000,0.000,0.000,0.000,0.000,0.000,3.142,6.280,0.001,1.004,1.568,1.565,4.085,6.282,1.199,4.711,0.000,0.000,4.838,-10.557,0.990,5.124,4.700,4.721,5.281,4.710,4.708,2.197,6.282,5.083,1.570,0.000,0.000,5.440,-10.297,0.990,5.123,4.700,4.722,
29.800,52.258,5.348,-10.901,1.881,0.916,4.881,0.000,1.681,2.248,2.177,1.373,3.677,2.719,3.737,1.528,1.888,0.000,0.123,3.081,0.000,0.000,0.000,0.000,0.000,0.000,0.000,0.000,0.000,0.000,3.142,6.280,0.001,1.005,1.568,1.567,4.085,6.281,1.199,4.712,0.000,0.000,4.853,-10.442,0.990,5.026,4.697,4.725,5.282,4.711,4.710,2.197,6.282,5.083,1.570,0.000,0.000,5.478,-10.240,0.991,5.025,4.700,4.723,
29.900,52.358,5.322,-10.813,1.775,0.962,5.475,4.422,1.639,2.230,1.995,1.348,3.336,2.799,2.290,1.619,1.867,0.000,0.228,0.000,0.000,0.000,0.000,0.000,0.000,0.000,0.000,0.000,0.000,0.000,3.142,6.281,0.000,1.004,1.569,1.569,4.085,6.281,1.199,4.712,0.000,0.000,4.881,-10.303,0.990,4.917,4.689,4.735,5.282,4.711,4.712,2.198,6.281,5.083,1.570,0.000,0.000,5.523,-10.169,0.991,4.916,4.694,4.729,
30.000,52.458,5.303,-10.718,1.756,0.986,6.280,4.306,1.580,2.215,1.950,1.504,3.787,2.876,3.810,1.482,1.780,0.000,0.263,0.000,0.000,0.000,0.000,0.000,0.000,0.000,0.000,0.000,0.000,0.000,3.142,6.283,0.000,1.003,1.570,1.570,4.085,6.281,1.199,4.712,0.000,0.000,4.872,-10.200,0.990,4.897,4.686,4.738,5.281,4.711,4.712,2.198,6.282,5.083,1.570,0.000,0.000,5.517,-10.079,0.990,4.897,4.689,4.734,
30.100,52.558,5.286,-10.624,1.757,0.965,6.265,4.211,1.516,2.197,1.931,1.633,3.856,2.897,3.309,1.285,1.675,0.000,0.263,0.000,0.000,0.000,0.000,0.000,0.000,0.000,0.000,0.000,0.000,0.000,3.142,6.283,0.000,1.003,1.569,1.569,4.086,6.281,1.199,4.712,0.000,0.000,4.854,-10.106,0.990,4.899,4.685,4.738,5.281,4.711,4.712,2.198,6.282,5.083,1.570,0.000,0.000,5.498,-9.984,0.990,4.899,4.689,4.735,
30.200,52.658,5.268,-10.532,1.758,0.954,6.260,4.118,1.453,2.179,1.912,1.759,3.931,2.918,3.845,1.143,1.573,0.000,0.298,0.000,0.000,0.000,0.000,0.000,0.000,0.000,0.000,0.000,0.000,0.000,3.142,6.283,0.000,1.003,1.569,1.569,4.085,6.281,1.199,4.712,0.000,0.000,4.836,-10.014,0.990,4.900,4.686,4.737,5.281,4.711,4.711,2.198,6.282,5.083,1.570,0.000,0.000,5.480,-9.892,0.990,4.900,4.689,4.735,
30.299,52.758,5.251,-10.439,1.759,0.965,6.260,4.024,1.390,2.162,1.893,1.886,4.007,3.022,3.862,1.164,1.471,0.000,4.124,0.000,0.000,0.000,0.000,0.000,0.000,0.000,0.000,0.000,0.000,0.000,3.142,6.283,0.000,1.004,1.569,1.569,4.085,6.281,1.199,4.712,0.000,0.000,4.817,-9.922,0.990,4.901,4.687,4.737,5.281,4.711,4.711,2.198,6.282,5.083,1.570,0.000,0.000,5.462,-9.799,0.990,4.901,4.689,4.735,
30.396,52.854,5.229,-10.327,1.760,0.969,6.261,3.910,1.313,1.409,1.869,2.039,4.102,3.189,3.883,1.144,1.292,0.000,4.124,0.000,0.000,0.000,0.000,0.000,0.000,0.000,0.000,0.000,0.000,0.000,3.142,6.283,0.000,1.004,1.569,1.569,4.085,6.281,1.199,4.712,0.000,0.000,4.796,-9.810,0.990,4.902,4.687,4.737,5.281,4.711,4.711,2.198,6.282,5.083,1.570,0.000,0.000,5.440,-9.687,0.990,4.902,4.689,4.735,
30.495,52.954,5.211,-10.234,1.761,0.963,6.262,3.815,1.250,1.341,1.870,2.167,4.182,3.329,3.901,1.118,1.189,0.000,4.160,0.000,0.000,0.000,0.000,0.000,0.000,0.000,0.000,0.000,0.000,0.000,3.142,6.283,0.000,1.004,1.569,1.569,4.085,6.281,1.199,4.712,0.000,0.000,4.777,-9.717,0.990,4.902,4.687,4.737,5.281,4.711,4.711,2.198,6.282,5.083,1.570,0.000,0.000,5.421,-9.593,0.990,4.902,4.689,4.735,
30.600,53.058,5.193,-10.140,1.756,0.997,5.991,3.716,1.187,1.270,2.071,2.307,4.384,3.449,3.402,1.136,1.088,0.000,4.160,0.000,0.000,0.000,0.000,0.000,0.000,0.000,0.000,0.000,0.000,0.000,3.142,6.281,0.001,1.005,1.568,1.567,4.083,6.281,1.199,4.712,0.000,0.000,4.760,-9.622,0.990,4.901,4.690,4.733,5.281,4.710,4.709,2.197,6.282,5.083,1.570,0.000,0.000,5.405,-9.500,0.990,4.901,4.685,4.739,
30.700,53.158,5.179,-10.061,1.708,1.035,5.210,3.157,1.147,1.189,2.343,3.168,4.885,3.396,3.964,1.123,1.025,0.000,4.230,0.000,0.000,0.000,0.000,0.000,0.000,0.000,0.000,0.000,0.000,0.000,3.142,6.280,0.001,1.005,1.567,1.565,4.084,6.282,1.199,4.711,0.000,0.000,4.770,-9.523,0.990,4.855,4.681,4.741,5.281,4.710,4.708,2.197,6.282,5.083,1.570,0.000,0.000,5.420,-9.432,0.990,4.854,4.677,4.746,
30.798,53.256,5.166,-9.940,1.588,1.016,5.592,3.442,1.216,1.070,2.207,2.826,2.961,3.697,4.090,1.080,0.955,0.000,4.335,0.000,0.000,0.000,0.000,0.000,0.000,0.000,0.000,0.000,0.000,0.000,3.142,6.281,0.000,1.004,1.570,1.570,4.086,6.280,1.199,4.712,0.000,0.000,4.828,-9.356,0.990,4.729,4.386,5.038,5.282,4.712,4.712,2.198,6.281,5.083,1.571,0.000,0.000,5.484,-9.345,0.991,4.728,4.472,4.952,
30.887,53.346,5.165,-9.841,1.574,0.999,6.275,3.341,3.649,1.015,2.195,2.766,3.059,3.768,4.109,1.076,0.843,0.000,5.844,0.000,0.000,0.000,0.000,0.000,0.000,0.000,0.000,0.000,0.000,0.000,3.142,6.283,0.000,1.003,1.569,1.570,4.085,6.281,1.199,4.712,0.000,0.000,4.835,-9.252,0.990,4.718,3.663,5.760,5.281,4.711,4.712,2.198,6.282,5.083,1.570,0.000,0.000,5.491,-9.250,0.990,4.718,3.762,5.662,
31.000,53.458,5.165,-9.742,1.575,1.008,6.266,3.243,3.541,0.964,1.453,2.770,3.158,3.762,4.107,1.077,0.767,0.000,5.844,0.000,0.000,0.000,0.000,0.000,0.000,0.000,0.000,0.000,0.000,0.000,3.142,6.283,0.000,1.003,1.569,1.569,4.085,6.281,1.199,4.712,0.000,0.000,4.834,-9.154,0.990,4.719,3.877,5.547,5.281,4.711,4.711,2.198,6.282,5.083,1.570,0.000,0.000,5.490,-9.152,0.990,4.719,3.950,5.475,
31.100,53.558,5.164,-9.662,1.576,1.018,6.264,3.163,3.986,0.923,1.392,2.773,3.238,3.759,4.107,1.078,0.769,0.000,5.809,0.000,0.000,0.000,0.000,0.000,0.000,0.000,0.000,0.000,0.000,0.000,3.142,6.283,0.000,1.003,1.569,1.569,4.085,6.281,1.199,4.712,0.000,0.000,4.833,-9.075,0.990,4.719,3.963,5.461,5.281,4.711,4.711,2.198,6.282,5.083,1.570,0.000,0.000,5.489,-9.072,0.990,4.719,4.029,5.395,
31.200,53.658,5.164,-9.542,1.577,1.013,6.260,3.043,3.838,0.861,1.300,2.776,3.358,3.755,1.153,1.362,0.000,0.000,5.809,0.000,0.000,0.000,0.000,0.000,0.000,0.000,0.000,0.000,0.000,0.000,3.142,6.283,0.000,1.003,1.569,1.569,4.085,6.281,1.199,4.712,0.000,0.000,4.831,-8.955,0.990,4.720,4.043,5.381,5.281,4.711,4.711,2.198,6.282,5.083,1.570,0.000,0.000,5.487,-8.951,0.990,4.720,4.105,5.319,
31.300,53.758,5.163,-9.443,1.595,1.007,0.658,2.946,3.765,0.813,1.248,2.851,3.458,3.858,1.064,1.004,0.000,0.000,0.930,0.000,0.000,0.000,0.000,0.000,0.000,0.000,0.000,0.000,0.000,0.000,3.142,0.001,0.000,1.003,1.571,1.572,4.086,6.281,1.199,4.712,0.000,0.000,4.822,-8.862,0.990,4.734,4.470,4.955,5.281,4.712,4.714,2.199,6.281,5.083,1.571,0.000,0.000,5.478,-8.846,0.991,4.734,4.553,4.872,
31.400,53.858,5.159,-9.344,1.692,1.009,1.425,2.872,3.963,0.781,1.328,3.365,0.000,4.326,1.044,0.494,2.727,0.000,3.142,0.000,0.000,0.000,0.000,0.000,0.000,0.000,0.000,0.000,0.000,0.000,3.142,0.002,0.000,1.003,1.571,1.571,4.086,6.282,1.199,4.712,0.000,0.000,4.763,-8.798,0.990,4.832,4.673,4.750,5.282,4.713,4.714,2.198,6.282,5.083,1.571,0.000,0.000,5.414,-8.719,0.991,4.831,4.688,4.737,
31.500,53.958,5.148,-9.265,1.790,1.018,1.260,2.844,4.283,0.760,1.464,3.910,0.000,0.000,1.041,0.534,2.995,0.000,3.142,0.000,0.000,0.000,0.000,0.000,0.000,0.000,0.000,0.000,0.000,0.000,3.142,0.001,0.000,1.003,1.570,1.569,4.085,6.282,1.199,4.712,0.000,0.000,4.698,-8.761,0.990,4.933,4.692,4.731,5.282,4.712,4.712,2.198,6.283,5.083,1.570,0.000,0.000,5.339,-8.618,0.991,4.932,4.697,4.727,
31.600,54.058,5.123,-9.167,1.875,1.023,0.600,2.811,4.608,0.714,1.572,3.257,0.000,0.000,3.033,4.732,2.801,0.000,3.142,0.000,0.000,0.000,0.000,0.000,0.000,0.000,0.000,0.000,0.000,0.000,3.142,0.000,0.000,1.004,1.569,1.568,4.085,6.282,1.199,4.712,0.000,0.000,4.632,-8.704,0.990,5.019,4.697,4.726,5.282,4.711,4.710,2.198,6.283,5.083,1.570,0.000,0.000,5.258,-8.507,0.991,5.018,4.700,4.723,
31.700,54.158,5.086,-9.053,1.887,1.007,6.270,2.702,4.487,0.672,1.383,3.376,0.000,1.451,0.518,4.882,2.671,0.000,3.142,0.000,0.000,0.000,0.000,0.000,0.000,0.000,0.000,0.000,0.000,0.000,3.142,6.282,0.000,1.004,1.569,1.569,4.085,6.281,1.199,4.712,0.000,0.000,4.591,-8.595,0.990,5.029,4.697,4.726,5.281,4.711,4.711,2.197,6.282,5.083,1.570,0.000,0.000,5.214,-8.391,0.990,5.029,4.697,4.726,
31.800,54.258,5.062,-8.978,1.887,1.005,6.269,2.623,4.355,0.648,1.228,4.082,0.000,1.481,0.543,4.913,2.592,0.000,3.142,0.000,0.000,0.000,0.000,0.000,0.000,0.000,0.000,0.000,0.000,0.000,3.142,6.282,0.000,1.004,1.569,1.569,4.085,6.281,1.199,4.712,0.000,0.000,4.566,-8.520,0.990,5.029,4.697,4.726,5.281,4.711,4.711,2.198,6.282,5.083,1.570,0.000,0.000,5.189,-8.316,0.990,5.029,4.697,4.726,
31.900,54.358,5.025,-8.865,1.887,1.014,6.268,2.503,4.157,0.000,0.994,4.199,0.000,1.427,2.775,4.960,2.474,0.000,3.142,0.000,0.000,0.000,0.000,0.000,0.000,0.000,0.000,0.000,0.000,0.000,3.142,6.282,0.000,1.004,1.569,1.569,4.085,6.281,1.199,4.712,0.000,0.000,4.529,-8.407,0.990,5.029,4.697,4.726,5.281,4.711,4.711,2.198,6.282,5.083,1.570,0.000,0.000,5.152,-8.203,0.990,5.030,4.697,4.726,
32.000,54.458,5.001,-8.792,1.891,0.911,0.273,2.429,4.053,0.000,0.852,4.270,0.000,1.452,2.799,0.000,2.395,0.000,3.142,0.000,0.000,0.000,0.000,0.000,0.000,0.000,0.000,0.000,0.000,0.000,3.142,0.001,0.000,1.002,1.570,1.571,4.087,6.281,1.200,4.712,0.000,0.000,4.505,-8.335,0.990,5.030,4.694,4.729,5.281,4.712,4.713,2.199,6.282,5.083,1.570,0.000,0.000,5.128,-8.129,0.990,5.031,4.700,4.724,
32.100,54.558,4.968,-8.699,1.981,0.799,1.358,2.417,4.495,0.000,0.844,3.607,0.000,0.737,2.847,0.000,2.246,0.000,3.142,0.000,0.000,0.000,0.000,0.000,0.000,0.000,0.000,0.000,0.000,0.000,3.142,0.002,0.000,1.003,1.571,1.572,4.086,6.281,1.199,4.712,0.000,0.000,4.433,-8.289,0.990,5.120,4.700,4.723,5.282,4.713,4.714,2.198,6.282,5.083,1.571,0.000,0.000,5.035,-8.028,0.991,5.120,4.705,4.719,
32.200,54.658,4.941,-8.640,2.080,0.858,1.345,2.476,0.000,1.651,0.989,3.494,0.000,0.743,4.143,0.000,2.152,0.000,3.142,0.000,0.000,0.000,0.000,0.000,0.000,0.000,0.000,0.000,0.000,0.000,3.142,0.001,0.000,1.004,1.570,1.569,4.085,6.282,1.199,4.712,0.000,0.000,4.367,-8.287,0.990,5.223,4.704,4.719,5.282,4.712,4.712,2.198,6.282,5.083,1.570,0.000,0.000,4.940,-7.966,0.991,5.222,4.706,4.717,
32.281,54.739,4.886,-8.550,2.193,0.914,0.867,2.554,0.000,1.380,1.195,3.724,4.860,1.443,0.000,2.527,2.050,0.000,3.036,0.000,0.000,0.000,0.000,0.000,0.000,0.000,0.000,0.000,0.000,0.000,3.142,0.001,0.000,1.004,1.570,1.569,4.085,6.282,1.199,4.712,0.000,0.000,4.276,-8.263,0.990,5.335,4.704,4.718,5.282,4.712,4.711,2.198,6.282,5.083,1.570,0.000,0.000,4.809,-7.880,0.991,5.335,4.706,4.716,
32.390,54.848,4.833,-8.479,2.266,0.873,0.911,2.615,0.000,1.321,1.794,4.442,0.000,2.153,0.000,2.324,1.543,0.000,3.142,0.000,3.928,0.000,0.000,0.000,0.000,0.000,0.000,0.000,0.000,0.000,3.142,0.001,0.000,1.003,1.570,1.570,4.086,6.281,1.199,4.712,0.000,0.000,4.204,-8.237,0.990,5.406,4.704,4.718,5.282,4.712,4.713,2.198,6.282,5.083,1.570,0.000,0.000,4.708,-7.817,0.991,5.406,4.707,4.716,
32.500,54.958,4.778,-8.416,2.352,0.853,1.069,2.747,0.000,1.237,3.068,0.000,2.112,3.719,4.746,2.143,1.943,0.000,3.106,0.000,4.069,0.000,0.000,0.000,0.000,0.000,0.000,0.000,0.000,0.000,3.142,0.001,0.000,1.003,1.570,1.570,4.086,6.282,1.199,4.712,0.000,0.000,4.130,-8.229,0.990,5.493,4.706,4.716,5.282,4.712,4.712,2.198,6.282,5.083,1.570,0.000,0.000,4.596,-7.766,0.991,5.493,4.708,4.715,
32.585,55.044,4.729,-8.369,2.426,0.871,1.059,2.242,0.000,1.177,3.051,0.000,1.159,3.081,0.000,2.021,1.924,0.000,3.036,0.000,0.000,0.000,0.000,0.000,0.000,0.000,0.000,0.000,0.000,0.000,3.142,0.001,0.000,1.003,1.570,1.569,4.085,6.282,1.199,4.712,0.000,0.000,4.069,-8.230,0.990,5.568,4.706,4.715,5.282,4.712,4.712,2.198,6.282,5.083,1.570,0.000,0.000,4.500,-7.735,0.991,5.568,4.708,4.715,
32.700,55.158,4.649,-8.303,2.532,0.886,0.991,3.234,0.000,1.119,0.886,0.000,1.165,4.352,2.237,1.879,1.918,0.000,2.931,0.000,0.000,0.000,0.000,0.000,0.000,0.000,0.000,0.000,0.000,0.000,3.142,0.001,0.000,1.003,1.570,1.570,4.085,6.281,1.199,4.712,0.000,0.000,3.978,-8.235,0.990,5.674,4.707,4.715,5.282,4.712,4.712,2.198,6.282,5.083,1.570,0.000,0.000,4.353,-7.697,0.991,5.674,4.708,4.714,
32.797,55.256,4.591,-8.265,2.601,0.878,0.994,3.531,0.000,1.090,0.896,0.000,1.332,4.427,0.000,1.807,1.929,0.000,2.861,0.000,0.000,0.000,0.000,0.000,0.000,0.000,0.000,0.000,0.000,0.000,3.142,0.001,0.000,1.003,1.570,1.570,4.086,6.281,1.199,4.712,0.000,0.000,3.917,-8.243,0.990,5.742,4.707,4.714,5.282,4.712,4.712,2.198,6.282,5.083,1.570,0.000,0.000,4.255,-7.680,0.991,5.742,4.708,4.714,
32.900,55.358,4.501,-8.215,2.705,0.870,1.021,4.218,0.000,1.050,0.927,0.000,1.859,0.000,2.329,1.281,1.976,0.000,2.755,0.000,0.000,0.000,0.000,0.000,0.000,0.000,0.000,0.000,0.000,0.000,3.142,0.001,0.000,1.003,1.570,1.570,4.086,6.281,1.199,4.712,0.000,0.000,3.829,-8.263,0.990,5.847,4.707,4.714,5.282,4.712,4.712,2.198,6.282,5.083,1.570,0.000,0.000,4.106,-7.668,0.991,5.846,4.709,4.713,
33.000,55.458,4.423,-8.180,2.794,0.875,1.030,0.000,0.000,1.020,0.979,0.000,2.405,0.000,2.119,1.681,2.048,0.000,2.685,0.000,0.000,0.000,0.000,0.000,0.000,0.000,0.000,0.000,0.000,0.000,3.142,0.001,0.000,1.003,1.570,1.570,4.085,6.281,1.199,4.712,0.000,0.000,3.757,-8.288,0.990,5.935,4.707,4.713,5.282,4.712,4.712,2.198,6.282,5.083,1.570,0.000,0.000,3.981,-7.671,0.991,5.935,4.709,4.713,
33.084,55.543,4.358,-8.158,2.864,0.878,1.024,4.954,0.000,0.998,0.794,0.000,3.076,4.897,1.988,1.660,2.131,0.000,2.650,0.000,0.000,0.000,0.000,0.000,0.000,0.000,0.000,0.000,0.000,0.000,3.142,0.001,0.000,1.003,1.570,1.570,4.085,6.281,1.199,4.712,0.000,0.000,3.701,-8.312,0.990,6.006,4.707,4.713,5.282,4.712,4.712,2.198,6.282,5.083,1.570,0.000,0.000,3.881,-7.681,0.991,6.005,4.709,4.713,
33.200,55.658,4.257,-8.133,2.969,0.875,1.020,0.000,0.000,0.969,0.829,0.000,3.596,0.000,1.841,1.652,1.765,0.000,2.545,4.380,0.000,0.000,0.000,0.000,0.000,0.000,0.000,0.000,0.000,0.000,3.142,0.001,0.000,1.003,1.570,1.570,4.086,6.281,1.199,4.712,0.000,0.000,3.621,-8.355,0.990,6.111,4.708,4.712,5.282,4.712,4.712,2.198,6.282,5.083,1.570,0.000,0.000,3.733,-7.709,0.991,6.110,4.709,4.712,
33.291,55.750,4.173,-8.120,3.057,0.874,1.015,0.000,0.000,0.945,0.858,2.590,3.640,3.504,1.276,1.668,2.518,0.000,2.475,4.476,0.000,0.000,0.000,0.000,0.000,0.000,0.000,0.000,0.000,0.000,3.142,0.001,0.000,1.003,1.570,1.570,4.086,6.281,1.199,4.712,0.000,0.000,3.558,-8.398,0.990,6.198,4.708,4.712,5.282,4.712,4.712,2.198,6.282,5.083,1.570,0.000,0.000,3.613,-7.744,0.991,6.198,4.709,4.712,
33.400,55.858,4.087,-8.115,3.145,0.875,1.028,0.000,1.671,0.922,0.887,1.830,4.913,2.722,1.693,1.706,2.816,0.000,2.404,0.000,0.000,0.000,0.000,0.000,0.000,0.000,0.000,0.000,0.000,0.000,3.142,0.001,0.000,1.003,1.570,1.570,4.085,6.281,1.199,4.712,0.000,0.000,3.499,-8.446,0.990,0.003,4.708,4.711,5.282,4.712,4.712,2.198,6.282,5.083,1.570,0.000,0.000,3.496,-7.789,0.991,0.003,4.709,4.712,
33.495,55.954,3.997,-8.118,3.212,0.980,0.391,0.000,1.535,0.904,0.909,1.858,0.000,2.504,1.664,1.753,3.128,0.000,3.142,0.000,0.000,0.000,0.000,0.000,0.000,0.000,0.000,0.000,0.000,0.000,3.142,6.282,0.000,1.005,1.568,1.566,4.084,6.282,1.199,4.712,0.000,0.000,3.434,-8.489,0.990,0.074,4.708,4.711,5.282,4.711,4.709,2.198,6.283,5.083,1.570,0.000,0.000,3.387,-7.834,0.991,0.074,4.708,4.711,
33.600,56.058,3.895,-8.125,3.217,1.082,6.269,0.000,1.516,0.895,0.902,1.971,0.000,2.501,1.670,1.765,3.168,0.000,3.142,0.000,0.000,0.000,0.000,0.000,0.000,0.000,0.000,0.000,0.000,0.000,3.142,6.282,0.000,1.004,1.569,1.569,4.084,6.281,1.199,4.712,0.000,0.000,3.333,-8.498,0.990,0.076,4.708,4.711,5.281,4.711,4.711,2.198,6.282,5.083,1.570,0.000,0.000,3.282,-7.844,0.990,0.076,4.708,4.711,
33.685,56.144,3.791,-8.133,3.217,1.026,6.268,4.920,1.504,0.887,0.948,2.760,0.000,2.513,1.678,1.773,3.184,0.000,3.142,0.000,0.000,0.000,0.000,0.000,0.000,0.000,0.000,0.000,0.000,0.000,3.142,6.283,0.000,1.003,1.569,1.569,4.085,6.281,1.199,4.712,0.000,0.000,3.228,-8.506,0.990,0.076,4.707,4.711,5.281,4.711,4.711,2.198,6.282,5.083,1.570,0.000,0.000,3.178,-7.851,0.990,0.076,4.708,4.711,
33.800,56.258,3.693,-8.141,3.217,0.975,6.269,4.823,0.000,0.879,0.940,2.872,0.000,2.524,1.685,1.782,3.200,0.000,3.142,0.000,0.000,0.000,0.000,0.000,0.000,0.000,0.000,0.000,0.000,0.000,3.142,6.282,0.000,1.004,1.569,1.569,4.085,6.281,1.199,4.712,0.000,0.000,3.131,-8.513,0.990,0.076,4.708,4.711,5.281,4.711,4.711,2.198,6.282,5.083,1.570,0.000,0.000,3.081,-7.859,0.990,0.076,4.708,4.711,
33.900,56.358,3.597,-8.148,3.218,1.005,6.268,4.727,0.000,0.872,0.932,2.983,0.000,2.534,1.693,1.790,3.215,0.000,3.142,0.000,0.000,0.000,0.000,0.000,0.000,0.000,0.000,0.000,0.000,0.000,3.142,6.282,0.000,1.004,1.569,1.569,4.084,6.281,1.199,4.712,0.000,0.000,3.034,-8.521,0.990,0.077,4.708,4.711,5.281,4.711,4.711,2.198,6.282,5.083,1.570,0.000,0.000,2.984,-7.867,0.990,0.077,4.708,4.711,
34.000,56.458,3.496,-8.156,3.218,1.031,6.268,4.628,4.921,0.864,0.924,3.098,0.000,2.546,1.701,1.319,3.231,0.000,3.142,0.000,0.000,0.000,0.000,0.000,0.000,0.000,0.000,0.000,0.000,0.000,3.142,6.282,0.000,1.004,1.569,1.569,4.085,6.281,1.199,4.712,0.000,0.000,2.934,-8.529,0.990,0.077,4.708,4.711,5.281,4.711,4.711,2.198,6.282,5.083,1.570,0.000,0.000,2.884,-7.875,0.990,0.077,4.708,4.711,
34.100,56.558,3.416,-8.162,3.218,1.019,6.267,4.548,4.814,0.857,0.917,3.190,0.000,2.554,1.707,1.329,2.451,0.000,3.142,0.000,0.000,0.000,0.000,0.000,0.000,0.000,0.000,0.000,0.000,0.000,3.142,6.282,0.000,1.004,1.569,1.569,4.085,6.281,1.199,4.712,0.000,0.000,2.854,-8.535,0.990,0.077,4.708,4.711,5.281,4.711,4.711,2.198,6.282,5.083,1.570,0.000,0.000,2.803,-7.881,0.990,0.077,4.708,4.711,
34.200,56.658,3.297,-8.171,3.215,1.002,6.067,0.000,4.644,0.849,0.906,3.425,0.000,2.577,1.718,1.813,2.390,0.000,3.142,0.000,0.000,0.000,0.000,0.000,0.000,0.000,0.000,0.000,0.000,0.000,3.142,6.281,0.001,1.004,1.568,1.567,4.084,6.281,1.199,4.712,0.000,0.000,2.734,-8.544,0.990,0.076,4.708,4.711,5.281,4.710,4.710,2.197,6.282,5.083,1.570,0.000,0.000,2.685,-7.889,0.990,0.076,4.707,4.711,
34.282,56.740,3.218,-8.177,3.174,1.009,5.284,0.000,4.381,0.851,0.885,0.000,0.000,2.721,1.742,1.789,2.284,0.000,3.142,0.000,0.000,0.000,0.000,0.000,0.000,0.000,0.000,0.000,0.000,0.000,3.142,6.280,0.001,1.005,1.567,1.565,4.084,6.282,1.199,4.711,0.000,0.000,2.641,-8.527,0.990,0.037,4.708,4.710,5.281,4.710,4.708,2.197,6.282,5.083,1.570,0.000,0.000,2.619,-7.871,0.990,0.036,4.707,4.711,
34.400,56.858,3.098,-8.177,3.086,1.019,5.943,0.000,3.961,1.013,0.858,1.356,4.709,3.077,1.794,1.740,2.701,0.000,3.036,0.000,0.000,0.000,0.000,0.000,0.000,0.000,0.000,0.000,0.000,0.000,3.142,6.282,0.000,1.004,1.570,1.571,4.085,6.281,1.199,4.712,0.000,0.000,2.492,-8.471,0.990,6.226,4.707,4.712,5.282,4.712,4.713,2.198,6.281,5.083,1.571,0.000,0.000,2.528,-7.816,0.991,6.226,4.708,4.712,
34.500,56.958,2.999,-8.171,3.083,1.011,6.261,0.000,3.833,1.020,0.863,1.360,4.810,3.082,1.790,1.732,2.681,0.000,3.036,0.000,0.000,0.000,0.000,0.000,0.000,0.000,0.000,0.000,0.000,0.000,3.142,6.283,0.000,1.003,1.569,1.569,4.085,6.281,1.199,4.712,0.000,0.000,2.391,-8.465,0.990,6.225,4.707,4.712,5.281,4.711,4.711,2.198,6.282,5.083,1.570,0.000,0.000,2.430,-7.810,0.990,6.225,4.708,4.712,
34.600,57.058,2.919,-8.167,3.084,1.007,6.261,0.000,3.739,0.000,0.868,1.368,4.889,3.070,1.784,1.728,2.056,0.000,3.036,0.000,0.000,0.000,0.000,0.000,0.000,0.000,0.000,0.000,0.000,0.000,3.142,6.283,0.000,1.003,1.569,1.569,4.085,6.281,1.199,4.712,0.000,0.000,2.312,-8.461,0.990,6.225,4.708,4.712,5.281,4.711,4.711,2.198,6.282,5.083,1.570,0.000,0.000,2.350,-7.806,0.990,6.225,4.708,4.712,
