deveshdatwani/Gopher/Assets/Data/07-21 10-10-19/Obstacle Handling_robot_value.csv
game_time,true_time,x,y,az,vx,vaz,dis_to_obs_0,dis_to_obs_36,dis_to_obs_72,dis_to_obs_108,dis_to_obs_144,dis_to_obs_180,dis_to_obs_-144,dis_to_obs_-108,dis_to_obs_-72,dis_to_obs_-36,dis_to_min_obs,direction_to_min_obs,dis_to_human_0,dis_to_human_36,dis_to_human_72,dis_to_human_108,dis_to_human_144,dis_to_human_180,dis_to_human_-144,dis_to_human_-108,dis_to_human_-72,dis_to_human_-36,dis_to_min_human,direction_to_min_human,main_cam_yaw,main_cam_pitch,left_joint_1,left_joint_2,left_joint_3,left_joint_4,left_joint_5,left_joint_6,left_joint_7,left_joint_gripper,left_is_grasping,left_end_x,left_end_y,left_end_z,left_end_ax,left_end_ay,left_end_az,right_joint_1,right_joint_2,right_joint_3,right_joint_4,right_joint_5,right_joint_6,right_joint_7,right_joint_gripper,right_is_grasping,right_end_x,right_end_y,right_end_z,right_end_ax,right_end_ay,right_end_az,
7.985,15.387,0.996,-9.902,1.579,1.007,0.155,3.403,0.000,2.152,1.257,2.126,0.000,3.356,2.097,1.699,4.140,0.000,3.142,0.000,0.000,0.000,0.000,0.000,0.000,0.000,0.000,0.000,0.000,0.000,3.142,0.000,0.000,1.003,1.570,1.570,4.086,6.281,1.199,4.712,0.000,0.000,0.664,-9.315,0.990,4.721,4.048,5.376,5.281,4.712,4.712,2.199,6.282,5.083,1.570,0.000,0.000,1.320,-9.310,0.990,4.720,4.189,5.235,
8.100,15.502,0.995,-9.804,1.632,0.996,1.139,3.314,0.000,1.717,1.282,2.312,0.000,3.138,2.067,1.735,3.882,0.000,3.142,0.000,0.000,0.000,0.000,0.000,0.000,0.000,0.000,0.000,0.000,0.000,3.142,0.001,0.000,1.003,1.571,1.572,4.086,6.281,1.199,4.712,0.000,0.000,0.633,-9.235,0.990,4.771,4.627,4.798,5.282,4.713,4.714,2.199,6.282,5.083,1.571,0.000,0.000,1.287,-9.196,0.991,4.771,4.660,4.765,
8.200,15.602,0.988,-9.725,1.728,1.011,1.431,3.275,0.000,1.907,1.336,2.756,0.000,2.835,2.034,0.000,3.594,0.000,3.142,0.000,3.527,0.000,0.000,0.000,0.000,0.000,0.000,0.000,0.000,0.000,3.142,0.001,0.000,1.003,1.571,1.570,4.085,6.282,1.199,4.712,0.000,0.000,0.572,-9.194,0.990,4.869,4.684,4.740,5.282,4.713,4.713,2.198,6.282,5.083,1.571,0.000,0.000,1.221,-9.091,0.991,4.868,4.692,4.732,
8.299,15.701,0.965,-9.606,1.855,1.027,0.934,3.253,0.000,1.743,1.419,3.737,0.000,2.566,1.638,0.000,3.284,0.000,3.142,0.000,3.320,0.000,0.000,0.000,0.000,0.000,0.000,0.000,0.000,0.000,3.142,0.001,0.000,1.003,1.570,1.569,4.085,6.282,1.199,4.712,0.000,0.000,0.484,-9.133,0.990,4.998,4.696,4.727,5.282,4.712,4.711,2.198,6.283,5.083,1.570,0.000,0.000,1.114,-8.949,0.991,4.997,4.700,4.723,
8.400,15.802,0.935,-9.510,1.926,1.016,0.833,3.233,0.000,1.691,1.460,0.000,3.650,2.475,1.669,4.787,3.114,0.000,3.071,0.000,0.000,0.000,0.000,0.000,0.000,0.000,0.000,0.000,0.000,0.000,3.142,0.001,0.000,1.003,1.570,1.570,4.086,6.281,1.199,4.712,0.000,0.000,0.422,-9.072,0.990,5.067,4.698,4.725,5.281,4.712,4.712,2.198,6.282,5.083,1.570,0.000,0.000,1.037,-8.844,0.991,5.067,4.702,4.721,
8.500,15.902,0.898,-9.418,2.007,1.005,1.044,3.411,0.000,1.634,1.520,0.000,3.641,2.399,1.718,4.233,2.965,0.000,3.001,0.000,0.000,0.000,0.000,0.000,0.000,0.000,0.000,0.000,0.000,0.000,3.142,0.001,0.000,1.003,1.570,1.570,4.086,6.281,1.199,4.712,0.000,0.000,0.352,-9.022,0.990,5.147,4.701,4.722,5.282,4.712,4.713,2.198,6.282,5.083,1.570,0.000,0.000,0.947,-8.745,0.991,5.147,4.705,4.719,
8.582,15.984,0.863,-9.346,2.082,1.010,1.092,2.951,0.000,1.583,1.594,0.000,3.827,2.348,0.000,3.837,2.862,0.000,2.931,0.000,0.000,0.000,0.000,0.000,0.000,0.000,0.000,0.000,0.000,0.000,3.142,0.001,0.000,1.003,1.570,1.570,4.085,6.282,1.199,4.712,0.000,0.000,0.289,-8.993,0.990,5.223,4.703,4.720,5.282,4.712,4.712,2.198,6.282,5.083,1.570,0.000,0.000,0.861,-8.672,0.991,5.223,4.706,4.717,
8.700,16.102,0.801,-9.244,2.190,1.019,0.979,0.000,1.778,1.522,1.721,0.000,3.791,2.317,0.000,3.389,2.744,0.000,2.826,0.000,0.000,0.000,0.000,0.000,0.000,0.000,0.000,0.000,0.000,0.000,3.142,0.001,0.000,1.003,1.570,1.570,4.085,6.282,1.199,4.712,0.000,0.000,0.192,-8.954,0.990,5.331,4.704,4.718,5.282,4.712,4.712,2.198,6.282,5.083,1.570,0.000,0.000,0.727,-8.574,0.991,5.331,4.707,4.716,
8.797,16.199,0.754,-9.179,2.257,1.016,0.975,0.000,1.485,1.490,1.817,0.000,3.547,1.909,0.000,3.163,2.686,0.000,2.791,0.000,0.000,0.000,0.000,0.000,0.000,0.000,0.000,0.000,0.000,0.000,3.142,0.001,0.000,1.003,1.570,1.570,4.086,6.281,1.199,4.712,0.000,0.000,0.127,-8.931,0.990,5.398,4.705,4.717,5.282,4.712,4.712,2.198,6.282,5.083,1.570,0.000,0.000,0.635,-8.515,0.991,5.397,4.707,4.716,
8.900,16.302,0.675,-9.089,2.360,1.012,1.020,0.000,1.207,1.445,2.021,0.000,3.275,1.949,0.000,2.885,2.629,0.000,2.685,2.984,0.000,0.000,0.000,0.000,0.000,0.000,0.000,0.000,0.000,0.000,3.142,0.001,0.000,1.003,1.570,1.570,4.086,6.281,1.199,4.712,0.000,0.000,0.026,-8.907,0.990,5.501,4.706,4.716,5.282,4.712,4.712,2.198,6.282,5.083,1.570,0.000,0.000,0.488,-8.441,0.991,5.501,4.708,4.715,
9.000,16.402,0.603,-9.020,2.449,1.013,1.035,4.615,1.047,1.411,2.293,0.000,3.115,2.003,4.664,2.701,2.611,0.000,2.615,0.000,0.000,0.000,0.000,0.000,0.000,0.000,0.000,0.000,0.000,0.000,3.142,0.001,0.000,1.003,1.570,1.570,4.085,6.281,1.199,4.712,0.000,0.000,-0.060,-8.897,0.990,5.590,4.706,4.715,5.282,4.712,4.712,2.198,6.282,5.083,1.570,0.000,0.000,0.359,-8.392,0.991,5.590,4.708,4.714,
9.095,16.498,0.540,-8.970,2.519,1.015,1.021,4.345,0.977,1.386,2.623,0.000,3.027,0.000,4.129,2.584,2.615,0.000,2.545,0.000,0.000,0.000,0.000,0.000,0.000,0.000,0.000,0.000,0.000,0.000,3.142,0.001,0.000,1.003,1.570,1.570,4.085,6.281,1.199,4.712,0.000,0.000,-0.130,-8.894,0.990,5.661,4.707,4.715,5.282,4.712,4.712,2.198,6.282,5.083,1.570,0.000,0.000,0.253,-8.360,0.991,5.660,4.708,4.714,
9.200,16.602,0.441,-8.904,2.620,1.015,0.773,4.974,0.896,1.352,3.501,4.293,2.952,0.000,3.558,2.451,2.167,0.000,2.475,0.000,0.000,0.000,0.000,0.000,0.000,0.000,0.000,0.000,0.000,0.000,3.142,0.001,0.000,1.004,1.570,1.568,4.085,6.282,1.199,4.712,0.000,0.000,-0.234,-8.895,0.990,5.763,4.707,4.714,5.282,4.712,4.711,2.198,6.282,5.083,1.570,0.000,0.000,0.093,-8.326,0.991,5.762,4.708,4.713,
9.281,16.684,0.354,-8.855,2.643,1.012,6.249,0.000,0.805,1.325,3.462,4.398,3.013,0.000,3.399,2.391,2.293,0.000,2.440,0.000,0.000,0.000,0.000,0.000,0.000,0.000,0.000,0.000,0.000,0.000,3.142,6.282,0.000,1.004,1.569,1.568,4.085,6.281,1.199,4.712,0.000,0.000,-0.321,-8.863,0.990,5.787,4.707,4.714,5.281,4.711,4.710,2.198,6.282,5.083,1.570,0.000,0.000,-0.008,-8.286,0.990,5.787,4.707,4.714,
9.400,16.802,0.267,-8.807,2.643,1.009,6.269,4.989,0.801,1.297,2.902,4.452,3.112,0.000,3.331,2.343,2.240,0.000,2.475,0.000,0.000,0.000,0.000,0.000,0.000,0.000,0.000,0.000,0.000,0.000,3.142,6.282,0.000,1.004,1.569,1.569,4.085,6.281,1.199,4.712,0.000,0.000,-0.408,-8.815,0.990,5.785,4.707,4.714,5.281,4.711,4.711,2.198,6.282,5.083,1.570,0.000,0.000,-0.095,-8.238,0.990,5.786,4.707,4.714,
9.500,16.902,0.197,-8.769,2.643,1.011,6.268,4.908,0.797,1.274,2.455,4.495,3.191,0.000,3.275,2.304,2.198,0.000,2.475,0.000,0.000,0.000,0.000,0.000,0.000,0.000,0.000,0.000,0.000,0.000,3.142,6.282,0.000,1.004,1.569,1.569,4.085,6.281,1.199,4.712,0.000,0.000,-0.478,-8.777,0.990,5.786,4.707,4.714,5.281,4.711,4.711,2.198,6.282,5.083,1.570,0.000,0.000,-0.165,-8.200,0.990,5.786,4.707,4.714,
9.600,17.002,0.109,-8.722,2.625,1.013,5.651,4.643,0.812,1.246,1.695,4.744,3.325,0.000,3.270,2.263,2.126,0.000,2.510,0.000,0.000,0.000,0.000,0.000,0.000,0.000,0.000,0.000,0.000,0.000,3.142,6.281,0.001,1.004,1.568,1.566,4.084,6.281,1.199,4.711,0.000,0.000,-0.566,-8.719,0.990,5.771,4.707,4.713,5.281,4.710,4.708,2.197,6.282,5.083,1.570,0.000,0.000,-0.243,-8.148,0.990,5.771,4.706,4.714,
9.700,17.102,0.007,-8.660,2.505,1.011,4.884,3.724,0.974,0.550,1.380,0.000,3.722,0.000,3.680,2.269,1.962,0.000,2.650,0.000,0.000,0.000,0.000,0.000,0.000,0.000,0.000,0.000,0.000,0.000,3.142,6.280,0.001,1.004,1.568,1.566,4.085,6.281,1.199,4.712,0.000,0.000,-0.664,-8.576,0.990,5.650,4.706,4.714,5.282,4.711,4.709,2.197,6.282,5.083,1.570,0.000,0.000,-0.274,-8.047,0.991,5.649,4.707,4.714,
9.793,17.196,-0.072,-8.599,2.410,1.008,5.780,3.874,3.189,0.582,1.306,0.000,4.127,4.036,4.136,2.285,1.704,0.000,2.931,0.000,0.000,0.000,0.000,0.000,0.000,0.000,0.000,0.000,0.000,0.000,3.142,6.282,0.000,1.004,1.570,1.571,4.085,6.280,1.199,4.712,0.000,0.000,-0.729,-8.449,0.990,5.550,4.706,4.716,5.282,4.712,4.713,2.198,6.281,5.083,1.571,0.000,0.000,-0.291,-7.961,0.991,5.550,4.707,4.715,
9.900,17.302,-0.145,-8.532,2.405,1.011,6.279,3.795,3.117,0.607,1.298,0.000,4.248,4.398,4.044,2.218,1.634,0.000,2.966,0.000,0.000,0.000,0.000,0.000,0.000,0.000,0.000,0.000,0.000,0.000,3.142,6.283,0.000,1.003,1.569,1.569,4.085,6.281,1.199,4.712,0.000,0.000,-0.803,-8.380,0.990,5.546,4.706,4.716,5.281,4.711,4.711,2.198,6.282,5.083,1.570,0.000,0.000,-0.362,-7.894,0.990,5.546,4.707,4.716,
10.000,17.402,-0.219,-8.466,2.406,1.013,6.269,3.693,3.042,0.631,0.558,0.000,4.342,0.000,3.902,2.144,1.720,0.000,3.001,0.000,0.000,0.000,0.000,0.000,0.000,0.000,0.000,0.000,0.000,0.000,3.142,6.283,0.000,1.003,1.569,1.569,4.085,6.281,1.199,4.712,0.000,0.000,-0.877,-8.314,0.990,5.547,4.706,4.716,5.281,4.711,4.712,2.198,6.282,5.083,1.570,0.000,0.000,-0.436,-7.827,0.990,5.548,4.707,4.716,
10.082,17.485,-0.278,-8.412,2.407,1.012,6.261,3.612,2.983,0.650,0.575,0.000,4.419,0.000,3.790,2.085,1.654,0.000,3.001,0.000,0.000,0.000,0.000,0.000,0.000,0.000,0.000,0.000,0.000,0.000,3.142,6.283,0.000,1.003,1.569,1.569,4.085,6.281,1.199,4.712,0.000,0.000,-0.936,-8.261,0.990,5.548,4.706,4.716,5.281,4.711,4.711,2.198,6.282,5.083,1.570,0.000,0.000,-0.496,-7.774,0.990,5.548,4.707,4.716,
10.200,17.602,-0.367,-8.332,2.408,1.011,6.262,3.491,0.000,0.678,0.600,0.000,4.534,0.000,3.625,1.997,1.573,0.000,3.036,0.000,0.000,0.000,0.000,0.000,0.000,0.000,0.000,0.000,0.000,0.000,3.142,6.283,0.000,1.003,1.569,1.569,4.085,6.281,1.199,4.712,0.000,0.000,-1.025,-8.182,0.990,5.549,4.706,4.716,5.281,4.711,4.711,2.198,6.282,5.083,1.570,0.000,0.000,-0.585,-7.694,0.990,5.550,4.707,4.716,
10.300,17.702,-0.426,-8.279,2.408,1.012,6.260,3.410,0.000,0.696,0.617,0.000,4.611,0.000,3.516,1.938,1.518,0.000,3.036,0.000,0.000,0.000,0.000,0.000,0.000,0.000,0.000,0.000,0.000,0.000,3.142,6.283,0.000,1.003,1.569,1.569,4.085,6.281,1.199,4.712,0.000,0.000,-1.084,-8.129,0.990,5.550,4.706,4.716,5.281,4.711,4.711,2.198,6.282,5.083,1.570,0.000,0.000,-0.645,-7.641,0.990,5.550,4.706,4.716,
10.400,17.802,-0.500,-8.212,2.409,1.012,6.261,3.310,0.000,0.720,0.638,0.000,4.707,0.000,3.380,1.865,1.450,0.000,3.071,0.000,0.000,0.000,0.000,0.000,0.000,0.000,0.000,0.000,0.000,0.000,3.142,6.283,0.000,1.004,1.569,1.569,4.085,6.281,1.199,4.712,0.000,0.000,-1.158,-8.063,0.990,5.551,4.706,4.716,5.281,4.711,4.711,2.198,6.282,5.083,1.570,0.000,0.000,-0.719,-7.575,0.990,5.551,4.706,4.716,
10.500,17.902,-0.589,-8.133,2.410,1.011,6.262,3.190,0.000,2.827,0.663,0.000,4.823,0.000,3.218,1.778,1.369,0.000,3.071,0.000,0.000,0.000,0.000,0.000,0.000,0.000,0.000,0.000,0.000,0.000,3.142,6.282,0.000,1.004,1.569,1.569,4.085,6.281,1.199,4.712,0.000,0.000,-1.247,-7.984,0.990,5.552,4.706,4.716,5.281,4.711,4.711,2.198,6.282,5.083,1.570,0.000,0.000,-0.809,-7.495,0.990,5.552,4.706,4.716,
10.589,17.991,-0.663,-8.066,2.411,1.011,6.263,3.090,0.000,2.742,0.683,0.940,4.920,0.000,2.214,1.705,1.301,0.000,3.106,0.000,0.000,0.000,0.000,0.000,0.000,0.000,0.000,0.000,0.000,0.000,3.142,6.282,0.000,1.004,1.569,1.569,4.085,6.281,1.199,4.712,0.000,0.000,-1.321,-7.918,0.990,5.552,4.706,4.716,5.281,4.711,4.711,2.198,6.282,5.083,1.570,0.000,0.000,-0.883,-7.429,0.990,5.553,4.706,4.716,
10.700,18.102,-0.737,-8.000,2.411,1.012,6.263,2.991,0.000,2.656,0.704,0.969,0.000,0.000,2.950,1.632,4.832,0.000,3.142,0.000,0.000,0.000,0.000,0.000,0.000,0.000,0.000,0.000,0.000,0.000,3.142,6.282,0.000,1.004,1.569,1.569,4.085,6.281,1.199,4.712,0.000,0.000,-1.395,-7.852,0.990,5.553,4.706,4.716,5.281,4.711,4.711,2.198,6.282,5.083,1.570,0.000,0.000,-0.958,-7.363,0.990,5.553,4.706,4.716,
10.800,18.202,-0.811,-7.933,2.412,1.012,6.264,2.891,0.000,2.570,0.725,0.998,0.000,0.000,2.817,1.560,4.948,0.000,3.142,0.000,0.000,0.000,0.000,0.000,0.000,0.000,0.000,0.000,0.000,0.000,3.142,6.282,0.000,1.004,1.569,1.569,4.085,6.281,1.199,4.712,0.000,0.000,-1.470,-7.786,0.990,5.554,4.706,4.716,5.281,4.711,4.711,2.198,6.282,5.083,1.570,0.000,0.000,-1.032,-7.297,0.990,5.554,4.706,4.716,
10.900,18.302,-0.871,-7.880,2.412,1.012,6.264,2.812,0.000,2.354,0.988,1.021,0.000,0.000,2.711,1.025,0.000,0.000,3.142,0.000,0.000,0.000,0.000,0.000,0.000,0.000,0.000,0.000,0.000,0.000,3.142,6.282,0.000,1.004,1.569,1.569,4.085,6.281,1.199,4.712,0.000,0.000,-1.529,-7.733,0.990,5.554,4.706,4.716,5.281,4.711,4.711,2.198,6.282,5.083,1.570,0.000,0.000,-1.092,-7.244,0.990,5.554,4.706,4.716,
11.000,18.402,-0.960,-7.801,2.413,1.012,6.264,2.693,0.000,2.397,1.464,1.056,0.000,0.000,2.552,1.415,0.000,0.000,3.142,0.000,0.000,0.000,0.000,0.000,0.000,0.000,0.000,0.000,0.000,0.000,3.142,6.282,0.000,1.004,1.569,1.569,4.085,6.281,1.199,4.712,0.000,0.000,-1.618,-7.654,0.990,5.555,4.706,4.716,5.281,4.711,4.711,2.198,6.282,5.083,1.570,0.000,0.000,-1.182,-7.164,0.990,5.555,4.706,4.716,
11.095,18.497,-1.019,-7.748,2.413,1.012,6.265,2.614,0.000,2.384,1.521,1.078,0.000,0.000,2.446,1.033,0.000,0.000,3.142,0.000,0.000,0.000,0.000,0.000,0.000,0.000,0.000,0.000,0.000,0.000,3.142,6.282,0.000,1.004,1.569,1.569,4.085,6.281,1.199,4.712,0.000,0.000,-1.678,-7.601,0.990,5.555,4.706,4.716,5.281,4.711,4.711,2.198,6.282,5.083,1.570,0.000,0.000,-1.241,-7.112,0.990,5.555,4.706,4.716,
11.200,18.602,-1.108,-7.669,2.414,1.011,6.264,2.495,0.000,2.533,1.606,1.113,0.000,0.000,2.288,0.946,0.000,0.000,3.142,0.000,0.000,0.000,0.000,0.000,0.000,0.000,0.000,0.000,0.000,0.000,3.142,6.282,0.000,1.004,1.569,1.569,4.085,6.281,1.199,4.712,0.000,0.000,-1.767,-7.522,0.990,5.556,4.706,4.716,5.281,4.711,4.711,2.198,6.282,5.083,1.570,0.000,0.000,-1.331,-7.032,0.990,5.556,4.706,4.716,
11.300,18.702,-1.183,-7.602,2.414,1.012,6.265,2.396,0.000,2.431,1.678,1.141,0.000,0.000,2.157,0.874,0.000,0.000,3.142,0.000,0.000,0.000,0.000,0.000,0.000,0.000,0.000,0.000,0.000,0.000,3.142,6.282,0.000,1.004,1.569,1.569,4.085,6.281,1.199,4.712,0.000,0.000,-1.841,-7.456,0.990,5.556,4.706,4.716,5.281,4.711,4.711,2.198,6.282,5.083,1.570,0.000,0.000,-1.405,-6.966,0.990,5.556,4.706,4.716,
11.400,18.802,-1.257,-7.536,2.415,1.012,6.265,2.297,4.994,2.344,1.749,1.170,0.000,0.000,2.026,0.802,0.000,0.000,3.142,0.000,0.000,0.000,0.000,0.000,0.000,0.000,0.000,0.000,0.000,0.000,3.142,6.282,0.000,1.004,1.569,1.569,4.085,6.281,1.199,4.712,0.000,0.000,-1.916,-7.391,0.990,5.557,4.706,4.716,5.281,4.711,4.711,2.198,6.282,5.083,1.570,0.000,0.000,-1.480,-6.900,0.990,5.557,4.706,4.716,
11.500,18.902,-1.317,-7.483,2.415,1.012,6.265,2.218,4.898,2.274,1.805,1.192,0.000,0.000,1.922,0.818,0.000,0.000,3.142,0.000,0.000,0.000,0.000,0.000,0.000,0.000,0.000,0.000,0.000,0.000,3.142,6.282,0.000,1.004,1.569,1.569,4.085,6.281,1.199,4.712,0.000,0.000,-1.975,-7.338,0.990,5.557,4.706,4.716,5.281,4.711,4.711,2.198,6.282,5.083,1.570,0.000,0.000,-1.540,-6.847,0.990,5.557,4.706,4.716,
11.600,19.002,-1.406,-7.404,2.416,1.012,6.265,2.099,4.808,2.170,3.770,1.227,0.000,0.000,1.043,1.047,0.000,0.000,3.142,0.000,0.000,0.000,0.000,0.000,0.000,0.000,0.000,0.000,0.000,0.000,3.142,6.282,0.000,1.004,1.569,1.569,4.085,6.281,1.199,4.712,0.000,0.000,-2.065,-7.259,0.990,5.558,4.706,4.716,5.281,4.711,4.711,2.198,6.282,5.083,1.570,0.000,0.000,-1.629,-6.768,0.990,5.558,4.706,4.716,
11.700,19.102,-1.480,-7.338,2.416,1.012,6.265,2.000,4.733,2.083,3.840,1.338,0.000,0.000,1.635,1.239,0.000,0.000,3.142,0.000,0.000,0.000,0.000,0.000,0.000,0.000,0.000,0.000,0.000,0.000,3.142,6.282,0.000,1.004,1.569,1.569,4.085,6.281,1.199,4.712,0.000,0.000,-2.139,-7.193,0.990,5.558,4.706,4.716,5.281,4.711,4.711,2.198,6.282,5.083,1.570,0.000,0.000,-1.704,-6.702,0.990,5.558,4.706,4.716,
11.782,19.184,-1.536,-7.289,2.411,0.861,5.968,1.936,4.679,2.011,3.864,1.451,0.000,0.000,0.966,0.000,0.000,0.000,3.142,0.000,0.000,0.000,0.000,0.000,0.000,0.000,0.000,0.000,0.000,0.000,3.142,6.282,0.001,1.003,1.569,1.568,4.086,6.281,1.199,4.712,0.000,0.000,-2.195,-7.141,0.990,5.554,4.705,4.716,5.281,4.711,4.710,2.197,6.282,5.083,1.570,0.000,0.000,-1.757,-6.652,0.990,5.554,4.705,4.716,
11.900,19.302,-1.599,-7.231,2.317,0.499,4.975,2.026,4.068,1.970,3.022,1.747,0.000,0.000,1.018,0.000,0.000,0.000,3.142,0.000,0.000,0.000,0.000,0.000,0.000,0.000,0.000,0.000,0.000,0.000,3.142,6.283,0.001,1.002,1.569,1.567,4.090,6.281,1.199,4.712,0.000,0.000,-2.242,-7.022,0.989,5.461,4.701,4.719,5.281,4.711,4.710,2.198,6.282,5.083,1.570,0.000,0.000,-1.759,-6.577,0.990,5.460,4.705,4.716,
12.000,19.402,-1.606,-7.225,2.200,-0.225,4.954,2.315,2.513,4.950,2.249,1.933,0.000,0.000,2.292,1.052,3.786,0.000,3.142,0.000,0.000,0.000,0.000,0.000,0.000,0.000,0.000,0.000,0.000,0.000,3.142,0.001,0.001,1.000,1.571,1.571,4.091,6.281,1.199,4.712,0.000,0.000,-2.218,-6.939,0.990,5.339,4.700,4.721,5.281,4.713,4.713,2.199,6.282,5.083,1.570,0.000,0.000,-1.686,-6.555,0.990,5.339,4.706,4.717,
12.084,19.487,-1.593,-7.243,2.108,-0.283,5.119,2.672,1.631,4.874,2.281,1.918,1.894,4.824,3.261,0.915,4.885,0.000,1.387,0.000,0.000,0.000,0.000,0.000,0.000,0.000,0.000,0.000,0.000,0.000,3.142,6.281,0.000,1.003,1.570,1.570,4.085,6.281,1.199,4.712,0.000,0.000,-2.177,-6.905,0.990,5.249,4.704,4.719,5.282,4.712,4.712,2.199,6.282,5.083,1.571,0.000,0.000,-1.613,-6.569,0.991,5.248,4.706,4.717,
12.200,19.602,-1.588,-7.252,2.004,0.053,5.359,2.613,1.603,0.000,2.327,1.931,1.595,4.790,2.799,0.813,3.614,0.000,1.492,0.000,0.000,0.000,0.000,0.000,0.000,0.000,0.000,0.000,0.000,0.000,3.142,6.280,0.000,1.005,1.568,1.568,4.083,6.281,1.199,4.712,0.000,0.000,-2.134,-6.857,0.990,5.147,4.704,4.719,5.282,4.711,4.710,2.197,6.282,5.083,1.570,0.000,0.000,-1.539,-6.580,0.990,5.147,4.702,4.721,
12.294,19.696,-1.591,-7.246,1.917,0.095,5.141,2.510,1.680,0.000,2.148,3.772,1.432,0.000,0.000,0.758,3.679,0.000,1.422,0.000,0.000,0.000,0.000,0.000,0.000,0.000,0.000,0.000,0.000,0.000,3.142,6.281,0.001,1.004,1.568,1.567,4.085,6.281,1.199,4.712,0.000,0.000,-2.101,-6.803,0.990,5.061,4.699,4.724,5.282,4.711,4.710,2.198,6.282,5.083,1.570,0.000,0.000,-1.484,-6.580,0.991,5.060,4.700,4.723,
12.400,19.802,-1.593,-7.240,1.818,0.008,5.166,2.896,1.802,4.611,1.993,3.895,1.550,0.000,0.000,0.817,2.961,0.000,1.527,0.000,0.000,0.000,0.000,0.000,0.000,0.000,0.000,0.000,0.000,0.000,3.142,6.281,0.001,1.003,1.569,1.569,4.086,6.281,1.199,4.712,0.000,0.000,-2.056,-6.749,0.990,4.960,4.691,4.732,5.281,4.712,4.712,2.198,6.282,5.083,1.570,0.000,0.000,-1.419,-6.589,0.990,4.959,4.695,4.729,
12.500,19.902,-1.593,-7.243,1.719,-0.053,5.133,0.000,1.966,0.000,1.879,3.247,1.732,0.000,0.000,0.977,0.000,0.000,1.773,0.000,0.000,0.000,0.000,0.000,0.000,0.000,0.000,0.000,0.000,0.000,3.142,6.281,0.001,1.004,1.569,1.568,4.085,6.281,1.199,4.712,0.000,0.000,-2.005,-6.709,0.990,4.862,4.680,4.743,5.281,4.711,4.711,2.198,6.282,5.083,1.570,0.000,0.000,-1.356,-6.612,0.991,4.861,4.684,4.739,
12.600,20.002,-1.592,-7.247,1.666,-0.029,5.958,4.452,2.078,4.090,2.016,2.926,1.919,0.000,0.000,1.834,1.199,0.000,1.702,0.000,0.000,0.000,0.000,0.000,0.000,0.000,0.000,0.000,0.000,0.000,3.142,6.282,0.000,1.003,1.570,1.572,4.085,6.280,1.199,4.712,0.000,0.000,-1.973,-6.691,0.990,4.804,4.663,4.762,5.281,4.712,4.714,2.198,6.281,5.083,1.571,0.000,0.000,-1.320,-6.629,0.991,4.804,4.669,4.756,
12.700,20.102,-1.592,-7.247,1.662,0.000,6.268,4.413,2.087,4.093,2.032,2.905,1.918,0.000,0.000,1.851,1.191,0.000,1.702,0.000,0.000,0.000,0.000,0.000,0.000,0.000,0.000,0.000,0.000,0.000,3.142,6.283,0.000,1.003,1.569,1.569,4.085,6.281,1.199,4.712,0.000,0.000,-1.973,-6.690,0.990,4.804,4.657,4.766,5.281,4.711,4.711,2.198,6.282,5.083,1.570,0.000,0.000,-1.320,-6.631,0.990,4.804,4.665,4.759,
12.800,20.202,-1.592,-7.247,1.662,0.000,6.268,4.413,2.087,4.093,2.032,2.905,1.918,0.000,0.000,1.851,1.191,0.000,1.702,0.000,0.000,0.000,0.000,0.000,0.000,0.000,0.000,0.000,0.000,0.000,3.142,6.283,0.000,1.003,1.569,1.569,4.085,6.281,1.199,4.712,0.000,0.000,-1.973,-6.690,0.990,4.803,4.657,4.766,5.281,4.711,4.712,2.198,6.282,5.083,1.570,0.000,0.000,-1.320,-6.631,0.990,4.803,4.665,4.759,
12.900,20.302,-1.592,-7.247,1.662,0.000,6.268,4.413,2.087,4.093,2.032,2.905,1.918,0.000,0.000,1.851,1.191,0.000,1.702,0.000,0.000,0.000,0.000,0.000,0.000,0.000,0.000,0.000,0.000,0.000,3.142,6.283,0.000,1.003,1.569,1.569,4.085,6.281,1.199,4.712,0.000,0.000,-1.973,-6.690,0.990,4.803,4.657,4.766,5.281,4.711,4.712,2.198,6.282,5.083,1.570,0.000,0.000,-1.320,-6.631,0.990,4.803,4.665,4.759,
12.992,20.394,-1.592,-7.247,1.662,0.000,6.268,4.413,2.087,4.093,2.032,2.905,1.918,0.000,0.000,1.851,1.191,0.000,1.702,0.000,0.000,0.000,0.000,0.000,0.000,0.000,0.000,0.000,0.000,0.000,3.142,6.283,0.000,1.003,1.569,1.569,4.085,6.281,1.199,4.712,0.000,0.000,-1.973,-6.690,0.990,4.803,4.657,4.766,5.281,4.711,4.712,2.198,6.282,5.083,1.570,0.000,0.000,-1.320,-6.631,0.990,4.803,4.665,4.759,
13.100,20.502,-1.592,-7.247,1.662,0.000,6.268,4.413,2.087,4.093,2.032,2.905,1.918,0.000,0.000,1.851,1.191,0.000,1.702,0.000,0.000,0.000,0.000,0.000,0.000,0.000,0.000,0.000,0.000,0.000,3.142,6.283,0.000,1.003,1.569,1.569,4.085,6.281,1.199,4.712,0.000,0.000,-1.973,-6.690,0.990,4.803,4.657,4.766,5.281,4.711,4.712,2.198,6.282,5.083,1.570,0.000,0.000,-1.320,-6.631,0.990,4.803,4.665,4.759,
13.185,20.587,-1.592,-7.247,1.662,0.000,6.268,4.413,2.087,4.093,2.032,2.905,1.918,0.000,0.000,1.851,1.191,0.000,1.702,0.000,0.000,0.000,0.000,0.000,0.000,0.000,0.000,0.000,0.000,0.000,3.142,6.283,0.000,1.003,1.569,1.569,4.085,6.281,1.199,4.712,0.000,0.000,-1.973,-6.690,0.990,4.803,4.657,4.766,5.281,4.711,4.712,2.198,6.282,5.083,1.570,0.000,0.000,-1.320,-6.631,0.990,4.803,4.665,4.759,
13.300,20.702,-1.592,-7.247,1.662,0.000,6.268,4.413,2.087,4.093,2.032,2.905,1.918,0.000,0.000,1.851,1.191,0.000,1.702,0.000,0.000,0.000,0.000,0.000,0.000,0.000,0.000,0.000,0.000,0.000,3.142,6.283,0.000,1.003,1.569,1.569,4.085,6.281,1.199,4.712,0.000,0.000,-1.973,-6.690,0.990,4.803,4.657,4.766,5.281,4.711,4.712,2.198,6.282,5.083,1.570,0.000,0.000,-1.320,-6.631,0.990,4.803,4.665,4.759,
13.400,20.802,-1.592,-7.247,1.662,0.000,6.268,4.413,2.087,4.093,2.032,2.905,1.918,0.000,0.000,1.851,1.191,0.000,1.702,0.000,0.000,0.000,0.000,0.000,0.000,0.000,0.000,0.000,0.000,0.000,3.142,6.283,0.000,1.003,1.569,1.569,4.085,6.281,1.199,4.712,0.000,0.000,-1.973,-6.690,0.990,4.803,4.657,4.766,5.281,4.711,4.712,2.198,6.282,5.083,1.570,0.000,0.000,-1.320,-6.631,0.990,4.803,4.665,4.759,
13.500,20.902,-1.592,-7.247,1.662,0.000,6.268,4.413,2.087,4.093,2.032,2.905,1.918,0.000,0.000,1.851,1.191,0.000,1.702,0.000,0.000,0.000,0.000,0.000,0.000,0.000,0.000,0.000,0.000,0.000,3.142,6.283,0.000,1.003,1.569,1.569,4.085,6.281,1.199,4.712,0.000,0.000,-1.973,-6.690,0.990,4.803,4.657,4.766,5.281,4.711,4.712,2.198,6.282,5.083,1.570,0.000,0.000,-1.320,-6.631,0.990,4.803,4.665,4.759,
13.596,20.999,-1.592,-7.247,1.662,0.000,6.268,4.413,2.087,4.093,2.032,2.905,1.918,0.000,0.000,1.851,1.191,0.000,1.702,0.000,0.000,0.000,0.000,0.000,0.000,0.000,0.000,0.000,0.000,0.000,3.142,6.283,0.000,1.003,1.569,1.569,4.085,6.281,1.199,4.712,0.000,0.000,-1.973,-6.690,0.990,4.803,4.657,4.766,5.281,4.711,4.712,2.198,6.282,5.083,1.570,0.000,0.000,-1.320,-6.631,0.990,4.803,4.665,4.759,
13.700,21.102,-1.592,-7.247,1.662,0.000,6.268,4.413,2.087,4.093,2.032,2.905,1.918,0.000,0.000,1.851,1.191,0.000,1.702,0.000,0.000,0.000,0.000,0.000,0.000,0.000,0.000,0.000,0.000,0.000,3.142,6.283,0.000,1.003,1.569,1.569,4.085,6.281,1.199,4.712,0.000,0.000,-1.973,-6.690,0.990,4.803,4.657,4.766,5.281,4.711,4.712,2.198,6.282,5.083,1.570,0.000,0.000,-1.320,-6.631,0.990,4.803,4.665,4.759,
13.798,21.200,-1.592,-7.247,1.662,0.000,6.268,4.413,2.087,4.093,2.032,2.905,1.918,0.000,0.000,1.851,1.191,0.000,1.702,0.000,0.000,0.000,0.000,0.000,0.000,0.000,0.000,0.000,0.000,0.000,3.142,6.283,0.000,1.003,1.569,1.569,4.085,6.281,1.199,4.712,0.000,0.000,-1.973,-6.690,0.990,4.803,4.657,4.766,5.281,4.711,4.712,2.198,6.282,5.083,1.570,0.000,0.000,-1.320,-6.631,0.990,4.803,4.665,4.759,
13.900,21.302,-1.592,-7.247,1.662,0.000,6.268,4.413,2.087,4.093,2.032,2.905,1.918,0.000,0.000,1.851,1.191,0.000,1.702,0.000,0.000,0.000,0.000,0.000,0.000,0.000,0.000,0.000,0.000,0.000,3.142,6.283,0.000,1.003,1.569,1.569,4.085,6.281,1.199,4.712,0.000,0.000,-1.973,-6.690,0.990,4.803,4.657,4.766,5.281,4.711,4.712,2.198,6.282,5.083,1.570,0.000,0.000,-1.320,-6.631,0.990,4.803,4.665,4.759,
14.000,21.402,-1.592,-7.247,1.662,0.000,6.268,4.413,2.087,4.093,2.032,2.905,1.918,0.000,0.000,1.851,1.191,0.000,1.702,0.000,0.000,0.000,0.000,0.000,0.000,0.000,0.000,0.000,0.000,0.000,3.142,6.283,0.000,1.003,1.569,1.569,4.085,6.281,1.199,4.712,0.000,0.000,-1.973,-6.690,0.990,4.803,4.657,4.766,5.281,4.711,4.712,2.198,6.282,5.083,1.570,0.000,0.000,-1.320,-6.631,0.990,4.803,4.665,4.759,
14.080,21.483,-1.592,-7.247,1.662,0.000,6.268,4.413,2.087,4.093,2.032,2.905,1.918,0.000,0.000,1.851,1.191,0.000,1.702,0.000,0.000,0.000,0.000,0.000,0.000,0.000,0.000,0.000,0.000,0.000,3.142,6.283,0.000,1.003,1.569,1.569,4.085,6.281,1.199,4.712,0.000,0.000,-1.973,-6.690,0.990,4.803,4.657,4.766,5.281,4.711,4.712,2.198,6.282,5.083,1.570,0.000,0.000,-1.320,-6.631,0.990,4.803,4.665,4.759,
14.200,21.602,-1.592,-7.247,1.662,0.000,6.268,4.413,2.087,4.093,2.032,2.905,1.918,0.000,0.000,1.851,1.191,0.000,1.702,0.000,0.000,0.000,0.000,0.000,0.000,0.000,0.000,0.000,0.000,0.000,3.142,6.283,0.000,1.003,1.569,1.569,4.085,6.281,1.199,4.712,0.000,0.000,-1.973,-6.690,0.990,4.803,4.657,4.766,5.281,4.711,4.712,2.198,6.282,5.083,1.570,0.000,0.000,-1.320,-6.631,0.990,4.803,4.665,4.759,
14.285,21.687,-1.592,-7.247,1.662,0.000,6.268,4.413,2.087,4.093,2.032,2.905,1.918,0.000,0.000,1.851,1.191,0.000,1.702,0.000,0.000,0.000,0.000,0.000,0.000,0.000,0.000,0.000,0.000,0.000,3.142,6.283,0.000,1.003,1.569,1.569,4.085,6.281,1.199,4.712,0.000,0.000,-1.973,-6.690,0.990,4.803,4.657,4.766,5.281,4.711,4.712,2.198,6.282,5.083,1.570,0.000,0.000,-1.320,-6.631,0.990,4.803,4.665,4.759,
14.400,21.802,-1.592,-7.247,1.662,0.000,6.268,4.413,2.087,4.093,2.032,2.905,1.918,0.000,0.000,1.851,1.191,0.000,1.702,0.000,0.000,0.000,0.000,0.000,0.000,0.000,0.000,0.000,0.000,0.000,3.142,6.283,0.000,1.003,1.569,1.569,4.085,6.281,1.199,4.712,0.000,0.000,-1.973,-6.690,0.990,4.803,4.657,4.766,5.281,4.711,4.712,2.198,6.282,5.083,1.570,0.000,0.000,-1.320,-6.631,0.990,4.803,4.665,4.759,
14.489,21.891,-1.592,-7.247,1.662,0.000,6.268,4.413,2.087,4.093,2.032,2.905,1.918,0.000,0.000,1.851,1.191,0.000,1.702,0.000,0.000,0.000,0.000,0.000,0.000,0.000,0.000,0.000,0.000,0.000,3.142,6.283,0.000,1.003,1.569,1.569,4.085,6.281,1.199,4.712,0.000,0.000,-1.973,-6.690,0.990,4.803,4.657,4.766,5.281,4.711,4.712,2.198,6.282,5.083,1.570,0.000,0.000,-1.320,-6.631,0.990,4.803,4.665,4.759,
14.600,22.002,-1.592,-7.247,1.662,0.000,6.268,4.413,2.087,4.093,2.032,2.905,1.918,0.000,0.000,1.851,1.191,0.000,1.702,0.000,0.000,0.000,0.000,0.000,0.000,0.000,0.000,0.000,0.000,0.000,3.142,6.283,0.000,1.003,1.569,1.569,4.085,6.281,1.199,4.712,0.000,0.000,-1.973,-6.690,0.990,4.803,4.657,4.766,5.281,4.711,4.712,2.198,6.282,5.083,1.570,0.000,0.000,-1.320,-6.631,0.990,4.803,4.665,4.759,
14.693,22.096,-1.592,-7.247,1.662,0.000,6.268,4.413,2.087,4.093,2.032,2.905,1.918,0.000,0.000,1.851,1.191,0.000,1.702,0.000,0.000,0.000,0.000,0.000,0.000,0.000,0.000,0.000,0.000,0.000,3.142,6.283,0.000,1.003,1.569,1.569,4.085,6.281,1.199,4.712,0.000,0.000,-1.973,-6.690,0.990,4.803,4.657,4.766,5.281,4.711,4.712,2.198,6.282,5.083,1.570,0.000,0.000,-1.320,-6.631,0.990,4.803,4.665,4.759,
14.800,22.202,-1.592,-7.247,1.662,0.000,6.268,4.413,2.087,4.093,2.032,2.905,1.918,0.000,0.000,1.851,1.191,0.000,1.702,0.000,0.000,0.000,0.000,0.000,0.000,0.000,0.000,0.000,0.000,0.000,3.142,6.283,0.000,1.003,1.569,1.569,4.085,6.281,1.199,4.712,0.000,0.000,-1.973,-6.690,0.990,4.803,4.657,4.766,5.281,4.711,4.712,2.198,6.282,5.083,1.570,0.000,0.000,-1.320,-6.631,0.990,4.803,4.665,4.759,
14.900,22.302,-1.592,-7.247,1.662,0.000,6.268,4.413,2.087,4.093,2.032,2.905,1.918,0.000,0.000,1.851,1.191,0.000,1.702,0.000,0.000,0.000,0.000,0.000,0.000,0.000,0.000,0.000,0.000,0.000,3.142,6.283,0.000,1.003,1.569,1.569,4.085,6.281,1.199,4.712,0.000,0.000,-1.973,-6.690,0.990,4.803,4.657,4.766,5.281,4.711,4.712,2.198,6.282,5.083,1.570,0.000,0.000,-1.320,-6.631,0.990,4.803,4.665,4.759,
15.000,22.402,-1.592,-7.247,1.662,0.000,6.268,4.413,2.087,4.093,2.032,2.905,1.918,0.000,0.000,1.851,1.191,0.000,1.702,0.000,0.000,0.000,0.000,0.000,0.000,0.000,0.000,0.000,0.000,0.000,3.142,6.283,0.000,1.003,1.569,1.569,4.085,6.281,1.199,4.712,0.000,0.000,-1.973,-6.690,0.990,4.803,4.657,4.766,5.281,4.711,4.712,2.198,6.282,5.083,1.570,0.000,0.000,-1.320,-6.631,0.990,4.803,4.665,4.759,
15.100,22.502,-1.592,-7.247,1.662,0.000,6.268,4.413,2.087,4.093,2.032,2.905,1.918,0.000,0.000,1.851,1.191,0.000,1.702,0.000,0.000,0.000,0.000,0.000,0.000,0.000,0.000,0.000,0.000,0.000,3.142,6.283,0.000,1.003,1.569,1.569,4.085,6.281,1.199,4.712,0.000,0.000,-1.973,-6.690,0.990,4.803,4.657,4.766,5.281,4.711,4.712,2.198,6.282,5.083,1.570,0.000,0.000,-1.320,-6.631,0.990,4.803,4.665,4.759,
15.200,22.602,-1.592,-7.247,1.662,0.000,6.268,4.413,2.087,4.093,2.032,2.905,1.918,0.000,0.000,1.851,1.191,0.000,1.702,0.000,0.000,0.000,0.000,0.000,0.000,0.000,0.000,0.000,0.000,0.000,3.142,6.283,0.000,1.003,1.569,1.569,4.085,6.281,1.199,4.712,0.000,0.000,-1.973,-6.690,0.990,4.803,4.657,4.766,5.281,4.711,4.712,2.198,6.282,5.083,1.570,0.000,0.000,-1.320,-6.631,0.990,4.803,4.665,4.759,
15.300,22.702,-1.592,-7.247,1.662,0.000,6.268,4.413,2.087,4.093,2.032,2.905,1.918,0.000,0.000,1.851,1.191,0.000,1.702,0.000,0.000,0.000,0.000,0.000,0.000,0.000,0.000,0.000,0.000,0.000,3.142,6.283,0.000,1.003,1.569,1.569,4.085,6.281,1.199,4.712,0.000,0.000,-1.973,-6.690,0.990,4.803,4.657,4.766,5.281,4.711,4.712,2.198,6.282,5.083,1.570,0.000,0.000,-1.320,-6.631,0.990,4.803,4.665,4.759,
15.400,22.802,-1.592,-7.247,1.662,0.000,6.268,4.413,2.087,4.093,2.032,2.905,1.918,0.000,0.000,1.851,1.191,0.000,1.702,0.000,0.000,0.000,0.000,0.000,0.000,0.000,0.000,0.000,0.000,0.000,3.142,6.283,0.000,1.003,1.569,1.569,4.085,6.281,1.199,4.712,0.000,0.000,-1.973,-6.690,0.990,4.803,4.657,4.766,5.281,4.711,4.712,2.198,6.282,5.083,1.570,0.000,0.000,-1.320,-6.631,0.990,4.803,4.665,4.759,
15.500,22.902,-1.592,-7.247,1.662,0.000,6.268,4.413,2.087,4.093,2.032,2.905,1.918,0.000,0.000,1.851,1.191,0.000,1.702,0.000,0.000,0.000,0.000,0.000,0.000,0.000,0.000,0.000,0.000,0.000,3.142,6.283,0.000,1.003,1.569,1.569,4.085,6.281,1.199,4.712,0.000,0.000,-1.973,-6.690,0.990,4.803,4.657,4.766,5.281,4.711,4.712,2.198,6.282,5.083,1.570,0.000,0.000,-1.320,-6.631,0.990,4.803,4.665,4.759,
15.596,22.998,-1.592,-7.247,1.662,0.000,6.268,4.413,2.087,4.093,2.032,2.905,1.918,0.000,0.000,1.851,1.191,0.000,1.702,0.000,0.000,0.000,0.000,0.000,0.000,0.000,0.000,0.000,0.000,0.000,3.142,6.283,0.000,1.003,1.569,1.569,4.085,6.281,1.199,4.712,0.000,0.000,-1.973,-6.690,0.990,4.803,4.657,4.766,5.281,4.711,4.712,2.198,6.282,5.083,1.570,0.000,0.000,-1.320,-6.631,0.990,4.803,4.665,4.759,
15.700,23.102,-1.592,-7.247,1.662,0.000,6.268,4.413,2.087,4.093,2.032,2.905,1.918,0.000,0.000,1.851,1.191,0.000,1.702,0.000,0.000,0.000,0.000,0.000,0.000,0.000,0.000,0.000,0.000,0.000,3.142,6.283,0.000,1.003,1.569,1.569,4.085,6.281,1.199,4.712,0.000,0.000,-1.973,-6.690,0.990,4.803,4.657,4.766,5.281,4.711,4.712,2.198,6.282,5.083,1.570,0.000,0.000,-1.320,-6.631,0.990,4.803,4.665,4.759,
15.791,23.193,-1.592,-7.247,1.662,0.000,6.268,4.413,2.087,4.093,2.032,2.905,1.918,0.000,0.000,1.851,1.191,0.000,1.702,0.000,0.000,0.000,0.000,0.000,0.000,0.000,0.000,0.000,0.000,0.000,3.142,6.283,0.000,1.003,1.569,1.569,4.085,6.281,1.199,4.712,0.000,0.000,-1.973,-6.690,0.990,4.803,4.657,4.766,5.281,4.711,4.712,2.198,6.282,5.083,1.570,0.000,0.000,-1.320,-6.631,0.990,4.803,4.665,4.759,
15.900,23.302,-1.592,-7.247,1.662,0.000,6.268,4.413,2.087,4.093,2.032,2.905,1.918,0.000,0.000,1.851,1.191,0.000,1.702,0.000,0.000,0.000,0.000,0.000,0.000,0.000,0.000,0.000,0.000,0.000,3.142,6.283,0.000,1.003,1.569,1.569,4.085,6.281,1.199,4.712,0.000,0.000,-1.973,-6.690,0.990,4.803,4.657,4.766,5.281,4.711,4.712,2.198,6.282,5.083,1.570,0.000,0.000,-1.320,-6.631,0.990,4.803,4.665,4.759,
15.989,23.391,-1.592,-7.247,1.662,0.000,6.268,4.413,2.087,4.093,2.032,2.905,1.918,0.000,0.000,1.851,1.191,0.000,1.702,0.000,0.000,0.000,0.000,0.000,0.000,0.000,0.000,0.000,0.000,0.000,3.142,6.283,0.000,1.003,1.569,1.569,4.085,6.281,1.199,4.712,0.000,0.000,-1.973,-6.690,0.990,4.803,4.657,4.766,5.281,4.711,4.712,2.198,6.282,5.083,1.570,0.000,0.000,-1.320,-6.631,0.990,4.803,4.665,4.759,
16.100,23.502,-1.592,-7.247,1.662,0.000,6.268,4.413,2.087,4.093,2.032,2.905,1.918,0.000,0.000,1.851,1.191,0.000,1.702,0.000,0.000,0.000,0.000,0.000,0.000,0.000,0.000,0.000,0.000,0.000,3.142,6.283,0.000,1.003,1.569,1.569,4.085,6.281,1.199,4.712,0.000,0.000,-1.973,-6.690,0.990,4.803,4.657,4.766,5.281,4.711,4.712,2.198,6.282,5.083,1.570,0.000,0.000,-1.320,-6.631,0.990,4.803,4.665,4.759,
16.200,23.602,-1.592,-7.247,1.662,0.000,6.268,4.413,2.087,4.093,2.032,2.905,1.918,0.000,0.000,1.851,1.191,0.000,1.702,0.000,0.000,0.000,0.000,0.000,0.000,0.000,0.000,0.000,0.000,0.000,3.142,6.283,0.000,1.003,1.569,1.569,4.085,6.281,1.199,4.712,0.000,0.000,-1.973,-6.690,0.990,4.803,4.657,4.766,5.281,4.711,4.712,2.198,6.282,5.083,1.570,0.000,0.000,-1.320,-6.631,0.990,4.803,4.665,4.759,
16.300,23.702,-1.592,-7.247,1.662,0.000,6.268,4.413,2.087,4.093,2.032,2.905,1.918,0.000,0.000,1.851,1.191,0.000,1.702,0.000,0.000,0.000,0.000,0.000,0.000,0.000,0.000,0.000,0.000,0.000,3.142,6.283,0.000,1.003,1.569,1.569,4.085,6.281,1.199,4.712,0.000,0.000,-1.973,-6.690,0.990,4.803,4.657,4.766,5.281,4.711,4.712,2.198,6.282,5.083,1.570,0.000,0.000,-1.320,-6.631,0.990,4.803,4.665,4.759,
16.400,23.802,-1.592,-7.247,1.662,0.000,6.268,4.413,2.087,4.093,2.032,2.905,1.918,0.000,0.000,1.851,1.191,0.000,1.702,0.000,0.000,0.000,0.000,0.000,0.000,0.000,0.000,0.000,0.000,0.000,3.142,6.283,0.000,1.003,1.569,1.569,4.085,6.281,1.199,4.712,0.000,0.000,-1.973,-6.690,0.990,4.803,4.657,4.766,5.281,4.711,4.712,2.198,6.282,5.083,1.570,0.000,0.000,-1.320,-6.631,0.990,4.803,4.665,4.759,
16.500,23.902,-1.592,-7.247,1.662,0.000,6.268,4.413,2.087,4.093,2.032,2.905,1.918,0.000,0.000,1.851,1.191,0.000,1.702,0.000,0.000,0.000,0.000,0.000,0.000,0.000,0.000,0.000,0.000,0.000,3.142,6.283,0.000,1.003,1.569,1.569,4.085,6.281,1.199,4.712,0.000,0.000,-1.973,-6.690,0.990,4.803,4.657,4.766,5.281,4.711,4.712,2.198,6.282,5.083,1.570,0.000,0.000,-1.320,-6.631,0.990,4.803,4.665,4.759,
16.600,24.002,-1.592,-7.247,1.662,0.000,6.268,4.413,2.087,4.093,2.032,2.905,1.918,0.000,0.000,1.851,1.191,0.000,1.702,0.000,0.000,0.000,0.000,0.000,0.000,0.000,0.000,0.000,0.000,0.000,3.142,6.283,0.000,1.003,1.569,1.569,4.085,6.281,1.199,4.712,0.000,0.000,-1.973,-6.690,0.990,4.803,4.657,4.766,5.281,4.711,4.712,2.198,6.282,5.083,1.570,0.000,0.000,-1.320,-6.631,0.990,4.803,4.665,4.759,
16.681,24.083,-1.592,-7.247,1.662,0.000,6.268,4.413,2.087,4.093,2.032,2.905,1.918,0.000,0.000,1.851,1.191,0.000,1.702,0.000,0.000,0.000,0.000,0.000,0.000,0.000,0.000,0.000,0.000,0.000,3.142,6.283,0.000,1.003,1.569,1.569,4.085,6.281,1.199,4.712,0.000,0.000,-1.973,-6.690,0.990,4.803,4.657,4.766,5.281,4.711,4.712,2.198,6.282,5.083,1.570,0.000,0.000,-1.320,-6.631,0.990,4.803,4.665,4.759,
16.800,24.202,-1.592,-7.247,1.662,0.000,6.268,4.413,2.087,4.093,2.032,2.905,1.918,0.000,0.000,1.851,1.191,0.000,1.702,0.000,0.000,0.000,0.000,0.000,0.000,0.000,0.000,0.000,0.000,0.000,3.142,6.283,0.000,1.003,1.569,1.569,4.085,6.281,1.199,4.712,0.000,0.000,-1.973,-6.690,0.990,4.803,4.657,4.766,5.281,4.711,4.712,2.198,6.282,5.083,1.570,0.000,0.000,-1.320,-6.631,0.990,4.803,4.665,4.759,
16.885,24.287,-1.592,-7.247,1.662,0.000,6.268,4.413,2.087,4.093,2.032,2.905,1.918,0.000,0.000,1.851,1.191,0.000,1.702,0.000,0.000,0.000,0.000,0.000,0.000,0.000,0.000,0.000,0.000,0.000,3.142,6.283,0.000,1.003,1.569,1.569,4.085,6.281,1.199,4.712,0.000,0.000,-1.973,-6.690,0.990,4.803,4.657,4.766,5.281,4.711,4.712,2.198,6.282,5.083,1.570,0.000,0.000,-1.320,-6.631,0.990,4.803,4.665,4.759,
17.000,24.402,-1.592,-7.247,1.662,0.000,6.268,4.413,2.087,4.093,2.032,2.905,1.918,0.000,0.000,1.851,1.191,0.000,1.702,0.000,0.000,0.000,0.000,0.000,0.000,0.000,0.000,0.000,0.000,0.000,3.142,6.283,0.000,1.003,1.569,1.569,4.085,6.281,1.199,4.712,0.000,0.000,-1.973,-6.690,0.990,4.803,4.657,4.766,5.281,4.711,4.712,2.198,6.282,5.083,1.570,0.000,0.000,-1.320,-6.631,0.990,4.803,4.665,4.759,
17.089,24.492,-1.592,-7.247,1.662,0.000,6.268,4.413,2.087,4.093,2.032,2.905,1.918,0.000,0.000,1.851,1.191,0.000,1.702,0.000,0.000,0.000,0.000,0.000,0.000,0.000,0.000,0.000,0.000,0.000,3.142,6.283,0.000,1.003,1.569,1.569,4.085,6.281,1.199,4.712,0.000,0.000,-1.973,-6.690,0.990,4.803,4.657,4.766,5.281,4.711,4.712,2.198,6.282,5.083,1.570,0.000,0.000,-1.320,-6.631,0.990,4.803,4.665,4.759,
17.200,24.602,-1.592,-7.247,1.662,0.000,6.268,4.413,2.087,4.093,2.032,2.905,1.918,0.000,0.000,1.851,1.191,0.000,1.702,0.000,0.000,0.000,0.000,0.000,0.000,0.000,0.000,0.000,0.000,0.000,3.142,6.283,0.000,1.003,1.569,1.569,4.085,6.281,1.199,4.712,0.000,0.000,-1.973,-6.690,0.990,4.803,4.657,4.766,5.281,4.711,4.712,2.198,6.282,5.083,1.570,0.000,0.000,-1.320,-6.631,0.990,4.803,4.665,4.759,
17.294,24.696,-1.592,-7.247,1.662,0.000,6.268,4.413,2.087,4.093,2.032,2.905,1.918,0.000,0.000,1.851,1.191,0.000,1.702,0.000,0.000,0.000,0.000,0.000,0.000,0.000,0.000,0.000,0.000,0.000,3.142,6.283,0.000,1.003,1.569,1.569,4.085,6.281,1.199,4.712,0.000,0.000,-1.973,-6.690,0.990,4.803,4.657,4.766,5.281,4.711,4.712,2.198,6.282,5.083,1.570,0.000,0.000,-1.320,-6.631,0.990,4.803,4.665,4.759,
17.400,24.802,-1.592,-7.247,1.662,0.000,6.268,4.413,2.087,4.093,2.032,2.905,1.918,0.000,0.000,1.851,1.191,0.000,1.702,0.000,0.000,0.000,0.000,0.000,0.000,0.000,0.000,0.000,0.000,0.000,3.142,6.283,0.000,1.003,1.569,1.569,4.085,6.281,1.199,4.712,0.000,0.000,-1.973,-6.690,0.990,4.803,4.657,4.766,5.281,4.711,4.712,2.198,6.282,5.083,1.570,0.000,0.000,-1.320,-6.631,0.990,4.803,4.665,4.759,
17.499,24.901,-1.592,-7.247,1.662,0.000,6.268,4.413,2.087,4.093,2.032,2.905,1.918,0.000,0.000,1.851,1.191,0.000,1.702,0.000,0.000,0.000,0.000,0.000,0.000,0.000,0.000,0.000,0.000,0.000,3.142,6.283,0.000,1.003,1.569,1.569,4.085,6.281,1.199,4.712,0.000,0.000,-1.973,-6.690,0.990,4.803,4.657,4.766,5.281,4.711,4.712,2.198,6.282,5.083,1.570,0.000,0.000,-1.320,-6.631,0.990,4.803,4.665,4.759,
17.600,25.002,-1.592,-7.247,1.662,0.000,6.268,4.413,2.087,4.093,2.032,2.905,1.918,0.000,0.000,1.851,1.191,0.000,1.702,0.000,0.000,0.000,0.000,0.000,0.000,0.000,0.000,0.000,0.000,0.000,3.142,6.283,0.000,1.003,1.569,1.569,4.085,6.281,1.199,4.712,0.000,0.000,-1.973,-6.690,0.990,4.803,4.657,4.766,5.281,4.711,4.712,2.198,6.282,5.083,1.570,0.000,0.000,-1.320,-6.631,0.990,4.803,4.665,4.759,
17.700,25.102,-1.592,-7.247,1.662,0.000,6.268,4.413,2.087,4.093,2.032,2.905,1.918,0.000,0.000,1.851,1.191,0.000,1.702,0.000,0.000,0.000,0.000,0.000,0.000,0.000,0.000,0.000,0.000,0.000,3.142,6.283,0.000,1.003,1.569,1.569,4.085,6.281,1.199,4.712,0.000,0.000,-1.973,-6.690,0.990,4.803,4.657,4.766,5.281,4.711,4.712,2.198,6.282,5.083,1.570,0.000,0.000,-1.320,-6.631,0.990,4.803,4.665,4.759,
17.800,25.202,-1.592,-7.247,1.662,0.000,6.268,4.413,2.087,4.093,2.032,2.905,1.918,0.000,0.000,1.851,1.191,0.000,1.702,0.000,0.000,0.000,0.000,0.000,0.000,0.000,0.000,0.000,0.000,0.000,3.142,6.283,0.000,1.003,1.569,1.569,4.085,6.281,1.199,4.712,0.000,0.000,-1.973,-6.690,0.990,4.803,4.657,4.766,5.281,4.711,4.712,2.198,6.282,5.083,1.570,0.000,0.000,-1.320,-6.631,0.990,4.803,4.665,4.759,
17.900,25.302,-1.592,-7.247,1.662,0.000,6.268,4.413,2.087,4.093,2.032,2.905,1.918,0.000,0.000,1.851,1.191,0.000,1.702,0.000,0.000,0.000,0.000,0.000,0.000,0.000,0.000,0.000,0.000,0.000,3.142,6.283,0.000,1.003,1.569,1.569,4.085,6.281,1.199,4.712,0.000,0.000,-1.973,-6.690,0.990,4.803,4.657,4.766,5.281,4.711,4.712,2.198,6.282,5.083,1.570,0.000,0.000,-1.320,-6.631,0.990,4.803,4.665,4.759,
18.000,25.402,-1.592,-7.247,1.662,0.000,6.268,4.413,2.087,4.093,2.032,2.905,1.918,0.000,0.000,1.851,1.191,0.000,1.702,0.000,0.000,0.000,0.000,0.000,0.000,0.000,0.000,0.000,0.000,0.000,3.142,6.283,0.000,1.003,1.569,1.569,4.085,6.281,1.199,4.712,0.000,0.000,-1.973,-6.690,0.990,4.803,4.657,4.766,5.281,4.711,4.712,2.198,6.282,5.083,1.570,0.000,0.000,-1.320,-6.631,0.990,4.803,4.665,4.759,
18.100,25.502,-1.592,-7.247,1.662,0.000,6.268,4.413,2.087,4.093,2.032,2.905,1.918,0.000,0.000,1.851,1.191,0.000,1.702,0.000,0.000,0.000,0.000,0.000,0.000,0.000,0.000,0.000,0.000,0.000,3.142,6.283,0.000,1.003,1.569,1.569,4.085,6.281,1.199,4.712,0.000,0.000,-1.973,-6.690,0.990,4.803,4.657,4.766,5.281,4.711,4.712,2.198,6.282,5.083,1.570,0.000,0.000,-1.320,-6.631,0.990,4.803,4.665,4.759,
18.188,25.590,-1.592,-7.247,1.662,0.000,6.268,4.413,2.087,4.093,2.032,2.905,1.918,0.000,0.000,1.851,1.191,0.000,1.702,0.000,0.000,0.000,0.000,0.000,0.000,0.000,0.000,0.000,0.000,0.000,3.142,6.283,0.000,1.003,1.569,1.569,4.085,6.281,1.199,4.712,0.000,0.000,-1.973,-6.690,0.990,4.803,4.657,4.766,5.281,4.711,4.712,2.198,6.282,5.083,1.570,0.000,0.000,-1.320,-6.631,0.990,4.803,4.665,4.759,
18.300,25.702,-1.592,-7.247,1.662,0.000,6.268,4.413,2.087,4.093,2.032,2.905,1.918,0.000,0.000,1.851,1.191,0.000,1.702,0.000,0.000,0.000,0.000,0.000,0.000,0.000,0.000,0.000,0.000,0.000,3.142,6.283,0.000,1.003,1.569,1.569,4.085,6.281,1.199,4.712,0.000,0.000,-1.973,-6.690,0.990,4.803,4.657,4.766,5.281,4.711,4.712,2.198,6.282,5.083,1.570,0.000,0.000,-1.320,-6.631,0.990,4.803,4.665,4.759,
18.400,25.802,-1.592,-7.247,1.662,0.000,6.268,4.413,2.087,4.093,2.032,2.905,1.918,0.000,0.000,1.851,1.191,0.000,1.702,0.000,0.000,0.000,0.000,0.000,0.000,0.000,0.000,0.000,0.000,0.000,3.142,6.283,0.000,1.003,1.569,1.569,4.085,6.281,1.199,4.712,0.000,0.000,-1.973,-6.690,0.990,4.803,4.657,4.766,5.281,4.711,4.712,2.198,6.282,5.083,1.570,0.000,0.000,-1.320,-6.631,0.990,4.803,4.665,4.759,
18.500,25.902,-1.592,-7.247,1.662,0.000,6.268,4.413,2.087,4.093,2.032,2.905,1.918,0.000,0.000,1.851,1.191,0.000,1.702,0.000,0.000,0.000,0.000,0.000,0.000,0.000,0.000,0.000,0.000,0.000,3.142,6.283,0.000,1.003,1.569,1.569,4.085,6.281,1.199,4.712,0.000,0.000,-1.973,-6.690,0.990,4.803,4.657,4.766,5.281,4.711,4.712,2.198,6.282,5.083,1.570,0.000,0.000,-1.320,-6.631,0.990,4.803,4.665,4.759,
18.600,26.002,-1.592,-7.247,1.662,0.000,6.268,4.413,2.087,4.093,2.032,2.905,1.918,0.000,0.000,1.851,1.191,0.000,1.702,0.000,0.000,0.000,0.000,0.000,0.000,0.000,0.000,0.000,0.000,0.000,3.142,6.283,0.000,1.003,1.569,1.569,4.085,6.281,1.199,4.712,0.000,0.000,-1.973,-6.690,0.990,4.803,4.657,4.766,5.281,4.711,4.712,2.198,6.282,5.083,1.570,0.000,0.000,-1.320,-6.631,0.990,4.803,4.665,4.759,
18.700,26.102,-1.592,-7.247,1.662,0.000,6.268,4.413,2.087,4.093,2.032,2.905,1.918,0.000,0.000,1.851,1.191,0.000,1.702,0.000,0.000,0.000,0.000,0.000,0.000,0.000,0.000,0.000,0.000,0.000,3.142,6.283,0.000,1.003,1.569,1.569,4.085,6.281,1.199,4.712,0.000,0.000,-1.973,-6.690,0.990,4.803,4.657,4.766,5.281,4.711,4.712,2.198,6.282,5.083,1.570,0.000,0.000,-1.320,-6.631,0.990,4.803,4.665,4.759,
18.800,26.202,-1.592,-7.247,1.662,0.000,6.268,4.413,2.087,4.093,2.032,2.905,1.918,0.000,0.000,1.851,1.191,0.000,1.702,0.000,0.000,0.000,0.000,0.000,0.000,0.000,0.000,0.000,0.000,0.000,3.142,6.283,0.000,1.003,1.569,1.569,4.085,6.281,1.199,4.712,0.000,0.000,-1.973,-6.690,0.990,4.803,4.657,4.766,5.281,4.711,4.712,2.198,6.282,5.083,1.570,0.000,0.000,-1.320,-6.631,0.990,4.803,4.665,4.759,
18.900,26.302,-1.592,-7.247,1.662,0.000,6.268,4.413,2.087,4.093,2.032,2.905,1.918,0.000,0.000,1.851,1.191,0.000,1.702,0.000,0.000,0.000,0.000,0.000,0.000,0.000,0.000,0.000,0.000,0.000,3.142,6.283,0.000,1.003,1.569,1.569,4.085,6.281,1.199,4.712,0.000,0.000,-1.973,-6.690,0.990,4.803,4.657,4.766,5.281,4.711,4.712,2.198,6.282,5.083,1.570,0.000,0.000,-1.320,-6.631,0.990,4.803,4.665,4.759,
19.000,26.402,-1.592,-7.247,1.662,0.000,6.268,4.413,2.087,4.093,2.032,2.905,1.918,0.000,0.000,1.851,1.191,0.000,1.702,0.000,0.000,0.000,0.000,0.000,0.000,0.000,0.000,0.000,0.000,0.000,3.142,6.283,0.000,1.003,1.569,1.569,4.085,6.281,1.199,4.712,0.000,0.000,-1.973,-6.690,0.990,4.803,4.657,4.766,5.281,4.711,4.712,2.198,6.282,5.083,1.570,0.000,0.000,-1.320,-6.631,0.990,4.803,4.665,4.759,
19.085,26.487,-1.592,-7.247,1.662,0.000,6.268,4.413,2.087,4.093,2.032,2.905,1.918,0.000,0.000,1.851,1.191,0.000,1.702,0.000,0.000,0.000,0.000,0.000,0.000,0.000,0.000,0.000,0.000,0.000,3.142,6.283,0.000,1.003,1.569,1.569,4.085,6.281,1.199,4.712,0.000,0.000,-1.973,-6.690,0.990,4.803,4.657,4.766,5.281,4.711,4.712,2.198,6.282,5.083,1.570,0.000,0.000,-1.320,-6.631,0.990,4.803,4.665,4.759,
19.200,26.602,-1.592,-7.247,1.662,0.000,6.268,4.413,2.087,4.093,2.032,2.905,1.918,0.000,0.000,1.851,1.191,0.000,1.702,0.000,0.000,0.000,0.000,0.000,0.000,0.000,0.000,0.000,0.000,0.000,3.142,6.283,0.000,1.003,1.569,1.569,4.085,6.281,1.199,4.712,0.000,0.000,-1.973,-6.690,0.990,4.803,4.657,4.766,5.281,4.711,4.712,2.198,6.282,5.083,1.570,0.000,0.000,-1.320,-6.631,0.990,4.803,4.665,4.759,
19.288,26.690,-1.592,-7.247,1.662,0.000,6.268,4.413,2.087,4.093,2.032,2.905,1.918,0.000,0.000,1.851,1.191,0.000,1.702,0.000,0.000,0.000,0.000,0.000,0.000,0.000,0.000,0.000,0.000,0.000,3.142,6.283,0.000,1.003,1.569,1.569,4.085,6.281,1.199,4.712,0.000,0.000,-1.973,-6.690,0.990,4.803,4.657,4.766,5.281,4.711,4.712,2.198,6.282,5.083,1.570,0.000,0.000,-1.320,-6.631,0.990,4.803,4.665,4.759,
19.400,26.802,-1.592,-7.247,1.662,0.000,6.268,4.413,2.087,4.093,2.032,2.905,1.918,0.000,0.000,1.851,1.191,0.000,1.702,0.000,0.000,0.000,0.000,0.000,0.000,0.000,0.000,0.000,0.000,0.000,3.142,6.283,0.000,1.003,1.569,1.569,4.085,6.281,1.199,4.712,0.000,0.000,-1.973,-6.690,0.990,4.803,4.657,4.766,5.281,4.711,4.712,2.198,6.282,5.083,1.570,0.000,0.000,-1.320,-6.631,0.990,4.803,4.665,4.759,
19.495,26.898,-1.592,-7.247,1.662,0.000,6.268,4.413,2.087,4.093,2.032,2.905,1.918,0.000,0.000,1.851,1.191,0.000,1.702,0.000,0.000,0.000,0.000,0.000,0.000,0.000,0.000,0.000,0.000,0.000,3.142,6.283,0.000,1.003,1.569,1.569,4.085,6.281,1.199,4.712,0.000,0.000,-1.973,-6.690,0.990,4.803,4.657,4.766,5.281,4.711,4.712,2.198,6.282,5.083,1.570,0.000,0.000,-1.320,-6.631,0.990,4.803,4.665,4.759,
19.600,27.002,-1.592,-7.247,1.662,0.000,6.268,4.413,2.087,4.093,2.032,2.905,1.918,0.000,0.000,1.851,1.191,0.000,1.702,0.000,0.000,0.000,0.000,0.000,0.000,0.000,0.000,0.000,0.000,0.000,3.142,6.283,0.000,1.003,1.569,1.569,4.085,6.281,1.199,4.712,0.000,0.000,-1.973,-6.690,0.990,4.803,4.657,4.766,5.281,4.711,4.712,2.198,6.282,5.083,1.570,0.000,0.000,-1.320,-6.631,0.990,4.803,4.665,4.759,
19.700,27.102,-1.592,-7.247,1.662,0.000,6.268,4.413,2.087,4.093,2.032,2.905,1.918,0.000,0.000,1.851,1.191,0.000,1.702,0.000,0.000,0.000,0.000,0.000,0.000,0.000,0.000,0.000,0.000,0.000,3.142,6.283,0.000,1.003,1.569,1.569,4.085,6.281,1.199,4.712,0.000,0.000,-1.973,-6.690,0.990,4.803,4.657,4.766,5.281,4.711,4.712,2.198,6.282,5.083,1.570,0.000,0.000,-1.320,-6.631,0.990,4.803,4.665,4.759,
19.800,27.202,-1.592,-7.247,1.662,0.000,6.268,4.413,2.087,4.093,2.032,2.905,1.918,0.000,0.000,1.851,1.191,0.000,1.702,0.000,0.000,0.000,0.000,0.000,0.000,0.000,0.000,0.000,0.000,0.000,3.142,6.283,0.000,1.003,1.569,1.569,4.085,6.281,1.199,4.712,0.000,0.000,-1.973,-6.690,0.990,4.803,4.657,4.766,5.281,4.711,4.712,2.198,6.282,5.083,1.570,0.000,0.000,-1.320,-6.631,0.990,4.803,4.665,4.759,
19.900,27.302,-1.592,-7.247,1.662,0.000,6.268,4.413,2.087,4.093,2.032,2.905,1.918,0.000,0.000,1.851,1.191,0.000,1.702,0.000,0.000,0.000,0.000,0.000,0.000,0.000,0.000,0.000,0.000,0.000,3.142,6.283,0.000,1.003,1.569,1.569,4.085,6.281,1.199,4.712,0.000,0.000,-1.973,-6.690,0.990,4.803,4.657,4.766,5.281,4.711,4.712,2.198,6.282,5.083,1.570,0.000,0.000,-1.320,-6.631,0.990,4.803,4.665,4.759,
19.982,27.384,-1.592,-7.247,1.662,0.000,6.268,4.413,2.087,4.093,2.032,2.905,1.918,0.000,0.000,1.851,1.191,0.000,1.702,0.000,0.000,0.000,0.000,0.000,0.000,0.000,0.000,0.000,0.000,0.000,3.142,6.283,0.000,1.003,1.569,1.569,4.085,6.281,1.199,4.712,0.000,0.000,-1.973,-6.690,0.990,4.803,4.657,4.766,5.281,4.711,4.712,2.198,6.282,5.083,1.570,0.000,0.000,-1.320,-6.631,0.990,4.803,4.665,4.759,
20.100,27.502,-1.592,-7.247,1.662,0.000,6.268,4.413,2.087,4.093,2.032,2.905,1.918,0.000,0.000,1.851,1.191,0.000,1.702,0.000,0.000,0.000,0.000,0.000,0.000,0.000,0.000,0.000,0.000,0.000,3.142,6.283,0.000,1.003,1.569,1.569,4.085,6.281,1.199,4.712,0.000,0.000,-1.973,-6.690,0.990,4.803,4.657,4.766,5.281,4.711,4.712,2.198,6.282,5.083,1.570,0.000,0.000,-1.320,-6.631,0.990,4.803,4.665,4.759,
20.185,27.587,-1.592,-7.247,1.662,0.000,6.268,4.413,2.087,4.093,2.032,2.905,1.918,0.000,0.000,1.851,1.191,0.000,1.702,0.000,0.000,0.000,0.000,0.000,0.000,0.000,0.000,0.000,0.000,0.000,3.142,6.283,0.000,1.003,1.569,1.569,4.085,6.281,1.199,4.712,0.000,0.000,-1.973,-6.690,0.990,4.803,4.657,4.766,5.281,4.711,4.712,2.198,6.282,5.083,1.570,0.000,0.000,-1.320,-6.631,0.990,4.803,4.665,4.759,
20.300,27.702,-1.592,-7.247,1.662,0.000,6.268,4.413,2.087,4.093,2.032,2.905,1.918,0.000,0.000,1.851,1.191,0.000,1.702,0.000,0.000,0.000,0.000,0.000,0.000,0.000,0.000,0.000,0.000,0.000,3.142,6.283,0.000,1.003,1.569,1.569,4.085,6.281,1.199,4.712,0.000,0.000,-1.973,-6.690,0.990,4.803,4.657,4.766,5.281,4.711,4.712,2.198,6.282,5.083,1.570,0.000,0.000,-1.320,-6.631,0.990,4.803,4.665,4.759,
20.390,27.793,-1.592,-7.247,1.662,0.000,6.268,4.413,2.087,4.093,2.032,2.905,1.918,0.000,0.000,1.851,1.191,0.000,1.702,0.000,0.000,0.000,0.000,0.000,0.000,0.000,0.000,0.000,0.000,0.000,3.142,6.283,0.000,1.003,1.569,1.569,4.085,6.281,1.199,4.712,0.000,0.000,-1.973,-6.690,0.990,4.803,4.657,4.766,5.281,4.711,4.712,2.198,6.282,5.083,1.570,0.000,0.000,-1.320,-6.631,0.990,4.803,4.665,4.759,
20.500,27.902,-1.592,-7.247,1.662,0.000,6.268,4.413,2.087,4.093,2.032,2.905,1.918,0.000,0.000,1.851,1.191,0.000,1.702,0.000,0.000,0.000,0.000,0.000,0.000,0.000,0.000,0.000,0.000,0.000,3.142,6.283,0.000,1.003,1.569,1.569,4.085,6.281,1.199,4.712,0.000,0.000,-1.973,-6.690,0.990,4.803,4.657,4.766,5.281,4.711,4.712,2.198,6.282,5.083,1.570,0.000,0.000,-1.320,-6.631,0.990,4.803,4.665,4.759,
20.600,28.002,-1.592,-7.247,1.662,0.000,6.268,4.413,2.087,4.093,2.032,2.905,1.918,0.000,0.000,1.851,1.191,0.000,1.702,0.000,0.000,0.000,0.000,0.000,0.000,0.000,0.000,0.000,0.000,0.000,3.142,6.283,0.000,1.003,1.569,1.569,4.085,6.281,1.199,4.712,0.000,0.000,-1.973,-6.690,0.990,4.803,4.657,4.766,5.281,4.711,4.712,2.198,6.282,5.083,1.570,0.000,0.000,-1.320,-6.631,0.990,4.803,4.665,4.759,
20.700,28.102,-1.592,-7.247,1.662,0.000,6.268,4.413,2.087,4.093,2.032,2.905,1.918,0.000,0.000,1.851,1.191,0.000,1.702,0.000,0.000,0.000,0.000,0.000,0.000,0.000,0.000,0.000,0.000,0.000,3.142,6.283,0.000,1.003,1.569,1.569,4.085,6.281,1.199,4.712,0.000,0.000,-1.973,-6.690,0.990,4.803,4.657,4.766,5.281,4.711,4.712,2.198,6.282,5.083,1.570,0.000,0.000,-1.320,-6.631,0.990,4.803,4.665,4.759,
20.800,28.202,-1.592,-7.247,1.662,0.000,6.268,4.413,2.087,4.093,2.032,2.905,1.918,0.000,0.000,1.851,1.191,0.000,1.702,0.000,0.000,0.000,0.000,0.000,0.000,0.000,0.000,0.000,0.000,0.000,3.142,6.283,0.000,1.003,1.569,1.569,4.085,6.281,1.199,4.712,0.000,0.000,-1.973,-6.690,0.990,4.803,4.657,4.766,5.281,4.711,4.712,2.198,6.282,5.083,1.570,0.000,0.000,-1.320,-6.631,0.990,4.803,4.665,4.759,
20.883,28.285,-1.592,-7.247,1.662,0.000,6.268,4.413,2.087,4.093,2.032,2.905,1.918,0.000,0.000,1.851,1.191,0.000,1.702,0.000,0.000,0.000,0.000,0.000,0.000,0.000,0.000,0.000,0.000,0.000,3.142,6.283,0.000,1.003,1.569,1.569,4.085,6.281,1.199,4.712,0.000,0.000,-1.973,-6.690,0.990,4.803,4.657,4.766,5.281,4.711,4.712,2.198,6.282,5.083,1.570,0.000,0.000,-1.320,-6.631,0.990,4.803,4.665,4.759,
21.000,28.402,-1.592,-7.247,1.662,0.000,6.268,4.413,2.087,4.093,2.032,2.905,1.918,0.000,0.000,1.851,1.191,0.000,1.702,0.000,0.000,0.000,0.000,0.000,0.000,0.000,0.000,0.000,0.000,0.000,3.142,6.283,0.000,1.003,1.569,1.569,4.085,6.281,1.199,4.712,0.000,0.000,-1.973,-6.690,0.990,4.803,4.657,4.766,5.281,4.711,4.712,2.198,6.282,5.083,1.570,0.000,0.000,-1.320,-6.631,0.990,4.803,4.665,4.759,
21.089,28.491,-1.592,-7.247,1.662,0.000,6.268,4.413,2.087,4.093,2.032,2.905,1.918,0.000,0.000,1.851,1.191,0.000,1.702,0.000,0.000,0.000,0.000,0.000,0.000,0.000,0.000,0.000,0.000,0.000,3.142,6.283,0.000,1.003,1.569,1.569,4.085,6.281,1.199,4.712,0.000,0.000,-1.973,-6.690,0.990,4.803,4.657,4.766,5.281,4.711,4.712,2.198,6.282,5.083,1.570,0.000,0.000,-1.320,-6.631,0.990,4.803,4.665,4.759,
21.200,28.602,-1.592,-7.247,1.662,0.000,6.268,4.413,2.087,4.093,2.032,2.905,1.918,0.000,0.000,1.851,1.191,0.000,1.702,0.000,0.000,0.000,0.000,0.000,0.000,0.000,0.000,0.000,0.000,0.000,3.142,6.283,0.000,1.003,1.569,1.569,4.085,6.281,1.199,4.712,0.000,0.000,-1.973,-6.690,0.990,4.803,4.657,4.766,5.281,4.711,4.712,2.198,6.282,5.083,1.570,0.000,0.000,-1.320,-6.631,0.990,4.803,4.665,4.759,
21.295,28.697,-1.592,-7.247,1.662,0.000,6.268,4.413,2.087,4.093,2.032,2.905,1.918,0.000,0.000,1.851,1.191,0.000,1.702,0.000,0.000,0.000,0.000,0.000,0.000,0.000,0.000,0.000,0.000,0.000,3.142,6.283,0.000,1.003,1.569,1.569,4.085,6.281,1.199,4.712,0.000,0.000,-1.973,-6.690,0.990,4.803,4.657,4.766,5.281,4.711,4.712,2.198,6.282,5.083,1.570,0.000,0.000,-1.320,-6.631,0.990,4.803,4.665,4.759,
21.400,28.802,-1.592,-7.247,1.662,0.000,6.268,4.413,2.087,4.093,2.032,2.905,1.918,0.000,0.000,1.851,1.191,0.000,1.702,0.000,0.000,0.000,0.000,0.000,0.000,0.000,0.000,0.000,0.000,0.000,3.142,6.283,0.000,1.003,1.569,1.569,4.085,6.281,1.199,4.712,0.000,0.000,-1.973,-6.690,0.990,4.803,4.657,4.766,5.281,4.711,4.712,2.198,6.282,5.083,1.570,0.000,0.000,-1.320,-6.631,0.990,4.803,4.665,4.759,
21.500,28.902,-1.592,-7.247,1.662,0.000,6.268,4.413,2.087,4.093,2.032,2.905,1.918,0.000,0.000,1.851,1.191,0.000,1.702,0.000,0.000,0.000,0.000,0.000,0.000,0.000,0.000,0.000,0.000,0.000,3.142,6.283,0.000,1.003,1.569,1.569,4.085,6.281,1.199,4.712,0.000,0.000,-1.973,-6.690,0.990,4.803,4.657,4.766,5.281,4.711,4.712,2.198,6.282,5.083,1.570,0.000,0.000,-1.320,-6.631,0.990,4.803,4.665,4.759,
21.600,29.002,-1.592,-7.247,1.662,0.000,6.268,4.413,2.087,4.093,2.032,2.905,1.918,0.000,0.000,1.851,1.191,0.000,1.702,0.000,0.000,0.000,0.000,0.000,0.000,0.000,0.000,0.000,0.000,0.000,3.142,6.283,0.000,1.003,1.569,1.569,4.085,6.281,1.199,4.712,0.000,0.000,-1.973,-6.690,0.990,4.803,4.657,4.766,5.281,4.711,4.712,2.198,6.282,5.083,1.570,0.000,0.000,-1.320,-6.631,0.990,4.803,4.665,4.759,
21.700,29.102,-1.592,-7.247,1.662,0.000,6.268,4.413,2.087,4.093,2.032,2.905,1.918,0.000,0.000,1.851,1.191,0.000,1.702,0.000,0.000,0.000,0.000,0.000,0.000,0.000,0.000,0.000,0.000,0.000,3.142,6.283,0.000,1.003,1.569,1.569,4.085,6.281,1.199,4.712,0.000,0.000,-1.973,-6.690,0.990,4.803,4.657,4.766,5.281,4.711,4.712,2.198,6.282,5.083,1.570,0.000,0.000,-1.320,-6.631,0.990,4.803,4.665,4.759,
21.792,29.194,-1.592,-7.247,1.662,0.000,6.268,4.413,2.087,4.093,2.032,2.905,1.918,0.000,0.000,1.851,1.191,0.000,1.702,0.000,0.000,0.000,0.000,0.000,0.000,0.000,0.000,0.000,0.000,0.000,3.142,6.283,0.000,1.003,1.569,1.569,4.085,6.281,1.199,4.712,0.000,0.000,-1.973,-6.690,0.990,4.803,4.657,4.766,5.281,4.711,4.712,2.198,6.282,5.083,1.570,0.000,0.000,-1.320,-6.631,0.990,4.803,4.665,4.759,
21.900,29.302,-1.592,-7.247,1.662,0.000,6.268,4.413,2.087,4.093,2.032,2.905,1.918,0.000,0.000,1.851,1.191,0.000,1.702,0.000,0.000,0.000,0.000,0.000,0.000,0.000,0.000,0.000,0.000,0.000,3.142,6.283,0.000,1.003,1.569,1.569,4.085,6.281,1.199,4.712,0.000,0.000,-1.973,-6.690,0.990,4.803,4.657,4.766,5.281,4.711,4.712,2.198,6.282,5.083,1.570,0.000,0.000,-1.320,-6.631,0.990,4.803,4.665,4.759,
21.988,29.390,-1.592,-7.247,1.662,0.000,6.268,4.413,2.087,4.093,2.032,2.905,1.918,0.000,0.000,1.851,1.191,0.000,1.702,0.000,0.000,0.000,0.000,0.000,0.000,0.000,0.000,0.000,0.000,0.000,3.142,6.283,0.000,1.003,1.569,1.569,4.085,6.281,1.199,4.712,0.000,0.000,-1.973,-6.690,0.990,4.803,4.657,4.766,5.281,4.711,4.712,2.198,6.282,5.083,1.570,0.000,0.000,-1.320,-6.631,0.990,4.803,4.665,4.759,
22.100,29.502,-1.592,-7.247,1.662,0.000,6.268,4.413,2.087,4.093,2.032,2.905,1.918,0.000,0.000,1.851,1.191,0.000,1.702,0.000,0.000,0.000,0.000,0.000,0.000,0.000,0.000,0.000,0.000,0.000,3.142,6.283,0.000,1.003,1.569,1.569,4.085,6.281,1.199,4.712,0.000,0.000,-1.973,-6.690,0.990,4.803,4.657,4.766,5.281,4.711,4.712,2.198,6.282,5.083,1.570,0.000,0.000,-1.320,-6.631,0.990,4.803,4.665,4.759,
22.196,29.598,-1.592,-7.247,1.662,0.000,6.268,4.413,2.087,4.093,2.032,2.905,1.918,0.000,0.000,1.851,1.191,0.000,1.702,0.000,0.000,0.000,0.000,0.000,0.000,0.000,0.000,0.000,0.000,0.000,3.142,6.283,0.000,1.003,1.569,1.569,4.085,6.281,1.199,4.712,0.000,0.000,-1.973,-6.690,0.990,4.803,4.657,4.766,5.281,4.711,4.712,2.198,6.282,5.083,1.570,0.000,0.000,-1.320,-6.631,0.990,4.803,4.665,4.759,
22.300,29.702,-1.592,-7.247,1.662,0.000,6.268,4.413,2.087,4.093,2.032,2.905,1.918,0.000,0.000,1.851,1.191,0.000,1.702,0.000,0.000,0.000,0.000,0.000,0.000,0.000,0.000,0.000,0.000,0.000,3.142,6.283,0.000,1.003,1.569,1.569,4.085,6.281,1.199,4.712,0.000,0.000,-1.973,-6.690,0.990,4.803,4.657,4.766,5.281,4.711,4.712,2.198,6.282,5.083,1.570,0.000,0.000,-1.320,-6.631,0.990,4.803,4.665,4.759,
22.398,29.800,-1.592,-7.247,1.662,0.000,6.268,4.413,2.087,4.093,2.032,2.905,1.918,0.000,0.000,1.851,1.191,0.000,1.702,0.000,0.000,0.000,0.000,0.000,0.000,0.000,0.000,0.000,0.000,0.000,3.142,6.283,0.000,1.003,1.569,1.569,4.085,6.281,1.199,4.712,0.000,0.000,-1.973,-6.690,0.990,4.803,4.657,4.766,5.281,4.711,4.712,2.198,6.282,5.083,1.570,0.000,0.000,-1.320,-6.631,0.990,4.803,4.665,4.759,
22.500,29.902,-1.592,-7.247,1.662,0.000,6.268,4.413,2.087,4.093,2.032,2.905,1.918,0.000,0.000,1.851,1.191,0.000,1.702,0.000,0.000,0.000,0.000,0.000,0.000,0.000,0.000,0.000,0.000,0.000,3.142,6.283,0.000,1.003,1.569,1.569,4.085,6.281,1.199,4.712,0.000,0.000,-1.973,-6.690,0.990,4.803,4.657,4.766,5.281,4.711,4.712,2.198,6.282,5.083,1.570,0.000,0.000,-1.320,-6.631,0.990,4.803,4.665,4.759,
22.599,30.001,-1.592,-7.247,1.662,0.000,6.268,4.413,2.087,4.093,2.032,2.905,1.918,0.000,0.000,1.851,1.191,0.000,1.702,0.000,0.000,0.000,0.000,0.000,0.000,0.000,0.000,0.000,0.000,0.000,3.142,6.283,0.000,1.003,1.569,1.569,4.085,6.281,1.199,4.712,0.000,0.000,-1.973,-6.690,0.990,4.803,4.657,4.766,5.281,4.711,4.712,2.198,6.282,5.083,1.570,0.000,0.000,-1.320,-6.631,0.990,4.803,4.665,4.759,
22.700,30.102,-1.592,-7.247,1.662,0.000,6.268,4.413,2.087,4.093,2.032,2.905,1.918,0.000,0.000,1.851,1.191,0.000,1.702,0.000,0.000,0.000,0.000,0.000,0.000,0.000,0.000,0.000,0.000,0.000,3.142,6.283,0.000,1.003,1.569,1.569,4.085,6.281,1.199,4.712,0.000,0.000,-1.973,-6.690,0.990,4.803,4.657,4.766,5.281,4.711,4.712,2.198,6.282,5.083,1.570,0.000,0.000,-1.320,-6.631,0.990,4.803,4.665,4.759,
22.800,30.202,-1.592,-7.247,1.662,0.000,6.268,4.413,2.087,4.093,2.032,2.905,1.918,0.000,0.000,1.851,1.191,0.000,1.702,0.000,0.000,0.000,0.000,0.000,0.000,0.000,0.000,0.000,0.000,0.000,3.142,6.283,0.000,1.003,1.569,1.569,4.085,6.281,1.199,4.712,0.000,0.000,-1.973,-6.690,0.990,4.803,4.657,4.766,5.281,4.711,4.712,2.198,6.282,5.083,1.570,0.000,0.000,-1.320,-6.631,0.990,4.803,4.665,4.759,
22.886,30.288,-1.592,-7.247,1.662,0.000,6.268,4.413,2.087,4.093,2.032,2.905,1.918,0.000,0.000,1.851,1.191,0.000,1.702,0.000,0.000,0.000,0.000,0.000,0.000,0.000,0.000,0.000,0.000,0.000,3.142,6.283,0.000,1.003,1.569,1.569,4.085,6.281,1.199,4.712,0.000,0.000,-1.973,-6.690,0.990,4.803,4.657,4.766,5.281,4.711,4.712,2.198,6.282,5.083,1.570,0.000,0.000,-1.320,-6.631,0.990,4.803,4.665,4.759,
23.000,30.402,-1.592,-7.247,1.662,0.000,6.268,4.413,2.087,4.093,2.032,2.905,1.918,0.000,0.000,1.851,1.191,0.000,1.702,0.000,0.000,0.000,0.000,0.000,0.000,0.000,0.000,0.000,0.000,0.000,3.142,6.283,0.000,1.003,1.569,1.569,4.085,6.281,1.199,4.712,0.000,0.000,-1.973,-6.690,0.990,4.803,4.657,4.766,5.281,4.711,4.712,2.198,6.282,5.083,1.570,0.000,0.000,-1.320,-6.631,0.990,4.803,4.665,4.759,
23.093,30.495,-1.592,-7.247,1.662,0.000,6.268,4.413,2.087,4.093,2.032,2.905,1.918,0.000,0.000,1.851,1.191,0.000,1.702,0.000,0.000,0.000,0.000,0.000,0.000,0.000,0.000,0.000,0.000,0.000,3.142,6.283,0.000,1.003,1.569,1.569,4.085,6.281,1.199,4.712,0.000,0.000,-1.973,-6.690,0.990,4.803,4.657,4.766,5.281,4.711,4.712,2.198,6.282,5.083,1.570,0.000,0.000,-1.320,-6.631,0.990,4.803,4.665,4.759,
23.200,30.602,-1.592,-7.247,1.662,0.000,6.268,4.413,2.087,4.093,2.032,2.905,1.918,0.000,0.000,1.851,1.191,0.000,1.702,0.000,0.000,0.000,0.000,0.000,0.000,0.000,0.000,0.000,0.000,0.000,3.142,6.283,0.000,1.003,1.569,1.569,4.085,6.281,1.199,4.712,0.000,0.000,-1.973,-6.690,0.990,4.803,4.657,4.766,5.281,4.711,4.712,2.198,6.282,5.083,1.570,0.000,0.000,-1.320,-6.631,0.990,4.803,4.665,4.759,
23.296,30.698,-1.592,-7.247,1.662,0.000,6.268,4.413,2.087,4.093,2.032,2.905,1.918,0.000,0.000,1.851,1.191,0.000,1.702,0.000,0.000,0.000,0.000,0.000,0.000,0.000,0.000,0.000,0.000,0.000,3.142,6.283,0.000,1.003,1.569,1.569,4.085,6.281,1.199,4.712,0.000,0.000,-1.973,-6.690,0.990,4.803,4.657,4.766,5.281,4.711,4.712,2.198,6.282,5.083,1.570,0.000,0.000,-1.320,-6.631,0.990,4.803,4.665,4.759,
23.400,30.802,-1.592,-7.247,1.662,0.000,6.268,4.413,2.087,4.093,2.032,2.905,1.918,0.000,0.000,1.851,1.191,0.000,1.702,0.000,0.000,0.000,0.000,0.000,0.000,0.000,0.000,0.000,0.000,0.000,3.142,6.283,0.000,1.003,1.569,1.569,4.085,6.281,1.199,4.712,0.000,0.000,-1.973,-6.690,0.990,4.803,4.657,4.766,5.281,4.711,4.712,2.198,6.282,5.083,1.570,0.000,0.000,-1.320,-6.631,0.990,4.803,4.665,4.759,
23.500,30.902,-1.592,-7.247,1.662,0.000,6.268,4.413,2.087,4.093,2.032,2.905,1.918,0.000,0.000,1.851,1.191,0.000,1.702,0.000,0.000,0.000,0.000,0.000,0.000,0.000,0.000,0.000,0.000,0.000,3.142,6.283,0.000,1.003,1.569,1.569,4.085,6.281,1.199,4.712,0.000,0.000,-1.973,-6.690,0.990,4.803,4.657,4.766,5.281,4.711,4.712,2.198,6.282,5.083,1.570,0.000,0.000,-1.320,-6.631,0.990,4.803,4.665,4.759,
23.600,31.002,-1.592,-7.247,1.662,0.000,6.268,4.413,2.087,4.093,2.032,2.905,1.918,0.000,0.000,1.851,1.191,0.000,1.702,0.000,0.000,0.000,0.000,0.000,0.000,0.000,0.000,0.000,0.000,0.000,3.142,6.283,0.000,1.003,1.569,1.569,4.085,6.281,1.199,4.712,0.000,0.000,-1.973,-6.690,0.990,4.803,4.657,4.766,5.281,4.711,4.712,2.198,6.282,5.083,1.570,0.000,0.000,-1.320,-6.631,0.990,4.803,4.665,4.759,
23.700,31.102,-1.592,-7.247,1.662,0.000,6.268,4.413,2.087,4.093,2.032,2.905,1.918,0.000,0.000,1.851,1.191,0.000,1.702,0.000,0.000,0.000,0.000,0.000,0.000,0.000,0.000,0.000,0.000,0.000,3.142,6.283,0.000,1.003,1.569,1.569,4.085,6.281,1.199,4.712,0.000,0.000,-1.973,-6.690,0.990,4.803,4.657,4.766,5.281,4.711,4.712,2.198,6.282,5.083,1.570,0.000,0.000,-1.320,-6.631,0.990,4.803,4.665,4.759,
23.800,31.202,-1.592,-7.247,1.662,0.000,6.268,4.413,2.087,4.093,2.032,2.905,1.918,0.000,0.000,1.851,1.191,0.000,1.702,0.000,0.000,0.000,0.000,0.000,0.000,0.000,0.000,0.000,0.000,0.000,3.142,6.283,0.000,1.003,1.569,1.569,4.085,6.281,1.199,4.712,0.000,0.000,-1.973,-6.690,0.990,4.803,4.657,4.766,5.281,4.711,4.712,2.198,6.282,5.083,1.570,0.000,0.000,-1.320,-6.631,0.990,4.803,4.665,4.759,
23.900,31.302,-1.592,-7.247,1.662,0.000,6.268,4.413,2.087,4.093,2.032,2.905,1.918,0.000,0.000,1.851,1.191,0.000,1.702,0.000,0.000,0.000,0.000,0.000,0.000,0.000,0.000,0.000,0.000,0.000,3.142,6.283,0.000,1.003,1.569,1.569,4.085,6.281,1.199,4.712,0.000,0.000,-1.973,-6.690,0.990,4.803,4.657,4.766,5.281,4.711,4.712,2.198,6.282,5.083,1.570,0.000,0.000,-1.320,-6.631,0.990,4.803,4.665,4.759,
23.990,31.392,-1.592,-7.247,1.662,0.000,6.268,4.413,2.087,4.093,2.032,2.905,1.918,0.000,0.000,1.851,1.191,0.000,1.702,0.000,0.000,0.000,0.000,0.000,0.000,0.000,0.000,0.000,0.000,0.000,3.142,6.283,0.000,1.003,1.569,1.569,4.085,6.281,1.199,4.712,0.000,0.000,-1.973,-6.690,0.990,4.803,4.657,4.766,5.281,4.711,4.712,2.198,6.282,5.083,1.570,0.000,0.000,-1.320,-6.631,0.990,4.803,4.665,4.759,
24.100,31.502,-1.592,-7.247,1.662,0.000,6.268,4.413,2.087,4.093,2.032,2.905,1.918,0.000,0.000,1.851,1.191,0.000,1.702,0.000,0.000,0.000,0.000,0.000,0.000,0.000,0.000,0.000,0.000,0.000,3.142,6.283,0.000,1.003,1.569,1.569,4.085,6.281,1.199,4.712,0.000,0.000,-1.973,-6.690,0.990,4.803,4.657,4.766,5.281,4.711,4.712,2.198,6.282,5.083,1.570,0.000,0.000,-1.320,-6.631,0.990,4.803,4.665,4.759,
24.200,31.602,-1.592,-7.247,1.662,0.000,6.268,4.413,2.087,4.093,2.032,2.905,1.918,0.000,0.000,1.851,1.191,0.000,1.702,0.000,0.000,0.000,0.000,0.000,0.000,0.000,0.000,0.000,0.000,0.000,3.142,6.283,0.000,1.003,1.569,1.569,4.085,6.281,1.199,4.712,0.000,0.000,-1.973,-6.690,0.990,4.803,4.657,4.766,5.281,4.711,4.712,2.198,6.282,5.083,1.570,0.000,0.000,-1.320,-6.631,0.990,4.803,4.665,4.759,
24.300,31.702,-1.592,-7.247,1.662,0.000,6.268,4.413,2.087,4.093,2.032,2.905,1.918,0.000,0.000,1.851,1.191,0.000,1.702,0.000,0.000,0.000,0.000,0.000,0.000,0.000,0.000,0.000,0.000,0.000,3.142,6.283,0.000,1.003,1.569,1.569,4.085,6.281,1.199,4.712,0.000,0.000,-1.973,-6.690,0.990,4.803,4.657,4.766,5.281,4.711,4.712,2.198,6.282,5.083,1.570,0.000,0.000,-1.320,-6.631,0.990,4.803,4.665,4.759,
24.400,31.802,-1.592,-7.247,1.662,0.000,6.268,4.413,2.087,4.093,2.032,2.905,1.918,0.000,0.000,1.851,1.191,0.000,1.702,0.000,0.000,0.000,0.000,0.000,0.000,0.000,0.000,0.000,0.000,0.000,3.142,6.283,0.000,1.003,1.569,1.569,4.085,6.281,1.199,4.712,0.000,0.000,-1.973,-6.690,0.990,4.803,4.657,4.766,5.281,4.711,4.712,2.198,6.282,5.083,1.570,0.000,0.000,-1.320,-6.631,0.990,4.803,4.665,4.759,
24.500,31.902,-1.592,-7.247,1.662,0.000,6.268,4.413,2.087,4.093,2.032,2.905,1.918,0.000,0.000,1.851,1.191,0.000,1.702,0.000,0.000,0.000,0.000,0.000,0.000,0.000,0.000,0.000,0.000,0.000,3.142,6.283,0.000,1.003,1.569,1.569,4.085,6.281,1.199,4.712,0.000,0.000,-1.973,-6.690,0.990,4.803,4.657,4.766,5.281,4.711,4.712,2.198,6.282,5.083,1.570,0.000,0.000,-1.320,-6.631,0.990,4.803,4.665,4.759,
24.600,32.002,-1.592,-7.247,1.662,0.000,6.268,4.413,2.087,4.093,2.032,2.905,1.918,0.000,0.000,1.851,1.191,0.000,1.702,0.000,0.000,0.000,0.000,0.000,0.000,0.000,0.000,0.000,0.000,0.000,3.142,6.283,0.000,1.003,1.569,1.569,4.085,6.281,1.199,4.712,0.000,0.000,-1.973,-6.690,0.990,4.803,4.657,4.766,5.281,4.711,4.712,2.198,6.282,5.083,1.570,0.000,0.000,-1.320,-6.631,0.990,4.803,4.665,4.759,
24.700,32.102,-1.592,-7.247,1.662,0.000,6.268,4.413,2.087,4.093,2.032,2.905,1.918,0.000,0.000,1.851,1.191,0.000,1.702,0.000,0.000,0.000,0.000,0.000,0.000,0.000,0.000,0.000,0.000,0.000,3.142,6.283,0.000,1.003,1.569,1.569,4.085,6.281,1.199,4.712,0.000,0.000,-1.973,-6.690,0.990,4.803,4.657,4.766,5.281,4.711,4.712,2.198,6.282,5.083,1.570,0.000,0.000,-1.320,-6.631,0.990,4.803,4.665,4.759,
24.800,32.202,-1.592,-7.247,1.662,0.000,6.268,4.413,2.087,4.093,2.032,2.905,1.918,0.000,0.000,1.851,1.191,0.000,1.702,0.000,0.000,0.000,0.000,0.000,0.000,0.000,0.000,0.000,0.000,0.000,3.142,6.283,0.000,1.003,1.569,1.569,4.085,6.281,1.199,4.712,0.000,0.000,-1.973,-6.690,0.990,4.803,4.657,4.766,5.281,4.711,4.712,2.198,6.282,5.083,1.570,0.000,0.000,-1.320,-6.631,0.990,4.803,4.665,4.759,
24.900,32.302,-1.592,-7.247,1.662,0.000,6.268,4.413,2.087,4.093,2.032,2.905,1.918,0.000,0.000,1.851,1.191,0.000,1.702,0.000,0.000,0.000,0.000,0.000,0.000,0.000,0.000,0.000,0.000,0.000,3.142,6.283,0.000,1.003,1.569,1.569,4.085,6.281,1.199,4.712,0.000,0.000,-1.973,-6.690,0.990,4.803,4.657,4.766,5.281,4.711,4.712,2.198,6.282,5.083,1.570,0.000,0.000,-1.320,-6.631,0.990,4.803,4.665,4.759,
25.000,32.402,-1.592,-7.247,1.662,0.000,6.268,4.413,2.087,4.093,2.032,2.905,1.918,0.000,0.000,1.851,1.191,0.000,1.702,0.000,0.000,0.000,0.000,0.000,0.000,0.000,0.000,0.000,0.000,0.000,3.142,6.283,0.000,1.003,1.569,1.569,4.085,6.281,1.199,4.712,0.000,0.000,-1.973,-6.690,0.990,4.803,4.657,4.766,5.281,4.711,4.712,2.198,6.282,5.083,1.570,0.000,0.000,-1.320,-6.631,0.990,4.803,4.665,4.759,
25.100,32.502,-1.592,-7.247,1.662,0.000,6.268,4.413,2.087,4.093,2.032,2.905,1.918,0.000,0.000,1.851,1.191,0.000,1.702,0.000,0.000,0.000,0.000,0.000,0.000,0.000,0.000,0.000,0.000,0.000,3.142,6.283,0.000,1.003,1.569,1.569,4.085,6.281,1.199,4.712,0.000,0.000,-1.973,-6.690,0.990,4.803,4.657,4.766,5.281,4.711,4.712,2.198,6.282,5.083,1.570,0.000,0.000,-1.320,-6.631,0.990,4.803,4.665,4.759,
25.195,32.597,-1.592,-7.247,1.662,0.000,6.268,4.413,2.087,4.093,2.032,2.905,1.918,0.000,0.000,1.851,1.191,0.000,1.702,0.000,0.000,0.000,0.000,0.000,0.000,0.000,0.000,0.000,0.000,0.000,3.142,6.283,0.000,1.003,1.569,1.569,4.085,6.281,1.199,4.712,0.000,0.000,-1.973,-6.690,0.990,4.803,4.657,4.766,5.281,4.711,4.712,2.198,6.282,5.083,1.570,0.000,0.000,-1.320,-6.631,0.990,4.803,4.665,4.759,
25.300,32.702,-1.592,-7.247,1.662,0.000,6.268,4.413,2.087,4.093,2.032,2.905,1.918,0.000,0.000,1.851,1.191,0.000,1.702,0.000,0.000,0.000,0.000,0.000,0.000,0.000,0.000,0.000,0.000,0.000,3.142,6.283,0.000,1.003,1.569,1.569,4.085,6.281,1.199,4.712,0.000,0.000,-1.973,-6.690,0.990,4.803,4.657,4.766,5.281,4.711,4.712,2.198,6.282,5.083,1.570,0.000,0.000,-1.320,-6.631,0.990,4.803,4.665,4.759,
25.397,32.800,-1.592,-7.247,1.662,0.000,6.268,4.413,2.087,4.093,2.032,2.905,1.918,0.000,0.000,1.851,1.191,0.000,1.702,0.000,0.000,0.000,0.000,0.000,0.000,0.000,0.000,0.000,0.000,0.000,3.142,6.283,0.000,1.003,1.569,1.569,4.085,6.281,1.199,4.712,0.000,0.000,-1.973,-6.690,0.990,4.803,4.657,4.766,5.281,4.711,4.712,2.198,6.282,5.083,1.570,0.000,0.000,-1.320,-6.631,0.990,4.803,4.665,4.759,
25.500,32.902,-1.592,-7.247,1.662,0.000,6.268,4.413,2.087,4.093,2.032,2.905,1.918,0.000,0.000,1.851,1.191,0.000,1.702,0.000,0.000,0.000,0.000,0.000,0.000,0.000,0.000,0.000,0.000,0.000,3.142,6.283,0.000,1.003,1.569,1.569,4.085,6.281,1.199,4.712,0.000,0.000,-1.973,-6.690,0.990,4.803,4.657,4.766,5.281,4.711,4.712,2.198,6.282,5.083,1.570,0.000,0.000,-1.320,-6.631,0.990,4.803,4.665,4.759,
25.600,33.002,-1.592,-7.247,1.662,0.000,6.268,4.413,2.087,4.093,2.032,2.905,1.918,0.000,0.000,1.851,1.191,0.000,1.702,0.000,0.000,0.000,0.000,0.000,0.000,0.000,0.000,0.000,0.000,0.000,3.142,6.283,0.000,1.003,1.569,1.569,4.085,6.281,1.199,4.712,0.000,0.000,-1.973,-6.690,0.990,4.803,4.657,4.766,5.281,4.711,4.712,2.198,6.282,5.083,1.570,0.000,0.000,-1.320,-6.631,0.990,4.803,4.665,4.759,
25.700,33.102,-1.592,-7.247,1.662,0.000,6.268,4.413,2.087,4.093,2.032,2.905,1.918,0.000,0.000,1.851,1.191,0.000,1.702,0.000,0.000,0.000,0.000,0.000,0.000,0.000,0.000,0.000,0.000,0.000,3.142,6.283,0.000,1.003,1.569,1.569,4.085,6.281,1.199,4.712,0.000,0.000,-1.973,-6.690,0.990,4.803,4.657,4.766,5.281,4.711,4.712,2.198,6.282,5.083,1.570,0.000,0.000,-1.320,-6.631,0.990,4.803,4.665,4.759,
25.800,33.202,-1.592,-7.247,1.662,0.000,6.268,4.413,2.087,4.093,2.032,2.905,1.918,0.000,0.000,1.851,1.191,0.000,1.702,0.000,0.000,0.000,0.000,0.000,0.000,0.000,0.000,0.000,0.000,0.000,3.142,6.283,0.000,1.003,1.569,1.569,4.085,6.281,1.199,4.712,0.000,0.000,-1.973,-6.690,0.990,4.803,4.657,4.766,5.281,4.711,4.712,2.198,6.282,5.083,1.570,0.000,0.000,-1.320,-6.631,0.990,4.803,4.665,4.759,
25.884,33.286,-1.592,-7.247,1.662,0.000,6.268,4.413,2.087,4.093,2.032,2.905,1.918,0.000,0.000,1.851,1.191,0.000,1.702,0.000,0.000,0.000,0.000,0.000,0.000,0.000,0.000,0.000,0.000,0.000,3.142,6.283,0.000,1.003,1.569,1.569,4.085,6.281,1.199,4.712,0.000,0.000,-1.973,-6.690,0.990,4.803,4.657,4.766,5.281,4.711,4.712,2.198,6.282,5.083,1.570,0.000,0.000,-1.320,-6.631,0.990,4.803,4.665,4.759,
26.000,33.402,-1.592,-7.247,1.662,0.000,6.268,4.413,2.087,4.093,2.032,2.905,1.918,0.000,0.000,1.851,1.191,0.000,1.702,0.000,0.000,0.000,0.000,0.000,0.000,0.000,0.000,0.000,0.000,0.000,3.142,6.283,0.000,1.003,1.569,1.569,4.085,6.281,1.199,4.712,0.000,0.000,-1.973,-6.690,0.990,4.803,4.657,4.766,5.281,4.711,4.712,2.198,6.282,5.083,1.570,0.000,0.000,-1.320,-6.631,0.990,4.803,4.665,4.759,
26.085,33.487,-1.592,-7.247,1.662,0.000,6.268,4.413,2.087,4.093,2.032,2.905,1.918,0.000,0.000,1.851,1.191,0.000,1.702,0.000,0.000,0.000,0.000,0.000,0.000,0.000,0.000,0.000,0.000,0.000,3.142,6.283,0.000,1.003,1.569,1.569,4.085,6.281,1.199,4.712,0.000,0.000,-1.973,-6.690,0.990,4.803,4.657,4.766,5.281,4.711,4.712,2.198,6.282,5.083,1.570,0.000,0.000,-1.320,-6.631,0.990,4.803,4.665,4.759,
26.200,33.602,-1.592,-7.247,1.662,0.000,6.268,4.413,2.087,4.093,2.032,2.905,1.918,0.000,0.000,1.851,1.191,0.000,1.702,0.000,0.000,0.000,0.000,0.000,0.000,0.000,0.000,0.000,0.000,0.000,3.142,6.283,0.000,1.003,1.569,1.569,4.085,6.281,1.199,4.712,0.000,0.000,-1.973,-6.690,0.990,4.803,4.657,4.766,5.281,4.711,4.712,2.198,6.282,5.083,1.570,0.000,0.000,-1.320,-6.631,0.990,4.803,4.665,4.759,
26.294,33.696,-1.592,-7.247,1.662,0.000,6.268,4.413,2.087,4.093,2.032,2.905,1.918,0.000,0.000,1.851,1.191,0.000,1.702,0.000,0.000,0.000,0.000,0.000,0.000,0.000,0.000,0.000,0.000,0.000,3.142,6.283,0.000,1.003,1.569,1.569,4.085,6.281,1.199,4.712,0.000,0.000,-1.973,-6.690,0.990,4.803,4.657,4.766,5.281,4.711,4.712,2.198,6.282,5.083,1.570,0.000,0.000,-1.320,-6.631,0.990,4.803,4.665,4.759,
26.400,33.802,-1.592,-7.247,1.662,0.000,6.268,4.413,2.087,4.093,2.032,2.905,1.918,0.000,0.000,1.851,1.191,0.000,1.702,0.000,0.000,0.000,0.000,0.000,0.000,0.000,0.000,0.000,0.000,0.000,3.142,6.283,0.000,1.003,1.569,1.569,4.085,6.281,1.199,4.712,0.000,0.000,-1.973,-6.690,0.990,4.803,4.657,4.766,5.281,4.711,4.712,2.198,6.282,5.083,1.570,0.000,0.000,-1.320,-6.631,0.990,4.803,4.665,4.759,
26.498,33.900,-1.592,-7.247,1.662,0.000,6.268,4.413,2.087,4.093,2.032,2.905,1.918,0.000,0.000,1.851,1.191,0.000,1.702,0.000,0.000,0.000,0.000,0.000,0.000,0.000,0.000,0.000,0.000,0.000,3.142,6.283,0.000,1.003,1.569,1.569,4.085,6.281,1.199,4.712,0.000,0.000,-1.973,-6.690,0.990,4.803,4.657,4.766,5.281,4.711,4.712,2.198,6.282,5.083,1.570,0.000,0.000,-1.320,-6.631,0.990,4.803,4.665,4.759,
26.600,34.610,-1.592,-7.247,1.662,0.000,6.268,4.413,2.087,4.093,2.032,2.905,1.918,0.000,0.000,1.851,1.191,0.000,1.702,0.000,0.000,0.000,0.000,0.000,0.000,0.000,0.000,0.000,0.000,0.000,3.142,6.283,0.000,1.003,1.569,1.569,4.085,6.281,1.199,4.712,0.000,0.000,-1.973,-6.690,0.990,4.803,4.657,4.766,5.281,4.711,4.712,2.198,6.282,5.083,1.570,0.000,0.000,-1.320,-6.631,0.990,4.803,4.665,4.759,
26.700,34.710,-1.592,-7.247,1.662,0.000,6.268,4.413,2.087,4.093,2.032,2.905,1.918,0.000,0.000,1.851,1.191,0.000,1.702,0.000,0.000,0.000,0.000,0.000,0.000,0.000,0.000,0.000,0.000,0.000,3.142,6.283,0.000,1.003,1.569,1.569,4.085,6.281,1.199,4.712,0.000,0.000,-1.973,-6.690,0.990,4.803,4.657,4.766,5.281,4.711,4.712,2.198,6.282,5.083,1.570,0.000,0.000,-1.320,-6.631,0.990,4.803,4.665,4.759,
26.800,34.810,-1.592,-7.247,1.662,0.000,6.268,4.413,2.087,4.093,2.032,2.905,1.918,0.000,0.000,1.851,1.191,0.000,1.702,0.000,0.000,0.000,0.000,0.000,0.000,0.000,0.000,0.000,0.000,0.000,3.142,6.283,0.000,1.003,1.569,1.569,4.085,6.281,1.199,4.712,0.000,0.000,-1.973,-6.690,0.990,4.803,4.657,4.766,5.281,4.711,4.712,2.198,6.282,5.083,1.570,0.000,0.000,-1.320,-6.631,0.990,4.803,4.665,4.759,
26.900,34.910,-1.592,-7.247,1.662,0.000,6.268,4.413,2.087,4.093,2.032,2.905,1.918,0.000,0.000,1.851,1.191,0.000,1.702,0.000,0.000,0.000,0.000,0.000,0.000,0.000,0.000,0.000,0.000,0.000,3.142,6.283,0.000,1.003,1.569,1.569,4.085,6.281,1.199,4.712,0.000,0.000,-1.973,-6.690,0.990,4.803,4.657,4.766,5.281,4.711,4.712,2.198,6.282,5.083,1.570,0.000,0.000,-1.320,-6.631,0.990,4.803,4.665,4.759,
27.000,35.010,-1.592,-7.247,1.662,0.000,6.268,4.413,2.087,4.093,2.032,2.905,1.918,0.000,0.000,1.851,1.191,0.000,1.702,0.000,0.000,0.000,0.000,0.000,0.000,0.000,0.000,0.000,0.000,0.000,3.142,6.283,0.000,1.003,1.569,1.569,4.085,6.281,1.199,4.712,0.000,0.000,-1.973,-6.690,0.990,4.803,4.657,4.766,5.281,4.711,4.712,2.198,6.282,5.083,1.570,0.000,0.000,-1.320,-6.631,0.990,4.803,4.665,4.759,
27.100,35.110,-1.592,-7.247,1.662,0.000,6.268,4.413,2.087,4.093,2.032,2.905,1.918,0.000,0.000,1.851,1.191,0.000,1.702,0.000,0.000,0.000,0.000,0.000,0.000,0.000,0.000,0.000,0.000,0.000,3.142,6.283,0.000,1.003,1.569,1.569,4.085,6.281,1.199,4.712,0.000,0.000,-1.973,-6.690,0.990,4.803,4.657,4.766,5.281,4.711,4.712,2.198,6.282,5.083,1.570,0.000,0.000,-1.320,-6.631,0.990,4.803,4.665,4.759,
27.200,35.210,-1.592,-7.247,1.662,0.000,6.268,4.413,2.087,4.093,2.032,2.905,1.918,0.000,0.000,1.851,1.191,0.000,1.702,0.000,0.000,0.000,0.000,0.000,0.000,0.000,0.000,0.000,0.000,0.000,3.142,6.283,0.000,1.003,1.569,1.569,4.085,6.281,1.199,4.712,0.000,0.000,-1.973,-6.690,0.990,4.803,4.657,4.766,5.281,4.711,4.712,2.198,6.282,5.083,1.570,0.000,0.000,-1.320,-6.631,0.990,4.803,4.665,4.759,
27.300,35.310,-1.592,-7.247,1.662,0.000,6.268,4.413,2.087,4.093,2.032,2.905,1.918,0.000,0.000,1.851,1.191,0.000,1.702,0.000,0.000,0.000,0.000,0.000,0.000,0.000,0.000,0.000,0.000,0.000,3.142,6.283,0.000,1.003,1.569,1.569,4.085,6.281,1.199,4.712,0.000,0.000,-1.973,-6.690,0.990,4.803,4.657,4.766,5.281,4.711,4.712,2.198,6.282,5.083,1.570,0.000,0.000,-1.320,-6.631,0.990,4.803,4.665,4.759,
27.400,35.410,-1.592,-7.247,1.662,0.000,6.268,4.413,2.087,4.093,2.032,2.905,1.918,0.000,0.000,1.851,1.191,0.000,1.702,0.000,0.000,0.000,0.000,0.000,0.000,0.000,0.000,0.000,0.000,0.000,3.142,6.283,0.000,1.003,1.569,1.569,4.085,6.281,1.199,4.712,0.000,0.000,-1.973,-6.690,0.990,4.803,4.657,4.766,5.281,4.711,4.712,2.198,6.282,5.083,1.570,0.000,0.000,-1.320,-6.631,0.990,4.803,4.665,4.759,
27.500,35.510,-1.592,-7.247,1.662,0.000,6.268,4.413,2.087,4.093,2.032,2.905,1.918,0.000,0.000,1.851,1.191,0.000,1.702,0.000,0.000,0.000,0.000,0.000,0.000,0.000,0.000,0.000,0.000,0.000,3.142,6.283,0.000,1.003,1.569,1.569,4.085,6.281,1.199,4.712,0.000,0.000,-1.973,-6.690,0.990,4.803,4.657,4.766,5.281,4.711,4.712,2.198,6.282,5.083,1.570,0.000,0.000,-1.320,-6.631,0.990,4.803,4.665,4.759,
27.600,35.610,-1.592,-7.247,1.662,0.000,6.268,4.413,2.087,4.093,2.032,2.905,1.918,0.000,0.000,1.851,1.191,0.000,1.702,0.000,0.000,0.000,0.000,0.000,0.000,0.000,0.000,0.000,0.000,0.000,3.142,6.283,0.000,1.003,1.569,1.569,4.085,6.281,1.199,4.712,0.000,0.000,-1.973,-6.690,0.990,4.803,4.657,4.766,5.281,4.711,4.712,2.198,6.282,5.083,1.570,0.000,0.000,-1.320,-6.631,0.990,4.803,4.665,4.759,
27.700,35.710,-1.592,-7.247,1.662,0.000,6.268,4.413,2.087,4.093,2.032,2.905,1.918,0.000,0.000,1.851,1.191,0.000,1.702,0.000,0.000,0.000,0.000,0.000,0.000,0.000,0.000,0.000,0.000,0.000,3.142,6.283,0.000,1.003,1.569,1.569,4.085,6.281,1.199,4.712,0.000,0.000,-1.973,-6.690,0.990,4.803,4.657,4.766,5.281,4.711,4.712,2.198,6.282,5.083,1.570,0.000,0.000,-1.320,-6.631,0.990,4.803,4.665,4.759,
27.800,35.810,-1.592,-7.247,1.662,0.000,6.268,4.413,2.087,4.093,2.032,2.905,1.918,0.000,0.000,1.851,1.191,0.000,1.702,0.000,0.000,0.000,0.000,0.000,0.000,0.000,0.000,0.000,0.000,0.000,3.142,6.283,0.000,1.003,1.569,1.569,4.085,6.281,1.199,4.712,0.000,0.000,-1.973,-6.690,0.990,4.803,4.657,4.766,5.281,4.711,4.712,2.198,6.282,5.083,1.570,0.000,0.000,-1.320,-6.631,0.990,4.803,4.665,4.759,
27.900,35.910,-1.592,-7.247,1.662,0.000,6.268,4.413,2.087,4.093,2.032,2.905,1.918,0.000,0.000,1.851,1.191,0.000,1.702,0.000,0.000,0.000,0.000,0.000,0.000,0.000,0.000,0.000,0.000,0.000,3.142,6.283,0.000,1.003,1.569,1.569,4.085,6.281,1.199,4.712,0.000,0.000,-1.973,-6.690,0.990,4.803,4.657,4.766,5.281,4.711,4.712,2.198,6.282,5.083,1.570,0.000,0.000,-1.320,-6.631,0.990,4.803,4.665,4.759,
28.000,36.010,-1.592,-7.247,1.662,0.000,6.268,4.413,2.087,4.093,2.032,2.905,1.918,0.000,0.000,1.851,1.191,0.000,1.702,0.000,0.000,0.000,0.000,0.000,0.000,0.000,0.000,0.000,0.000,0.000,3.142,6.283,0.000,1.003,1.569,1.569,4.085,6.281,1.199,4.712,0.000,0.000,-1.973,-6.690,0.990,4.803,4.657,4.766,5.281,4.711,4.712,2.198,6.282,5.083,1.570,0.000,0.000,-1.320,-6.631,0.990,4.803,4.665,4.759,
28.100,36.110,-1.592,-7.247,1.662,0.000,6.268,4.413,2.087,4.093,2.032,2.905,1.918,0.000,0.000,1.851,1.191,0.000,1.702,0.000,0.000,0.000,0.000,0.000,0.000,0.000,0.000,0.000,0.000,0.000,3.142,6.283,0.000,1.003,1.569,1.569,4.085,6.281,1.199,4.712,0.000,0.000,-1.973,-6.690,0.990,4.803,4.657,4.766,5.281,4.711,4.712,2.198,6.282,5.083,1.570,0.000,0.000,-1.320,-6.631,0.990,4.803,4.665,4.759,
28.200,36.210,-1.592,-7.247,1.662,0.000,6.268,4.413,2.087,4.093,2.032,2.905,1.918,0.000,0.000,1.851,1.191,0.000,1.702,0.000,0.000,0.000,0.000,0.000,0.000,0.000,0.000,0.000,0.000,0.000,3.142,6.283,0.000,1.003,1.569,1.569,4.085,6.281,1.199,4.712,0.000,0.000,-1.973,-6.690,0.990,4.803,4.657,4.766,5.281,4.711,4.712,2.198,6.282,5.083,1.570,0.000,0.000,-1.320,-6.631,0.990,4.803,4.665,4.759,
28.300,36.310,-1.592,-7.247,1.662,0.000,6.268,4.413,2.087,4.093,2.032,2.905,1.918,0.000,0.000,1.851,1.191,0.000,1.702,0.000,0.000,0.000,0.000,0.000,0.000,0.000,0.000,0.000,0.000,0.000,3.142,6.283,0.000,1.003,1.569,1.569,4.085,6.281,1.199,4.712,0.000,0.000,-1.973,-6.690,0.990,4.803,4.657,4.766,5.281,4.711,4.712,2.198,6.282,5.083,1.570,0.000,0.000,-1.320,-6.631,0.990,4.803,4.665,4.759,
28.385,36.395,-1.592,-7.247,1.662,0.000,6.268,4.413,2.087,4.093,2.032,2.905,1.918,0.000,0.000,1.851,1.191,0.000,1.702,0.000,0.000,0.000,0.000,0.000,0.000,0.000,0.000,0.000,0.000,0.000,3.142,6.283,0.000,1.003,1.569,1.569,4.085,6.281,1.199,4.712,0.000,0.000,-1.973,-6.690,0.990,4.803,4.657,4.766,5.281,4.711,4.712,2.198,6.282,5.083,1.570,0.000,0.000,-1.320,-6.631,0.990,4.803,4.665,4.759,
28.500,36.510,-1.592,-7.247,1.662,0.000,6.268,4.413,2.087,4.093,2.032,2.905,1.918,0.000,0.000,1.851,1.191,0.000,1.702,0.000,0.000,0.000,0.000,0.000,0.000,0.000,0.000,0.000,0.000,0.000,3.142,6.283,0.000,1.003,1.569,1.569,4.085,6.281,1.199,4.712,0.000,0.000,-1.973,-6.690,0.990,4.803,4.657,4.766,5.281,4.711,4.712,2.198,6.282,5.083,1.570,0.000,0.000,-1.320,-6.631,0.990,4.803,4.665,4.759,
28.600,36.610,-1.592,-7.247,1.662,0.000,6.268,4.413,2.087,4.093,2.032,2.905,1.918,0.000,0.000,1.851,1.191,0.000,1.702,0.000,0.000,0.000,0.000,0.000,0.000,0.000,0.000,0.000,0.000,0.000,3.142,6.283,0.000,1.003,1.569,1.569,4.085,6.281,1.199,4.712,0.000,0.000,-1.973,-6.690,0.990,4.803,4.657,4.766,5.281,4.711,4.712,2.198,6.282,5.083,1.570,0.000,0.000,-1.320,-6.631,0.990,4.803,4.665,4.759,
28.700,36.710,-1.592,-7.247,1.662,0.000,6.268,4.413,2.087,4.093,2.032,2.905,1.918,0.000,0.000,1.851,1.191,0.000,1.702,0.000,0.000,0.000,0.000,0.000,0.000,0.000,0.000,0.000,0.000,0.000,3.142,6.283,0.000,1.003,1.569,1.569,4.085,6.281,1.199,4.712,0.000,0.000,-1.973,-6.690,0.990,4.803,4.657,4.766,5.281,4.711,4.712,2.198,6.282,5.083,1.570,0.000,0.000,-1.320,-6.631,0.990,4.803,4.665,4.759,
28.800,36.810,-1.592,-7.247,1.662,0.000,6.268,4.413,2.087,4.093,2.032,2.905,1.918,0.000,0.000,1.851,1.191,0.000,1.702,0.000,0.000,0.000,0.000,0.000,0.000,0.000,0.000,0.000,0.000,0.000,3.142,6.283,0.000,1.003,1.569,1.569,4.085,6.281,1.199,4.712,0.000,0.000,-1.973,-6.690,0.990,4.803,4.657,4.766,5.281,4.711,4.712,2.198,6.282,5.083,1.570,0.000,0.000,-1.320,-6.631,0.990,4.803,4.665,4.759,
28.885,36.895,-1.592,-7.247,1.662,0.000,6.268,4.413,2.087,4.093,2.032,2.905,1.918,0.000,0.000,1.851,1.191,0.000,1.702,0.000,0.000,0.000,0.000,0.000,0.000,0.000,0.000,0.000,0.000,0.000,3.142,6.283,0.000,1.003,1.569,1.569,4.085,6.281,1.199,4.712,0.000,0.000,-1.973,-6.690,0.990,4.803,4.657,4.766,5.281,4.711,4.712,2.198,6.282,5.083,1.570,0.000,0.000,-1.320,-6.631,0.990,4.803,4.665,4.759,
29.000,37.010,-1.592,-7.247,1.662,0.000,6.268,4.413,2.087,4.093,2.032,2.905,1.918,0.000,0.000,1.851,1.191,0.000,1.702,0.000,0.000,0.000,0.000,0.000,0.000,0.000,0.000,0.000,0.000,0.000,3.142,6.283,0.000,1.003,1.569,1.569,4.085,6.281,1.199,4.712,0.000,0.000,-1.973,-6.690,0.990,4.803,4.657,4.766,5.281,4.711,4.712,2.198,6.282,5.083,1.570,0.000,0.000,-1.320,-6.631,0.990,4.803,4.665,4.759,
29.100,37.110,-1.592,-7.247,1.662,0.000,6.268,4.413,2.087,4.093,2.032,2.905,1.918,0.000,0.000,1.851,1.191,0.000,1.702,0.000,0.000,0.000,0.000,0.000,0.000,0.000,0.000,0.000,0.000,0.000,3.142,6.283,0.000,1.003,1.569,1.569,4.085,6.281,1.199,4.712,0.000,0.000,-1.973,-6.690,0.990,4.803,4.657,4.766,5.281,4.711,4.712,2.198,6.282,5.083,1.570,0.000,0.000,-1.320,-6.631,0.990,4.803,4.665,4.759,
29.200,37.210,-1.592,-7.247,1.662,0.000,6.268,4.413,2.087,4.093,2.032,2.905,1.918,0.000,0.000,1.851,1.191,0.000,1.702,0.000,0.000,0.000,0.000,0.000,0.000,0.000,0.000,0.000,0.000,0.000,3.142,6.283,0.000,1.003,1.569,1.569,4.085,6.281,1.199,4.712,0.000,0.000,-1.973,-6.690,0.990,4.803,4.657,4.766,5.281,4.711,4.712,2.198,6.282,5.083,1.570,0.000,0.000,-1.320,-6.631,0.990,4.803,4.665,4.759,
29.297,37.308,-1.592,-7.247,1.662,0.000,6.268,4.413,2.087,4.093,2.032,2.905,1.918,0.000,0.000,1.851,1.191,0.000,1.702,0.000,0.000,0.000,0.000,0.000,0.000,0.000,0.000,0.000,0.000,0.000,3.142,6.283,0.000,1.003,1.569,1.569,4.085,6.281,1.199,4.712,0.000,0.000,-1.973,-6.690,0.990,4.803,4.657,4.766,5.281,4.711,4.712,2.198,6.282,5.083,1.570,0.000,0.000,-1.320,-6.631,0.990,4.803,4.665,4.759,
29.400,37.410,-1.592,-7.247,1.662,0.000,6.268,4.413,2.087,4.093,2.032,2.905,1.918,0.000,0.000,1.851,1.191,0.000,1.702,0.000,0.000,0.000,0.000,0.000,0.000,0.000,0.000,0.000,0.000,0.000,3.142,6.283,0.000,1.003,1.569,1.569,4.085,6.281,1.199,4.712,0.000,0.000,-1.973,-6.690,0.990,4.803,4.657,4.766,5.281,4.711,4.712,2.198,6.282,5.083,1.570,0.000,0.000,-1.320,-6.631,0.990,4.803,4.665,4.759,
29.493,37.503,-1.592,-7.247,1.662,0.000,6.268,4.413,2.087,4.093,2.032,2.905,1.918,0.000,0.000,1.851,1.191,0.000,1.702,0.000,0.000,0.000,0.000,0.000,0.000,0.000,0.000,0.000,0.000,0.000,3.142,6.283,0.000,1.003,1.569,1.569,4.085,6.281,1.199,4.712,0.000,0.000,-1.973,-6.690,0.990,4.803,4.657,4.766,5.281,4.711,4.712,2.198,6.282,5.083,1.570,0.000,0.000,-1.320,-6.631,0.990,4.803,4.665,4.759,
29.600,37.610,-1.592,-7.247,1.662,0.000,6.268,4.413,2.087,4.093,2.032,2.905,1.918,0.000,0.000,1.851,1.191,0.000,1.702,0.000,0.000,0.000,0.000,0.000,0.000,0.000,0.000,0.000,0.000,0.000,3.142,6.283,0.000,1.003,1.569,1.569,4.085,6.281,1.199,4.712,0.000,0.000,-1.973,-6.690,0.990,4.803,4.657,4.766,5.281,4.711,4.712,2.198,6.282,5.083,1.570,0.000,0.000,-1.320,-6.631,0.990,4.803,4.665,4.759,
29.700,37.710,-1.592,-7.247,1.662,0.000,6.268,4.413,2.087,4.093,2.032,2.905,1.918,0.000,0.000,1.851,1.191,0.000,1.702,0.000,0.000,0.000,0.000,0.000,0.000,0.000,0.000,0.000,0.000,0.000,3.142,6.283,0.000,1.003,1.569,1.569,4.085,6.281,1.199,4.712,0.000,0.000,-1.973,-6.690,0.990,4.803,4.657,4.766,5.281,4.711,4.712,2.198,6.282,5.083,1.570,0.000,0.000,-1.320,-6.631,0.990,4.803,4.665,4.759,
29.798,37.809,-1.592,-7.247,1.662,0.000,6.268,4.413,2.087,4.093,2.032,2.905,1.918,0.000,0.000,1.851,1.191,0.000,1.702,0.000,0.000,0.000,0.000,0.000,0.000,0.000,0.000,0.000,0.000,0.000,3.142,6.283,0.000,1.003,1.569,1.569,4.085,6.281,1.199,4.712,0.000,0.000,-1.973,-6.690,0.990,4.803,4.657,4.766,5.281,4.711,4.712,2.198,6.282,5.083,1.570,0.000,0.000,-1.320,-6.631,0.990,4.803,4.665,4.759,
29.900,37.910,-1.592,-7.247,1.662,0.000,6.268,4.413,2.087,4.093,2.032,2.905,1.918,0.000,0.000,1.851,1.191,0.000,1.702,0.000,0.000,0.000,0.000,0.000,0.000,0.000,0.000,0.000,0.000,0.000,3.142,6.283,0.000,1.003,1.569,1.569,4.085,6.281,1.199,4.712,0.000,0.000,-1.973,-6.690,0.990,4.803,4.657,4.766,5.281,4.711,4.712,2.198,6.282,5.083,1.570,0.000,0.000,-1.320,-6.631,0.990,4.803,4.665,4.759,
29.998,38.008,-1.592,-7.247,1.662,0.000,6.268,4.413,2.087,4.093,2.032,2.905,1.918,0.000,0.000,1.851,1.191,0.000,1.702,0.000,0.000,0.000,0.000,0.000,0.000,0.000,0.000,0.000,0.000,0.000,3.142,6.283,0.000,1.003,1.569,1.569,4.085,6.281,1.199,4.712,0.000,0.000,-1.973,-6.690,0.990,4.803,4.657,4.766,5.281,4.711,4.712,2.198,6.282,5.083,1.570,0.000,0.000,-1.320,-6.631,0.990,4.803,4.665,4.759,
30.100,38.110,-1.592,-7.247,1.662,0.000,6.268,4.413,2.087,4.093,2.032,2.905,1.918,0.000,0.000,1.851,1.191,0.000,1.702,0.000,0.000,0.000,0.000,0.000,0.000,0.000,0.000,0.000,0.000,0.000,3.142,6.283,0.000,1.003,1.569,1.569,4.085,6.281,1.199,4.712,0.000,0.000,-1.973,-6.690,0.990,4.803,4.657,4.766,5.281,4.711,4.712,2.198,6.282,5.083,1.570,0.000,0.000,-1.320,-6.631,0.990,4.803,4.665,4.759,
30.200,38.210,-1.593,-7.237,1.661,0.396,0.092,4.396,2.088,4.093,2.059,2.900,1.928,0.000,0.000,1.088,1.191,0.000,1.702,0.000,0.000,0.000,0.000,0.000,0.000,0.000,0.000,0.000,0.000,0.000,3.142,6.278,6.283,1.008,1.567,1.566,4.077,6.281,1.199,4.712,0.000,0.000,-1.976,-6.683,0.991,4.807,4.706,4.718,5.282,4.709,4.708,2.197,6.282,5.083,1.570,0.000,0.000,-1.323,-6.620,0.991,4.807,4.665,4.759,
30.300,38.310,-1.598,-7.177,1.664,1.074,0.105,4.363,2.073,4.085,2.188,2.905,1.989,0.000,0.000,0.934,0.000,0.000,1.843,0.000,0.000,0.000,0.000,0.000,0.000,0.000,4.839,0.000,0.000,0.000,3.142,6.278,6.283,1.008,1.567,1.566,4.077,6.281,1.199,4.712,0.000,0.000,-1.983,-6.624,0.991,4.810,4.710,4.714,5.282,4.709,4.708,2.197,6.282,5.083,1.570,0.000,0.000,-1.330,-6.560,0.991,4.810,4.668,4.756,
30.396,38.407,-1.613,-7.018,1.666,1.360,6.266,4.218,2.046,2.665,4.559,2.885,2.149,0.000,0.000,0.675,0.000,0.000,1.878,0.000,0.000,0.000,0.000,0.000,0.000,0.000,4.528,0.000,0.000,0.000,3.142,0.000,0.001,1.003,1.570,1.570,4.087,6.281,1.199,4.712,0.000,0.000,-1.996,-6.463,0.990,4.807,4.652,4.771,5.281,4.712,4.712,2.198,6.282,5.083,1.570,0.000,0.000,-1.343,-6.400,0.990,4.807,4.664,4.760,
30.500,38.510,-1.624,-6.908,1.667,0.891,6.265,4.107,2.029,1.510,4.931,2.866,2.259,0.000,0.000,0.687,0.000,0.000,1.878,0.000,0.000,0.000,0.000,0.000,0.000,0.000,4.415,0.000,0.000,0.000,3.142,0.001,0.001,1.002,1.570,1.571,4.089,6.281,1.200,4.712,0.000,0.000,-2.006,-6.352,0.989,4.807,4.640,4.784,5.281,4.712,4.713,2.198,6.282,5.083,1.570,0.000,0.000,-1.353,-6.290,0.990,4.807,4.663,4.761,
30.600,38.610,-1.631,-6.840,1.667,0.453,6.265,4.041,2.018,1.503,0.000,2.594,2.328,0.000,0.000,0.694,0.000,0.000,1.913,0.000,0.000,0.000,0.000,0.000,0.000,0.000,4.394,0.000,0.000,0.000,3.142,0.002,0.001,1.001,1.570,1.571,4.089,6.281,1.200,4.712,0.000,0.000,-2.013,-6.283,0.989,4.807,4.635,4.788,5.281,4.712,4.713,2.198,6.282,5.083,1.570,0.000,0.000,-1.360,-6.222,0.990,4.807,4.662,4.762,
30.683,38.693,-1.633,-6.817,1.668,0.189,6.265,4.020,2.014,1.652,0.000,2.591,2.352,0.000,0.000,0.697,0.000,0.000,1.913,0.000,0.000,0.000,0.000,0.000,0.000,0.000,4.360,0.000,0.000,0.000,3.142,0.000,0.001,1.002,1.570,1.570,4.087,6.281,1.200,4.712,0.000,0.000,-2.016,-6.261,0.990,4.808,4.648,4.775,5.281,4.712,4.712,2.198,6.282,5.083,1.570,0.000,0.000,-1.363,-6.198,0.990,4.809,4.664,4.760,
30.800,38.810,-1.634,-6.808,1.668,0.005,6.270,4.018,2.012,1.614,0.000,2.592,2.360,0.000,0.000,0.698,0.000,0.000,1.913,0.000,0.000,0.000,0.000,0.000,0.000,0.000,0.000,0.000,0.000,0.000,3.142,6.283,0.001,1.003,1.569,1.569,4.086,6.281,1.199,4.712,0.000,0.000,-2.018,-6.254,0.990,4.810,4.657,4.767,5.281,4.711,4.712,2.198,6.282,5.083,1.570,0.000,0.000,-1.365,-6.190,0.990,4.810,4.664,4.759,
30.893,38.903,-1.634,-6.808,1.668,0.000,6.275,4.018,2.011,1.615,0.000,2.593,2.360,0.000,0.000,0.698,0.000,0.000,1.913,0.000,0.000,0.000,0.000,0.000,0.000,0.000,0.000,0.000,0.000,0.000,3.142,6.283,0.000,1.003,1.569,1.569,4.085,6.281,1.199,4.712,0.000,0.000,-2.018,-6.254,0.990,4.810,4.661,4.763,5.281,4.711,4.711,2.198,6.282,5.083,1.570,0.000,0.000,-1.365,-6.190,0.990,4.810,4.668,4.756,
31.000,39.010,-1.639,-6.759,1.669,0.908,0.092,3.975,2.002,1.387,0.000,2.642,2.410,0.000,0.000,0.704,0.000,0.000,1.913,0.000,0.000,0.000,0.000,0.000,0.000,0.000,0.000,0.000,0.000,0.000,3.142,6.278,6.283,1.008,1.568,1.566,4.076,6.282,1.199,4.712,0.000,0.000,-2.026,-6.208,0.991,4.816,4.712,4.711,5.282,4.710,4.708,2.197,6.283,5.083,1.571,0.000,0.000,-1.373,-6.140,0.991,4.815,4.670,4.754,
31.100,39.110,-1.651,-6.635,1.671,1.445,6.274,3.866,1.979,1.374,0.000,2.834,2.534,0.000,0.668,0.718,2.479,0.000,2.896,0.000,0.000,0.000,0.000,0.000,0.000,0.000,0.000,0.000,0.000,0.000,3.142,6.281,0.000,1.005,1.569,1.568,4.083,6.281,1.199,4.712,0.000,0.000,-2.038,-6.083,0.990,4.815,4.677,4.747,5.281,4.711,4.710,2.198,6.282,5.083,1.570,0.000,0.000,-1.385,-6.016,0.990,4.815,4.669,4.755,
31.180,39.190,-1.662,-6.530,1.672,1.173,6.265,3.759,1.963,1.363,0.000,2.813,2.641,0.000,0.679,0.730,2.357,0.000,2.896,0.000,0.000,0.000,0.000,0.000,0.000,0.000,0.000,0.000,0.000,0.000,3.142,0.001,0.001,1.002,1.570,1.571,4.089,6.281,1.200,4.712,0.000,0.000,-2.047,-5.976,0.989,4.812,4.642,4.781,5.281,4.712,4.713,2.198,6.282,5.083,1.570,0.000,0.000,-1.394,-5.911,0.990,4.812,4.665,4.759,
31.300,39.310,-1.673,-6.422,1.672,0.788,6.265,3.651,1.946,1.351,4.966,2.930,2.749,0.000,0.690,1.288,2.288,0.000,2.896,0.000,0.000,0.000,0.000,0.000,0.000,0.000,0.000,0.000,0.000,0.000,3.142,6.283,0.000,1.003,1.569,1.569,4.086,6.281,1.199,4.712,0.000,0.000,-2.059,-5.869,0.990,4.814,4.660,4.763,5.281,4.711,4.712,2.198,6.282,5.083,1.570,0.000,0.000,-1.407,-5.802,0.990,4.814,4.667,4.757,
31.400,39.410,-1.681,-6.337,1.673,0.989,6.266,3.566,1.932,1.342,4.994,3.026,2.835,0.000,0.699,1.298,2.410,0.000,2.896,0.000,0.000,0.000,0.000,0.000,0.000,0.000,0.000,0.000,0.000,0.000,3.142,6.281,0.000,1.005,1.569,1.568,4.083,6.281,1.199,4.712,0.000,0.000,-2.069,-5.785,0.990,4.816,4.679,4.745,5.281,4.711,4.710,2.198,6.282,5.083,1.570,0.000,0.000,-1.416,-5.717,0.990,4.816,4.669,4.755,
31.500,39.510,-1.690,-6.253,1.673,1.124,6.266,3.481,1.919,1.333,0.000,3.121,2.919,0.000,0.708,1.307,2.428,0.000,2.896,0.000,0.000,0.000,0.000,0.000,0.000,0.000,0.000,0.000,0.000,0.000,3.142,6.282,0.000,1.004,1.569,1.569,4.084,6.281,1.199,4.712,0.000,0.000,-2.077,-5.701,0.990,4.816,4.671,4.752,5.281,4.711,4.711,2.198,6.282,5.083,1.570,0.000,0.000,-1.425,-5.634,0.990,4.816,4.668,4.756,
31.600,47.833,-1.702,-6.137,1.674,0.641,6.266,3.364,1.900,1.321,0.000,3.251,3.036,0.000,0.720,1.266,2.455,0.000,2.931,0.000,0.000,0.000,0.000,0.000,0.000,0.000,0.000,0.000,0.000,0.000,3.142,0.002,0.001,1.001,1.571,1.572,4.091,6.281,1.200,4.712,0.000,0.000,-2.087,-5.583,0.989,4.812,4.631,4.792,5.281,4.713,4.714,2.198,6.282,5.083,1.570,0.000,0.000,-1.435,-5.518,0.990,4.812,4.664,4.760,
31.700,47.933,-1.706,-6.098,1.674,0.229,6.265,3.327,1.642,1.317,0.000,3.295,3.075,0.000,0.724,1.270,2.466,0.000,2.931,0.000,0.000,0.000,0.000,0.000,0.000,0.000,0.000,0.000,0.000,0.000,3.142,0.001,0.001,1.002,1.570,1.570,4.088,6.281,1.200,4.712,0.000,0.000,-2.093,-5.545,0.990,4.815,4.650,4.773,5.281,4.712,4.712,2.198,6.282,5.083,1.570,0.000,0.000,-1.440,-5.478,0.990,4.815,4.667,4.757,
31.800,48.033,-1.707,-6.088,1.675,0.044,6.268,3.320,1.628,1.316,0.000,3.306,3.086,0.000,0.725,1.272,2.470,0.000,2.931,0.000,0.000,0.000,0.000,0.000,0.000,0.000,0.000,0.000,0.000,0.000,3.142,6.283,0.001,1.003,1.570,1.570,4.086,6.281,1.199,4.712,0.000,0.000,-2.095,-5.535,0.990,4.816,4.659,4.765,5.281,4.711,4.712,2.198,6.282,5.083,1.570,0.000,0.000,-1.442,-5.467,0.990,4.816,4.667,4.757,
31.900,48.133,-1.707,-6.087,1.675,0.000,6.275,3.322,1.628,1.316,0.000,3.306,3.087,0.000,0.725,1.272,2.472,0.000,2.931,0.000,0.000,0.000,0.000,0.000,0.000,0.000,0.000,0.000,0.000,0.000,3.142,6.283,0.000,1.003,1.569,1.569,4.085,6.281,1.199,4.712,0.000,0.000,-2.095,-5.535,0.990,4.817,4.664,4.759,5.281,4.711,4.711,2.198,6.282,5.083,1.570,0.000,0.000,-1.443,-5.467,0.990,4.817,4.671,4.753,
32.000,48.233,-1.707,-6.087,1.675,0.000,6.275,3.322,1.628,1.316,0.000,3.306,3.087,0.000,0.725,1.272,2.472,0.000,2.931,0.000,0.000,0.000,0.000,0.000,0.000,0.000,0.000,0.000,0.000,0.000,3.142,6.283,0.000,1.003,1.569,1.569,4.085,6.281,1.199,4.712,0.000,0.000,-2.095,-5.535,0.990,4.817,4.664,4.759,5.281,4.711,4.711,2.198,6.282,5.083,1.570,0.000,0.000,-1.443,-5.467,0.990,4.817,4.671,4.753,
32.100,48.333,-1.707,-6.087,1.675,0.000,6.275,3.322,1.628,1.316,0.000,3.306,3.087,0.000,0.725,1.272,2.472,0.000,2.931,0.000,0.000,0.000,0.000,0.000,0.000,0.000,0.000,0.000,0.000,0.000,3.142,6.283,0.000,1.003,1.569,1.569,4.085,6.281,1.199,4.712,0.000,0.000,-2.095,-5.535,0.990,4.817,4.664,4.759,5.281,4.711,4.711,2.198,6.282,5.083,1.570,0.000,0.000,-1.443,-5.467,0.990,4.817,4.671,4.753,
32.200,48.433,-1.707,-6.087,1.675,0.000,6.275,3.322,1.628,1.316,0.000,3.306,3.087,0.000,0.725,1.272,2.472,0.000,2.931,0.000,0.000,0.000,0.000,0.000,0.000,0.000,0.000,0.000,0.000,0.000,3.142,6.283,0.000,1.003,1.569,1.569,4.085,6.281,1.199,4.712,0.000,0.000,-2.095,-5.535,0.990,4.817,4.664,4.759,5.281,4.711,4.711,2.198,6.282,5.083,1.570,0.000,0.000,-1.443,-5.467,0.990,4.817,4.671,4.753,
32.300,48.533,-1.707,-6.087,1.675,0.000,6.275,3.322,1.628,1.316,0.000,3.306,3.087,0.000,0.725,1.272,2.472,0.000,2.931,0.000,0.000,0.000,0.000,0.000,0.000,0.000,0.000,0.000,0.000,0.000,3.142,6.283,0.000,1.003,1.569,1.569,4.085,6.281,1.199,4.712,0.000,0.000,-2.095,-5.535,0.990,4.817,4.664,4.759,5.281,4.711,4.711,2.198,6.282,5.083,1.570,0.000,0.000,-1.443,-5.467,0.990,4.817,4.671,4.753,
32.387,48.620,-1.707,-6.087,1.675,0.000,6.275,3.322,1.628,1.316,0.000,3.306,3.087,0.000,0.725,1.272,2.472,0.000,2.931,0.000,0.000,0.000,0.000,0.000,0.000,0.000,0.000,0.000,0.000,0.000,3.142,6.283,0.000,1.003,1.569,1.569,4.085,6.281,1.199,4.712,0.000,0.000,-2.095,-5.535,0.990,4.817,4.664,4.759,5.281,4.711,4.711,2.198,6.282,5.083,1.570,0.000,0.000,-1.443,-5.467,0.990,4.817,4.671,4.753,
32.500,48.733,-1.707,-6.087,1.675,0.000,6.275,3.322,1.628,1.316,0.000,3.306,3.087,0.000,0.725,1.272,2.472,0.000,2.931,0.000,0.000,0.000,0.000,0.000,0.000,0.000,0.000,0.000,0.000,0.000,3.142,6.283,0.000,1.003,1.569,1.569,4.085,6.281,1.199,4.712,0.000,0.000,-2.095,-5.535,0.990,4.817,4.664,4.759,5.281,4.711,4.711,2.198,6.282,5.083,1.570,0.000,0.000,-1.443,-5.467,0.990,4.817,4.671,4.753,
32.597,48.830,-1.707,-6.087,1.675,0.000,6.275,3.322,1.628,1.316,0.000,3.306,3.087,0.000,0.725,1.272,2.472,0.000,2.931,0.000,0.000,0.000,0.000,0.000,0.000,0.000,0.000,0.000,0.000,0.000,3.142,6.283,0.000,1.003,1.569,1.569,4.085,6.281,1.199,4.712,0.000,0.000,-2.095,-5.535,0.990,4.817,4.664,4.759,5.281,4.711,4.711,2.198,6.282,5.083,1.570,0.000,0.000,-1.443,-5.467,0.990,4.817,4.671,4.753,
32.700,48.933,-1.707,-6.087,1.675,0.000,6.275,3.322,1.628,1.316,0.000,3.306,3.087,0.000,0.725,1.272,2.472,0.000,2.931,0.000,0.000,0.000,0.000,0.000,0.000,2.240,0.000,0.000,0.000,0.000,3.142,6.283,0.000,1.003,1.569,1.569,4.085,6.281,1.199,4.712,0.000,0.000,-2.095,-5.535,0.990,4.817,4.664,4.759,5.281,4.711,4.711,2.198,6.282,5.083,1.570,0.000,0.000,-1.443,-5.467,0.990,4.817,4.671,4.753,
32.800,49.033,-1.707,-6.087,1.675,0.000,6.275,3.322,1.628,1.316,0.000,3.306,3.087,0.000,0.725,1.272,2.472,0.000,2.931,0.000,0.000,0.000,0.000,0.000,0.000,2.114,0.000,0.000,0.000,0.000,3.142,6.283,0.000,1.003,1.569,1.569,4.085,6.281,1.199,4.712,0.000,0.000,-2.095,-5.535,0.990,4.817,4.664,4.759,5.281,4.711,4.711,2.198,6.282,5.083,1.570,0.000,0.000,-1.443,-5.467,0.990,4.817,4.671,4.753,
32.889,49.121,-1.707,-6.087,1.675,0.000,6.275,3.322,1.628,1.316,0.000,3.306,3.087,0.000,0.725,1.272,2.472,0.000,2.931,0.000,0.000,0.000,0.000,0.000,0.000,2.035,0.000,0.000,0.000,0.000,3.142,6.283,0.000,1.003,1.569,1.569,4.085,6.281,1.199,4.712,0.000,0.000,-2.095,-5.535,0.990,4.817,4.664,4.759,5.281,4.711,4.711,2.198,6.282,5.083,1.570,0.000,0.000,-1.443,-5.467,0.990,4.817,4.671,4.753,
33.000,49.233,-1.707,-6.087,1.675,0.000,6.275,3.322,1.628,1.316,0.000,3.306,3.087,0.000,0.725,1.272,2.472,0.000,2.931,0.000,0.000,0.000,0.000,0.000,0.000,1.906,0.000,0.000,0.000,0.000,3.142,6.283,0.000,1.003,1.569,1.569,4.085,6.281,1.199,4.712,0.000,0.000,-2.095,-5.535,0.990,4.817,4.664,4.759,5.281,4.711,4.711,2.198,6.282,5.083,1.570,0.000,0.000,-1.443,-5.467,0.990,4.817,4.671,4.753,
33.098,49.331,-1.707,-6.087,1.675,0.000,6.275,3.322,1.628,1.316,0.000,3.306,3.087,0.000,0.725,1.272,2.472,0.000,2.931,0.000,0.000,0.000,0.000,0.000,0.000,1.874,0.000,0.000,0.000,0.000,3.142,6.283,0.000,1.003,1.569,1.569,4.085,6.281,1.199,4.712,0.000,0.000,-2.095,-5.535,0.990,4.817,4.664,4.759,5.281,4.711,4.711,2.198,6.282,5.083,1.570,0.000,0.000,-1.443,-5.467,0.990,4.817,4.671,4.753,
33.200,49.433,-1.707,-6.087,1.675,0.000,6.275,3.322,1.628,1.316,0.000,3.306,3.087,0.000,0.725,1.272,2.472,0.000,2.931,0.000,0.000,0.000,0.000,0.000,0.000,0.000,0.000,0.000,0.000,0.000,3.142,6.283,0.000,1.003,1.569,1.569,4.085,6.281,1.199,4.712,0.000,0.000,-2.095,-5.535,0.990,4.817,4.664,4.759,5.281,4.711,4.711,2.198,6.282,5.083,1.570,0.000,0.000,-1.443,-5.467,0.990,4.817,4.671,4.753,
33.300,49.533,-1.707,-6.087,1.675,0.000,6.275,3.322,1.628,1.316,0.000,3.306,3.087,0.000,0.725,1.272,2.472,0.000,2.931,0.000,0.000,0.000,0.000,0.000,0.000,0.000,0.000,0.000,0.000,0.000,3.142,6.283,0.000,1.003,1.569,1.569,4.085,6.281,1.199,4.712,0.000,0.000,-2.095,-5.535,0.990,4.817,4.664,4.759,5.281,4.711,4.711,2.198,6.282,5.083,1.570,0.000,0.000,-1.443,-5.467,0.990,4.817,4.671,4.753,
33.400,49.633,-1.707,-6.087,1.675,0.000,6.275,3.322,1.628,1.316,0.000,3.306,3.087,0.000,0.725,1.272,2.472,0.000,2.931,0.000,0.000,0.000,0.000,0.000,0.000,0.000,0.000,0.000,0.000,0.000,3.142,6.283,0.000,1.003,1.569,1.569,4.085,6.281,1.199,4.712,0.000,0.000,-2.095,-5.535,0.990,4.817,4.664,4.759,5.281,4.711,4.711,2.198,6.282,5.083,1.570,0.000,0.000,-1.443,-5.467,0.990,4.817,4.671,4.753,
33.500,49.733,-1.707,-6.087,1.675,0.000,6.275,3.322,1.628,1.316,0.000,3.306,3.087,0.000,0.725,1.272,2.472,0.000,2.931,0.000,0.000,0.000,0.000,0.000,0.000,0.000,0.000,0.000,0.000,0.000,3.142,6.283,0.000,1.003,1.569,1.569,4.085,6.281,1.199,4.712,0.000,0.000,-2.095,-5.535,0.990,4.817,4.664,4.759,5.281,4.711,4.711,2.198,6.282,5.083,1.570,0.000,0.000,-1.443,-5.467,0.990,4.817,4.671,4.753,
