deveshdatwani/Gopher/Assets/Data/07-14 00-32-27/Obstacle Handling_robot_value.csv
game_time,true_time,x,y,az,vx,vaz,dis_to_obs_0,dis_to_obs_36,dis_to_obs_72,dis_to_obs_108,dis_to_obs_144,dis_to_obs_180,dis_to_obs_-144,dis_to_obs_-108,dis_to_obs_-72,dis_to_obs_-36,dis_to_min_obs,direction_to_min_obs,dis_to_human_0,dis_to_human_36,dis_to_human_72,dis_to_human_108,dis_to_human_144,dis_to_human_180,dis_to_human_-144,dis_to_human_-108,dis_to_human_-72,dis_to_human_-36,dis_to_min_human,direction_to_min_human,main_cam_yaw,main_cam_pitch,left_joint_1,left_joint_2,left_joint_3,left_joint_4,left_joint_5,left_joint_6,left_joint_7,left_joint_gripper,left_is_grasping,left_end_x,left_end_y,left_end_z,left_end_ax,left_end_ay,left_end_az,right_joint_1,right_joint_2,right_joint_3,right_joint_4,right_joint_5,right_joint_6,right_joint_7,right_joint_gripper,right_is_grasping,right_end_x,right_end_y,right_end_z,right_end_ax,right_end_ay,right_end_az,
21.211,134.390,0.997,-9.902,1.576,1.007,6.265,3.403,0.000,1.743,1.256,2.119,0.000,3.367,2.098,1.697,4.147,0.000,3.142,0.000,0.000,0.000,0.000,0.000,0.000,0.000,0.000,0.000,0.000,0.000,3.142,6.282,0.000,1.004,1.569,1.569,4.085,6.281,1.199,4.712,0.000,0.000,0.665,-9.315,0.990,4.720,4.005,5.419,5.281,4.711,4.711,2.198,6.282,5.083,1.570,0.000,0.000,1.321,-9.311,0.990,4.720,4.053,5.371,
21.320,134.498,0.996,-9.804,1.577,0.997,6.265,3.305,0.000,1.693,1.256,2.120,0.000,3.366,2.098,1.698,3.488,0.000,3.142,0.000,0.000,0.000,0.000,0.000,0.000,0.000,0.000,0.000,0.000,0.000,3.142,6.282,0.000,1.004,1.569,1.569,4.085,6.281,1.199,4.712,0.000,0.000,0.664,-9.217,0.990,4.720,4.071,5.353,5.281,4.711,4.711,2.198,6.282,5.083,1.570,0.000,0.000,1.320,-9.213,0.990,4.720,4.097,5.327,
21.417,134.595,0.995,-9.705,1.577,1.014,6.265,3.206,0.000,1.641,1.299,2.120,0.000,3.365,2.099,1.699,3.367,0.000,3.142,0.000,0.000,0.000,0.000,0.000,0.000,0.000,0.000,0.000,0.000,0.000,3.142,6.282,0.000,1.004,1.569,1.569,4.085,6.281,1.199,4.712,0.000,0.000,0.663,-9.118,0.990,4.721,4.112,5.312,5.281,4.711,4.711,2.198,6.282,5.083,1.570,0.000,0.000,1.319,-9.114,0.990,4.721,4.130,5.294,
21.520,134.698,0.995,-9.605,1.578,1.019,6.265,3.106,0.000,1.589,1.377,2.120,0.000,3.364,2.099,0.000,3.319,0.000,3.142,0.000,0.000,0.000,0.000,0.000,0.000,0.000,0.000,0.000,0.000,0.000,3.142,6.282,0.000,1.004,1.569,1.569,4.085,6.281,1.199,4.712,0.000,0.000,0.662,-9.018,0.990,4.721,4.123,5.301,5.281,4.711,4.711,2.198,6.282,5.083,1.570,0.000,0.000,1.318,-9.014,0.990,4.721,4.150,5.274,
21.620,134.798,0.994,-9.525,1.578,1.012,6.265,3.026,0.000,1.548,1.438,2.120,0.000,3.364,2.100,0.000,3.684,0.000,3.142,0.000,0.000,0.000,0.000,0.000,0.000,0.000,0.000,0.000,0.000,0.000,3.142,6.282,0.000,1.004,1.569,1.569,4.085,6.281,1.199,4.712,0.000,0.000,0.661,-8.939,0.990,4.721,4.138,5.286,5.281,4.711,4.711,2.198,6.282,5.083,1.570,0.000,0.000,1.317,-8.934,0.990,4.721,4.167,5.257,
21.720,134.898,0.993,-9.406,1.578,1.008,6.265,2.907,0.000,1.486,1.530,2.120,0.000,3.363,2.100,0.000,3.538,0.000,3.142,0.000,0.000,0.000,0.000,0.000,0.000,0.000,0.000,0.000,0.000,0.000,3.142,6.282,0.000,1.004,1.569,1.569,4.085,6.281,1.199,4.712,0.000,0.000,0.660,-8.820,0.990,4.722,4.173,5.251,5.281,4.711,4.711,2.198,6.282,5.083,1.570,0.000,0.000,1.316,-8.814,0.990,4.722,4.196,5.228,
21.820,134.998,0.993,-9.327,1.579,1.012,6.265,2.828,3.194,1.725,1.591,2.120,0.000,3.363,2.101,0.000,3.440,0.000,3.142,0.000,0.000,0.000,0.000,0.000,0.000,0.000,0.000,0.000,0.000,0.000,3.142,6.282,0.000,1.004,1.569,1.569,4.085,6.281,1.199,4.712,0.000,0.000,0.659,-8.740,0.990,4.722,4.193,5.231,5.281,4.711,4.711,2.198,6.282,5.083,1.570,0.000,0.000,1.315,-8.735,0.990,4.722,4.214,5.210,
21.920,135.098,0.992,-9.207,1.579,1.013,6.265,2.708,3.044,2.152,1.683,2.119,0.000,3.362,2.101,0.000,3.294,0.000,3.142,0.000,0.000,0.000,0.000,0.000,0.000,0.000,0.000,0.000,0.000,0.000,3.142,6.282,0.000,1.004,1.569,1.569,4.085,6.281,1.199,4.712,0.000,0.000,0.658,-8.621,0.990,4.722,4.213,5.211,5.281,4.711,4.711,2.198,6.282,5.083,1.570,0.000,0.000,1.314,-8.615,0.990,4.722,4.235,5.189,
22.020,135.198,0.991,-9.128,1.579,1.011,6.265,2.629,2.944,0.000,1.745,2.119,0.000,3.362,1.685,0.000,3.196,0.000,3.142,0.000,0.000,0.000,0.000,0.000,0.000,0.000,0.000,0.000,0.000,0.000,3.142,6.282,0.000,1.004,1.569,1.569,4.085,6.281,1.199,4.712,0.000,0.000,0.657,-8.541,0.990,4.723,4.227,5.197,5.281,4.711,4.711,2.198,6.282,5.083,1.570,0.000,0.000,1.313,-8.535,0.990,4.723,4.249,5.175,
22.120,135.298,0.990,-9.028,1.580,1.011,6.266,2.529,2.819,0.000,1.821,2.119,0.000,3.362,1.686,0.000,3.074,0.000,3.142,0.000,0.000,0.000,0.000,0.000,0.000,0.000,0.000,0.000,0.000,0.000,3.142,6.282,0.000,1.004,1.569,1.569,4.085,6.281,1.199,4.712,0.000,0.000,0.656,-8.442,0.990,4.723,4.246,5.178,5.281,4.711,4.711,2.198,6.282,5.083,1.570,0.000,0.000,1.312,-8.436,0.990,4.723,4.266,5.158,
22.204,135.382,0.989,-8.909,1.580,1.012,6.265,2.410,2.669,0.000,1.913,2.118,0.000,3.361,1.687,0.000,2.928,0.000,3.142,0.000,0.000,0.000,0.000,0.000,0.000,0.000,0.000,0.000,0.000,0.000,3.142,6.282,0.000,1.004,1.569,1.569,4.085,6.281,1.199,4.712,0.000,0.000,0.654,-8.323,0.990,4.723,4.265,5.159,5.281,4.711,4.711,2.198,6.282,5.083,1.570,0.000,0.000,1.310,-8.316,0.990,4.723,4.285,5.139,
22.320,135.498,0.988,-8.809,1.581,1.012,6.266,2.310,2.368,0.000,1.989,2.118,0.000,3.361,1.688,0.000,2.806,0.000,3.142,0.000,0.000,0.000,0.000,0.000,0.000,0.000,0.000,0.000,0.000,0.000,3.142,6.282,0.000,1.004,1.569,1.569,4.085,6.281,1.199,4.712,0.000,0.000,0.653,-8.224,0.990,4.724,4.280,5.144,5.281,4.711,4.711,2.198,6.282,5.083,1.570,0.000,0.000,1.309,-8.217,0.990,4.724,4.299,5.125,
22.420,135.598,0.987,-8.730,1.581,1.011,6.265,2.231,2.313,0.000,1.717,2.117,0.000,3.361,1.689,0.000,2.709,0.000,3.142,0.000,0.000,0.000,0.000,0.000,0.000,0.000,0.000,0.000,0.000,0.000,3.142,6.282,0.000,1.004,1.569,1.569,4.085,6.281,1.199,4.712,0.000,0.000,0.652,-8.144,0.990,4.724,4.291,5.133,5.281,4.711,4.711,2.198,6.282,5.083,1.570,0.000,0.000,1.308,-8.137,0.990,4.724,4.310,5.115,
22.520,135.698,0.986,-8.630,1.581,1.011,6.265,2.131,2.580,0.000,1.639,2.117,0.000,3.361,1.711,0.000,2.588,0.000,3.142,0.000,0.000,0.000,0.000,0.000,0.000,0.000,0.000,0.000,0.000,0.000,3.142,6.282,0.000,1.004,1.569,1.569,4.085,6.281,1.199,4.712,0.000,0.000,0.651,-8.045,0.990,4.724,4.305,5.119,5.281,4.711,4.711,2.198,6.282,5.083,1.570,0.000,0.000,1.307,-8.038,0.990,4.724,4.323,5.102,
22.620,135.798,0.985,-8.511,1.582,1.012,6.266,2.012,2.577,0.000,1.544,2.116,0.000,3.361,2.107,0.000,2.442,0.000,3.142,0.000,0.000,0.000,0.000,0.000,0.000,0.000,0.000,0.000,0.000,0.000,3.142,6.282,0.000,1.004,1.569,1.569,4.085,6.281,1.199,4.712,0.000,0.000,0.649,-7.926,0.990,4.725,4.320,5.104,5.281,4.711,4.711,2.198,6.282,5.083,1.570,0.000,0.000,1.305,-7.918,0.990,4.725,4.337,5.087,
22.710,135.888,0.984,-8.411,1.582,1.011,6.265,1.912,2.573,0.000,1.562,2.126,0.000,3.362,2.108,0.000,2.320,0.000,3.142,0.000,0.000,0.000,0.000,0.000,0.000,0.000,0.000,0.000,0.000,0.000,3.142,6.282,0.000,1.004,1.569,1.569,4.085,6.281,1.199,4.712,0.000,0.000,0.648,-7.826,0.990,4.725,4.331,5.093,5.281,4.711,4.711,2.198,6.282,5.083,1.570,0.000,0.000,1.304,-7.818,0.990,4.725,4.348,5.076,
22.816,135.994,0.982,-8.312,1.583,1.011,6.266,1.813,2.296,0.000,1.673,2.197,0.000,3.362,2.364,0.000,2.199,0.000,3.142,0.000,0.000,0.000,0.000,0.000,0.000,0.000,0.000,0.000,0.000,0.000,3.142,6.282,0.000,1.004,1.569,1.569,4.085,6.281,1.199,4.712,0.000,0.000,0.647,-7.727,0.990,4.726,4.342,5.081,5.281,4.711,4.711,2.198,6.282,5.083,1.570,0.000,0.000,1.303,-7.719,0.990,4.726,4.359,5.066,
22.920,136.098,0.981,-8.213,1.583,1.012,6.266,1.713,2.171,0.000,1.784,2.268,0.000,3.362,2.710,3.854,2.078,0.000,3.142,0.000,0.000,0.000,0.000,0.000,0.000,0.000,0.000,0.000,0.000,0.000,3.142,6.282,0.000,1.004,1.569,1.569,4.085,6.281,1.199,4.712,0.000,0.000,0.645,-7.628,0.990,4.726,4.353,5.071,5.281,4.711,4.711,2.198,6.282,5.083,1.570,0.000,0.000,1.301,-7.619,0.990,4.726,4.369,5.056,
23.020,136.198,0.980,-8.133,1.583,1.012,6.266,1.634,2.070,0.000,1.872,2.325,0.000,3.362,2.987,4.935,1.981,0.000,3.142,0.000,0.000,0.000,0.000,0.000,0.000,0.000,0.000,0.000,0.000,0.000,3.142,6.282,0.000,1.004,1.569,1.569,4.085,6.281,1.199,4.712,0.000,0.000,0.644,-7.548,0.990,4.726,4.361,5.063,5.281,4.711,4.711,2.198,6.282,5.083,1.570,0.000,0.000,1.300,-7.540,0.990,4.726,4.376,5.048,
23.120,136.298,0.979,-8.014,1.584,1.011,6.265,1.514,1.919,0.000,2.005,2.411,0.000,3.363,3.395,4.568,1.835,0.000,3.142,0.000,0.000,0.000,0.000,0.000,0.000,0.000,0.000,0.000,0.000,0.000,3.142,6.282,0.000,1.004,1.569,1.569,4.085,6.281,1.199,4.712,0.000,0.000,0.642,-7.429,0.990,4.727,4.372,5.052,5.281,4.711,4.711,2.198,6.282,5.083,1.570,0.000,0.000,1.298,-7.420,0.990,4.727,4.387,5.037,
23.220,136.398,0.977,-7.914,1.584,1.012,6.266,1.415,1.794,0.000,2.115,2.482,0.000,3.363,3.578,4.263,1.714,0.000,3.142,0.000,0.000,0.000,0.000,0.000,0.000,0.000,0.000,0.000,0.000,0.000,3.142,6.282,0.000,1.004,1.569,1.569,4.085,6.281,1.199,4.712,0.000,0.000,0.641,-7.330,0.990,4.727,4.381,5.043,5.281,4.711,4.711,2.198,6.282,5.083,1.570,0.000,0.000,1.297,-7.320,0.990,4.727,4.395,5.029,
23.320,136.498,0.976,-7.834,1.585,1.012,6.266,1.335,1.693,4.292,2.203,2.538,0.000,3.364,0.000,4.019,1.617,0.000,3.142,0.000,0.000,0.000,0.000,0.000,0.000,0.000,0.000,0.000,0.000,0.000,3.142,6.282,0.000,1.004,1.569,1.569,4.085,6.281,1.199,4.712,0.000,0.000,0.639,-7.250,0.990,4.727,4.388,5.036,5.281,4.711,4.711,2.198,6.282,5.083,1.570,0.000,0.000,1.295,-7.241,0.990,4.727,4.402,5.022,
23.420,136.598,0.975,-7.735,1.585,1.012,6.266,1.236,1.568,4.240,4.241,2.609,0.000,3.364,4.836,3.716,1.497,0.000,3.142,0.000,0.000,0.000,0.000,0.000,0.000,0.000,0.000,0.000,0.000,0.000,3.142,6.282,0.000,1.004,1.569,1.569,4.085,6.281,1.199,4.712,0.000,0.000,0.638,-7.151,0.990,4.728,4.396,5.028,5.281,4.711,4.711,2.198,6.282,5.083,1.570,0.000,0.000,1.294,-7.141,0.990,4.728,4.410,5.015,
23.520,136.698,0.974,-7.670,1.585,0.396,6.264,1.171,1.486,4.310,4.108,2.656,0.000,3.364,4.836,3.516,1.418,0.000,3.142,0.000,0.000,0.000,0.000,0.000,0.000,0.000,0.000,0.000,0.000,0.000,3.142,0.001,0.001,1.001,1.570,1.571,4.089,6.281,1.200,4.712,0.000,0.000,0.638,-7.085,0.989,4.727,4.197,5.227,5.281,4.712,4.713,2.198,6.282,5.083,1.570,0.000,0.000,1.294,-7.076,0.990,4.726,4.365,5.059,
23.620,136.798,0.974,-7.648,1.586,0.119,6.265,1.148,1.458,4.236,4.108,2.672,0.000,3.362,4.835,2.119,1.390,0.000,3.142,0.000,0.000,0.000,0.000,0.000,0.000,0.000,0.000,0.000,0.000,0.000,3.142,0.000,0.001,1.003,1.570,1.570,4.087,6.281,1.199,4.712,0.000,0.000,0.636,-7.063,0.990,4.728,4.328,5.095,5.281,4.712,4.712,2.198,6.282,5.083,1.570,0.000,0.000,1.292,-7.054,0.990,4.728,4.406,5.018,
23.720,136.898,0.973,-7.644,1.586,0.000,6.268,1.145,1.454,4.229,4.109,2.675,0.000,3.360,4.835,2.105,1.385,0.000,3.142,0.000,0.000,0.000,0.000,0.000,0.000,0.000,0.000,0.000,0.000,0.000,3.142,6.283,0.000,1.003,1.569,1.569,4.086,6.281,1.199,4.712,0.000,0.000,0.636,-7.060,0.990,4.729,4.387,5.037,5.281,4.711,4.712,2.198,6.282,5.083,1.570,0.000,0.000,1.292,-7.050,0.990,4.729,4.430,4.994,
23.820,136.998,0.973,-7.644,1.586,0.000,6.271,1.145,1.454,4.229,4.109,2.675,0.000,3.360,4.835,2.105,1.385,0.000,3.142,0.000,0.000,0.000,0.000,0.000,0.000,0.000,0.000,0.000,0.000,0.000,3.142,6.283,0.000,1.003,1.569,1.569,4.085,6.281,1.199,4.712,0.000,0.000,0.636,-7.060,0.990,4.729,4.402,5.022,5.281,4.711,4.712,2.198,6.282,5.083,1.570,0.000,0.000,1.292,-7.050,0.990,4.729,4.443,4.981,
23.920,137.098,0.973,-7.644,1.586,0.000,6.272,1.145,1.454,4.229,4.109,2.675,0.000,3.360,4.835,2.105,1.385,0.000,3.142,0.000,0.000,0.000,0.000,0.000,0.000,0.000,0.000,0.000,0.000,0.000,3.142,6.283,0.000,1.003,1.569,1.569,4.085,6.281,1.199,4.712,0.000,0.000,0.636,-7.060,0.990,4.729,4.402,5.022,5.281,4.711,4.712,2.198,6.282,5.083,1.570,0.000,0.000,1.292,-7.050,0.990,4.729,4.443,4.981,
24.020,137.198,0.974,-7.692,1.585,-0.859,6.177,1.193,1.513,4.239,4.241,2.640,0.000,3.365,4.836,3.587,1.445,0.000,3.142,0.000,0.000,0.000,0.000,0.000,0.000,0.000,0.000,0.000,0.000,0.000,3.142,0.004,0.001,0.999,1.572,1.573,4.094,6.281,1.200,4.712,0.000,0.000,0.640,-7.105,0.989,4.726,3.943,5.481,5.280,4.713,4.715,2.199,6.282,5.083,1.570,0.000,0.000,1.296,-7.099,0.990,4.724,4.337,5.087,
24.120,137.298,0.976,-7.811,1.581,-1.419,0.000,1.312,1.659,4.246,4.236,2.553,0.000,3.380,0.000,3.990,1.593,0.000,3.142,0.000,0.000,0.000,0.000,0.000,0.000,0.000,0.000,0.000,0.000,0.000,3.142,0.002,0.001,1.002,1.571,1.571,4.088,6.281,1.200,4.712,0.000,0.000,0.643,-7.225,0.990,4.722,3.988,5.436,5.280,4.712,4.713,2.199,6.282,5.083,1.570,0.000,0.000,1.299,-7.219,0.990,4.721,4.226,5.198,
24.220,137.398,0.977,-7.940,1.581,-1.097,6.276,1.441,1.823,0.000,2.091,2.461,0.000,3.376,3.455,4.377,1.749,0.000,3.142,0.000,0.000,0.000,0.000,0.000,0.000,0.000,0.000,0.000,0.000,0.000,3.142,6.281,6.283,1.005,1.569,1.568,4.082,6.281,1.199,4.712,0.000,0.000,0.641,-7.356,0.990,4.725,4.476,4.948,5.281,4.711,4.710,2.199,6.282,5.083,1.570,0.000,0.000,1.297,-7.348,0.991,4.725,4.398,5.026,
24.315,137.493,0.978,-8.029,1.581,-0.800,6.276,1.530,1.936,0.000,1.991,2.398,0.000,3.374,3.323,4.647,1.857,0.000,3.142,0.000,0.000,0.000,0.000,0.000,0.000,0.000,0.000,0.000,0.000,0.000,3.142,6.283,0.000,1.004,1.569,1.569,4.085,6.281,1.199,4.712,0.000,0.000,0.643,-7.444,0.990,4.724,4.313,5.111,5.281,4.711,4.711,2.199,6.282,5.083,1.570,0.000,0.000,1.299,-7.437,0.990,4.724,4.359,5.065,
24.418,137.596,0.979,-8.114,1.582,-0.973,6.274,1.615,2.044,0.000,1.895,2.337,0.000,3.371,3.037,4.898,1.960,0.000,3.142,0.000,0.000,0.000,0.000,0.000,0.000,0.000,0.000,0.000,0.000,0.000,3.142,0.001,0.001,1.002,1.570,1.571,4.088,6.281,1.200,4.712,0.000,0.000,0.645,-7.528,0.990,4.724,4.106,5.318,5.280,4.712,4.713,2.199,6.282,5.083,1.570,0.000,0.000,1.301,-7.521,0.990,4.723,4.305,5.120,
24.520,137.698,0.980,-8.219,1.582,-1.122,6.274,1.720,2.178,0.000,1.777,2.263,0.000,3.367,2.680,3.873,2.087,0.000,3.142,0.000,0.000,0.000,0.000,0.000,0.000,0.000,0.000,0.000,0.000,0.000,3.142,0.000,0.000,1.003,1.570,1.570,4.086,6.281,1.199,4.712,0.000,0.000,0.645,-7.633,0.990,4.724,4.230,5.194,5.280,4.712,4.712,2.199,6.282,5.083,1.570,0.000,0.000,1.301,-7.626,0.990,4.724,4.348,5.076,
24.620,137.798,0.981,-8.306,1.583,-1.056,6.275,1.806,2.288,0.000,1.680,2.201,0.000,3.364,2.386,0.000,2.191,0.000,3.142,0.000,0.000,0.000,0.000,0.000,0.000,0.000,0.000,0.000,0.000,0.000,3.142,6.283,0.000,1.004,1.569,1.569,4.085,6.281,1.199,4.712,0.000,0.000,0.646,-7.720,0.990,4.725,4.336,5.087,5.281,4.711,4.711,2.199,6.282,5.083,1.570,0.000,0.000,1.302,-7.713,0.990,4.725,4.384,5.041,
24.720,137.898,0.983,-8.422,1.583,-0.955,6.275,1.923,2.570,0.000,1.549,2.118,0.000,3.360,2.108,0.000,2.333,0.000,3.142,0.000,0.000,0.000,0.000,0.000,0.000,0.000,0.000,0.000,0.000,0.000,3.142,6.283,0.000,1.003,1.570,1.570,4.086,6.281,1.199,4.712,0.000,0.000,0.647,-7.837,0.990,4.725,4.303,5.121,5.281,4.712,4.712,2.199,6.282,5.083,1.570,0.000,0.000,1.303,-7.829,0.990,4.725,4.380,5.044,
24.820,137.998,0.984,-8.518,1.583,-1.004,6.275,2.019,2.570,0.000,1.552,2.119,0.000,3.356,2.107,0.000,2.448,0.000,3.142,0.000,0.000,0.000,0.000,0.000,0.000,0.000,0.000,0.000,0.000,0.000,3.142,0.000,0.000,1.003,1.570,1.570,4.086,6.281,1.199,4.712,0.000,0.000,0.648,-7.933,0.990,4.725,4.267,5.157,5.280,4.712,4.712,2.199,6.282,5.083,1.570,0.000,0.000,1.304,-7.925,0.990,4.725,4.377,5.047,
24.920,138.098,0.985,-8.599,1.584,-1.040,6.275,2.100,2.571,0.000,1.617,2.121,0.000,3.353,1.832,0.000,2.546,0.000,3.142,0.000,0.000,0.000,0.000,0.000,0.000,0.000,0.000,0.000,0.000,0.000,3.142,0.000,0.000,1.003,1.570,1.570,4.086,6.281,1.199,4.712,0.000,0.000,0.649,-8.014,0.990,4.726,4.295,5.129,5.280,4.712,4.712,2.199,6.282,5.083,1.570,0.000,0.000,1.305,-8.006,0.990,4.725,4.390,5.035,
25.020,138.198,0.986,-8.666,1.584,-0.411,6.277,2.167,2.572,0.000,1.671,2.123,0.000,3.351,1.689,0.000,2.626,0.000,3.142,0.000,0.000,0.000,0.000,0.000,0.000,0.000,0.000,0.000,0.000,0.000,3.142,6.281,6.283,1.005,1.568,1.568,4.082,6.281,1.199,4.712,0.000,0.000,0.648,-8.082,0.990,4.728,4.525,4.899,5.281,4.711,4.710,2.199,6.282,5.083,1.570,0.000,0.000,1.304,-8.072,0.991,4.728,4.452,4.972,
25.120,138.298,0.986,-8.686,1.586,-0.009,0.183,2.187,2.296,0.000,1.691,2.131,0.000,3.341,1.687,0.000,2.647,0.000,3.142,0.000,0.000,0.000,0.000,0.000,0.000,0.000,0.000,0.000,0.000,0.000,3.142,6.282,6.283,1.005,1.569,1.569,4.083,6.281,1.199,4.712,0.000,0.000,0.648,-8.103,0.990,4.728,4.497,4.926,5.281,4.711,4.712,2.199,6.282,5.083,1.570,0.000,0.000,1.305,-8.092,0.991,4.728,4.496,4.928,
25.220,138.398,0.986,-8.676,1.667,0.137,1.326,2.190,2.557,0.000,2.018,2.441,0.000,3.026,2.060,0.000,2.504,0.000,3.142,0.000,0.000,0.000,0.000,0.000,0.000,0.000,0.000,0.000,0.000,0.000,3.142,0.002,0.000,1.003,1.570,1.571,4.086,6.281,1.199,4.712,0.000,0.000,0.603,-8.121,0.990,4.807,4.662,4.762,5.281,4.713,4.714,2.199,6.282,5.083,1.570,0.000,0.000,1.256,-8.058,0.991,4.806,4.684,4.740,
25.310,138.488,0.985,-8.669,1.798,0.002,1.509,2.235,0.000,4.243,1.948,3.241,0.000,2.660,4.634,4.133,2.341,0.000,3.142,0.000,0.000,0.000,0.000,0.000,0.000,0.000,0.000,0.000,0.000,0.000,3.142,0.003,0.000,1.002,1.570,1.570,4.088,6.281,1.199,4.712,0.000,0.000,0.532,-8.168,0.990,4.939,4.688,4.735,5.281,4.713,4.713,2.199,6.282,5.083,1.570,0.000,0.000,1.172,-8.021,0.991,4.938,4.699,4.725,
25.420,138.598,0.986,-8.673,1.912,-0.065,1.150,2.321,4.765,1.794,1.910,4.637,4.327,2.436,0.000,3.516,2.256,0.000,3.036,0.000,0.000,0.000,0.000,0.000,0.000,0.000,0.000,0.000,0.000,0.000,3.142,0.002,0.000,1.003,1.569,1.569,4.086,6.281,1.199,4.712,0.000,0.000,0.479,-8.228,0.990,5.055,4.699,4.724,5.281,4.712,4.711,2.199,6.282,5.083,1.570,0.000,0.000,1.097,-8.008,0.991,5.054,4.704,4.720,
25.520,138.698,0.987,-8.676,1.986,-0.025,0.993,2.397,4.559,1.611,1.900,0.000,4.380,1.865,0.000,2.579,2.220,0.000,2.966,0.000,0.000,0.000,0.000,0.000,0.000,0.000,0.000,0.000,0.000,0.000,3.142,0.001,0.000,1.003,1.569,1.569,4.085,6.281,1.199,4.712,0.000,0.000,0.448,-8.270,0.990,5.129,4.701,4.721,5.281,4.711,4.711,2.199,6.282,5.083,1.570,0.000,0.000,1.049,-8.005,0.991,5.128,4.705,4.719,
25.620,138.798,0.986,-8.674,2.086,0.032,1.049,2.524,0.000,1.462,1.905,0.000,4.090,1.773,0.000,2.921,2.185,0.000,2.861,0.000,0.000,0.000,0.000,0.000,0.000,0.000,0.000,0.000,0.000,0.000,3.142,0.002,0.000,1.003,1.570,1.570,4.086,6.281,1.199,4.712,0.000,0.000,0.410,-8.323,0.990,5.227,4.702,4.720,5.281,4.712,4.712,2.199,6.282,5.083,1.570,0.000,0.000,0.982,-8.000,0.991,5.226,4.706,4.717,
25.720,138.898,0.985,-8.673,2.162,0.020,1.173,2.766,0.000,1.576,1.966,0.000,3.616,1.720,0.000,2.740,2.173,0.000,2.791,0.000,0.000,0.000,0.000,0.000,0.000,0.000,0.000,0.000,0.000,0.000,3.142,0.002,0.000,1.003,1.570,1.570,4.086,6.281,1.199,4.712,0.000,0.000,0.384,-8.366,0.990,5.303,4.704,4.719,5.281,4.712,4.713,2.199,6.282,5.083,1.570,0.000,0.000,0.930,-8.001,0.991,5.302,4.708,4.716,
25.810,138.988,0.986,-8.673,2.280,-0.021,1.121,2.510,0.000,1.822,2.359,0.000,3.092,2.009,0.000,2.529,2.183,0.000,2.685,0.000,0.000,0.000,0.000,0.000,0.000,0.000,0.000,0.000,0.000,0.000,3.142,0.002,0.000,1.003,1.569,1.569,4.086,6.281,1.199,4.712,0.000,0.000,0.352,-8.440,0.990,5.422,4.705,4.717,5.281,4.712,4.712,2.199,6.282,5.083,1.570,0.000,0.000,0.851,-8.013,0.991,5.421,4.708,4.715,
25.920,139.098,0.986,-8.674,2.374,0.009,1.098,0.000,4.266,1.973,2.834,0.000,2.800,2.403,4.571,2.406,2.213,0.000,2.580,0.000,0.000,0.000,0.000,0.000,0.000,0.000,0.000,0.000,0.000,0.000,3.142,0.002,0.000,1.003,1.570,1.569,4.086,6.281,1.199,4.712,0.000,0.000,0.334,-8.501,0.990,5.515,4.706,4.716,5.281,4.712,4.712,2.199,6.282,5.083,1.570,0.000,0.000,0.790,-8.029,0.991,5.514,4.708,4.715,
26.016,139.194,0.986,-8.673,2.447,0.006,1.090,0.000,4.240,1.938,3.387,4.426,2.623,4.628,4.036,2.331,2.250,0.000,2.510,0.000,0.000,0.000,0.000,0.000,0.000,0.000,0.000,0.000,0.000,0.000,3.142,0.002,0.000,1.003,1.570,1.570,4.086,6.281,1.199,4.712,0.000,0.000,0.323,-8.548,0.990,5.588,4.706,4.716,5.281,4.712,4.712,2.199,6.282,5.083,1.570,0.000,0.000,0.743,-8.044,0.991,5.587,4.708,4.714,
26.120,139.298,0.986,-8.673,2.559,-0.003,1.168,4.718,1.752,1.907,4.925,4.340,2.412,0.000,3.450,2.247,2.335,0.000,2.404,0.000,0.000,0.000,0.000,0.000,0.000,0.000,0.000,0.000,0.000,0.000,3.142,0.002,0.000,1.003,1.570,1.570,4.086,6.281,1.199,4.712,0.000,0.000,0.313,-8.623,0.990,5.701,4.707,4.715,5.281,4.712,4.712,2.199,6.282,5.083,1.570,0.000,0.000,0.674,-8.075,0.991,5.700,4.709,4.714,
26.220,139.398,0.986,-8.673,2.656,0.001,1.126,4.584,1.538,1.900,0.000,4.291,1.827,0.000,3.096,1.754,2.439,0.000,2.299,0.000,0.000,0.000,0.000,0.000,0.000,0.000,0.000,0.000,0.000,0.000,3.142,0.002,0.000,1.003,1.570,1.569,4.086,6.281,1.199,4.712,0.000,0.000,0.311,-8.689,0.990,5.798,4.707,4.714,5.281,4.712,4.712,2.199,6.282,5.083,1.570,0.000,0.000,0.618,-8.108,0.991,5.797,4.709,4.713,
26.320,139.498,0.985,-8.673,2.736,0.003,1.172,0.000,1.485,1.908,0.000,3.745,1.759,0.000,2.873,2.180,2.550,0.000,2.229,0.000,0.000,0.000,0.000,0.000,0.000,0.000,0.000,0.000,0.000,0.000,3.142,0.002,0.000,1.003,1.570,1.570,4.086,6.281,1.199,4.712,0.000,0.000,0.314,-8.742,0.990,5.877,4.707,4.713,5.281,4.712,4.712,2.199,6.282,5.083,1.570,0.000,0.000,0.574,-8.139,0.991,5.876,4.709,4.713,
26.418,139.596,0.985,-8.673,2.847,0.002,1.075,0.000,1.674,2.120,0.000,3.208,1.690,0.000,2.637,2.174,2.574,0.000,2.124,0.000,0.000,0.000,0.000,0.000,0.000,0.000,0.000,0.000,0.000,0.000,3.142,0.002,0.000,1.003,1.570,1.570,4.086,6.281,1.199,4.712,0.000,0.000,0.326,-8.816,0.990,5.988,4.707,4.713,5.281,4.712,4.712,2.199,6.282,5.083,1.570,0.000,0.000,0.517,-8.188,0.991,5.987,4.709,4.713,
26.520,139.698,0.985,-8.673,2.938,0.001,1.116,0.000,2.015,2.469,0.000,2.894,2.058,0.000,2.491,2.189,2.568,0.000,2.018,0.000,0.000,0.000,0.000,0.000,0.000,0.000,0.000,0.000,0.000,0.000,3.142,0.002,0.000,1.003,1.570,1.570,4.086,6.281,1.199,4.712,0.000,0.000,0.341,-8.875,0.990,6.079,4.707,4.712,5.281,4.712,4.712,2.199,6.282,5.083,1.570,0.000,0.000,0.475,-8.232,0.991,6.078,4.709,4.712,
26.615,139.793,0.984,-8.673,3.016,0.013,1.200,4.259,1.966,2.900,0.000,2.686,2.618,4.479,2.393,2.217,0.000,0.000,1.948,0.000,0.000,0.000,0.000,0.000,0.000,0.000,0.000,0.000,0.000,0.000,3.142,0.002,0.000,1.003,1.570,1.570,4.086,6.281,1.199,4.712,0.000,0.000,0.358,-8.925,0.990,6.157,4.708,4.712,5.281,4.712,4.713,2.199,6.282,5.083,1.570,0.000,0.000,0.441,-8.274,0.991,6.157,4.710,4.712,
26.720,139.898,0.983,-8.673,3.140,-0.012,1.141,1.899,1.917,4.062,4.341,2.441,0.000,3.689,2.281,2.291,4.881,0.000,3.142,0.000,0.000,0.000,0.000,0.000,0.000,0.000,0.000,0.000,0.000,0.000,3.142,0.002,0.000,1.003,1.569,1.569,4.086,6.281,1.199,4.712,0.000,0.000,0.393,-9.000,0.990,6.281,4.707,4.711,5.281,4.712,4.712,2.199,6.282,5.083,1.570,0.000,0.000,0.395,-8.344,0.991,6.281,4.709,4.712,
26.820,139.998,0.985,-8.673,3.231,-0.010,1.074,1.656,1.902,0.000,4.416,1.850,0.000,2.623,2.225,2.373,4.605,0.000,3.142,0.000,0.000,0.000,0.000,0.000,0.000,0.000,0.000,0.000,0.000,0.000,3.142,0.002,0.000,1.003,1.570,1.570,4.086,6.281,1.199,4.712,0.000,0.000,0.427,-9.052,0.990,0.089,4.708,4.711,5.281,4.712,4.712,2.199,6.282,5.083,1.570,0.000,0.000,0.369,-8.399,0.991,0.088,4.709,4.711,
26.920,140.098,0.985,-8.673,3.324,0.008,1.097,1.474,1.902,0.000,4.022,1.767,0.000,2.987,1.748,2.486,0.000,0.000,3.142,0.000,0.000,0.000,0.000,0.000,0.000,0.000,0.000,0.000,0.000,0.000,3.142,0.002,0.000,1.003,1.569,1.569,4.086,6.281,1.199,4.712,0.000,0.000,0.465,-9.103,0.990,0.183,4.708,4.710,5.281,4.712,4.712,2.199,6.282,5.083,1.570,0.000,0.000,0.346,-8.457,0.991,0.182,4.709,4.711,
27.015,140.193,0.983,-8.673,3.418,0.015,1.163,1.561,1.943,0.000,3.476,1.705,0.000,2.755,2.174,2.790,0.000,0.000,3.142,0.000,0.000,0.000,0.000,0.000,0.000,0.000,0.000,0.000,0.000,0.000,3.142,0.002,0.000,1.003,1.570,1.570,4.086,6.281,1.199,4.712,0.000,0.000,0.506,-9.150,0.990,0.276,4.707,4.710,5.281,4.712,4.713,2.199,6.282,5.083,1.570,0.000,0.000,0.327,-8.518,0.991,0.276,4.709,4.711,
27.120,140.298,0.982,-8.673,3.453,0.000,6.269,1.621,2.037,0.000,3.318,1.688,0.000,2.685,2.173,2.656,0.000,0.000,3.142,0.000,0.000,0.000,0.000,0.000,0.000,0.000,0.000,0.000,0.000,0.000,3.142,0.000,0.000,1.003,1.568,1.567,4.086,6.281,1.199,4.712,0.000,0.000,0.522,-9.168,0.990,0.314,4.707,4.709,5.281,4.711,4.710,2.199,6.282,5.083,1.570,0.000,0.000,0.321,-8.543,0.990,0.314,4.708,4.710,
27.220,140.398,0.982,-8.673,3.453,-0.001,6.260,1.621,2.037,0.000,3.318,1.688,0.000,2.685,2.173,2.656,0.000,0.000,3.142,0.000,0.000,0.000,0.000,0.000,0.000,0.000,0.000,0.000,0.000,0.000,3.142,6.283,0.000,1.003,1.570,1.570,4.085,6.281,1.199,4.712,0.000,0.000,0.522,-9.167,0.990,0.311,4.707,4.710,5.281,4.711,4.712,2.198,6.282,5.083,1.570,0.000,0.000,0.321,-8.542,0.990,0.311,4.708,4.710,
27.307,140.485,0.982,-8.673,3.453,-0.001,6.260,1.621,2.037,0.000,3.318,1.688,0.000,2.685,2.173,2.656,0.000,0.000,3.142,0.000,0.000,0.000,0.000,0.000,0.000,0.000,0.000,0.000,0.000,0.000,3.142,6.283,0.000,1.003,1.569,1.569,4.085,6.281,1.199,4.712,0.000,0.000,0.522,-9.167,0.990,0.311,4.707,4.710,5.281,4.711,4.712,2.198,6.282,5.083,1.570,0.000,0.000,0.321,-8.542,0.990,0.312,4.708,4.710,
27.420,140.598,0.982,-8.673,3.453,-0.002,6.260,1.621,2.037,0.000,3.318,1.688,0.000,2.685,2.173,2.656,0.000,0.000,3.142,0.000,0.000,0.000,0.000,0.000,0.000,0.000,0.000,0.000,0.000,0.000,3.142,6.283,0.000,1.003,1.569,1.569,4.085,6.281,1.199,4.712,0.000,0.000,0.522,-9.167,0.990,0.311,4.707,4.710,5.281,4.711,4.712,2.198,6.282,5.083,1.570,0.000,0.000,0.321,-8.542,0.990,0.312,4.708,4.710,
27.520,140.698,0.982,-8.673,3.453,-0.002,6.260,1.621,2.037,0.000,3.318,1.688,0.000,2.685,2.173,2.656,0.000,0.000,3.142,0.000,0.000,0.000,0.000,0.000,0.000,0.000,0.000,0.000,0.000,0.000,3.142,6.283,0.000,1.003,1.569,1.569,4.085,6.281,1.199,4.712,0.000,0.000,0.522,-9.167,0.990,0.311,4.707,4.710,5.281,4.711,4.712,2.198,6.282,5.083,1.570,0.000,0.000,0.321,-8.542,0.990,0.312,4.708,4.710,
27.616,140.795,0.982,-8.673,3.453,-0.002,6.260,1.621,2.037,0.000,3.318,1.688,0.000,2.685,2.173,2.656,0.000,0.000,3.142,0.000,0.000,0.000,0.000,0.000,0.000,0.000,0.000,0.000,0.000,0.000,3.142,6.283,0.000,1.003,1.569,1.569,4.085,6.281,1.199,4.712,0.000,0.000,0.522,-9.167,0.990,0.311,4.707,4.710,5.281,4.711,4.712,2.198,6.282,5.083,1.570,0.000,0.000,0.321,-8.542,0.990,0.312,4.708,4.710,
27.720,140.898,0.982,-8.673,3.453,-0.002,6.260,1.621,2.037,0.000,3.318,1.688,0.000,2.685,2.173,2.656,0.000,0.000,3.142,0.000,0.000,0.000,0.000,0.000,0.000,0.000,0.000,0.000,0.000,0.000,3.142,6.283,0.000,1.003,1.569,1.569,4.085,6.281,1.199,4.712,0.000,0.000,0.522,-9.167,0.990,0.311,4.707,4.710,5.281,4.711,4.712,2.198,6.282,5.083,1.570,0.000,0.000,0.321,-8.542,0.990,0.312,4.708,4.710,
27.820,140.998,0.982,-8.673,3.453,-0.002,6.260,1.621,2.037,0.000,3.318,1.688,0.000,2.685,2.173,2.656,0.000,0.000,3.142,0.000,0.000,0.000,0.000,0.000,0.000,0.000,0.000,0.000,0.000,0.000,3.142,6.283,0.000,1.003,1.569,1.569,4.085,6.281,1.199,4.712,0.000,0.000,0.522,-9.167,0.990,0.311,4.707,4.710,5.281,4.711,4.712,2.198,6.282,5.083,1.570,0.000,0.000,0.321,-8.542,0.990,0.312,4.708,4.710,
27.920,141.098,0.982,-8.673,3.453,-0.002,6.260,1.621,2.037,0.000,3.318,1.688,0.000,2.685,2.173,2.656,0.000,0.000,3.142,0.000,0.000,0.000,0.000,0.000,0.000,0.000,0.000,0.000,0.000,0.000,3.142,6.283,0.000,1.003,1.569,1.569,4.085,6.281,1.199,4.712,0.000,0.000,0.522,-9.167,0.990,0.311,4.707,4.710,5.281,4.711,4.712,2.198,6.282,5.083,1.570,0.000,0.000,0.321,-8.542,0.990,0.312,4.708,4.710,
28.020,141.198,0.982,-8.673,3.453,-0.001,6.260,1.621,2.037,0.000,3.318,1.688,0.000,2.685,2.173,2.656,0.000,0.000,3.142,0.000,0.000,0.000,0.000,0.000,0.000,0.000,0.000,0.000,0.000,0.000,3.142,6.283,0.000,1.003,1.569,1.569,4.085,6.281,1.199,4.712,0.000,0.000,0.522,-9.167,0.990,0.311,4.707,4.710,5.281,4.711,4.712,2.198,6.282,5.083,1.570,0.000,0.000,0.321,-8.542,0.990,0.312,4.708,4.710,
28.120,141.298,0.982,-8.673,3.453,-0.002,6.260,1.621,2.037,0.000,3.318,1.688,0.000,2.685,2.173,2.656,0.000,0.000,3.142,0.000,0.000,0.000,0.000,0.000,0.000,0.000,0.000,0.000,0.000,0.000,3.142,6.283,0.000,1.003,1.569,1.569,4.085,6.281,1.199,4.712,0.000,0.000,0.522,-9.167,0.990,0.311,4.707,4.710,5.281,4.711,4.712,2.198,6.282,5.083,1.570,0.000,0.000,0.321,-8.542,0.990,0.312,4.708,4.710,
28.220,141.398,0.982,-8.673,3.453,-0.002,6.260,1.621,2.037,0.000,3.318,1.688,0.000,2.685,2.173,2.656,0.000,0.000,3.142,0.000,0.000,0.000,0.000,0.000,0.000,0.000,0.000,0.000,0.000,0.000,3.142,6.283,0.000,1.003,1.569,1.569,4.085,6.281,1.199,4.712,0.000,0.000,0.522,-9.167,0.990,0.311,4.707,4.710,5.281,4.711,4.712,2.198,6.282,5.083,1.570,0.000,0.000,0.321,-8.542,0.990,0.312,4.708,4.710,
28.320,141.498,0.982,-8.673,3.453,-0.001,6.260,1.621,2.037,0.000,3.318,1.688,0.000,2.685,2.173,2.656,0.000,0.000,3.142,0.000,0.000,0.000,0.000,0.000,0.000,0.000,0.000,0.000,0.000,0.000,3.142,6.283,0.000,1.003,1.569,1.569,4.085,6.281,1.199,4.712,0.000,0.000,0.522,-9.167,0.990,0.311,4.707,4.710,5.281,4.711,4.712,2.198,6.282,5.083,1.570,0.000,0.000,0.321,-8.542,0.990,0.312,4.708,4.710,
28.419,141.597,0.982,-8.673,3.453,-0.001,6.260,1.621,2.037,0.000,3.318,1.688,0.000,2.685,2.173,2.656,0.000,0.000,3.142,0.000,0.000,0.000,0.000,0.000,0.000,0.000,0.000,0.000,0.000,0.000,3.142,6.283,0.000,1.003,1.569,1.569,4.085,6.281,1.199,4.712,0.000,0.000,0.522,-9.167,0.990,0.311,4.707,4.710,5.281,4.711,4.712,2.198,6.282,5.083,1.570,0.000,0.000,0.321,-8.542,0.990,0.312,4.708,4.710,
28.520,141.698,0.982,-8.673,3.453,-0.002,6.260,1.621,2.037,0.000,3.318,1.688,0.000,2.685,2.173,2.656,0.000,0.000,3.142,0.000,0.000,0.000,0.000,0.000,0.000,0.000,0.000,0.000,0.000,0.000,3.142,6.283,0.000,1.003,1.569,1.569,4.085,6.281,1.199,4.712,0.000,0.000,0.522,-9.167,0.990,0.311,4.707,4.710,5.281,4.711,4.712,2.198,6.282,5.083,1.570,0.000,0.000,0.321,-8.542,0.990,0.312,4.708,4.710,
28.603,141.781,0.982,-8.673,3.453,-0.001,6.260,1.621,2.037,0.000,3.318,1.688,0.000,2.685,2.173,2.656,0.000,0.000,3.142,0.000,0.000,0.000,0.000,0.000,0.000,0.000,0.000,0.000,0.000,0.000,3.142,6.283,0.000,1.003,1.569,1.569,4.085,6.281,1.199,4.712,0.000,0.000,0.522,-9.167,0.990,0.311,4.707,4.710,5.281,4.711,4.712,2.198,6.282,5.083,1.570,0.000,0.000,0.321,-8.542,0.990,0.312,4.708,4.710,
28.720,141.898,0.982,-8.673,3.453,-0.001,6.260,1.621,2.037,0.000,3.318,1.688,0.000,2.685,2.173,2.656,0.000,0.000,3.142,0.000,0.000,0.000,0.000,0.000,0.000,0.000,0.000,0.000,0.000,0.000,3.142,6.283,0.000,1.003,1.569,1.569,4.085,6.281,1.199,4.712,0.000,0.000,0.522,-9.167,0.990,0.311,4.707,4.710,5.281,4.711,4.712,2.198,6.282,5.083,1.570,0.000,0.000,0.321,-8.542,0.990,0.312,4.708,4.710,
28.820,141.998,0.982,-8.673,3.453,-0.002,6.260,1.621,2.037,0.000,3.318,1.688,0.000,2.685,2.173,2.656,0.000,0.000,3.142,0.000,0.000,0.000,0.000,0.000,0.000,0.000,0.000,0.000,0.000,0.000,3.142,6.283,0.000,1.003,1.569,1.569,4.085,6.281,1.199,4.712,0.000,0.000,0.522,-9.167,0.990,0.311,4.707,4.710,5.281,4.711,4.712,2.198,6.282,5.083,1.570,0.000,0.000,0.321,-8.542,0.990,0.312,4.708,4.710,
28.920,142.098,0.982,-8.673,3.453,-0.002,6.260,1.621,2.037,0.000,3.318,1.688,0.000,2.685,2.173,2.656,0.000,0.000,3.142,0.000,0.000,0.000,0.000,0.000,0.000,0.000,0.000,0.000,0.000,0.000,3.142,6.283,0.000,1.003,1.569,1.569,4.085,6.281,1.199,4.712,0.000,0.000,0.522,-9.167,0.990,0.311,4.707,4.710,5.281,4.711,4.712,2.198,6.282,5.083,1.570,0.000,0.000,0.321,-8.542,0.990,0.312,4.708,4.710,
29.020,142.198,0.982,-8.673,3.453,-0.001,6.260,1.621,2.037,0.000,3.318,1.688,0.000,2.685,2.173,2.656,0.000,0.000,3.142,0.000,0.000,0.000,0.000,0.000,0.000,0.000,0.000,0.000,0.000,0.000,3.142,6.283,0.000,1.003,1.569,1.569,4.085,6.281,1.199,4.712,0.000,0.000,0.522,-9.167,0.990,0.311,4.707,4.710,5.281,4.711,4.712,2.198,6.282,5.083,1.570,0.000,0.000,0.321,-8.542,0.990,0.312,4.708,4.710,
29.116,142.294,0.982,-8.673,3.453,-0.001,6.260,1.621,2.037,0.000,3.318,1.688,0.000,2.685,2.173,2.656,0.000,0.000,3.142,0.000,0.000,0.000,0.000,0.000,0.000,0.000,0.000,0.000,0.000,0.000,3.142,6.283,0.000,1.003,1.569,1.569,4.085,6.281,1.199,4.712,0.000,0.000,0.522,-9.167,0.990,0.311,4.707,4.710,5.281,4.711,4.712,2.198,6.282,5.083,1.570,0.000,0.000,0.321,-8.542,0.990,0.312,4.708,4.710,
29.220,142.398,0.982,-8.673,3.453,-0.002,6.260,1.621,2.037,0.000,3.318,1.688,0.000,2.685,2.173,2.656,0.000,0.000,3.142,0.000,0.000,0.000,0.000,0.000,3.442,0.000,0.000,0.000,0.000,0.000,3.001,6.283,0.000,1.003,1.569,1.569,4.085,6.281,1.199,4.712,0.000,0.000,0.522,-9.167,0.990,0.311,4.707,4.710,5.281,4.711,4.712,2.198,6.282,5.083,1.570,0.000,0.000,0.321,-8.542,0.990,0.312,4.708,4.710,
29.320,142.498,0.982,-8.673,3.453,-0.002,6.260,1.621,2.037,0.000,3.318,1.688,0.000,2.685,2.173,2.656,0.000,0.000,3.142,0.000,0.000,0.000,0.000,0.000,3.295,0.000,0.000,0.000,0.000,0.000,3.001,6.283,0.000,1.003,1.569,1.569,4.085,6.281,1.199,4.712,0.000,0.000,0.522,-9.167,0.990,0.311,4.707,4.710,5.281,4.711,4.712,2.198,6.282,5.083,1.570,0.000,0.000,0.321,-8.542,0.990,0.312,4.708,4.710,
29.420,142.598,0.982,-8.673,3.452,0.001,6.177,1.619,2.034,0.000,3.322,1.688,0.000,2.686,2.173,2.659,0.000,0.000,3.142,0.000,0.000,0.000,0.000,0.000,3.139,0.000,0.000,0.000,0.000,0.000,3.001,6.282,0.001,1.004,1.569,1.568,4.084,6.281,1.199,4.712,0.000,0.000,0.522,-9.167,0.990,0.312,4.708,4.710,5.281,4.711,4.710,2.197,6.282,5.083,1.570,0.000,0.000,0.321,-8.543,0.990,0.312,4.707,4.710,
29.520,142.698,0.982,-8.673,3.405,0.002,5.170,1.538,1.913,0.000,3.547,1.714,0.000,2.786,2.176,2.612,0.000,0.000,3.142,0.000,0.000,0.000,0.000,0.000,2.997,0.000,0.000,0.000,0.000,0.000,3.071,6.280,0.001,1.004,1.568,1.565,4.084,6.282,1.199,4.711,0.000,0.000,0.500,-9.147,0.990,0.268,4.708,4.709,5.281,4.710,4.708,2.197,6.282,5.083,1.570,0.000,0.000,0.328,-8.513,0.990,0.267,4.707,4.710,
29.620,142.798,0.983,-8.674,3.304,-0.008,4.676,1.506,1.898,0.000,4.173,1.785,0.000,3.048,1.750,2.459,4.597,0.000,3.142,0.000,0.000,0.000,0.000,0.000,0.000,0.000,0.000,0.000,0.000,0.000,3.142,6.280,0.001,1.004,1.569,1.567,4.085,6.281,1.199,4.712,0.000,0.000,0.455,-9.095,0.990,0.165,4.707,4.710,5.282,4.711,4.710,2.197,6.282,5.083,1.570,0.000,0.000,0.348,-8.447,0.991,0.164,4.708,4.711,
29.701,142.879,0.983,-8.674,3.144,-0.010,5.000,1.881,1.915,4.129,4.293,2.434,0.000,3.667,2.279,2.296,4.864,0.000,3.142,0.000,0.000,0.000,0.000,0.000,0.000,0.000,0.000,0.000,0.000,0.000,3.142,6.281,0.001,1.004,1.570,1.569,4.086,6.281,1.199,4.712,0.000,0.000,0.395,-9.004,0.990,0.003,4.707,4.711,5.282,4.712,4.712,2.198,6.282,5.083,1.571,0.000,0.000,0.393,-8.348,0.991,0.002,4.709,4.712,
29.814,142.993,0.983,-8.674,3.055,0.004,5.383,4.244,1.946,3.177,0.000,2.601,3.257,4.194,2.355,2.237,0.000,0.000,1.913,0.000,0.000,0.000,0.000,0.000,0.000,0.000,0.000,0.000,0.000,0.000,3.142,6.281,0.000,1.004,1.569,1.569,4.085,6.281,1.199,4.712,0.000,0.000,0.368,-8.951,0.990,6.197,4.708,4.712,5.281,4.712,4.712,2.198,6.282,5.083,1.570,0.000,0.000,0.425,-8.297,0.990,6.196,4.708,4.712,
29.920,143.098,0.983,-8.674,2.978,0.004,5.317,0.000,1.986,2.665,0.000,2.784,2.045,4.820,2.440,2.203,2.673,0.000,1.983,0.000,0.000,0.000,0.000,0.000,0.000,0.000,0.000,0.000,0.000,0.000,3.142,6.281,0.001,1.004,1.569,1.568,4.085,6.281,1.199,4.712,0.000,0.000,0.348,-8.903,0.990,6.121,4.708,4.712,5.281,4.711,4.711,2.197,6.282,5.083,1.570,0.000,0.000,0.455,-8.256,0.990,6.120,4.708,4.712,
30.020,143.198,0.983,-8.675,2.887,-0.004,5.131,0.000,1.758,2.254,0.000,3.062,1.807,0.000,2.570,2.180,2.274,0.000,2.053,0.000,0.000,0.000,0.000,0.000,0.000,2.362,0.000,0.000,0.000,0.000,3.142,6.281,0.001,1.004,1.569,1.568,4.085,6.281,1.199,4.712,0.000,0.000,0.330,-8.845,0.990,6.030,4.708,4.712,5.281,4.711,4.711,2.198,6.282,5.083,1.570,0.000,0.000,0.495,-8.210,0.990,6.029,4.708,4.713,
30.117,143.295,0.983,-8.675,2.784,-0.004,5.098,0.000,1.559,1.937,0.000,3.487,1.728,0.000,2.763,2.176,2.800,0.000,2.159,0.000,0.000,0.000,0.000,0.000,0.000,0.000,0.000,0.000,0.000,0.000,3.142,6.281,0.001,1.004,1.569,1.568,4.085,6.281,1.199,4.712,0.000,0.000,0.316,-8.777,0.990,5.927,4.707,4.713,5.282,4.711,4.711,2.198,6.282,5.083,1.570,0.000,0.000,0.545,-8.162,0.991,5.926,4.708,4.713,
30.220,143.398,0.983,-8.675,2.687,0.000,5.193,0.000,1.478,1.898,0.000,4.062,1.802,0.000,3.006,1.752,2.482,0.000,2.264,0.000,0.000,0.000,0.000,0.000,0.000,0.000,0.000,0.000,0.000,0.000,3.142,6.281,0.001,1.004,1.569,1.569,4.085,6.281,1.199,4.712,0.000,0.000,0.310,-8.713,0.990,5.829,4.707,4.714,5.281,4.711,4.711,2.198,6.282,5.083,1.570,0.000,0.000,0.597,-8.123,0.990,5.829,4.708,4.714,
30.319,143.498,0.983,-8.676,2.593,0.000,5.176,4.619,1.663,1.899,0.000,4.401,1.897,0.000,2.645,2.231,2.370,0.000,2.369,0.000,0.000,0.000,0.000,0.000,0.000,0.000,0.000,0.000,0.000,0.000,3.142,6.281,0.001,1.004,1.569,1.568,4.085,6.281,1.199,4.712,0.000,0.000,0.309,-8.650,0.990,5.736,4.707,4.714,5.281,4.711,4.711,2.198,6.282,5.083,1.570,0.000,0.000,0.651,-8.089,0.991,5.735,4.707,4.714,
30.420,143.598,0.983,-8.676,2.500,-0.002,5.200,4.907,1.917,1.917,3.965,4.326,2.517,0.000,3.732,2.290,2.289,0.000,2.440,0.000,0.000,0.000,0.000,0.000,0.000,0.000,0.000,0.000,0.000,0.000,3.142,6.281,0.001,1.004,1.569,1.568,4.085,6.281,1.199,4.712,0.000,0.000,0.314,-8.587,0.990,5.643,4.707,4.715,5.281,4.711,4.711,2.198,6.282,5.083,1.570,0.000,0.000,0.706,-8.061,0.990,5.642,4.707,4.715,
30.505,143.683,0.983,-8.676,2.426,-0.003,5.180,0.000,4.242,1.943,3.201,0.000,2.673,3.272,0.000,2.354,2.241,0.000,2.545,0.000,0.000,0.000,0.000,0.000,0.000,0.000,1.845,0.000,0.000,0.000,3.142,6.281,0.001,1.004,1.569,1.568,4.085,6.281,1.199,4.712,0.000,0.000,0.322,-8.538,0.990,5.569,4.706,4.715,5.281,4.711,4.711,2.198,6.282,5.083,1.570,0.000,0.000,0.753,-8.043,0.990,5.568,4.706,4.716,
30.618,143.796,0.983,-8.677,2.311,-0.004,5.150,2.585,0.000,2.008,2.487,0.000,2.992,2.058,0.000,2.489,2.194,0.000,2.650,0.000,0.000,0.000,0.000,0.000,0.000,0.000,1.735,0.000,0.000,0.000,3.142,6.281,0.001,1.004,1.569,1.568,4.085,6.281,1.199,4.712,0.000,0.000,0.343,-8.464,0.990,5.453,4.705,4.716,5.281,4.711,4.711,2.198,6.282,5.083,1.570,0.000,0.000,0.827,-8.021,0.990,5.453,4.706,4.716,
30.720,143.898,0.983,-8.677,2.213,-0.003,5.155,2.575,0.000,1.671,2.111,0.000,3.366,1.693,0.000,2.644,2.178,0.000,2.755,0.000,0.000,0.000,0.000,0.000,0.000,0.000,0.000,0.000,0.000,0.000,3.142,6.281,0.001,1.004,1.569,1.568,4.085,6.281,1.199,4.712,0.000,0.000,0.366,-8.403,0.990,5.356,4.705,4.718,5.281,4.711,4.711,2.198,6.282,5.083,1.570,0.000,0.000,0.892,-8.009,0.990,5.355,4.705,4.717,
30.807,143.985,0.983,-8.677,2.119,0.000,5.201,2.579,0.000,1.507,1.906,0.000,3.873,1.751,0.000,2.843,2.182,0.000,2.826,0.000,0.000,0.000,0.000,0.000,0.000,0.000,0.000,0.000,0.000,0.000,3.142,6.281,0.001,1.004,1.569,1.568,4.085,6.281,1.199,4.712,0.000,0.000,0.395,-8.346,0.990,5.261,4.703,4.719,5.281,4.711,4.711,2.198,6.282,5.083,1.570,0.000,0.000,0.955,-8.004,0.991,5.261,4.704,4.719,
30.920,144.098,0.983,-8.677,2.024,0.001,5.148,2.443,4.580,1.530,1.895,0.000,4.457,1.831,0.000,0.000,1.759,0.000,2.931,0.000,0.000,0.000,0.000,0.000,0.000,0.000,0.000,1.416,0.000,0.000,3.142,6.281,0.001,1.004,1.569,1.568,4.085,6.281,1.199,4.712,0.000,0.000,0.428,-8.292,0.990,5.167,4.702,4.721,5.281,4.711,4.711,2.198,6.282,5.083,1.570,0.000,0.000,1.018,-8.004,0.991,5.167,4.703,4.720,
31.020,144.198,0.982,-8.677,1.943,-0.002,5.112,2.354,4.670,1.704,1.900,0.000,4.301,2.392,0.000,0.000,2.243,0.000,3.001,0.000,0.000,0.000,0.000,0.000,0.000,0.000,0.000,1.294,0.000,0.000,3.142,6.281,0.001,1.004,1.569,1.568,4.085,6.281,1.199,4.712,0.000,0.000,0.462,-8.248,0.990,5.086,4.699,4.723,5.282,4.711,4.711,2.198,6.282,5.083,1.570,0.000,0.000,1.073,-8.009,0.991,5.085,4.701,4.722,
31.110,144.288,0.979,-8.668,1.827,0.397,5.573,2.252,0.000,2.076,1.933,3.481,0.000,2.606,0.000,3.953,2.315,0.000,3.142,0.000,0.000,0.000,0.000,0.000,0.000,0.000,0.000,0.000,0.000,0.000,3.142,6.277,6.283,1.007,1.568,1.567,4.078,6.281,1.199,4.712,0.000,0.000,0.511,-8.184,0.990,4.972,4.709,4.715,5.283,4.710,4.709,2.197,6.282,5.083,1.571,0.000,0.000,1.145,-8.015,0.991,4.971,4.698,4.726,
31.216,144.394,0.960,-8.592,1.796,1.159,6.142,2.155,0.000,4.218,1.987,3.149,0.000,2.700,4.661,4.004,2.261,0.000,3.142,0.000,0.000,0.000,0.000,0.000,0.000,0.000,0.000,0.000,0.000,0.000,3.142,6.278,6.283,1.008,1.567,1.566,4.078,6.281,1.199,4.712,0.000,0.000,0.506,-8.094,0.990,4.942,4.708,4.716,5.282,4.709,4.708,2.197,6.282,5.083,1.570,0.000,0.000,1.145,-7.944,0.991,4.941,4.693,4.731,
31.320,144.498,0.931,-8.463,1.756,1.340,5.391,2.004,2.479,0.000,1.845,2.785,0.000,2.839,4.709,4.026,2.160,0.000,3.142,0.000,0.000,0.000,0.000,0.000,0.000,0.000,0.000,0.000,0.000,0.000,3.142,6.281,0.001,1.004,1.568,1.566,4.085,6.281,1.199,4.711,0.000,0.000,0.497,-7.945,0.990,4.901,4.685,4.738,5.281,4.710,4.708,2.197,6.282,5.083,1.570,0.000,0.000,1.142,-7.824,0.990,4.901,4.685,4.738,
31.420,144.598,0.912,-8.356,1.672,0.831,5.583,1.869,1.969,0.000,1.492,2.306,0.000,3.121,3.146,4.494,2.131,0.000,3.142,0.000,0.000,0.000,0.000,0.000,0.000,0.000,0.000,0.000,0.000,0.000,3.142,0.001,0.001,1.001,1.571,1.572,4.090,6.280,1.199,4.712,0.000,0.000,0.528,-7.801,0.989,4.810,4.635,4.789,5.281,4.713,4.714,2.198,6.281,5.083,1.570,0.000,0.000,1.180,-7.737,0.990,4.810,4.666,4.758,
31.508,144.686,0.906,-8.290,1.654,0.642,6.270,1.799,2.246,0.000,1.560,2.221,0.000,3.193,3.200,4.511,0.000,0.000,3.142,0.000,0.000,0.000,0.000,0.000,0.000,0.000,0.000,0.000,0.819,0.000,3.142,6.282,0.000,1.004,1.570,1.570,4.085,6.281,1.199,4.712,0.000,0.000,0.530,-7.730,0.990,4.795,4.655,4.769,5.281,4.711,4.712,2.198,6.282,5.083,1.570,0.000,0.000,1.183,-7.675,0.990,4.796,4.659,4.765,
31.607,144.785,0.900,-8.215,1.655,0.908,6.262,1.724,2.234,0.000,1.635,2.246,0.000,3.200,3.413,4.315,0.000,0.000,3.142,0.000,0.000,0.000,0.000,0.000,0.000,0.000,0.000,0.000,0.750,0.000,3.142,6.281,0.000,1.005,1.569,1.568,4.083,6.281,1.199,4.712,0.000,0.000,0.522,-7.656,0.990,4.798,4.672,4.752,5.281,4.711,4.710,2.198,6.282,5.083,1.570,0.000,0.000,1.176,-7.600,0.990,4.798,4.661,4.763,
31.720,144.898,0.892,-8.119,1.656,0.998,6.262,1.627,2.221,0.000,1.731,2.311,0.000,3.210,0.000,0.000,1.876,0.000,3.142,0.000,0.000,0.000,0.000,0.000,0.000,0.000,0.000,0.568,0.000,0.000,3.142,6.283,0.000,1.003,1.569,1.569,4.085,6.281,1.199,4.712,0.000,0.000,0.514,-7.560,0.990,4.797,4.655,4.769,5.281,4.711,4.711,2.198,6.282,5.083,1.570,0.000,0.000,1.168,-7.504,0.990,4.797,4.660,4.764,
31.820,144.998,0.885,-8.038,1.656,0.548,6.265,1.546,2.209,0.000,1.813,2.366,0.000,3.219,4.838,0.000,1.781,0.000,3.142,0.000,0.000,0.000,0.000,0.000,0.000,0.000,0.000,0.481,0.000,0.000,3.142,0.002,0.001,1.001,1.571,1.572,4.090,6.281,1.200,4.712,0.000,0.000,0.509,-7.477,0.989,4.795,4.620,4.804,5.281,4.712,4.713,2.198,6.282,5.083,1.570,0.000,0.000,1.162,-7.423,0.990,4.795,4.655,4.769,
31.910,145.088,0.882,-8.005,1.657,0.188,6.265,1.513,2.029,0.000,1.845,2.389,0.000,3.221,4.841,0.000,1.743,0.000,3.142,0.000,0.000,0.000,0.000,0.000,0.000,0.000,0.000,0.448,0.000,0.000,3.142,0.000,0.001,1.002,1.570,1.570,4.087,6.281,1.200,4.712,0.000,0.000,0.504,-7.445,0.990,4.798,4.640,4.784,5.281,4.712,4.712,2.198,6.282,5.083,1.570,0.000,0.000,1.158,-7.390,0.990,4.798,4.658,4.766,
32.019,145.197,0.881,-7.997,1.657,0.024,6.269,1.505,2.019,0.000,1.853,2.394,0.000,3.220,4.841,0.000,1.733,0.000,3.142,0.000,0.000,0.000,0.000,0.000,0.000,0.000,0.000,0.434,0.000,0.000,3.142,6.283,0.001,1.003,1.569,1.569,4.086,6.281,1.199,4.712,0.000,0.000,0.503,-7.438,0.990,4.799,4.649,4.775,5.281,4.711,4.712,2.198,6.282,5.083,1.570,0.000,0.000,1.157,-7.382,0.990,4.799,4.658,4.766,
32.120,145.298,0.881,-7.997,1.657,0.000,6.274,1.505,2.019,0.000,1.852,2.395,0.000,3.219,4.840,0.000,1.733,0.000,3.142,0.000,0.000,0.000,0.000,0.000,0.000,0.000,0.000,0.431,0.000,0.000,3.142,6.283,0.000,1.003,1.569,1.569,4.085,6.281,1.199,4.712,0.000,0.000,0.503,-7.438,0.990,4.799,4.655,4.769,5.281,4.711,4.712,2.198,6.282,5.083,1.570,0.000,0.000,1.156,-7.382,0.990,4.799,4.662,4.762,
32.220,145.398,0.881,-7.997,1.657,0.000,6.274,1.505,2.019,0.000,1.852,2.395,0.000,3.219,4.840,0.000,1.733,0.000,3.142,0.000,0.000,0.000,0.000,0.000,0.000,0.000,0.000,0.437,0.000,0.000,3.142,6.283,0.000,1.003,1.569,1.569,4.085,6.281,1.199,4.712,0.000,0.000,0.503,-7.438,0.990,4.799,4.655,4.769,5.281,4.711,4.711,2.198,6.282,5.083,1.570,0.000,0.000,1.156,-7.382,0.990,4.799,4.662,4.762,
32.311,145.489,0.881,-7.997,1.657,0.000,6.274,1.505,2.019,0.000,1.852,2.395,0.000,3.219,0.000,0.000,1.733,0.000,3.142,0.000,0.000,0.000,0.000,0.000,0.000,0.000,0.523,0.479,0.000,0.000,3.142,6.283,0.000,1.003,1.569,1.569,4.085,6.281,1.199,4.712,0.000,0.000,0.503,-7.438,0.990,4.799,4.655,4.769,5.281,4.711,4.711,2.198,6.282,5.083,1.570,0.000,0.000,1.156,-7.382,0.990,4.799,4.662,4.762,
32.420,145.598,0.881,-7.997,1.661,0.002,0.285,1.506,2.027,0.000,1.847,2.397,0.000,3.205,0.000,3.710,1.728,0.000,3.142,0.000,0.000,0.000,0.000,0.000,0.000,0.000,0.492,0.000,0.000,0.000,3.142,0.001,0.000,1.002,1.570,1.571,4.086,6.281,1.200,4.712,0.000,0.000,0.502,-7.439,0.990,4.801,4.653,4.771,5.280,4.712,4.713,2.199,6.281,5.083,1.570,0.000,0.000,1.155,-7.381,0.991,4.801,4.673,4.752,
32.520,145.698,0.881,-7.997,1.709,0.000,1.154,1.515,2.084,0.000,1.789,2.434,0.000,3.043,0.000,2.363,1.684,0.000,3.142,0.000,0.000,0.000,0.000,0.000,0.000,0.000,0.481,0.000,0.000,0.000,3.142,0.002,0.000,1.003,1.571,1.573,4.087,6.281,1.199,4.712,0.000,0.000,0.477,-7.458,0.990,4.847,4.673,4.751,5.281,4.713,4.715,2.199,6.281,5.083,1.571,0.000,0.000,1.127,-7.368,0.991,4.847,4.693,4.732,
32.609,145.787,0.890,-8.044,1.793,-0.871,0.186,1.590,1.724,0.000,1.662,2.939,0.000,2.270,0.000,2.968,1.671,0.000,3.142,0.000,0.000,0.000,0.000,0.000,0.000,0.000,0.463,0.000,0.000,0.000,3.142,0.005,0.001,0.999,1.571,1.570,4.094,6.281,1.200,4.711,0.000,0.000,0.439,-7.539,0.989,4.934,4.669,4.753,5.279,4.713,4.713,2.200,6.282,5.083,1.570,0.000,0.000,1.080,-7.398,0.990,4.934,4.693,4.729,
32.720,145.898,0.916,-8.161,1.799,-1.422,6.278,1.712,2.132,0.000,1.640,3.052,0.000,2.225,0.000,2.331,1.793,0.000,3.142,0.000,0.000,0.000,0.000,0.000,0.000,0.000,0.424,0.000,0.000,0.000,3.142,0.001,0.001,1.002,1.570,1.571,4.088,6.281,1.200,4.712,0.000,0.000,0.464,-7.660,0.990,4.939,4.683,4.740,5.280,4.712,4.713,2.199,6.282,5.083,1.570,0.000,0.000,1.103,-7.513,0.990,4.939,4.693,4.730,
32.820,145.998,0.940,-8.264,1.799,-1.192,6.279,1.819,2.293,0.000,1.798,3.118,0.000,2.719,0.000,3.362,1.905,0.000,3.142,0.000,0.000,0.000,0.000,0.000,0.000,0.000,0.384,0.000,0.000,0.000,3.142,6.281,6.283,1.005,1.569,1.568,4.082,6.281,1.199,4.712,0.000,0.000,0.486,-7.766,0.990,4.942,4.698,4.725,5.281,4.711,4.710,2.198,6.282,5.083,1.570,0.000,0.000,1.125,-7.617,0.990,4.942,4.694,4.729,
32.903,146.081,0.960,-8.354,1.890,-0.714,0.182,1.964,4.807,4.212,2.125,4.173,4.645,2.017,0.000,2.411,1.938,0.000,3.071,0.000,0.000,0.000,0.000,0.000,0.000,0.000,0.385,0.000,0.000,0.000,3.142,0.001,0.001,1.003,1.564,1.560,4.088,6.281,1.199,4.710,0.000,0.000,0.457,-7.899,0.989,5.042,4.691,4.729,5.281,4.708,4.704,2.198,6.282,5.083,1.569,0.000,0.000,1.082,-7.693,0.991,5.039,4.700,4.721,
33.010,146.188,0.989,-8.442,1.863,-1.165,5.703,2.039,4.933,4.239,2.090,3.917,4.514,2.020,0.000,3.356,2.047,0.000,3.071,0.000,0.000,0.000,0.000,0.000,0.000,0.000,0.406,0.000,0.000,0.000,3.142,0.001,0.001,1.002,1.571,1.570,4.089,6.281,1.200,4.712,0.000,0.000,0.505,-7.971,0.989,5.003,4.688,4.734,5.280,4.712,4.712,2.198,6.282,5.083,1.570,0.000,0.000,1.134,-7.783,0.990,5.004,4.696,4.727,
33.120,146.298,1.022,-8.558,1.823,-1.180,6.035,2.135,0.000,4.275,2.045,3.576,4.733,2.557,0.000,3.771,2.200,0.000,3.106,0.000,0.000,0.000,0.000,0.000,0.000,0.000,0.409,0.000,0.000,0.000,3.142,6.282,0.000,1.004,1.570,1.571,4.084,6.281,1.199,4.712,0.000,0.000,0.558,-8.069,0.990,4.963,4.695,4.728,5.281,4.712,4.713,2.198,6.282,5.083,1.571,0.000,0.000,1.193,-7.905,0.990,4.963,4.696,4.728,
33.220,146.398,1.042,-8.635,1.821,-0.749,6.278,2.214,0.000,4.296,2.004,3.611,4.698,0.000,0.000,3.928,2.285,0.000,3.106,0.000,0.000,0.000,0.000,0.000,0.000,0.482,0.397,0.000,0.000,0.000,3.142,6.280,6.283,1.006,1.568,1.567,4.079,6.281,1.199,4.712,0.000,0.000,0.577,-8.148,0.990,4.965,4.706,4.718,5.281,4.710,4.709,2.198,6.282,5.083,1.570,0.000,0.000,1.212,-7.984,0.991,4.965,4.697,4.727,
33.315,146.493,1.055,-8.685,1.821,-0.222,6.274,2.266,0.000,2.149,1.977,3.650,4.643,0.000,0.000,4.019,2.338,0.000,3.106,0.000,0.000,0.000,0.000,0.000,0.000,0.460,0.541,0.000,0.000,0.000,3.142,6.282,0.000,1.005,1.569,1.569,4.083,6.281,1.199,4.712,0.000,0.000,0.590,-8.196,0.990,4.963,4.698,4.726,5.281,4.711,4.711,2.199,6.282,5.083,1.570,0.000,0.000,1.226,-8.033,0.990,4.963,4.696,4.727,
33.410,146.588,1.058,-8.695,1.821,-0.040,6.278,2.276,0.000,2.132,1.972,3.659,4.630,0.000,4.554,4.036,2.349,0.000,3.106,0.000,0.000,0.000,0.000,0.000,0.000,0.473,0.000,0.000,0.000,0.000,3.142,6.283,0.000,1.004,1.569,1.569,4.085,6.281,1.199,4.712,0.000,0.000,0.593,-8.206,0.990,4.963,4.694,4.729,5.281,4.711,4.711,2.199,6.282,5.083,1.570,0.000,0.000,1.229,-8.043,0.990,4.963,4.696,4.727,
33.517,146.696,1.058,-8.696,1.821,-0.001,6.239,2.277,0.000,2.132,1.972,3.657,4.633,0.000,4.554,4.038,2.350,0.000,3.106,0.000,0.000,0.000,0.000,0.000,0.000,0.528,0.000,0.000,0.000,0.000,3.142,6.282,0.000,1.004,1.569,1.569,4.085,6.281,1.199,4.712,0.000,0.000,0.593,-8.206,0.990,4.963,4.693,4.730,5.281,4.711,4.711,2.198,6.282,5.083,1.570,0.000,0.000,1.229,-8.044,0.990,4.963,4.694,4.730,
33.620,146.798,1.058,-8.696,1.782,-0.014,5.292,2.255,0.000,4.321,1.988,3.303,0.000,0.000,3.168,4.302,2.388,0.000,3.142,0.000,0.000,0.000,0.000,0.000,0.000,0.619,0.000,0.000,0.000,0.000,3.142,6.280,0.001,1.004,1.567,1.565,4.084,6.281,1.199,4.711,0.000,0.000,0.610,-8.190,0.990,4.928,4.692,4.731,5.281,4.710,4.708,2.197,6.282,5.083,1.570,0.000,0.000,1.252,-8.052,0.990,4.928,4.687,4.736,
33.720,146.898,1.058,-8.696,1.691,0.010,4.784,2.217,2.643,0.000,2.040,2.709,0.000,0.000,1.977,0.000,2.495,0.000,3.142,0.000,0.000,0.000,0.000,0.000,0.000,0.646,0.000,0.000,0.000,0.000,3.142,6.280,0.001,1.004,1.569,1.567,4.085,6.281,1.199,4.712,0.000,0.000,0.659,-8.151,0.990,4.836,4.674,4.749,5.282,4.711,4.710,2.197,6.282,5.083,1.570,0.000,0.000,1.311,-8.072,0.991,4.835,4.679,4.744,
33.802,146.980,1.057,-8.695,1.538,0.001,4.977,2.196,2.690,0.000,1.698,2.108,0.000,0.000,1.639,0.000,2.752,0.000,3.142,0.000,0.000,0.000,0.000,0.000,0.000,0.694,0.000,0.000,0.000,0.000,3.142,6.281,0.001,1.004,1.570,1.569,4.086,6.281,1.199,4.712,0.000,0.000,0.748,-8.096,0.990,4.746,1.723,1.418,5.282,4.712,4.712,2.198,6.282,5.083,1.571,0.000,0.000,1.404,-8.117,0.991,4.746,1.672,1.469,
33.920,147.098,1.059,-8.669,1.444,0.638,5.712,1.738,2.503,0.000,1.530,1.959,0.000,0.000,1.701,0.000,2.940,0.000,3.142,0.000,0.000,0.000,0.000,0.000,0.000,0.789,0.000,0.000,0.000,0.000,3.142,6.277,6.283,1.008,1.568,1.568,4.077,6.281,1.198,4.712,0.000,0.000,0.806,-8.045,0.990,4.837,1.578,1.563,5.283,4.711,4.710,2.197,6.282,5.083,1.571,0.000,0.000,1.457,-8.125,0.991,4.838,1.597,1.545,
34.020,147.198,1.068,-8.597,1.429,1.132,0.033,1.668,2.400,4.622,1.635,2.015,0.000,0.000,1.702,0.000,2.881,0.000,3.142,0.000,0.000,0.000,0.000,0.000,0.000,0.966,0.000,0.000,0.000,0.000,3.142,6.280,6.283,1.006,1.568,1.568,4.081,6.281,1.199,4.712,0.000,0.000,0.825,-7.968,0.990,4.852,1.589,1.552,5.282,4.710,4.710,2.198,6.282,5.083,1.570,0.000,0.000,1.474,-8.059,0.991,4.853,1.601,1.540,
34.107,147.285,1.086,-8.472,1.430,0.851,6.261,1.542,2.258,4.611,1.809,2.116,0.000,4.056,1.682,0.000,2.707,0.000,3.142,0.000,0.000,0.000,0.000,0.000,0.000,0.000,0.000,0.000,0.000,0.000,3.142,0.001,0.001,1.001,1.570,1.571,4.089,6.281,1.200,4.712,0.000,0.000,0.844,-7.842,0.989,4.855,1.620,1.521,5.281,4.712,4.713,2.198,6.282,5.083,1.570,0.000,0.000,1.493,-7.935,0.990,4.855,1.603,1.539,
34.220,147.398,1.095,-8.407,1.431,0.575,6.262,1.476,2.185,4.583,1.899,2.168,0.000,4.031,1.674,0.000,2.615,0.000,3.142,0.000,0.000,0.000,0.000,0.000,0.000,0.000,0.000,0.000,0.000,0.000,3.142,6.283,0.000,1.003,1.570,1.570,4.086,6.281,1.199,4.712,0.000,0.000,0.852,-7.778,0.990,4.853,1.610,1.531,5.281,4.711,4.712,2.198,6.282,5.083,1.570,0.000,0.000,1.501,-7.869,0.990,4.852,1.603,1.538,
34.320,147.498,1.102,-8.359,1.432,0.694,6.262,1.428,2.131,4.509,1.965,2.207,0.000,4.012,1.787,0.000,2.549,0.000,3.142,0.000,0.000,0.000,0.000,0.000,1.401,0.000,0.000,0.000,0.000,0.000,3.106,6.282,0.000,1.004,1.569,1.568,4.083,6.281,1.199,4.712,0.000,0.000,0.857,-7.731,0.990,4.850,1.599,1.542,5.281,4.711,4.711,2.198,6.282,5.083,1.570,0.000,0.000,1.507,-7.821,0.990,4.850,1.603,1.538,
34.420,147.598,1.115,-8.265,1.433,0.880,6.262,1.333,2.023,4.522,2.096,2.283,0.000,3.978,2.010,0.000,2.417,0.000,3.142,0.000,0.000,0.000,0.000,0.000,1.359,0.000,0.000,0.000,0.000,0.000,3.071,6.282,0.000,1.004,1.569,1.569,4.085,6.281,1.199,4.712,0.000,0.000,0.870,-7.636,0.990,4.850,1.604,1.537,5.281,4.711,4.711,2.198,6.282,5.083,1.570,0.000,0.000,1.520,-7.726,0.990,4.850,1.603,1.538,
34.520,147.698,1.126,-8.183,1.433,0.790,6.264,1.250,1.930,4.533,2.210,2.349,0.000,3.950,2.076,0.000,2.304,0.000,3.142,0.000,0.000,0.000,0.000,0.000,1.413,0.000,0.000,0.000,0.000,0.000,3.001,6.283,0.000,1.003,1.570,1.570,4.086,6.281,1.199,4.712,0.000,0.000,0.882,-7.554,0.990,4.850,1.610,1.531,5.281,4.711,4.712,2.198,6.282,5.083,1.570,0.000,0.000,1.531,-7.644,0.990,4.850,1.604,1.537,
34.620,147.798,1.134,-8.124,1.434,0.724,6.264,1.191,1.864,4.541,2.290,2.396,0.000,3.929,2.066,0.000,2.223,0.000,3.142,0.000,0.000,0.000,0.000,0.000,1.467,0.000,0.000,0.000,0.000,0.000,2.966,6.283,0.000,1.003,1.569,1.569,4.086,6.281,1.199,4.712,0.000,0.000,0.889,-7.496,0.990,4.850,1.608,1.533,5.281,4.711,4.711,2.198,6.282,5.083,1.570,0.000,0.000,1.539,-7.585,0.990,4.849,1.604,1.537,
34.710,147.888,1.144,-8.053,1.434,0.757,6.264,1.120,1.783,4.551,4.631,2.454,0.000,3.904,2.206,0.000,2.125,0.000,3.142,0.000,0.000,0.000,0.000,0.000,1.547,0.000,0.000,0.000,0.000,0.000,2.931,6.282,0.000,1.004,1.569,1.569,4.085,6.281,1.199,4.712,0.000,0.000,0.898,-7.425,0.990,4.848,1.604,1.537,5.281,4.711,4.711,2.198,6.282,5.083,1.570,0.000,0.000,1.548,-7.514,0.990,4.848,1.604,1.537,
34.810,147.989,1.154,-7.981,1.435,0.362,6.265,1.047,1.701,4.560,4.970,2.512,0.000,3.879,2.377,0.000,2.025,0.000,3.142,0.000,0.000,0.000,0.000,0.000,1.691,0.000,0.000,0.000,0.000,0.000,2.861,0.001,0.001,1.002,1.570,1.571,4.089,6.281,1.200,4.712,0.000,0.000,0.909,-7.352,0.989,4.851,1.621,1.520,5.281,4.712,4.713,2.198,6.282,5.083,1.570,0.000,0.000,1.559,-7.442,0.990,4.850,1.605,1.536,
34.920,148.098,1.157,-7.961,1.436,0.104,6.265,1.027,1.678,4.562,4.503,2.528,0.000,3.870,2.426,0.000,1.996,0.000,3.142,0.000,0.000,0.000,0.000,0.000,0.000,0.000,0.000,0.000,0.000,0.000,3.142,0.000,0.001,1.003,1.570,1.570,4.087,6.281,1.199,4.712,0.000,0.000,0.911,-7.333,0.990,4.848,1.614,1.527,5.281,4.712,4.712,2.198,6.282,5.083,1.570,0.000,0.000,1.561,-7.422,0.990,4.848,1.605,1.536,
35.020,148.198,1.157,-7.955,1.436,0.170,6.267,1.020,1.671,4.562,4.504,2.533,0.000,3.864,2.445,0.000,1.986,0.000,3.142,0.000,0.000,0.000,0.000,0.000,0.000,0.000,0.000,0.000,0.000,0.000,3.142,6.281,0.000,1.005,1.569,1.568,4.083,6.281,1.199,4.712,0.000,0.000,0.910,-7.327,0.990,4.846,1.597,1.544,5.281,4.711,4.710,2.198,6.282,5.083,1.570,0.000,0.000,1.560,-7.414,0.990,4.846,1.605,1.536,
35.120,148.298,1.162,-7.919,1.436,0.547,6.265,0.984,1.631,4.567,4.509,2.562,0.000,3.851,2.529,0.000,1.937,0.000,3.142,0.000,0.000,0.000,0.000,0.000,0.000,0.000,0.000,0.000,0.000,0.000,3.142,6.281,0.000,1.005,1.568,1.568,4.082,6.281,1.199,4.712,0.000,0.000,0.914,-7.292,0.990,4.845,1.596,1.544,5.281,4.711,4.710,2.198,6.282,5.083,1.570,0.000,0.000,1.565,-7.379,0.990,4.845,1.605,1.536,
35.220,148.398,1.168,-7.875,1.437,0.559,6.266,0.940,1.580,4.572,4.516,2.598,0.000,3.836,2.635,0.000,1.876,0.000,3.142,0.000,0.000,0.000,0.000,0.000,0.000,0.000,0.000,0.000,0.000,0.000,3.142,6.283,0.000,1.003,1.569,1.569,4.086,6.281,1.199,4.712,0.000,0.000,0.921,-7.247,0.990,4.847,1.610,1.531,5.281,4.711,4.711,2.198,6.282,5.083,1.570,0.000,0.000,1.571,-7.334,0.990,4.846,1.605,1.536,
35.319,148.497,1.174,-7.831,1.437,0.356,6.265,0.896,1.530,4.578,4.522,2.633,0.000,3.821,2.740,0.000,1.816,0.000,3.142,0.000,0.000,0.000,0.000,0.000,0.000,0.000,0.000,0.000,0.000,0.000,3.142,0.000,0.001,1.003,1.570,1.570,4.087,6.281,1.199,4.712,0.000,0.000,0.927,-7.203,0.990,4.847,1.614,1.527,5.281,4.712,4.712,2.198,6.282,5.083,1.570,0.000,0.000,1.577,-7.291,0.990,4.846,1.606,1.535,
35.420,148.598,1.179,-7.794,1.438,0.348,6.266,0.859,1.488,4.582,4.528,2.662,0.000,3.807,2.829,0.000,1.765,0.000,3.142,0.000,0.000,0.000,0.000,0.000,0.000,0.000,0.000,0.000,0.000,0.000,3.142,6.282,0.000,1.004,1.569,1.569,4.084,6.281,1.199,4.712,0.000,0.000,0.931,-7.167,0.990,4.845,1.604,1.536,5.281,4.711,4.711,2.198,6.282,5.083,1.570,0.000,0.000,1.581,-7.254,0.990,4.845,1.606,1.536,
35.509,148.687,1.183,-7.765,1.438,0.433,6.266,0.829,1.454,2.358,4.532,0.000,0.000,3.796,2.901,0.000,1.724,0.000,3.142,0.000,0.000,0.000,0.000,1.622,0.000,0.000,0.000,0.000,0.000,0.000,3.142,6.282,0.000,1.004,1.569,1.569,4.084,6.281,1.199,4.712,0.000,0.000,0.935,-7.137,0.990,4.844,1.604,1.537,5.281,4.711,4.711,2.198,6.282,5.083,1.570,0.000,0.000,1.585,-7.224,0.990,4.844,1.606,1.536,
35.604,148.782,1.186,-7.739,1.439,0.054,0.044,0.802,1.426,2.300,4.537,0.000,0.000,3.781,2.969,0.000,1.687,0.000,3.142,0.000,0.000,0.000,0.000,1.491,0.000,0.000,0.000,0.000,0.000,0.000,3.142,0.001,0.001,1.002,1.570,1.571,4.088,6.281,1.200,4.712,0.000,0.000,0.939,-7.111,0.990,4.846,1.620,1.521,5.280,4.712,4.713,2.199,6.282,5.083,1.570,0.000,0.000,1.589,-7.198,0.990,4.846,1.603,1.538,
35.720,148.898,1.186,-7.741,1.477,-0.060,0.971,0.802,1.461,4.514,4.577,0.000,0.000,3.540,3.225,3.526,1.634,0.000,3.142,0.000,0.000,0.000,0.000,1.482,0.000,0.000,0.000,0.000,0.000,0.000,3.142,0.002,0.000,1.002,1.571,1.573,4.087,6.281,1.199,4.712,0.000,0.000,0.917,-7.123,0.990,4.811,1.627,1.515,5.281,4.713,4.715,2.200,6.281,5.083,1.571,0.000,0.000,1.570,-7.186,0.991,4.811,1.596,1.545,
35.820,148.998,1.186,-7.747,1.592,-0.046,1.533,1.248,1.591,4.451,2.424,2.757,0.000,2.331,4.606,3.681,1.504,0.000,3.142,0.000,0.000,0.000,0.000,0.000,0.000,0.000,0.000,0.000,0.000,0.000,3.142,0.002,0.000,1.003,1.570,1.570,4.086,6.281,1.199,4.712,0.000,0.000,0.846,-7.164,0.990,4.733,4.496,4.927,5.282,4.712,4.713,2.199,6.282,5.083,1.570,0.000,0.000,1.502,-7.151,0.991,4.732,4.580,4.844,
35.902,149.080,1.186,-7.747,1.716,0.039,1.287,1.264,1.780,0.000,2.216,3.142,0.000,2.019,0.000,1.911,1.398,0.000,3.142,0.000,0.000,0.000,0.000,0.000,0.000,0.000,0.000,0.000,0.000,0.000,3.142,0.002,0.000,1.003,1.569,1.568,4.085,6.281,1.199,4.712,0.000,0.000,0.774,-7.212,0.990,4.859,4.683,4.740,5.282,4.712,4.711,2.199,6.282,5.083,1.570,0.000,0.000,1.424,-7.117,0.991,4.858,4.692,4.731,
36.004,149.182,1.185,-7.743,1.811,0.023,1.008,1.285,1.973,0.000,0.000,3.920,0.000,2.156,0.000,2.323,1.335,0.000,3.142,0.000,0.000,0.000,1.456,0.000,0.000,0.000,0.000,0.000,0.000,0.000,3.142,0.002,0.000,1.003,1.569,1.569,4.086,6.281,1.199,4.712,0.000,0.000,0.726,-7.248,0.990,4.952,4.691,4.732,5.281,4.712,4.712,2.199,6.282,5.083,1.570,0.000,0.000,1.364,-7.093,0.991,4.952,4.699,4.725,
36.110,149.289,1.185,-7.741,1.899,0.010,1.081,1.319,2.148,0.000,2.109,0.000,0.000,2.216,0.000,2.044,1.294,0.000,3.142,0.000,0.000,0.000,0.000,0.000,0.000,0.000,0.000,0.000,0.000,0.000,3.142,0.002,0.000,1.003,1.570,1.570,4.086,6.281,1.199,4.712,0.000,0.000,0.684,-7.289,0.990,5.040,4.697,4.726,5.281,4.712,4.713,2.199,6.282,5.083,1.570,0.000,0.000,1.306,-7.078,0.991,5.039,4.704,4.720,
36.220,149.398,1.184,-7.740,1.995,-0.010,1.154,1.372,2.025,4.475,2.701,0.000,4.407,2.561,0.000,1.821,1.263,0.000,3.071,0.000,0.000,0.000,0.000,0.000,0.000,0.000,0.000,0.000,0.000,0.000,3.142,0.002,0.000,1.002,1.570,1.570,4.087,6.281,1.199,4.712,0.000,0.000,0.642,-7.338,0.990,5.136,4.700,4.723,5.281,4.712,4.713,2.199,6.282,5.083,1.570,0.000,0.000,1.241,-7.068,0.991,5.136,4.705,4.718,
36.313,149.491,1.185,-7.742,2.071,-0.042,1.101,1.430,2.308,4.535,2.704,0.000,3.785,2.959,0.000,1.692,0.806,0.000,3.001,0.000,0.000,0.000,0.000,0.000,0.000,0.000,0.000,0.000,0.000,0.000,3.142,0.002,0.000,1.003,1.570,1.569,4.086,6.281,1.199,4.712,0.000,0.000,0.614,-7.383,0.990,5.212,4.702,4.721,5.281,4.712,4.712,2.199,6.282,5.083,1.570,0.000,0.000,1.191,-7.068,0.991,5.212,4.706,4.717,
36.420,149.598,1.186,-7.744,2.183,0.009,1.105,1.538,4.395,0.000,2.738,0.000,3.158,0.000,4.144,1.544,1.244,0.000,2.896,0.000,0.000,1.721,0.000,0.000,0.000,0.000,0.000,0.000,0.000,0.000,3.142,0.002,0.000,1.003,1.570,1.569,4.086,6.281,1.199,4.712,0.000,0.000,0.579,-7.450,0.990,5.324,4.704,4.718,5.281,4.712,4.712,2.199,6.282,5.083,1.570,0.000,0.000,1.116,-7.073,0.991,5.324,4.707,4.716,
36.520,149.698,1.185,-7.742,2.258,0.025,1.136,1.631,0.000,0.000,2.782,0.000,2.234,0.000,3.349,1.465,1.246,0.000,2.826,0.000,0.000,1.861,0.000,0.000,0.000,0.000,0.000,0.000,0.000,0.000,3.142,0.002,0.000,1.003,1.570,1.570,4.086,6.281,1.199,4.712,0.000,0.000,0.557,-7.495,0.990,5.399,4.705,4.717,5.281,4.712,4.712,2.199,6.282,5.083,1.570,0.000,0.000,1.065,-7.079,0.991,5.398,4.708,4.715,
36.620,149.798,1.184,-7.741,2.358,-0.001,1.164,1.791,0.000,2.207,3.207,0.000,2.001,0.000,2.685,1.384,1.260,0.000,2.720,0.000,0.000,0.000,0.000,0.000,0.000,0.000,0.000,0.000,0.000,0.000,3.142,0.002,0.000,1.003,1.570,1.570,4.087,6.281,1.199,4.712,0.000,0.000,0.534,-7.558,0.990,5.500,4.705,4.716,5.281,4.712,4.712,2.199,6.282,5.083,1.570,0.000,0.000,0.998,-7.093,0.991,5.499,4.708,4.715,
36.720,149.898,1.185,-7.742,2.469,-0.016,1.078,2.040,0.000,2.078,4.228,0.000,2.229,0.000,2.228,1.321,1.294,0.000,2.580,0.000,0.000,0.000,0.000,0.000,0.000,0.000,0.000,0.000,0.000,0.000,3.142,0.002,0.000,1.003,1.570,1.570,4.086,6.281,1.199,4.712,0.000,0.000,0.520,-7.632,0.990,5.611,4.706,4.715,5.281,4.712,4.712,2.199,6.282,5.083,1.570,0.000,0.000,0.929,-7.119,0.991,5.610,4.709,4.714,
36.820,149.998,1.185,-7.742,2.543,0.010,1.092,2.131,0.000,2.178,0.000,4.951,2.232,0.000,2.013,1.290,1.326,0.000,2.510,0.000,0.000,0.000,0.000,0.000,0.000,0.000,0.000,0.000,0.000,0.000,3.142,0.002,0.000,1.003,1.570,1.570,4.086,6.281,1.199,4.712,0.000,0.000,0.513,-7.681,0.990,5.684,4.706,4.715,5.281,4.712,4.712,2.199,6.282,5.083,1.570,0.000,0.000,0.883,-7.139,0.991,5.684,4.709,4.714,
36.920,150.098,1.183,-7.741,2.662,0.021,1.155,1.802,0.000,2.699,0.000,3.830,2.728,0.000,1.757,0.809,1.397,0.000,2.404,0.000,2.176,0.000,0.000,0.000,0.000,0.000,0.000,0.000,0.000,0.000,3.142,0.002,0.000,1.003,1.570,1.570,4.086,6.281,1.199,4.712,0.000,0.000,0.509,-7.760,0.990,5.803,4.707,4.714,5.281,4.712,4.712,2.199,6.282,5.083,1.570,0.000,0.000,0.812,-7.178,0.991,5.803,4.709,4.713,
37.020,150.198,1.168,-7.733,2.739,0.473,0.925,4.497,4.556,2.705,0.000,3.386,3.235,3.544,1.626,0.794,1.451,0.000,2.334,0.000,0.000,0.000,0.000,0.000,0.000,0.000,0.000,0.000,0.000,0.000,3.142,6.280,6.283,1.007,1.567,1.565,4.079,6.282,1.199,4.712,0.000,0.000,0.498,-7.809,0.991,5.886,4.711,4.712,5.283,4.710,4.708,2.198,6.282,5.083,1.570,0.000,0.000,0.753,-7.204,0.991,5.885,4.709,4.713,
37.120,150.298,1.073,-7.695,2.808,1.127,0.730,4.285,4.286,2.689,0.000,3.222,0.000,4.064,1.491,1.196,1.472,0.000,3.142,0.000,0.000,0.000,0.000,0.000,0.000,0.000,0.000,0.000,0.000,0.000,3.142,6.282,6.283,1.005,1.569,1.570,4.083,6.281,1.199,4.712,0.000,0.000,0.410,-7.813,0.990,5.950,4.708,4.713,5.282,4.712,4.712,2.198,6.282,5.083,1.571,0.000,0.000,0.624,-7.193,0.991,5.950,4.709,4.713,
37.202,150.380,0.992,-7.668,2.872,0.979,1.108,4.231,4.299,2.684,0.000,2.485,4.815,2.060,1.394,1.170,1.511,0.000,3.071,0.000,0.000,0.000,0.000,0.000,0.000,0.000,0.000,0.000,0.000,0.000,3.142,0.003,0.000,1.002,1.571,1.572,4.088,6.281,1.199,4.712,0.000,0.000,0.336,-7.826,0.990,6.010,4.706,4.713,5.281,4.713,4.714,2.199,6.282,5.083,1.571,0.000,0.000,0.512,-7.194,0.991,6.010,4.709,4.713,
37.320,150.498,0.904,-7.647,2.996,0.630,1.130,0.000,2.131,2.734,0.000,2.304,0.000,2.456,0.785,1.166,1.665,0.000,3.142,0.000,0.000,0.000,0.000,0.000,0.000,0.000,0.000,0.000,0.000,0.000,3.142,0.002,0.000,1.002,1.570,1.570,4.087,6.281,1.199,4.712,0.000,0.000,0.273,-7.886,0.990,6.137,4.707,4.712,5.282,4.712,4.712,2.198,6.282,5.083,1.570,0.000,0.000,0.369,-7.237,0.991,6.136,4.709,4.712,
37.409,150.587,0.839,-7.640,3.086,0.756,0.965,0.000,2.000,3.022,0.000,2.454,0.000,2.093,1.219,1.182,1.832,0.000,3.142,2.347,0.000,0.000,0.000,0.000,0.000,0.000,0.000,0.000,0.000,0.000,3.142,6.283,0.000,1.004,1.569,1.568,4.084,6.282,1.199,4.712,0.000,0.000,0.233,-7.935,0.990,6.229,4.709,4.711,5.282,4.712,4.711,2.198,6.282,5.083,1.570,0.000,0.000,0.269,-7.280,0.991,6.228,4.709,4.712,
37.520,150.698,0.757,-7.637,3.167,0.889,0.958,0.000,1.888,3.605,0.000,2.667,0.000,1.862,1.184,1.211,1.627,0.000,3.142,2.374,0.000,0.000,0.000,0.000,0.000,0.000,0.000,0.000,0.000,0.000,3.142,0.001,0.000,1.004,1.570,1.569,4.085,6.281,1.199,4.712,0.000,0.000,0.176,-7.980,0.990,0.025,4.708,4.711,5.282,4.712,4.712,2.198,6.282,5.083,1.570,0.000,0.000,0.160,-7.324,0.991,0.025,4.709,4.712,
37.612,150.790,0.667,-7.642,3.232,0.979,0.402,4.246,1.794,4.308,0.000,2.802,0.000,1.726,1.169,1.248,1.687,0.000,3.142,0.000,0.000,0.000,0.000,0.000,0.000,0.000,0.000,0.000,0.000,0.000,3.142,6.282,0.000,1.005,1.568,1.567,4.084,6.282,1.199,4.712,0.000,0.000,0.111,-8.024,0.990,0.094,4.708,4.710,5.281,4.711,4.709,2.198,6.283,5.083,1.570,0.000,0.000,0.050,-7.370,0.991,0.093,4.708,4.711,
37.720,150.898,0.565,-7.651,3.238,1.075,6.270,3.952,1.729,3.902,0.000,2.811,0.000,1.730,1.177,1.261,1.723,0.000,3.142,0.000,0.000,0.000,0.000,0.000,0.000,0.000,0.000,0.000,0.000,0.000,3.142,6.282,0.000,1.004,1.569,1.569,4.084,6.281,1.199,4.712,0.000,0.000,0.011,-8.035,0.990,0.097,4.708,4.711,5.281,4.711,4.711,2.198,6.282,5.083,1.570,0.000,0.000,-0.053,-7.382,0.990,0.097,4.708,4.711,
37.815,150.993,0.461,-7.661,3.238,1.026,6.268,3.857,1.665,3.366,0.000,2.893,0.000,1.081,1.187,1.272,3.984,0.000,3.142,0.000,0.000,0.000,0.000,0.000,0.000,0.000,0.000,0.000,0.000,0.000,3.142,6.282,0.000,1.003,1.569,1.569,4.085,6.281,1.199,4.712,0.000,0.000,-0.093,-8.045,0.990,0.097,4.707,4.711,5.281,4.711,4.711,2.198,6.282,5.083,1.570,0.000,0.000,-0.157,-7.392,0.990,0.097,4.708,4.711,
37.920,151.098,0.364,-7.671,3.238,0.979,6.268,3.766,1.605,2.861,0.000,3.004,0.000,1.107,1.197,1.283,3.871,0.000,3.142,0.000,0.000,0.000,0.000,0.000,0.000,0.000,0.000,0.000,0.000,0.000,3.142,6.282,0.000,1.004,1.569,1.569,4.085,6.281,1.199,4.712,0.000,0.000,-0.191,-8.055,0.990,0.097,4.708,4.711,5.281,4.711,4.711,2.198,6.282,5.083,1.570,0.000,0.000,-0.254,-7.402,0.990,0.097,4.708,4.711,
38.014,151.192,0.271,-7.680,3.243,0.898,0.299,3.546,1.546,2.536,0.000,3.051,0.000,1.763,1.205,1.296,3.754,0.000,3.142,0.000,0.000,0.000,0.000,0.000,0.000,0.000,0.000,0.000,0.000,0.000,3.142,0.001,0.000,1.002,1.570,1.571,4.087,6.281,1.200,4.712,0.000,0.000,-0.283,-8.065,0.990,0.099,4.707,4.711,5.281,4.712,4.713,2.199,6.281,5.083,1.570,0.000,0.000,-0.349,-7.412,0.991,0.099,4.709,4.712,
38.120,151.298,0.188,-7.689,3.312,0.810,1.274,3.500,1.467,3.143,0.000,3.171,4.495,1.654,1.200,1.352,3.530,0.000,3.106,0.000,0.000,0.000,0.000,0.000,0.000,0.000,0.000,0.000,0.000,0.000,3.142,0.002,0.000,1.003,1.571,1.572,4.086,6.281,1.199,4.712,0.000,0.000,-0.337,-8.111,0.990,0.167,4.707,4.711,5.282,4.713,4.714,2.199,6.282,5.083,1.571,0.000,0.000,-0.448,-7.465,0.991,0.167,4.709,4.712,
38.220,151.398,0.109,-7.706,3.435,0.859,1.317,3.528,1.383,0.000,4.872,4.317,4.173,1.510,1.206,0.942,3.387,0.000,3.071,0.000,0.000,0.000,0.000,0.000,0.000,0.000,0.000,0.000,0.000,0.000,3.142,0.001,0.000,1.004,1.570,1.569,4.085,6.282,1.199,4.712,0.000,0.000,-0.360,-8.191,0.990,0.294,4.708,4.710,5.282,4.712,4.712,2.198,6.283,5.083,1.570,0.000,0.000,-0.550,-7.562,0.991,0.293,4.709,4.711,
38.320,151.498,0.041,-7.727,3.503,0.975,0.532,3.436,1.323,0.000,4.572,0.000,3.468,1.465,1.229,1.201,0.000,0.000,3.001,0.000,0.000,0.000,0.000,0.000,0.000,0.000,0.000,0.000,0.000,0.000,3.142,6.282,0.000,1.005,1.568,1.566,4.083,6.282,1.199,4.712,0.000,0.000,-0.392,-8.245,0.990,0.366,4.708,4.709,5.282,4.711,4.709,2.198,6.283,5.083,1.570,0.000,0.000,-0.626,-7.632,0.991,0.365,4.708,4.710,
38.418,151.596,-0.076,-7.772,3.510,1.091,6.277,3.261,1.226,0.000,4.715,0.000,3.532,1.512,1.275,1.266,0.000,0.000,3.001,0.000,0.000,0.000,0.000,0.000,0.000,0.000,0.000,0.000,0.000,0.000,3.142,6.282,0.000,1.004,1.569,1.569,4.084,6.281,1.199,4.712,0.000,0.000,-0.507,-8.291,0.990,0.369,4.708,4.710,5.281,4.711,4.711,2.197,6.282,5.083,1.570,0.000,0.000,-0.744,-7.680,0.990,0.369,4.707,4.710,
38.520,151.698,-0.173,-7.810,3.510,1.008,6.273,3.163,1.145,0.000,4.865,0.000,3.638,1.556,1.312,3.782,0.000,0.000,3.036,0.000,0.000,0.000,0.000,0.000,0.000,0.000,0.000,0.000,0.000,0.000,3.142,6.282,0.001,1.004,1.569,1.569,4.085,6.281,1.199,4.712,0.000,0.000,-0.604,-8.329,0.990,0.369,4.707,4.709,5.281,4.711,4.711,2.197,6.282,5.083,1.570,0.000,0.000,-0.840,-7.717,0.990,0.369,4.707,4.710,
38.613,151.791,-0.263,-7.844,3.510,0.971,6.272,3.072,1.070,0.000,0.000,0.000,3.736,1.598,1.347,3.827,0.000,0.000,3.036,0.000,0.000,0.000,0.000,0.000,0.000,0.000,0.000,0.000,1.203,0.000,3.142,6.282,0.000,1.004,1.569,1.569,4.085,6.281,1.199,4.712,0.000,0.000,-0.694,-8.363,0.990,0.369,4.707,4.710,5.281,4.711,4.711,2.197,6.282,5.083,1.570,0.000,0.000,-0.930,-7.751,0.990,0.369,4.707,4.710,
38.720,151.898,-0.353,-7.879,3.510,1.014,6.271,2.979,0.994,0.000,0.000,4.723,3.834,1.639,1.382,3.872,0.000,0.000,3.036,0.000,0.000,0.000,0.000,0.000,0.000,0.000,0.000,0.000,0.994,0.000,3.142,6.282,0.000,1.004,1.569,1.569,4.084,6.281,1.199,4.712,0.000,0.000,-0.784,-8.398,0.990,0.369,4.708,4.710,5.281,4.711,4.711,2.197,6.282,5.083,1.570,0.000,0.000,-1.021,-7.787,0.990,0.369,4.707,4.710,
38.820,151.998,-0.429,-7.909,3.510,1.034,6.270,2.902,0.931,2.218,0.000,4.782,3.915,1.674,0.972,4.026,0.000,0.000,3.036,0.000,0.000,0.000,0.000,0.000,0.000,0.000,0.000,0.000,0.882,0.000,3.142,6.282,0.000,1.004,1.569,1.569,4.085,6.281,1.199,4.712,0.000,0.000,-0.860,-8.427,0.990,0.369,4.707,4.710,5.281,4.711,4.711,2.198,6.282,5.083,1.570,0.000,0.000,-1.096,-7.816,0.990,0.369,4.707,4.710,
38.917,152.095,-0.542,-7.952,3.505,1.010,6.011,2.816,0.837,1.012,0.000,4.539,4.082,1.731,1.156,3.869,0.000,0.000,3.036,0.000,0.000,0.000,0.000,0.000,0.000,0.000,0.000,0.000,0.731,0.000,3.142,6.281,0.001,1.004,1.568,1.567,4.084,6.281,1.199,4.712,0.000,0.000,-0.974,-8.470,0.990,0.366,4.707,4.709,5.281,4.710,4.710,2.197,6.282,5.083,1.570,0.000,0.000,-1.209,-7.857,0.990,0.366,4.707,4.710,
39.020,152.198,-0.634,-7.986,3.440,1.003,5.070,2.752,0.764,0.883,0.000,3.803,3.686,1.854,1.188,4.055,0.000,0.000,3.106,0.000,0.000,0.000,0.000,0.000,0.000,0.000,0.000,0.000,0.712,0.000,3.142,6.280,0.001,1.005,1.568,1.565,4.084,6.282,1.199,4.711,0.000,0.000,-1.100,-8.476,0.990,0.303,4.708,4.709,5.282,4.710,4.708,2.197,6.282,5.083,1.570,0.000,0.000,-1.293,-7.849,0.990,0.302,4.707,4.709,
39.112,152.291,-0.730,-8.013,3.338,1.008,5.568,2.580,1.528,0.759,0.000,3.617,0.000,2.053,2.087,3.591,0.000,0.000,3.142,0.000,0.000,0.000,0.000,0.000,0.000,0.000,0.000,0.000,0.664,0.000,3.142,6.281,0.000,1.004,1.570,1.570,4.085,6.280,1.199,4.712,0.000,0.000,-1.243,-8.450,0.990,0.196,4.707,4.711,5.282,4.711,4.710,2.198,0.002,5.081,1.573,0.001,0.000,-1.371,-7.809,0.990,0.202,4.706,4.714,
39.220,152.398,-0.828,-8.032,3.324,1.019,6.275,2.472,1.522,0.683,0.000,3.746,0.000,2.106,1.243,3.584,0.000,0.000,3.142,0.000,0.000,0.000,0.000,0.000,0.000,0.000,0.000,0.000,0.788,0.000,3.142,6.283,0.000,1.003,1.569,1.569,4.085,6.281,1.199,4.712,0.000,0.000,-1.347,-8.462,0.990,0.183,4.707,4.711,5.281,4.711,4.711,2.198,6.283,5.082,1.571,0.000,0.000,-1.466,-7.818,0.990,0.184,4.708,4.712,
39.320,152.498,-0.906,-8.047,3.325,1.015,6.269,2.392,1.500,0.626,0.000,3.830,0.000,2.124,1.258,0.000,3.655,0.000,3.142,0.000,0.000,0.000,0.000,0.000,0.000,0.000,0.000,0.668,0.000,0.000,3.142,6.283,0.000,1.003,1.569,1.569,4.085,6.281,1.199,4.712,0.000,0.000,-1.426,-8.477,0.990,0.184,4.707,4.710,5.281,4.711,4.712,2.198,6.282,5.083,1.570,0.000,0.000,-1.545,-7.832,0.990,0.184,4.708,4.711,
39.420,152.598,-1.004,-8.065,3.326,1.008,6.263,2.293,1.474,0.556,1.022,3.935,0.000,2.147,1.276,0.000,3.639,0.000,3.142,0.000,0.000,0.000,0.000,0.000,0.000,0.000,0.000,0.592,0.000,0.000,3.142,6.283,0.000,1.003,1.569,1.569,4.085,6.281,1.199,4.712,0.000,0.000,-1.523,-8.496,0.990,0.185,4.707,4.710,5.281,4.711,4.711,2.198,6.282,5.083,1.570,0.000,0.000,-1.644,-7.851,0.990,0.185,4.708,4.711,
39.520,152.698,-1.121,-8.087,3.328,1.011,6.259,2.174,2.800,0.609,0.867,4.495,0.000,2.175,1.298,0.000,0.000,0.000,3.142,0.000,0.000,0.000,0.000,0.000,0.000,0.000,0.000,0.711,0.000,0.000,3.142,6.283,0.000,1.003,1.569,1.569,4.085,6.281,1.199,4.712,0.000,0.000,-1.639,-8.519,0.990,0.186,4.707,4.710,5.281,4.711,4.711,2.198,6.282,5.083,1.570,0.000,0.000,-1.761,-7.874,0.990,0.186,4.708,4.711,
39.620,152.798,-1.200,-8.102,3.328,1.014,6.261,2.094,2.685,0.756,0.763,4.579,0.000,2.194,1.684,3.680,0.000,0.000,3.142,0.000,0.000,0.000,0.000,0.000,0.000,0.000,0.000,0.000,0.000,0.000,3.142,6.283,0.000,1.004,1.569,1.569,4.085,6.281,1.199,4.712,0.000,0.000,-1.717,-8.534,0.990,0.187,4.707,4.710,5.281,4.711,4.711,2.198,6.282,5.083,1.570,0.000,0.000,-1.839,-7.889,0.990,0.187,4.708,4.711,
39.720,152.898,-1.317,-8.124,3.308,1.012,5.621,1.966,2.456,1.041,0.586,4.750,0.000,2.267,0.000,3.567,0.000,0.000,3.142,0.000,0.000,0.000,0.000,0.000,0.000,0.000,1.035,0.000,0.000,0.000,3.142,6.281,0.001,1.004,1.568,1.566,4.084,6.281,1.199,4.711,0.000,0.000,-1.843,-8.548,0.990,0.171,4.708,4.710,5.281,4.710,4.708,2.197,6.282,5.083,1.570,0.000,0.000,-1.953,-7.901,0.990,0.171,4.707,4.710,
39.805,152.983,-1.416,-8.139,3.211,1.010,4.899,1.841,2.105,1.044,0.593,0.000,0.000,2.540,1.778,3.508,3.162,0.000,3.142,0.000,0.000,0.000,0.000,0.000,0.000,0.000,0.000,0.000,0.000,0.000,3.142,6.280,0.001,1.004,1.568,1.566,4.085,6.281,1.199,4.712,0.000,0.000,-1.980,-8.510,0.990,0.073,4.708,4.710,5.282,4.710,4.709,2.197,6.282,5.083,1.570,0.000,0.000,-2.026,-7.855,0.991,0.072,4.708,4.711,
39.920,153.098,-1.507,-8.143,3.128,0.825,5.953,1.743,1.856,1.062,0.736,0.000,0.000,2.833,1.620,3.407,2.799,0.000,3.142,0.000,0.000,0.000,0.000,0.000,0.000,0.000,0.000,0.000,0.000,0.000,3.142,6.283,0.001,1.003,1.571,1.572,4.087,6.280,1.199,4.712,0.000,0.000,-2.101,-8.462,0.990,6.266,4.706,4.712,5.281,4.713,4.714,2.198,6.281,5.083,1.571,0.000,0.000,-2.092,-7.806,0.991,6.266,4.708,4.712,
40.020,153.198,-1.567,-8.142,3.127,0.724,6.272,1.683,1.624,1.064,0.806,0.000,0.000,2.839,1.800,3.404,2.790,0.000,3.142,0.000,0.000,0.000,0.000,0.000,0.000,0.000,0.000,0.000,0.000,0.000,3.142,6.283,0.000,1.003,1.570,1.569,4.086,6.281,1.199,4.712,0.000,0.000,-2.161,-8.462,0.990,6.268,4.707,4.711,5.281,4.711,4.712,2.198,6.282,5.083,1.570,0.000,0.000,-2.151,-7.806,0.990,6.268,4.708,4.712,
40.114,153.292,-1.655,-8.141,3.133,0.784,0.329,1.595,1.569,1.063,0.904,1.422,0.000,2.812,0.000,3.410,2.812,0.000,3.142,0.000,0.000,0.000,0.000,0.000,0.000,0.000,1.603,0.000,0.000,0.000,3.142,0.000,0.000,1.003,1.570,1.571,4.086,6.281,1.199,4.712,0.000,0.000,-2.247,-8.464,0.990,6.273,4.707,4.712,5.281,4.712,4.713,2.199,6.282,5.083,1.570,0.000,0.000,-2.241,-7.808,0.991,6.273,4.709,4.712,
40.220,153.398,-1.731,-8.142,3.204,0.759,1.283,1.524,1.676,1.042,0.936,0.000,0.000,2.566,0.000,3.362,3.035,0.000,3.142,0.000,0.000,0.000,0.000,0.000,0.000,0.000,1.633,0.000,0.000,0.000,3.142,0.002,0.000,1.003,1.571,1.572,4.086,6.281,1.199,4.712,0.000,0.000,-2.299,-8.504,0.990,0.059,4.707,4.712,5.282,4.713,4.714,2.199,6.282,5.083,1.571,0.000,0.000,-2.340,-7.849,0.991,0.059,4.709,4.712,
40.308,153.486,-1.804,-8.148,3.327,0.731,1.336,1.476,1.782,1.014,0.931,0.000,0.000,2.260,0.000,2.450,4.179,0.000,3.142,0.000,0.000,0.000,0.000,0.000,0.000,0.000,1.843,0.000,0.000,0.000,3.142,0.001,0.000,1.003,1.570,1.569,4.086,6.282,1.199,4.712,0.000,0.000,-2.322,-8.580,0.990,0.186,4.708,4.710,5.282,4.712,4.712,2.198,6.282,5.083,1.570,0.000,0.000,-2.443,-7.935,0.991,0.185,4.709,4.711,
40.420,153.598,-1.874,-8.164,3.424,0.748,0.919,1.440,1.888,0.993,0.945,4.707,0.000,1.724,4.765,2.026,4.575,0.000,3.142,0.000,0.000,0.000,0.000,0.000,0.000,0.000,0.000,0.000,0.000,0.000,3.142,0.001,0.000,1.004,1.569,1.569,4.085,6.282,1.199,4.712,0.000,0.000,-2.348,-8.644,0.990,0.284,4.708,4.710,5.282,4.712,4.711,2.198,6.282,5.083,1.570,0.000,0.000,-2.532,-8.014,0.991,0.283,4.709,4.710,
40.506,153.684,-1.945,-8.186,3.497,0.760,0.865,1.401,1.968,0.973,0.971,4.682,4.843,1.721,0.000,1.956,4.401,0.000,3.106,0.000,0.000,0.000,0.000,0.000,0.000,0.000,0.000,0.000,0.000,0.000,3.142,0.001,0.000,1.003,1.570,1.570,4.086,6.281,1.199,4.712,0.000,0.000,-2.383,-8.699,0.990,0.355,4.707,4.710,5.282,4.712,4.712,2.198,6.282,5.083,1.570,0.000,0.000,-2.612,-8.084,0.991,0.355,4.709,4.710,
40.620,153.798,-2.014,-8.214,3.580,0.748,1.057,1.377,2.125,0.954,0.993,0.000,4.034,2.120,3.342,2.372,0.000,0.000,3.036,0.000,0.000,0.000,0.000,0.000,0.000,0.000,0.000,0.000,0.000,0.000,3.142,0.001,0.000,1.003,1.570,1.570,4.086,6.281,1.199,4.712,0.000,0.000,-2.408,-8.761,0.990,0.438,4.707,4.709,5.282,4.712,4.712,2.198,6.282,5.083,1.570,0.000,0.000,-2.687,-8.167,0.991,0.438,4.709,4.710,
40.720,153.898,-2.066,-8.239,3.655,0.741,1.094,1.502,2.355,0.941,1.009,0.000,3.540,4.131,3.412,2.601,1.190,0.000,2.966,0.000,0.000,0.000,0.000,0.000,0.000,0.000,0.000,0.000,0.000,0.000,3.142,0.001,0.000,1.003,1.570,1.570,4.086,6.281,1.199,4.712,0.000,0.000,-2.418,-8.815,0.990,0.513,4.707,4.709,5.282,4.712,4.712,2.198,6.282,5.083,1.570,0.000,0.000,-2.740,-8.243,0.991,0.513,4.709,4.710,
40.820,153.998,-2.133,-8.280,3.714,0.580,0.014,1.294,2.535,0.914,1.037,0.000,3.285,0.000,3.303,2.773,1.118,0.000,2.931,0.000,0.000,0.000,0.000,0.000,0.000,2.582,0.000,0.000,0.000,0.000,3.142,0.000,0.001,1.003,1.569,1.567,4.086,6.281,1.199,4.711,0.000,0.000,-2.450,-8.877,0.990,0.575,4.706,4.707,5.281,4.711,4.710,2.198,6.282,5.083,1.570,0.000,0.000,-2.805,-8.325,0.990,0.575,4.707,4.708,
40.920,154.098,-2.169,-8.303,3.714,0.532,6.272,1.253,2.431,0.890,1.057,0.000,3.327,0.000,3.168,2.810,1.082,0.000,2.931,0.000,0.000,0.000,0.000,0.000,0.000,2.676,0.000,0.000,0.000,0.000,3.142,6.282,0.000,1.004,1.569,1.569,4.085,6.281,1.199,4.712,0.000,0.000,-2.486,-8.898,0.990,0.573,4.707,4.708,5.281,4.711,4.711,2.197,6.282,5.083,1.570,0.000,0.000,-2.842,-8.347,0.990,0.573,4.707,4.709,
41.001,154.179,-2.225,-8.339,3.714,0.617,6.271,1.188,2.268,0.852,1.088,0.000,3.394,0.000,2.955,0.000,1.026,0.000,2.931,0.000,0.000,0.000,0.000,0.000,0.000,2.851,0.000,0.000,0.000,0.000,3.142,6.282,0.000,1.004,1.569,1.568,4.084,6.281,1.199,4.712,0.000,0.000,-2.541,-8.934,0.990,0.574,4.707,4.709,5.281,4.711,4.711,2.197,6.282,5.083,1.570,0.000,0.000,-2.897,-8.383,0.990,0.574,4.707,4.709,
41.120,154.298,-2.256,-8.359,3.715,0.220,6.277,1.151,2.178,0.862,1.309,0.000,3.429,0.000,2.830,0.000,0.994,0.000,2.931,0.000,0.000,0.000,0.000,0.000,0.000,3.019,0.000,0.000,0.000,0.000,3.142,0.001,0.001,1.002,1.570,1.570,4.088,6.281,1.200,4.712,0.000,0.000,-2.574,-8.954,0.990,0.572,4.705,4.707,5.281,4.712,4.712,2.198,6.282,5.083,1.570,0.000,0.000,-2.929,-8.403,0.990,0.572,4.707,4.709,
41.220,154.398,-2.264,-8.364,3.715,0.065,6.266,1.141,2.157,0.890,1.301,0.000,3.437,0.000,2.796,0.000,0.986,0.000,2.931,0.000,0.000,0.000,0.000,0.000,0.000,3.103,0.000,0.000,0.000,0.000,3.142,6.283,0.001,1.003,1.570,1.570,4.086,6.281,1.199,4.712,0.000,0.000,-2.582,-8.960,0.990,0.573,4.706,4.708,5.281,4.711,4.712,2.198,6.282,5.083,1.570,0.000,0.000,-2.937,-8.409,0.990,0.573,4.707,4.709,
41.310,154.488,-2.266,-8.365,3.715,0.000,6.269,1.139,2.155,0.892,1.301,0.000,3.437,0.000,2.789,0.000,0.985,0.000,2.931,0.000,0.000,0.000,0.000,0.000,0.000,3.271,0.000,0.000,0.000,0.000,3.142,6.283,0.000,1.003,1.569,1.569,4.085,6.281,1.199,4.712,0.000,0.000,-2.582,-8.961,0.990,0.574,4.706,4.708,5.281,4.711,4.711,2.198,6.282,5.083,1.570,0.000,0.000,-2.938,-8.410,0.990,0.574,4.707,4.709,
41.420,154.598,-2.266,-8.365,3.715,0.000,6.269,1.139,2.155,0.892,1.301,0.000,3.437,4.942,2.789,0.000,0.985,0.000,2.931,0.000,0.000,0.000,0.000,0.000,0.000,0.000,0.000,0.000,0.000,0.000,3.142,6.283,0.000,1.003,1.569,1.569,4.085,6.281,1.199,4.712,0.000,0.000,-2.582,-8.961,0.990,0.574,4.706,4.708,5.281,4.711,4.712,2.198,6.282,5.083,1.570,0.000,0.000,-2.938,-8.410,0.990,0.574,4.707,4.709,
41.520,154.698,-2.266,-8.365,3.715,0.000,6.269,1.139,2.155,0.892,1.301,0.000,3.437,4.942,2.789,0.000,0.985,0.000,2.931,0.000,0.000,0.000,0.000,0.000,0.000,0.000,0.000,0.000,0.000,0.000,3.142,6.283,0.000,1.003,1.569,1.569,4.085,6.281,1.199,4.712,0.000,0.000,-2.582,-8.961,0.990,0.574,4.706,4.708,5.281,4.711,4.712,2.198,6.282,5.083,1.570,0.000,0.000,-2.938,-8.410,0.990,0.574,4.707,4.709,
41.604,154.783,-2.266,-8.365,3.715,0.000,6.269,1.139,2.155,0.892,1.301,0.000,3.437,4.942,2.789,0.000,0.985,0.000,2.931,0.000,0.000,0.000,0.000,0.000,0.000,0.000,0.000,0.000,0.000,0.000,3.142,6.283,0.000,1.003,1.569,1.569,4.085,6.281,1.199,4.712,0.000,0.000,-2.582,-8.961,0.990,0.574,4.706,4.708,5.281,4.711,4.712,2.198,6.282,5.083,1.570,0.000,0.000,-2.938,-8.410,0.990,0.574,4.707,4.709,
41.720,154.898,-2.266,-8.365,3.715,0.000,6.269,1.139,2.155,0.892,1.301,0.000,3.437,4.942,2.789,0.000,0.985,0.000,2.931,0.000,0.000,0.000,0.000,0.000,0.000,0.000,0.000,0.000,0.000,0.000,3.142,6.283,0.000,1.003,1.569,1.569,4.085,6.281,1.199,4.712,0.000,0.000,-2.582,-8.961,0.990,0.574,4.706,4.708,5.281,4.711,4.712,2.198,6.282,5.083,1.570,0.000,0.000,-2.938,-8.410,0.990,0.574,4.707,4.709,
41.820,154.998,-2.266,-8.365,3.715,0.000,6.269,1.139,2.155,0.892,1.301,0.000,3.437,4.942,2.789,0.000,0.985,0.000,2.931,0.000,0.000,0.000,0.000,0.000,0.000,0.000,0.000,0.000,0.000,0.000,3.142,6.283,0.000,1.003,1.569,1.569,4.085,6.281,1.199,4.712,0.000,0.000,-2.582,-8.961,0.990,0.574,4.706,4.708,5.281,4.711,4.712,2.198,6.282,5.083,1.570,0.000,0.000,-2.938,-8.410,0.990,0.574,4.707,4.709,
41.919,155.097,-2.266,-8.365,3.715,0.000,6.269,1.139,2.155,0.892,1.301,0.000,3.437,4.942,2.789,0.000,0.985,0.000,2.931,0.000,0.000,0.000,0.000,0.000,0.000,0.000,0.000,0.000,0.000,0.000,3.142,6.283,0.000,1.003,1.569,1.569,4.085,6.281,1.199,4.712,0.000,0.000,-2.582,-8.961,0.990,0.574,4.706,4.708,5.281,4.711,4.712,2.198,6.282,5.083,1.570,0.000,0.000,-2.938,-8.410,0.990,0.574,4.707,4.709,
42.020,155.198,-2.266,-8.365,3.715,0.000,6.269,1.139,2.155,0.892,1.301,0.000,3.437,4.942,2.789,0.000,0.985,0.000,2.931,0.000,0.000,0.000,0.000,0.000,0.000,0.000,0.000,0.000,0.000,0.000,3.142,6.283,0.000,1.003,1.569,1.569,4.085,6.281,1.199,4.712,0.000,0.000,-2.582,-8.961,0.990,0.574,4.706,4.708,5.281,4.711,4.712,2.198,6.282,5.083,1.570,0.000,0.000,-2.938,-8.410,0.990,0.574,4.707,4.709,
42.103,155.281,-2.266,-8.365,3.715,0.000,6.269,1.139,2.155,0.892,1.301,0.000,3.437,4.942,2.789,0.000,0.985,0.000,2.931,0.000,0.000,0.000,0.000,0.000,0.000,0.000,0.000,0.000,0.000,0.000,3.142,6.283,0.000,1.003,1.569,1.569,4.085,6.281,1.199,4.712,0.000,0.000,-2.582,-8.961,0.990,0.574,4.706,4.708,5.281,4.711,4.712,2.198,6.282,5.083,1.570,0.000,0.000,-2.938,-8.410,0.990,0.574,4.707,4.709,
42.218,155.396,-2.266,-8.365,3.715,0.000,6.269,1.139,2.155,0.892,1.301,0.000,3.437,4.942,2.789,0.000,0.985,0.000,2.931,0.000,0.000,0.000,0.000,0.000,0.000,0.000,0.000,0.000,0.000,0.000,3.142,6.283,0.000,1.003,1.569,1.569,4.085,6.281,1.199,4.712,0.000,0.000,-2.582,-8.961,0.990,0.574,4.706,4.708,5.281,4.711,4.712,2.198,6.282,5.083,1.570,0.000,0.000,-2.938,-8.410,0.990,0.574,4.707,4.709,
42.320,155.498,-2.266,-8.365,3.715,0.000,6.269,1.139,2.155,0.892,1.301,0.000,3.437,4.942,2.789,0.000,0.985,0.000,2.931,0.000,0.000,0.000,0.000,0.000,0.000,0.000,0.000,0.000,0.000,0.000,3.142,6.283,0.000,1.003,1.569,1.569,4.085,6.281,1.199,4.712,0.000,0.000,-2.582,-8.961,0.990,0.574,4.706,4.708,5.281,4.711,4.712,2.198,6.282,5.083,1.570,0.000,0.000,-2.938,-8.410,0.990,0.574,4.707,4.709,
42.403,155.581,-2.266,-8.365,3.715,0.000,6.269,1.139,2.155,0.892,1.301,0.000,3.437,4.942,2.789,0.000,0.985,0.000,2.931,0.000,0.000,0.000,0.000,0.000,0.000,0.000,0.000,0.000,0.000,0.000,3.142,6.283,0.000,1.003,1.569,1.569,4.085,6.281,1.199,4.712,0.000,0.000,-2.582,-8.961,0.990,0.574,4.706,4.708,5.281,4.711,4.712,2.198,6.282,5.083,1.570,0.000,0.000,-2.938,-8.410,0.990,0.574,4.707,4.709,
42.520,155.698,-2.266,-8.365,3.715,0.000,6.269,1.139,2.155,0.892,1.301,0.000,3.437,4.942,2.789,0.000,0.985,0.000,2.931,0.000,0.000,0.000,0.000,0.000,0.000,0.000,0.000,0.000,0.000,0.000,3.142,6.283,0.000,1.003,1.569,1.569,4.085,6.281,1.199,4.712,0.000,0.000,-2.582,-8.961,0.990,0.574,4.706,4.708,5.281,4.711,4.712,2.198,6.282,5.083,1.570,0.000,0.000,-2.938,-8.410,0.990,0.574,4.707,4.709,
42.620,155.798,-2.266,-8.365,3.715,0.000,6.269,1.139,2.155,0.892,1.301,0.000,3.437,4.942,2.789,0.000,0.985,0.000,2.931,0.000,0.000,0.000,0.000,0.000,0.000,0.000,0.000,0.000,0.000,0.000,3.142,6.283,0.000,1.003,1.569,1.569,4.085,6.281,1.199,4.712,0.000,0.000,-2.582,-8.961,0.990,0.574,4.706,4.708,5.281,4.711,4.712,2.198,6.282,5.083,1.570,0.000,0.000,-2.938,-8.410,0.990,0.574,4.707,4.709,
42.718,155.896,-2.266,-8.365,3.715,0.000,6.269,1.139,2.155,0.892,1.301,0.000,3.437,4.942,2.789,0.000,0.985,0.000,2.931,0.000,0.000,0.000,0.000,0.000,0.000,0.000,0.000,0.000,0.000,0.000,3.142,6.283,0.000,1.003,1.569,1.569,4.085,6.281,1.199,4.712,0.000,0.000,-2.582,-8.961,0.990,0.574,4.706,4.708,5.281,4.711,4.712,2.198,6.282,5.083,1.570,0.000,0.000,-2.938,-8.410,0.990,0.574,4.707,4.709,
42.820,155.998,-2.266,-8.365,3.715,0.000,6.269,1.139,2.155,0.892,1.301,0.000,3.437,4.942,2.789,0.000,0.985,0.000,2.931,0.000,0.000,0.000,0.000,0.000,0.000,0.000,0.000,0.000,0.000,0.000,3.142,6.283,0.000,1.003,1.569,1.569,4.085,6.281,1.199,4.712,0.000,0.000,-2.582,-8.961,0.990,0.574,4.706,4.708,5.281,4.711,4.712,2.198,6.282,5.083,1.570,0.000,0.000,-2.938,-8.410,0.990,0.574,4.707,4.709,
42.920,156.098,-2.266,-8.365,3.715,0.000,6.269,1.139,2.155,0.892,1.301,0.000,3.437,4.942,2.789,0.000,0.985,0.000,2.931,0.000,0.000,0.000,0.000,0.000,0.000,0.000,0.000,0.000,0.000,0.000,3.142,6.283,0.000,1.003,1.569,1.569,4.085,6.281,1.199,4.712,0.000,0.000,-2.582,-8.961,0.990,0.574,4.706,4.708,5.281,4.711,4.712,2.198,6.282,5.083,1.570,0.000,0.000,-2.938,-8.410,0.990,0.574,4.707,4.709,
43.012,156.190,-2.266,-8.365,3.715,0.000,6.269,1.139,2.155,0.892,1.301,0.000,3.437,4.942,2.789,0.000,0.985,0.000,2.931,0.000,0.000,0.000,0.000,0.000,0.000,0.000,0.000,0.000,0.000,0.000,3.142,6.283,0.000,1.003,1.569,1.569,4.085,6.281,1.199,4.712,0.000,0.000,-2.582,-8.961,0.990,0.574,4.706,4.708,5.281,4.711,4.712,2.198,6.282,5.083,1.570,0.000,0.000,-2.938,-8.410,0.990,0.574,4.707,4.709,
43.120,156.298,-2.266,-8.365,3.715,0.000,6.269,1.139,2.155,0.892,1.301,0.000,3.437,4.942,2.789,0.000,0.985,0.000,2.931,0.000,0.000,0.000,0.000,0.000,0.000,0.000,0.000,0.000,0.000,0.000,3.142,6.283,0.000,1.003,1.569,1.569,4.085,6.281,1.199,4.712,0.000,0.000,-2.582,-8.961,0.990,0.574,4.706,4.708,5.281,4.711,4.712,2.198,6.282,5.083,1.570,0.000,0.000,-2.938,-8.410,0.990,0.574,4.707,4.709,
43.220,156.398,-2.266,-8.365,3.715,0.000,6.269,1.139,2.155,0.892,1.301,0.000,3.437,4.942,2.789,0.000,0.985,0.000,2.931,0.000,0.000,0.000,0.000,0.000,0.000,0.000,0.000,0.000,0.000,0.000,3.142,6.283,0.000,1.003,1.569,1.569,4.085,6.281,1.199,4.712,0.000,0.000,-2.582,-8.961,0.990,0.574,4.706,4.708,5.281,4.711,4.712,2.198,6.282,5.083,1.570,0.000,0.000,-2.938,-8.410,0.990,0.574,4.707,4.709,
43.320,156.498,-2.266,-8.365,3.715,0.000,6.269,1.139,2.155,0.892,1.301,0.000,3.437,4.942,2.789,0.000,0.985,0.000,2.931,0.000,0.000,0.000,0.000,0.000,0.000,0.000,0.000,0.000,0.000,0.000,3.142,6.283,0.000,1.003,1.569,1.569,4.085,6.281,1.199,4.712,0.000,0.000,-2.582,-8.961,0.990,0.574,4.706,4.708,5.281,4.711,4.712,2.198,6.282,5.083,1.570,0.000,0.000,-2.938,-8.410,0.990,0.574,4.707,4.709,
43.420,156.598,-2.266,-8.365,3.715,0.000,6.269,1.139,2.155,0.892,1.301,0.000,3.437,4.942,2.789,0.000,0.985,0.000,2.931,0.000,0.000,0.000,0.000,0.000,0.000,0.000,0.000,0.000,0.000,0.000,3.142,6.283,0.000,1.003,1.569,1.569,4.085,6.281,1.199,4.712,0.000,0.000,-2.582,-8.961,0.990,0.574,4.706,4.708,5.281,4.711,4.712,2.198,6.282,5.083,1.570,0.000,0.000,-2.938,-8.410,0.990,0.574,4.707,4.709,
43.506,156.684,-2.266,-8.365,3.715,0.000,6.269,1.139,2.155,0.892,1.301,0.000,3.437,4.942,2.789,0.000,0.985,0.000,2.931,0.000,0.000,0.000,0.000,0.000,0.000,0.000,0.000,0.000,0.000,0.000,3.142,6.283,0.000,1.003,1.569,1.569,4.085,6.281,1.199,4.712,0.000,0.000,-2.582,-8.961,0.990,0.574,4.706,4.708,5.281,4.711,4.712,2.198,6.282,5.083,1.570,0.000,0.000,-2.938,-8.410,0.990,0.574,4.707,4.709,
43.620,156.798,-2.266,-8.365,3.715,0.000,6.269,1.139,2.155,0.892,1.301,0.000,3.437,4.942,2.789,0.000,0.985,0.000,2.931,0.000,0.000,0.000,0.000,0.000,0.000,0.000,0.000,0.000,0.000,0.000,3.142,6.283,0.000,1.003,1.569,1.569,4.085,6.281,1.199,4.712,0.000,0.000,-2.582,-8.961,0.990,0.574,4.706,4.708,5.281,4.711,4.712,2.198,6.282,5.083,1.570,0.000,0.000,-2.938,-8.410,0.990,0.574,4.707,4.709,
43.720,156.898,-2.266,-8.365,3.715,0.000,6.269,1.139,2.155,0.892,1.301,0.000,3.437,4.942,2.789,0.000,0.985,0.000,2.931,0.000,0.000,0.000,0.000,0.000,0.000,0.000,0.000,0.000,0.000,0.000,3.142,6.283,0.000,1.003,1.569,1.569,4.085,6.281,1.199,4.712,0.000,0.000,-2.582,-8.961,0.990,0.574,4.706,4.708,5.281,4.711,4.712,2.198,6.282,5.083,1.570,0.000,0.000,-2.938,-8.410,0.990,0.574,4.707,4.709,
43.801,156.979,-2.266,-8.365,3.715,0.000,6.269,1.139,2.155,0.892,1.301,0.000,3.437,4.942,2.789,0.000,0.985,0.000,2.931,0.000,0.000,0.000,0.000,0.000,0.000,0.000,0.000,0.000,0.000,0.000,3.142,6.283,0.000,1.003,1.569,1.569,4.085,6.281,1.199,4.712,0.000,0.000,-2.582,-8.961,0.990,0.574,4.706,4.708,5.281,4.711,4.712,2.198,6.282,5.083,1.570,0.000,0.000,-2.938,-8.410,0.990,0.574,4.707,4.709,
43.920,157.098,-2.266,-8.365,3.715,0.000,6.269,1.139,2.155,0.892,1.301,0.000,3.437,4.942,2.789,0.000,0.985,0.000,2.966,0.000,0.000,0.000,0.000,0.000,0.000,0.000,0.000,0.000,0.000,0.000,3.142,6.283,0.000,1.003,1.569,1.569,4.085,6.281,1.199,4.712,0.000,0.000,-2.582,-8.961,0.990,0.574,4.706,4.708,5.281,4.711,4.712,2.198,6.282,5.083,1.570,0.000,0.000,-2.938,-8.410,0.990,0.574,4.707,4.709,
44.020,157.198,-2.266,-8.365,3.715,0.000,6.269,1.139,2.155,0.892,1.301,0.000,3.437,4.942,2.789,0.000,0.985,0.000,2.966,0.000,0.000,0.000,0.000,0.000,0.000,0.000,0.000,0.000,0.000,0.000,3.142,6.283,0.000,1.003,1.569,1.569,4.085,6.281,1.199,4.712,0.000,0.000,-2.582,-8.961,0.990,0.574,4.706,4.708,5.281,4.711,4.712,2.198,6.282,5.083,1.570,0.000,0.000,-2.938,-8.410,0.990,0.574,4.707,4.709,
44.114,157.293,-2.266,-8.365,3.715,0.000,6.269,1.139,2.155,0.892,1.301,0.000,3.437,4.942,2.789,0.000,0.985,0.000,3.001,0.000,0.000,0.000,0.000,0.000,0.000,0.000,0.000,0.000,0.000,0.000,3.142,6.283,0.000,1.003,1.569,1.569,4.085,6.281,1.199,4.712,0.000,0.000,-2.582,-8.961,0.990,0.574,4.706,4.708,5.281,4.711,4.712,2.198,6.282,5.083,1.570,0.000,0.000,-2.938,-8.410,0.990,0.574,4.707,4.709,
44.220,157.398,-2.266,-8.365,3.715,0.000,6.269,1.139,2.155,0.892,1.301,0.000,3.437,4.942,2.789,0.000,0.985,0.000,3.036,0.000,0.000,0.000,0.000,0.000,0.000,0.000,0.000,0.000,0.000,0.000,3.142,6.283,0.000,1.003,1.569,1.569,4.085,6.281,1.199,4.712,0.000,0.000,-2.582,-8.961,0.990,0.574,4.706,4.708,5.281,4.711,4.712,2.198,6.282,5.083,1.570,0.000,0.000,-2.938,-8.410,0.990,0.574,4.707,4.709,
44.320,157.498,-2.266,-8.365,3.715,0.000,6.269,1.139,2.155,0.892,1.301,0.000,3.437,4.942,2.789,0.000,0.985,0.000,3.071,0.000,0.000,0.000,0.000,0.000,0.000,0.000,0.000,0.000,0.000,0.000,3.142,6.283,0.000,1.003,1.569,1.569,4.085,6.281,1.199,4.712,0.000,0.000,-2.582,-8.961,0.990,0.574,4.706,4.708,5.281,4.711,4.712,2.198,6.282,5.083,1.570,0.000,0.000,-2.938,-8.410,0.990,0.574,4.707,4.709,
44.403,157.582,-2.266,-8.365,3.715,0.000,6.269,1.139,2.155,0.892,1.301,0.000,3.437,4.942,2.789,0.000,0.985,0.000,3.106,0.000,0.000,0.000,0.000,0.000,0.000,0.000,0.000,0.000,0.000,0.000,3.142,6.283,0.000,1.003,1.569,1.569,4.085,6.281,1.199,4.712,0.000,0.000,-2.582,-8.961,0.990,0.574,4.706,4.708,5.281,4.711,4.712,2.198,6.282,5.083,1.570,0.000,0.000,-2.938,-8.410,0.990,0.574,4.707,4.709,
44.520,157.698,-2.266,-8.365,3.715,0.000,6.269,1.139,2.155,0.892,1.301,0.000,0.000,4.942,2.789,0.000,0.985,0.000,3.142,0.000,0.000,0.000,0.000,0.000,1.630,0.000,0.000,0.000,0.000,0.000,2.861,6.283,0.000,1.003,1.569,1.569,4.085,6.281,1.199,4.712,0.000,0.000,-2.582,-8.961,0.990,0.574,4.706,4.708,5.281,4.711,4.712,2.198,6.282,5.083,1.570,0.000,0.000,-2.938,-8.410,0.990,0.574,4.707,4.709,
44.620,157.798,-2.266,-8.365,3.715,0.000,6.269,1.139,2.155,0.892,1.301,0.000,0.000,4.942,2.789,0.000,0.985,0.000,3.142,0.000,0.000,0.000,0.000,0.000,1.487,0.000,0.000,0.000,0.000,0.000,2.896,6.283,0.000,1.003,1.569,1.569,4.085,6.281,1.199,4.712,0.000,0.000,-2.582,-8.961,0.990,0.574,4.706,4.708,5.281,4.711,4.712,2.198,6.282,5.083,1.570,0.000,0.000,-2.938,-8.410,0.990,0.574,4.707,4.709,
44.718,157.896,-2.266,-8.365,3.715,0.000,6.269,1.139,2.155,0.892,1.301,0.000,0.000,4.942,2.789,0.000,0.985,0.000,3.142,0.000,0.000,0.000,0.000,0.000,1.339,0.000,0.000,0.000,0.000,0.000,2.931,6.283,0.000,1.003,1.569,1.569,4.085,6.281,1.199,4.712,0.000,0.000,-2.582,-8.961,0.990,0.574,4.706,4.708,5.281,4.711,4.712,2.198,6.282,5.083,1.570,0.000,0.000,-2.938,-8.410,0.990,0.574,4.707,4.709,
44.820,157.998,-2.266,-8.365,3.715,0.000,6.269,1.139,2.155,0.892,1.301,0.000,0.000,4.942,2.789,0.000,0.985,0.000,3.142,0.000,0.000,0.000,0.000,0.000,1.207,0.000,0.000,0.000,0.000,0.000,2.966,6.283,0.000,1.003,1.569,1.569,4.085,6.281,1.199,4.712,0.000,0.000,-2.582,-8.961,0.990,0.574,4.706,4.708,5.281,4.711,4.712,2.198,6.282,5.083,1.570,0.000,0.000,-2.938,-8.410,0.990,0.574,4.707,4.709,
44.903,158.081,-2.266,-8.365,3.715,0.000,6.269,1.139,2.155,0.892,1.301,0.000,0.000,4.942,2.789,0.000,0.985,0.000,3.142,0.000,0.000,0.000,0.000,0.000,1.165,0.000,0.000,0.000,0.000,0.000,3.001,6.283,0.000,1.003,1.569,1.569,4.085,6.281,1.199,4.712,0.000,0.000,-2.582,-8.961,0.990,0.574,4.706,4.708,5.281,4.711,4.712,2.198,6.282,5.083,1.570,0.000,0.000,-2.938,-8.410,0.990,0.574,4.707,4.709,
45.018,158.196,-2.266,-8.365,3.715,0.000,6.269,1.139,2.155,0.892,1.301,0.000,0.000,4.942,2.789,0.000,0.985,0.000,3.142,0.000,0.000,0.000,0.000,0.000,1.101,0.000,0.000,0.000,0.000,0.000,3.071,6.283,0.000,1.003,1.569,1.569,4.085,6.281,1.199,4.712,0.000,0.000,-2.582,-8.961,0.990,0.574,4.706,4.708,5.281,4.711,4.712,2.198,6.282,5.083,1.570,0.000,0.000,-2.938,-8.410,0.990,0.574,4.707,4.709,
45.120,158.298,-2.266,-8.365,3.715,0.000,6.269,1.139,2.155,0.892,1.301,0.000,3.437,4.942,2.789,0.000,0.985,0.000,2.931,0.000,0.000,0.000,0.000,0.000,0.000,0.000,0.000,0.000,0.000,0.000,3.142,6.283,0.000,1.003,1.569,1.569,4.085,6.281,1.199,4.712,0.000,0.000,-2.582,-8.961,0.990,0.574,4.706,4.708,5.281,4.711,4.712,2.198,6.282,5.083,1.570,0.000,0.000,-2.938,-8.410,0.990,0.574,4.707,4.709,
45.203,158.381,-2.266,-8.365,3.715,0.000,6.269,1.139,2.155,0.892,1.301,0.000,3.437,4.942,2.789,0.000,0.985,0.000,2.931,0.000,0.000,0.000,0.000,0.000,0.000,0.000,0.000,0.000,0.000,0.000,3.142,6.283,0.000,1.003,1.569,1.569,4.085,6.281,1.199,4.712,0.000,0.000,-2.582,-8.961,0.990,0.574,4.706,4.708,5.281,4.711,4.712,2.198,6.282,5.083,1.570,0.000,0.000,-2.938,-8.410,0.990,0.574,4.707,4.709,
45.320,158.498,-2.266,-8.365,3.715,0.000,6.269,1.139,2.155,0.892,1.301,0.000,3.437,0.000,2.789,0.000,0.985,0.000,2.931,0.000,0.000,0.000,0.000,0.000,0.000,0.936,0.000,0.000,0.000,0.000,3.142,6.283,0.000,1.003,1.569,1.569,4.085,6.281,1.199,4.712,0.000,0.000,-2.582,-8.961,0.99