deveshdatwani/Gopher/Assets/Data/07-21 00-32-29/Obstacle Handling_robot_value.csv
game_time,true_time,x,y,az,vx,vaz,dis_to_obs_0,dis_to_obs_36,dis_to_obs_72,dis_to_obs_108,dis_to_obs_144,dis_to_obs_180,dis_to_obs_-144,dis_to_obs_-108,dis_to_obs_-72,dis_to_obs_-36,dis_to_min_obs,direction_to_min_obs,dis_to_human_0,dis_to_human_36,dis_to_human_72,dis_to_human_108,dis_to_human_144,dis_to_human_180,dis_to_human_-144,dis_to_human_-108,dis_to_human_-72,dis_to_human_-36,dis_to_min_human,direction_to_min_human,main_cam_yaw,main_cam_pitch,left_joint_1,left_joint_2,left_joint_3,left_joint_4,left_joint_5,left_joint_6,left_joint_7,left_joint_gripper,left_is_grasping,left_end_x,left_end_y,left_end_z,left_end_ax,left_end_ay,left_end_az,right_joint_1,right_joint_2,right_joint_3,right_joint_4,right_joint_5,right_joint_6,right_joint_7,right_joint_gripper,right_is_grasping,right_end_x,right_end_y,right_end_z,right_end_ax,right_end_ay,right_end_az,
8.060,14.183,0.997,-10.061,1.576,0.846,6.264,3.562,0.000,1.930,1.257,2.119,4.851,3.263,2.098,1.696,4.342,0.000,2.861,0.000,0.000,0.000,0.000,0.000,0.000,0.000,0.000,0.000,0.000,0.000,3.142,0.001,0.001,1.002,1.570,1.570,4.088,6.281,1.200,4.712,0.000,0.000,0.666,-9.473,0.990,4.720,3.686,5.738,5.281,4.712,4.712,2.198,6.282,5.083,1.570,0.000,0.000,1.322,-9.470,0.990,4.719,3.879,5.545,
8.180,14.303,0.997,-9.980,1.576,0.889,6.265,3.481,0.000,2.047,1.257,2.120,4.932,3.366,2.098,1.697,4.241,0.000,2.966,0.000,0.000,0.000,0.000,0.000,0.000,0.000,0.000,0.000,0.000,0.000,3.142,6.282,0.000,1.004,1.569,1.568,4.083,6.281,1.199,4.712,0.000,0.000,0.664,-9.393,0.990,4.720,4.199,5.225,5.281,4.711,4.711,2.198,6.282,5.083,1.570,0.000,0.000,1.320,-9.388,0.990,4.721,4.132,5.292,
8.280,14.403,0.996,-9.881,1.577,1.100,6.265,3.382,0.000,1.732,1.256,2.120,0.000,3.365,2.098,1.698,4.120,0.000,3.142,0.000,0.000,0.000,0.000,0.000,0.000,0.000,0.000,0.000,0.000,0.000,3.142,6.282,0.000,1.004,1.569,1.568,4.083,6.281,1.199,4.712,0.000,0.000,0.663,-9.294,0.990,4.721,4.212,5.212,5.281,4.711,4.711,2.198,6.282,5.083,1.570,0.000,0.000,1.319,-9.289,0.990,4.721,4.156,5.268,
8.377,14.500,0.995,-9.793,1.577,1.095,6.265,3.294,0.000,1.687,1.256,2.120,0.000,3.365,2.099,1.699,3.474,0.000,3.142,0.000,0.000,0.000,0.000,0.000,0.000,0.000,0.000,0.000,0.000,0.000,3.142,6.283,0.000,1.003,1.569,1.569,4.085,6.281,1.199,4.712,0.000,0.000,0.663,-9.206,0.990,4.721,4.051,5.372,5.281,4.711,4.711,2.198,6.282,5.083,1.570,0.000,0.000,1.319,-9.202,0.990,4.720,4.110,5.314,
8.480,14.603,0.995,-9.672,1.578,0.965,6.266,3.173,0.000,1.624,1.324,2.120,0.000,3.363,2.099,0.000,3.330,0.000,3.142,0.000,0.000,0.000,0.000,0.000,0.000,0.000,0.000,0.000,0.000,0.000,3.142,6.283,0.000,1.003,1.569,1.569,4.086,6.281,1.199,4.712,0.000,0.000,0.662,-9.085,0.990,4.721,4.076,5.348,5.281,4.711,4.711,2.198,6.282,5.083,1.570,0.000,0.000,1.318,-9.081,0.990,4.721,4.140,5.284,
8.572,14.695,0.994,-9.597,1.578,0.970,6.265,3.098,0.000,1.585,1.382,2.121,0.000,3.363,2.100,0.000,3.770,0.000,3.142,0.000,0.000,0.000,0.000,0.000,0.000,0.000,0.000,0.000,0.000,0.000,3.142,6.282,0.000,1.004,1.569,1.569,4.085,6.281,1.199,4.712,0.000,0.000,0.661,-9.010,0.990,4.722,4.185,5.239,5.281,4.711,4.711,2.198,6.282,5.083,1.570,0.000,0.000,1.317,-9.005,0.990,4.722,4.194,5.230,
8.680,14.803,0.993,-9.478,1.579,1.036,6.265,2.979,0.000,1.523,1.474,2.120,0.000,3.362,2.100,0.000,3.624,0.000,3.142,0.000,0.000,0.000,0.000,0.000,0.000,0.000,0.000,0.000,0.000,0.000,3.142,6.282,0.000,1.004,1.569,1.569,4.085,6.281,1.199,4.712,0.000,0.000,0.660,-8.892,0.990,4.722,4.216,5.208,5.281,4.711,4.711,2.198,6.282,5.083,1.570,0.000,0.000,1.316,-8.886,0.990,4.722,4.221,5.203,
8.768,14.891,0.992,-9.396,1.579,1.033,6.265,2.897,0.000,1.480,1.537,2.120,0.000,3.362,2.101,0.000,3.524,0.000,3.142,0.000,0.000,0.000,0.000,0.000,0.000,0.000,0.000,0.000,0.000,0.000,3.142,6.282,0.000,1.004,1.569,1.569,4.085,6.281,1.199,4.712,0.000,0.000,0.659,-8.810,0.990,4.722,4.192,5.232,5.281,4.711,4.711,2.198,6.282,5.083,1.570,0.000,0.000,1.315,-8.804,0.990,4.722,4.223,5.201,
8.880,15.003,0.991,-9.277,1.579,0.998,6.266,2.778,3.133,1.897,1.629,2.120,0.000,3.361,2.101,0.000,3.378,0.000,3.142,0.000,0.000,0.000,0.000,0.000,0.000,0.000,0.000,0.000,0.000,0.000,3.142,6.282,0.000,1.004,1.569,1.569,4.085,6.281,1.199,4.712,0.000,0.000,0.658,-8.691,0.990,4.723,4.214,5.209,5.281,4.711,4.711,2.198,6.282,5.083,1.570,0.000,0.000,1.314,-8.685,0.990,4.723,4.244,5.180,
8.980,15.103,0.991,-9.179,1.580,1.005,6.265,2.680,3.010,0.000,1.704,2.120,0.000,3.361,2.102,0.000,3.257,0.000,3.142,0.000,0.000,0.000,0.000,0.000,0.000,0.000,0.000,0.000,0.000,0.000,3.142,6.282,0.000,1.004,1.569,1.569,4.085,6.281,1.199,4.712,0.000,0.000,0.656,-8.593,0.990,4.723,4.255,5.169,5.281,4.711,4.711,2.198,6.282,5.083,1.570,0.000,0.000,1.312,-8.586,0.990,4.723,4.269,5.155,
9.075,15.198,0.990,-9.113,1.580,0.583,6.265,2.614,2.928,0.000,1.755,2.120,0.000,3.360,1.686,0.000,3.177,0.000,3.142,0.000,0.000,0.000,0.000,0.000,0.000,0.000,0.000,0.000,0.000,0.000,3.142,0.002,0.001,1.001,1.571,1.572,4.090,6.281,1.200,4.712,0.000,0.000,0.658,-8.525,0.989,4.722,3.810,5.614,5.281,4.712,4.714,2.198,6.282,5.083,1.570,0.000,0.000,1.313,-8.521,0.990,4.721,4.102,5.322,
9.180,15.303,0.990,-9.074,1.581,0.158,6.265,2.575,2.880,0.000,1.784,2.121,0.000,3.358,1.686,0.000,3.128,0.000,3.142,0.000,0.000,0.000,0.000,0.000,0.000,0.000,0.000,0.000,0.000,0.000,3.142,0.000,0.001,1.002,1.570,1.570,4.087,6.281,1.200,4.712,0.000,0.000,0.655,-8.488,0.990,4.723,4.136,5.288,5.281,4.712,4.712,2.198,6.282,5.083,1.570,0.000,0.000,1.311,-8.482,0.990,4.723,4.257,5.167,
9.269,15.391,0.990,-9.068,1.581,0.010,6.269,2.569,2.874,0.000,1.788,2.123,0.000,3.356,1.686,0.000,3.120,0.000,3.142,0.000,0.000,0.000,0.000,0.000,0.000,0.000,0.000,0.000,0.000,0.000,3.142,6.283,0.001,1.003,1.569,1.569,4.086,6.281,1.199,4.712,0.000,0.000,0.655,-8.482,0.990,4.724,4.233,5.191,5.281,4.711,4.712,2.198,6.282,5.083,1.570,0.000,0.000,1.311,-8.476,0.990,4.724,4.298,5.127,
9.380,15.503,0.990,-9.068,1.581,0.000,6.271,2.569,2.874,0.000,1.788,2.123,0.000,3.355,1.686,0.000,3.120,0.000,3.142,0.000,0.000,0.000,0.000,0.000,0.000,0.000,0.000,0.000,0.000,0.000,3.142,6.283,0.000,1.003,1.569,1.569,4.085,6.281,1.199,4.712,0.000,0.000,0.655,-8.483,0.990,4.724,4.272,5.152,5.281,4.711,4.712,2.198,6.282,5.083,1.570,0.000,0.000,1.311,-8.476,0.990,4.724,4.328,5.096,
9.480,15.603,0.990,-9.068,1.581,0.000,6.271,2.569,2.874,0.000,1.788,2.123,0.000,3.355,1.686,0.000,3.120,0.000,3.142,0.000,0.000,0.000,0.000,0.000,0.000,0.000,0.000,0.000,0.000,0.000,3.142,6.283,0.000,1.003,1.569,1.569,4.085,6.281,1.199,4.712,0.000,0.000,0.655,-8.483,0.990,4.724,4.272,5.152,5.281,4.711,4.712,2.198,6.282,5.083,1.570,0.000,0.000,1.311,-8.476,0.990,4.724,4.328,5.096,
9.580,15.703,0.990,-9.068,1.581,0.000,6.271,2.569,2.874,0.000,1.788,2.123,0.000,3.355,1.686,0.000,3.120,0.000,3.142,0.000,0.000,0.000,0.000,0.000,0.000,0.000,0.000,0.000,0.000,0.000,3.142,6.283,0.000,1.003,1.569,1.569,4.085,6.281,1.199,4.712,0.000,0.000,0.655,-8.483,0.990,4.724,4.272,5.152,5.281,4.711,4.712,2.198,6.282,5.083,1.570,0.000,0.000,1.311,-8.476,0.990,4.724,4.328,5.096,
9.678,15.801,0.990,-9.068,1.581,0.000,6.271,2.569,2.874,0.000,1.788,2.123,0.000,3.355,1.686,0.000,3.120,0.000,3.142,0.000,0.000,0.000,0.000,0.000,0.000,0.000,0.000,0.000,0.000,0.000,3.142,6.283,0.000,1.003,1.569,1.569,4.085,6.281,1.199,4.712,0.000,0.000,0.655,-8.483,0.990,4.724,4.272,5.152,5.281,4.711,4.712,2.198,6.282,5.083,1.570,0.000,0.000,1.311,-8.476,0.990,4.724,4.328,5.096,
9.780,15.903,0.990,-9.068,1.581,0.000,6.271,2.569,2.874,0.000,1.788,2.123,0.000,3.355,1.686,0.000,3.120,0.000,3.142,0.000,0.000,0.000,0.000,0.000,0.000,0.000,0.000,0.000,0.000,0.000,3.142,6.283,0.000,1.003,1.569,1.569,4.085,6.281,1.199,4.712,0.000,0.000,0.655,-8.483,0.990,4.724,4.272,5.152,5.281,4.711,4.712,2.198,6.282,5.083,1.570,0.000,0.000,1.311,-8.476,0.990,4.724,4.328,5.096,
9.880,16.003,0.990,-9.068,1.581,0.000,6.271,2.569,2.874,0.000,1.788,2.123,0.000,3.355,1.686,0.000,3.120,0.000,3.142,0.000,0.000,0.000,0.000,0.000,0.000,0.000,0.000,0.000,0.000,0.000,3.142,6.283,0.000,1.003,1.569,1.569,4.085,6.281,1.199,4.712,0.000,0.000,0.655,-8.483,0.990,4.724,4.272,5.152,5.281,4.711,4.712,2.198,6.282,5.083,1.570,0.000,0.000,1.311,-8.476,0.990,4.724,4.328,5.096,
9.960,16.083,0.990,-9.068,1.581,0.000,6.271,2.569,2.874,0.000,1.788,2.123,0.000,3.355,1.686,0.000,3.120,0.000,3.142,0.000,0.000,0.000,0.000,0.000,0.000,0.000,0.000,0.000,0.000,0.000,3.142,6.283,0.000,1.003,1.569,1.569,4.085,6.281,1.199,4.712,0.000,0.000,0.655,-8.483,0.990,4.724,4.272,5.152,5.281,4.711,4.712,2.198,6.282,5.083,1.570,0.000,0.000,1.311,-8.476,0.990,4.724,4.328,5.096,
10.080,16.203,0.990,-9.068,1.581,0.000,6.271,2.569,2.874,0.000,1.788,2.123,0.000,3.355,1.686,0.000,3.120,0.000,3.142,0.000,0.000,0.000,0.000,0.000,0.000,0.000,0.000,0.000,0.000,0.000,3.142,6.283,0.000,1.003,1.569,1.569,4.085,6.281,1.199,4.712,0.000,0.000,0.655,-8.483,0.990,4.724,4.272,5.152,5.281,4.711,4.712,2.198,6.282,5.083,1.570,0.000,0.000,1.311,-8.476,0.990,4.724,4.328,5.096,
10.180,16.303,0.990,-9.068,1.581,0.000,6.271,2.569,2.874,0.000,1.788,2.123,0.000,3.355,1.686,0.000,3.120,0.000,3.142,0.000,0.000,0.000,0.000,0.000,0.000,0.000,0.000,0.000,0.000,0.000,3.142,6.283,0.000,1.003,1.569,1.569,4.085,6.281,1.199,4.712,0.000,0.000,0.655,-8.483,0.990,4.724,4.272,5.152,5.281,4.711,4.712,2.198,6.282,5.083,1.570,0.000,0.000,1.311,-8.476,0.990,4.724,4.328,5.096,
10.280,16.403,0.990,-9.068,1.581,0.000,6.271,2.569,2.874,0.000,1.788,2.123,0.000,3.355,1.686,0.000,3.120,0.000,3.142,0.000,0.000,0.000,0.000,0.000,0.000,0.000,0.000,0.000,0.000,0.000,3.142,6.283,0.000,1.003,1.569,1.569,4.085,6.281,1.199,4.712,0.000,0.000,0.655,-8.483,0.990,4.724,4.272,5.152,5.281,4.711,4.712,2.198,6.282,5.083,1.570,0.000,0.000,1.311,-8.476,0.990,4.724,4.328,5.096,
10.374,16.496,0.990,-9.068,1.581,0.000,6.271,2.569,2.874,0.000,1.788,2.123,0.000,3.355,1.686,0.000,3.120,0.000,3.142,0.000,0.000,0.000,0.000,0.000,0.000,0.000,0.000,0.000,0.000,0.000,3.142,6.283,0.000,1.003,1.569,1.569,4.085,6.281,1.199,4.712,0.000,0.000,0.655,-8.483,0.990,4.724,4.272,5.152,5.281,4.711,4.712,2.198,6.282,5.083,1.570,0.000,0.000,1.311,-8.476,0.990,4.724,4.328,5.096,
10.480,16.603,0.990,-9.068,1.581,0.000,6.271,2.569,2.874,0.000,1.788,2.123,0.000,3.355,1.686,0.000,3.120,0.000,3.142,0.000,0.000,0.000,0.000,0.000,0.000,0.000,0.000,0.000,0.000,0.000,3.142,6.283,0.000,1.003,1.569,1.569,4.085,6.281,1.199,4.712,0.000,0.000,0.655,-8.483,0.990,4.724,4.272,5.152,5.281,4.711,4.712,2.198,6.282,5.083,1.570,0.000,0.000,1.311,-8.476,0.990,4.724,4.328,5.096,
10.580,16.703,0.990,-9.068,1.581,0.000,6.271,2.569,2.874,0.000,1.788,2.123,0.000,3.355,1.686,0.000,3.120,0.000,3.142,0.000,0.000,0.000,0.000,0.000,0.000,0.000,0.000,0.000,0.000,0.000,3.142,6.283,0.000,1.003,1.569,1.569,4.085,6.281,1.199,4.712,0.000,0.000,0.655,-8.483,0.990,4.724,4.272,5.152,5.281,4.711,4.712,2.198,6.282,5.083,1.570,0.000,0.000,1.311,-8.476,0.990,4.724,4.328,5.096,
10.671,16.794,0.990,-9.068,1.581,0.000,6.271,2.569,2.874,0.000,1.788,2.123,0.000,3.355,1.686,0.000,3.120,0.000,3.142,0.000,0.000,0.000,0.000,0.000,0.000,0.000,0.000,0.000,0.000,0.000,3.142,6.283,0.000,1.003,1.569,1.569,4.085,6.281,1.199,4.712,0.000,0.000,0.655,-8.483,0.990,4.724,4.272,5.152,5.281,4.711,4.712,2.198,6.282,5.083,1.570,0.000,0.000,1.311,-8.476,0.990,4.724,4.328,5.096,
10.780,16.903,0.990,-9.068,1.581,0.000,6.271,2.569,2.874,0.000,1.788,2.123,0.000,3.355,1.686,0.000,3.120,0.000,3.142,0.000,0.000,0.000,0.000,0.000,0.000,0.000,0.000,0.000,0.000,0.000,3.142,6.283,0.000,1.003,1.569,1.569,4.085,6.281,1.199,4.712,0.000,0.000,0.655,-8.483,0.990,4.724,4.272,5.152,5.281,4.711,4.712,2.198,6.282,5.083,1.570,0.000,0.000,1.311,-8.476,0.990,4.724,4.328,5.096,
10.880,17.003,0.990,-9.068,1.581,0.000,6.271,2.569,2.874,0.000,1.788,2.123,0.000,3.355,1.686,0.000,3.120,0.000,3.142,0.000,0.000,0.000,0.000,0.000,0.000,0.000,0.000,0.000,0.000,0.000,3.142,6.283,0.000,1.003,1.569,1.569,4.085,6.281,1.199,4.712,0.000,0.000,0.655,-8.483,0.990,4.724,4.272,5.152,5.281,4.711,4.712,2.198,6.282,5.083,1.570,0.000,0.000,1.311,-8.476,0.990,4.724,4.328,5.096,
10.971,17.094,0.990,-9.068,1.581,0.000,6.271,2.569,2.874,0.000,1.788,2.123,0.000,3.355,1.686,0.000,3.120,0.000,3.142,0.000,0.000,0.000,0.000,0.000,0.000,0.000,0.000,0.000,0.000,0.000,3.142,6.283,0.000,1.003,1.569,1.569,4.085,6.281,1.199,4.712,0.000,0.000,0.655,-8.483,0.990,4.724,4.272,5.152,5.281,4.711,4.712,2.198,6.282,5.083,1.570,0.000,0.000,1.311,-8.476,0.990,4.724,4.328,5.096,
11.080,17.203,0.990,-9.068,1.581,0.000,6.271,2.569,2.874,0.000,1.788,2.123,0.000,3.355,1.686,0.000,3.120,0.000,3.142,0.000,0.000,0.000,0.000,0.000,0.000,0.000,0.000,0.000,0.000,0.000,3.142,6.283,0.000,1.003,1.569,1.569,4.085,6.281,1.199,4.712,0.000,0.000,0.655,-8.483,0.990,4.724,4.272,5.152,5.281,4.711,4.712,2.198,6.282,5.083,1.570,0.000,0.000,1.311,-8.476,0.990,4.724,4.328,5.096,
11.180,17.303,0.990,-9.068,1.581,0.000,6.271,2.569,2.874,0.000,1.788,2.123,0.000,3.355,1.686,0.000,3.120,0.000,3.142,0.000,0.000,0.000,0.000,0.000,0.000,0.000,0.000,0.000,0.000,0.000,3.142,6.283,0.000,1.003,1.569,1.569,4.085,6.281,1.199,4.712,0.000,0.000,0.655,-8.483,0.990,4.724,4.272,5.152,5.281,4.711,4.712,2.198,6.282,5.083,1.570,0.000,0.000,1.311,-8.476,0.990,4.724,4.328,5.096,
11.263,17.386,0.990,-9.068,1.581,0.000,6.271,2.569,2.874,0.000,1.788,2.123,0.000,3.355,1.686,0.000,3.120,0.000,3.142,0.000,0.000,0.000,0.000,0.000,0.000,0.000,0.000,0.000,0.000,0.000,3.142,6.283,0.000,1.003,1.569,1.569,4.085,6.281,1.199,4.712,0.000,0.000,0.655,-8.483,0.990,4.724,4.272,5.152,5.281,4.711,4.712,2.198,6.282,5.083,1.570,0.000,0.000,1.311,-8.476,0.990,4.724,4.328,5.096,
11.371,17.494,0.990,-9.068,1.581,0.000,6.271,2.569,2.874,0.000,1.788,2.123,0.000,3.355,1.686,0.000,3.120,0.000,3.142,0.000,0.000,0.000,0.000,0.000,0.000,0.000,0.000,0.000,0.000,0.000,3.142,6.283,0.000,1.003,1.569,1.569,4.085,6.281,1.199,4.712,0.000,0.000,0.655,-8.483,0.990,4.724,4.272,5.152,5.281,4.711,4.712,2.198,6.282,5.083,1.570,0.000,0.000,1.311,-8.476,0.990,4.724,4.328,5.096,
11.480,17.603,0.990,-9.068,1.581,0.000,6.271,2.569,2.874,0.000,1.788,2.123,0.000,3.355,1.686,0.000,3.120,0.000,3.142,0.000,0.000,0.000,0.000,0.000,0.000,0.000,0.000,0.000,0.000,0.000,3.142,6.283,0.000,1.003,1.569,1.569,4.085,6.281,1.199,4.712,0.000,0.000,0.655,-8.483,0.990,4.724,4.272,5.152,5.281,4.711,4.712,2.198,6.282,5.083,1.570,0.000,0.000,1.311,-8.476,0.990,4.724,4.328,5.096,
11.580,17.703,0.990,-9.068,1.581,0.000,6.271,2.569,2.874,0.000,1.788,2.123,0.000,3.355,1.686,0.000,3.120,0.000,3.142,0.000,0.000,0.000,0.000,0.000,0.000,0.000,0.000,0.000,0.000,0.000,3.142,6.283,0.000,1.003,1.569,1.569,4.085,6.281,1.199,4.712,0.000,0.000,0.655,-8.483,0.990,4.724,4.272,5.152,5.281,4.711,4.712,2.198,6.282,5.083,1.570,0.000,0.000,1.311,-8.476,0.990,4.724,4.328,5.096,
11.675,17.798,0.990,-9.068,1.581,0.000,6.271,2.569,2.874,0.000,1.788,2.123,0.000,3.355,1.686,0.000,3.120,0.000,3.142,0.000,0.000,0.000,0.000,0.000,0.000,0.000,0.000,0.000,0.000,0.000,3.142,6.283,0.000,1.003,1.569,1.569,4.085,6.281,1.199,4.712,0.000,0.000,0.655,-8.483,0.990,4.724,4.272,5.152,5.281,4.711,4.712,2.198,6.282,5.083,1.570,0.000,0.000,1.311,-8.476,0.990,4.724,4.328,5.096,
11.780,17.903,0.990,-9.068,1.581,0.000,6.271,2.569,2.874,0.000,1.788,2.123,0.000,3.355,1.686,0.000,3.120,0.000,3.142,0.000,0.000,0.000,0.000,0.000,0.000,0.000,0.000,0.000,0.000,0.000,3.142,6.283,0.000,1.003,1.569,1.569,4.085,6.281,1.199,4.712,0.000,0.000,0.655,-8.483,0.990,4.724,4.272,5.152,5.281,4.711,4.712,2.198,6.282,5.083,1.570,0.000,0.000,1.311,-8.476,0.990,4.724,4.328,5.096,
11.880,18.003,0.990,-9.068,1.581,0.000,6.271,2.569,2.874,0.000,1.788,2.123,0.000,3.355,1.686,0.000,3.120,0.000,3.142,0.000,0.000,0.000,0.000,0.000,0.000,0.000,0.000,0.000,0.000,0.000,3.142,6.283,0.000,1.003,1.569,1.569,4.085,6.281,1.199,4.712,0.000,0.000,0.655,-8.483,0.990,4.724,4.272,5.152,5.281,4.711,4.712,2.198,6.282,5.083,1.570,0.000,0.000,1.311,-8.476,0.990,4.724,4.328,5.096,
11.980,18.103,0.990,-9.068,1.585,0.000,0.274,2.570,2.881,0.000,1.785,2.134,0.000,3.340,1.684,0.000,3.112,0.000,3.142,0.000,0.000,0.000,0.000,0.000,0.000,0.000,0.000,0.000,0.000,0.000,3.142,0.001,0.000,1.002,1.570,1.571,4.087,6.281,1.200,4.712,0.000,0.000,0.654,-8.483,0.990,4.725,4.285,5.139,5.280,4.712,4.713,2.199,6.281,5.083,1.570,0.000,0.000,1.310,-8.475,0.991,4.725,4.429,4.995,
12.080,18.203,0.990,-9.069,1.632,-0.006,1.166,2.577,2.996,0.000,1.749,2.303,0.000,3.145,1.662,0.000,3.018,0.000,3.142,0.000,0.000,0.000,0.000,0.000,0.000,0.000,0.000,0.000,0.000,0.000,3.142,0.002,0.000,1.002,1.571,1.573,4.087,6.281,1.199,4.712,0.000,0.000,0.628,-8.500,0.990,4.770,4.621,4.803,5.281,4.713,4.715,2.199,6.281,5.083,1.571,0.000,0.000,1.282,-8.461,0.991,4.770,4.666,4.759,
12.180,18.303,0.990,-9.069,1.791,0.008,1.596,2.643,0.000,1.448,1.664,3.194,0.000,2.671,1.618,4.244,2.782,0.000,3.142,0.000,0.000,0.000,0.000,0.000,0.000,0.000,0.000,0.000,0.000,0.000,3.142,0.002,0.000,1.003,1.570,1.569,4.086,6.281,1.199,4.712,0.000,0.000,0.540,-8.565,0.990,4.933,4.691,4.732,5.282,4.712,4.712,2.199,6.282,5.083,1.570,0.000,0.000,1.181,-8.422,0.991,4.932,4.700,4.724,
12.261,18.384,0.989,-9.067,1.909,0.018,1.149,2.738,4.780,1.510,1.633,4.588,3.920,2.438,2.012,4.172,2.668,0.000,3.071,0.000,0.000,0.000,0.000,0.000,0.000,0.000,0.000,0.000,0.000,0.000,3.142,0.002,0.000,1.003,1.569,1.568,4.086,6.281,1.199,4.712,0.000,0.000,0.483,-8.620,0.990,5.052,4.698,4.724,5.281,4.712,4.711,2.199,6.282,5.083,1.570,0.000,0.000,1.102,-8.403,0.991,5.051,4.703,4.720,
12.380,18.503,0.988,-9.065,1.996,0.004,0.963,2.840,0.000,1.605,1.625,0.000,3.973,2.309,0.000,3.762,2.612,0.000,2.966,0.000,0.000,0.000,0.000,0.000,0.000,0.000,0.000,0.000,0.000,0.000,3.142,0.002,0.000,1.003,1.569,1.570,4.086,6.281,1.199,4.712,0.000,0.000,0.446,-8.664,0.990,5.138,4.700,4.723,5.281,4.712,4.712,2.199,6.282,5.083,1.570,0.000,0.000,1.044,-8.394,0.991,5.137,4.705,4.719,
12.479,18.602,0.989,-9.067,2.075,-0.026,1.001,2.961,0.000,1.930,1.772,0.000,4.160,2.217,0.000,2.882,2.138,0.000,2.896,0.000,0.000,0.000,0.000,0.000,0.000,0.000,0.000,0.000,0.000,0.000,3.142,0.002,0.000,1.003,1.570,1.570,4.086,6.281,1.199,4.712,0.000,0.000,0.417,-8.709,0.990,5.216,4.702,4.721,5.281,4.712,4.712,2.199,6.282,5.083,1.570,0.000,0.000,0.992,-8.393,0.991,5.216,4.706,4.717,
12.580,18.703,0.989,-9.067,2.167,0.006,1.168,2.776,0.000,1.830,1.988,0.000,3.578,1.712,0.000,3.223,2.568,0.000,2.826,0.000,0.000,0.000,0.000,0.000,0.000,0.000,0.000,0.000,0.000,0.000,3.142,0.002,0.000,1.003,1.570,1.570,4.086,6.281,1.199,4.712,0.000,0.000,0.387,-8.764,0.990,5.308,4.704,4.718,5.281,4.712,4.712,2.199,6.282,5.083,1.570,0.000,0.000,0.930,-8.396,0.991,5.308,4.707,4.716,
12.673,18.795,0.989,-9.067,2.256,0.007,0.569,2.974,0.000,1.756,2.272,0.000,3.176,1.666,0.000,3.030,2.573,0.000,2.720,0.000,0.000,0.000,0.000,0.000,0.000,0.000,0.000,0.000,0.000,0.000,3.142,0.001,0.000,1.003,1.568,1.566,4.085,6.282,1.199,4.711,0.000,0.000,0.360,-8.820,0.990,5.402,4.705,4.716,5.281,4.711,4.709,2.199,6.283,5.083,1.570,0.000,0.000,0.868,-8.404,0.991,5.401,4.707,4.715,
12.780,18.903,0.989,-9.066,2.265,0.000,6.272,2.997,0.000,1.749,2.306,0.000,3.142,1.662,0.000,3.013,2.575,0.000,2.720,0.000,0.000,0.000,0.000,0.000,0.000,0.000,0.000,0.000,0.000,0.000,3.142,6.283,0.000,1.003,1.570,1.570,4.085,6.281,1.199,4.712,0.000,0.000,0.359,-8.824,0.990,5.407,4.704,4.717,5.281,4.711,4.712,2.198,6.282,5.083,1.570,0.000,0.000,0.863,-8.404,0.990,5.407,4.706,4.717,
12.874,18.997,0.989,-9.066,2.265,0.000,6.272,2.997,0.000,1.749,2.306,0.000,3.142,1.662,0.000,3.013,2.575,0.000,2.720,0.000,0.000,0.000,0.000,0.000,0.000,0.000,0.000,0.000,0.000,0.000,3.142,6.283,0.000,1.003,1.569,1.569,4.085,6.281,1.199,4.712,0.000,0.000,0.359,-8.824,0.990,5.407,4.705,4.717,5.281,4.711,4.711,2.198,6.282,5.083,1.570,0.000,0.000,0.863,-8.404,0.990,5.407,4.706,4.717,
12.980,19.103,0.989,-9.066,2.265,0.000,6.272,2.997,0.000,1.749,2.306,0.000,3.142,1.662,0.000,3.013,2.575,0.000,2.720,0.000,0.000,0.000,0.000,0.000,0.000,0.000,0.000,0.000,0.000,0.000,3.142,6.283,0.000,1.003,1.569,1.569,4.085,6.281,1.199,4.712,0.000,0.000,0.359,-8.824,0.990,5.407,4.705,4.717,5.281,4.711,4.711,2.198,6.282,5.083,1.570,0.000,0.000,0.863,-8.404,0.990,5.407,4.706,4.717,
13.080,19.203,0.989,-9.066,2.265,0.000,6.272,2.997,0.000,1.749,2.306,0.000,3.142,1.662,0.000,3.013,2.575,0.000,2.720,0.000,0.000,0.000,0.000,0.000,0.000,0.000,0.000,0.000,0.000,0.000,3.142,6.283,0.000,1.003,1.569,1.569,4.085,6.281,1.199,4.712,0.000,0.000,0.359,-8.824,0.990,5.407,4.705,4.717,5.281,4.711,4.711,2.198,6.282,5.083,1.570,0.000,0.000,0.863,-8.404,0.990,5.407,4.706,4.717,
13.180,19.303,0.989,-9.066,2.265,0.000,6.272,2.997,0.000,1.749,2.306,0.000,3.142,1.662,0.000,3.013,2.575,0.000,2.720,0.000,0.000,0.000,0.000,0.000,0.000,0.000,0.000,0.000,0.000,0.000,3.142,6.283,0.000,1.003,1.569,1.569,4.085,6.281,1.199,4.712,0.000,0.000,0.359,-8.824,0.990,5.407,4.705,4.717,5.281,4.711,4.711,2.198,6.282,5.083,1.570,0.000,0.000,0.863,-8.404,0.990,5.407,4.706,4.717,
13.280,19.403,0.989,-9.066,2.265,0.000,6.272,2.997,0.000,1.749,2.306,0.000,3.142,1.662,0.000,3.013,2.575,0.000,2.720,0.000,0.000,0.000,0.000,0.000,0.000,0.000,0.000,0.000,0.000,0.000,3.142,6.283,0.000,1.003,1.569,1.569,4.085,6.281,1.199,4.712,0.000,0.000,0.359,-8.824,0.990,5.407,4.705,4.717,5.281,4.711,4.711,2.198,6.282,5.083,1.570,0.000,0.000,0.863,-8.404,0.990,5.407,4.706,4.717,
13.380,19.503,0.989,-9.066,2.265,0.000,6.272,2.997,0.000,1.749,2.306,0.000,3.142,1.662,0.000,3.013,2.575,0.000,2.720,0.000,0.000,0.000,0.000,0.000,0.000,0.000,0.000,0.000,0.000,0.000,3.142,6.283,0.000,1.003,1.569,1.569,4.085,6.281,1.199,4.712,0.000,0.000,0.359,-8.824,0.990,5.407,4.705,4.717,5.281,4.711,4.711,2.198,6.282,5.083,1.570,0.000,0.000,0.863,-8.404,0.990,5.407,4.706,4.717,
13.480,19.603,0.989,-9.066,2.265,0.000,6.272,2.997,0.000,1.749,2.306,0.000,3.142,1.662,0.000,3.013,2.575,0.000,2.720,0.000,0.000,0.000,0.000,0.000,0.000,0.000,0.000,0.000,0.000,0.000,3.142,6.283,0.000,1.003,1.569,1.569,4.085,6.281,1.199,4.712,0.000,0.000,0.359,-8.824,0.990,5.407,4.705,4.717,5.281,4.711,4.711,2.198,6.282,5.083,1.570,0.000,0.000,0.863,-8.404,0.990,5.407,4.706,4.717,
13.565,19.688,0.989,-9.066,2.265,0.000,6.272,2.997,0.000,1.749,2.306,0.000,3.142,1.662,0.000,3.013,2.575,0.000,2.720,0.000,0.000,0.000,0.000,0.000,0.000,0.000,0.000,0.000,0.000,0.000,3.142,6.283,0.000,1.003,1.569,1.569,4.085,6.281,1.199,4.712,0.000,0.000,0.359,-8.824,0.990,5.407,4.705,4.717,5.281,4.711,4.711,2.198,6.282,5.083,1.570,0.000,0.000,0.863,-8.404,0.990,5.407,4.706,4.717,
13.680,19.803,0.989,-9.066,2.265,0.000,6.272,2.997,0.000,1.749,2.306,0.000,3.142,1.662,0.000,3.013,2.575,0.000,2.720,0.000,0.000,0.000,0.000,0.000,0.000,0.000,0.000,0.000,0.000,0.000,3.142,6.283,0.000,1.003,1.569,1.569,4.085,6.281,1.199,4.712,0.000,0.000,0.359,-8.824,0.990,5.407,4.705,4.717,5.281,4.711,4.711,2.198,6.282,5.083,1.570,0.000,0.000,0.863,-8.404,0.990,5.407,4.706,4.717,
13.780,19.903,0.989,-9.066,2.265,0.000,6.272,2.997,0.000,1.749,2.306,0.000,3.142,1.662,0.000,3.013,2.575,0.000,2.720,0.000,0.000,0.000,0.000,0.000,0.000,0.000,0.000,0.000,0.000,0.000,3.142,6.283,0.000,1.003,1.569,1.569,4.085,6.281,1.199,4.712,0.000,0.000,0.359,-8.824,0.990,5.407,4.705,4.717,5.281,4.711,4.711,2.198,6.282,5.083,1.570,0.000,0.000,0.863,-8.404,0.990,5.407,4.706,4.717,
13.863,19.986,0.989,-9.066,2.265,0.000,6.272,2.997,0.000,1.749,2.306,0.000,3.142,1.662,0.000,3.013,2.575,0.000,2.720,0.000,0.000,0.000,0.000,0.000,0.000,0.000,0.000,0.000,0.000,0.000,3.142,6.283,0.000,1.003,1.569,1.569,4.085,6.281,1.199,4.712,0.000,0.000,0.359,-8.824,0.990,5.407,4.705,4.717,5.281,4.711,4.711,2.198,6.282,5.083,1.570,0.000,0.000,0.863,-8.404,0.990,5.407,4.706,4.717,
13.980,20.103,0.989,-9.066,2.265,0.000,6.272,2.997,0.000,1.749,2.306,0.000,3.142,1.662,0.000,3.013,2.575,0.000,2.720,0.000,0.000,0.000,0.000,0.000,0.000,0.000,0.000,0.000,0.000,0.000,3.142,6.283,0.000,1.003,1.569,1.569,4.085,6.281,1.199,4.712,0.000,0.000,0.359,-8.824,0.990,5.407,4.705,4.717,5.281,4.711,4.711,2.198,6.282,5.083,1.570,0.000,0.000,0.863,-8.404,0.990,5.407,4.706,4.717,
14.075,20.198,0.989,-9.066,2.265,0.000,6.272,2.997,0.000,1.749,2.306,0.000,3.142,1.662,0.000,3.013,2.575,0.000,2.720,0.000,0.000,0.000,0.000,0.000,0.000,0.000,0.000,0.000,0.000,0.000,3.142,6.283,0.000,1.003,1.569,1.569,4.085,6.281,1.199,4.712,0.000,0.000,0.359,-8.824,0.990,5.407,4.705,4.717,5.281,4.711,4.711,2.198,6.282,5.083,1.570,0.000,0.000,0.863,-8.404,0.990,5.407,4.706,4.717,
14.180,20.303,0.989,-9.066,2.265,0.000,6.272,2.997,0.000,1.749,2.306,0.000,3.142,1.662,0.000,3.013,2.575,0.000,2.720,0.000,0.000,0.000,0.000,0.000,0.000,0.000,0.000,0.000,0.000,0.000,3.142,6.283,0.000,1.003,1.569,1.569,4.085,6.281,1.199,4.712,0.000,0.000,0.359,-8.824,0.990,5.407,4.705,4.717,5.281,4.711,4.711,2.198,6.282,5.083,1.570,0.000,0.000,0.863,-8.404,0.990,5.407,4.706,4.717,
14.280,20.403,0.989,-9.066,2.265,0.000,6.272,2.997,0.000,1.749,2.306,0.000,3.142,1.662,0.000,3.013,2.575,0.000,2.720,0.000,0.000,0.000,0.000,0.000,0.000,0.000,0.000,0.000,0.000,0.000,3.142,6.283,0.000,1.003,1.569,1.569,4.085,6.281,1.199,4.712,0.000,0.000,0.359,-8.824,0.990,5.407,4.705,4.717,5.281,4.711,4.711,2.198,6.282,5.083,1.570,0.000,0.000,0.863,-8.404,0.990,5.407,4.706,4.717,
14.370,20.492,0.989,-9.066,2.265,0.000,6.272,2.997,0.000,1.749,2.306,0.000,3.142,1.662,0.000,3.013,2.575,0.000,2.720,0.000,0.000,0.000,0.000,0.000,0.000,0.000,0.000,0.000,0.000,0.000,3.142,6.283,0.000,1.003,1.569,1.569,4.085,6.281,1.199,4.712,0.000,0.000,0.359,-8.824,0.990,5.407,4.705,4.717,5.281,4.711,4.711,2.198,6.282,5.083,1.570,0.000,0.000,0.863,-8.404,0.990,5.407,4.706,4.717,
14.480,20.603,0.989,-9.066,2.265,0.000,6.272,2.997,0.000,1.749,2.306,0.000,3.142,1.662,0.000,3.013,2.575,0.000,2.720,0.000,0.000,0.000,0.000,0.000,0.000,0.000,0.000,0.000,0.000,0.000,3.142,6.283,0.000,1.003,1.569,1.569,4.085,6.281,1.199,4.712,0.000,0.000,0.359,-8.824,0.990,5.407,4.705,4.717,5.281,4.711,4.711,2.198,6.282,5.083,1.570,0.000,0.000,0.863,-8.404,0.990,5.407,4.706,4.717,
14.580,20.703,0.989,-9.066,2.265,0.000,6.272,2.997,0.000,1.749,2.306,0.000,3.142,1.662,0.000,3.013,2.575,0.000,2.720,0.000,0.000,0.000,0.000,0.000,0.000,0.000,0.000,0.000,0.000,0.000,3.142,6.283,0.000,1.003,1.569,1.569,4.085,6.281,1.199,4.712,0.000,0.000,0.359,-8.824,0.990,5.407,4.705,4.717,5.281,4.711,4.711,2.198,6.282,5.083,1.570,0.000,0.000,0.863,-8.404,0.990,5.407,4.706,4.717,
14.672,20.795,0.989,-9.066,2.265,0.000,6.272,2.997,0.000,1.749,2.306,0.000,3.142,1.662,0.000,3.013,2.575,0.000,2.720,0.000,0.000,0.000,0.000,0.000,0.000,0.000,0.000,0.000,0.000,0.000,3.142,6.283,0.000,1.003,1.569,1.569,4.085,6.281,1.199,4.712,0.000,0.000,0.359,-8.824,0.990,5.407,4.705,4.717,5.281,4.711,4.711,2.198,6.282,5.083,1.570,0.000,0.000,0.863,-8.404,0.990,5.407,4.706,4.717,
14.780,20.903,0.989,-9.066,2.265,0.000,6.272,2.997,0.000,1.749,2.306,0.000,3.142,1.662,0.000,3.013,2.575,0.000,2.720,0.000,0.000,0.000,0.000,0.000,0.000,0.000,0.000,0.000,0.000,0.000,3.142,6.283,0.000,1.003,1.569,1.569,4.085,6.281,1.199,4.712,0.000,0.000,0.359,-8.824,0.990,5.407,4.705,4.717,5.281,4.711,4.711,2.198,6.282,5.083,1.570,0.000,0.000,0.863,-8.404,0.990,5.407,4.706,4.717,
14.880,21.003,0.989,-9.066,2.265,0.000,6.272,2.997,0.000,1.749,2.306,0.000,3.142,1.662,0.000,3.013,2.575,0.000,2.720,0.000,0.000,0.000,0.000,0.000,0.000,0.000,0.000,0.000,0.000,0.000,3.142,6.283,0.000,1.003,1.569,1.569,4.085,6.281,1.199,4.712,0.000,0.000,0.359,-8.824,0.990,5.407,4.705,4.717,5.281,4.711,4.711,2.198,6.282,5.083,1.570,0.000,0.000,0.863,-8.404,0.990,5.407,4.706,4.717,
14.980,21.103,0.989,-9.066,2.265,0.000,6.272,2.997,0.000,1.749,2.306,0.000,3.142,1.662,0.000,3.013,2.575,0.000,2.720,0.000,0.000,0.000,0.000,0.000,0.000,0.000,0.000,0.000,0.000,0.000,3.142,6.283,0.000,1.003,1.569,1.569,4.085,6.281,1.199,4.712,0.000,0.000,0.359,-8.824,0.990,5.407,4.705,4.717,5.281,4.711,4.711,2.198,6.282,5.083,1.570,0.000,0.000,0.863,-8.404,0.990,5.407,4.706,4.717,
15.080,21.203,0.989,-9.066,2.265,0.000,6.272,2.997,0.000,1.749,2.306,0.000,3.142,1.662,0.000,3.013,2.575,0.000,2.720,0.000,0.000,0.000,0.000,0.000,0.000,0.000,0.000,0.000,0.000,0.000,3.142,6.283,0.000,1.003,1.569,1.569,4.085,6.281,1.199,4.712,0.000,0.000,0.359,-8.824,0.990,5.407,4.705,4.717,5.281,4.711,4.711,2.198,6.282,5.083,1.570,0.000,0.000,0.863,-8.404,0.990,5.407,4.706,4.717,
15.172,21.295,0.989,-9.066,2.265,0.000,6.272,2.997,0.000,1.749,2.306,0.000,3.142,1.662,0.000,3.013,2.575,0.000,2.720,0.000,0.000,0.000,0.000,0.000,0.000,0.000,0.000,0.000,0.000,0.000,3.142,6.283,0.000,1.003,1.569,1.569,4.085,6.281,1.199,4.712,0.000,0.000,0.359,-8.824,0.990,5.407,4.705,4.717,5.281,4.711,4.711,2.198,6.282,5.083,1.570,0.000,0.000,0.863,-8.404,0.990,5.407,4.706,4.717,
15.280,21.403,0.989,-9.066,2.265,0.000,6.272,2.997,0.000,1.749,2.306,0.000,3.142,1.662,0.000,3.013,2.575,0.000,2.720,0.000,0.000,0.000,0.000,0.000,0.000,0.000,0.000,0.000,0.000,0.000,3.142,6.283,0.000,1.003,1.569,1.569,4.085,6.281,1.199,4.712,0.000,0.000,0.359,-8.824,0.990,5.407,4.705,4.717,5.281,4.711,4.711,2.198,6.282,5.083,1.570,0.000,0.000,0.863,-8.404,0.990,5.407,4.706,4.717,
15.380,21.503,0.989,-9.066,2.265,0.000,6.272,2.997,0.000,1.749,2.306,0.000,3.142,1.662,0.000,3.013,2.575,0.000,2.720,0.000,0.000,0.000,0.000,0.000,0.000,0.000,0.000,0.000,0.000,0.000,3.142,6.283,0.000,1.003,1.569,1.569,4.085,6.281,1.199,4.712,0.000,0.000,0.359,-8.824,0.990,5.407,4.705,4.717,5.281,4.711,4.711,2.198,6.282,5.083,1.570,0.000,0.000,0.863,-8.404,0.990,5.407,4.706,4.717,
15.467,21.589,0.989,-9.066,2.265,0.000,6.272,2.997,0.000,1.749,2.306,0.000,3.142,1.662,0.000,3.013,2.575,0.000,2.720,0.000,0.000,0.000,0.000,0.000,0.000,0.000,0.000,0.000,0.000,0.000,3.142,6.283,0.000,1.003,1.569,1.569,4.085,6.281,1.199,4.712,0.000,0.000,0.359,-8.824,0.990,5.407,4.705,4.717,5.281,4.711,4.711,2.198,6.282,5.083,1.570,0.000,0.000,0.863,-8.404,0.990,5.407,4.706,4.717,
15.580,21.703,0.989,-9.066,2.265,0.000,6.272,2.997,0.000,1.749,2.306,0.000,3.142,1.662,0.000,3.013,2.575,0.000,2.720,0.000,0.000,0.000,0.000,0.000,0.000,0.000,0.000,0.000,0.000,0.000,3.142,6.283,0.000,1.003,1.569,1.569,4.085,6.281,1.199,4.712,0.000,0.000,0.359,-8.824,0.990,5.407,4.705,4.717,5.281,4.711,4.711,2.198,6.282,5.083,1.570,0.000,0.000,0.863,-8.404,0.990,5.407,4.706,4.717,
15.680,21.803,0.989,-9.066,2.265,0.000,6.272,2.997,0.000,1.749,2.306,0.000,3.142,1.662,0.000,3.013,2.575,0.000,2.720,0.000,0.000,0.000,0.000,0.000,0.000,0.000,0.000,0.000,0.000,0.000,3.142,6.283,0.000,1.003,1.569,1.569,4.085,6.281,1.199,4.712,0.000,0.000,0.359,-8.824,0.990,5.407,4.705,4.717,5.281,4.711,4.711,2.198,6.282,5.083,1.570,0.000,0.000,0.863,-8.404,0.990,5.407,4.706,4.717,
15.780,21.903,0.989,-9.066,2.265,0.000,6.272,2.997,0.000,1.749,2.306,0.000,3.142,1.662,0.000,3.013,2.575,0.000,2.720,0.000,0.000,0.000,0.000,0.000,0.000,0.000,0.000,0.000,0.000,0.000,3.142,6.283,0.000,1.003,1.569,1.569,4.085,6.281,1.199,4.712,0.000,0.000,0.359,-8.824,0.990,5.407,4.705,4.717,5.281,4.711,4.711,2.198,6.282,5.083,1.570,0.000,0.000,0.863,-8.404,0.990,5.407,4.706,4.717,
15.880,22.003,0.989,-9.066,2.265,0.000,6.272,2.997,0.000,1.749,2.306,0.000,3.142,1.662,0.000,3.013,2.575,0.000,2.720,0.000,0.000,0.000,0.000,0.000,0.000,0.000,0.000,0.000,0.000,0.000,3.142,6.283,0.000,1.003,1.569,1.569,4.085,6.281,1.199,4.712,0.000,0.000,0.359,-8.824,0.990,5.407,4.705,4.717,5.281,4.711,4.711,2.198,6.282,5.083,1.570,0.000,0.000,0.863,-8.404,0.990,5.407,4.706,4.717,
15.974,22.097,0.989,-9.066,2.265,0.000,6.272,2.997,0.000,1.749,2.306,0.000,3.142,1.662,0.000,3.013,2.575,0.000,2.720,0.000,0.000,0.000,0.000,0.000,0.000,0.000,0.000,0.000,0.000,0.000,3.142,6.283,0.000,1.003,1.569,1.569,4.085,6.281,1.199,4.712,0.000,0.000,0.359,-8.824,0.990,5.407,4.705,4.717,5.281,4.711,4.711,2.198,6.282,5.083,1.570,0.000,0.000,0.863,-8.404,0.990,5.407,4.706,4.717,
16.080,22.203,0.989,-9.066,2.265,0.000,6.272,2.997,0.000,1.749,2.306,0.000,3.142,1.662,0.000,3.013,2.575,0.000,2.720,0.000,0.000,0.000,0.000,0.000,0.000,0.000,0.000,0.000,0.000,0.000,3.142,6.283,0.000,1.003,1.569,1.569,4.085,6.281,1.199,4.712,0.000,0.000,0.359,-8.824,0.990,5.407,4.705,4.717,5.281,4.711,4.711,2.198,6.282,5.083,1.570,0.000,0.000,0.863,-8.404,0.990,5.407,4.706,4.717,
16.180,22.303,0.989,-9.066,2.265,0.000,6.272,2.997,0.000,1.749,2.306,0.000,3.142,1.662,0.000,3.013,2.575,0.000,2.720,0.000,0.000,0.000,0.000,0.000,0.000,0.000,0.000,0.000,0.000,0.000,3.142,6.283,0.000,1.003,1.569,1.569,4.085,6.281,1.199,4.712,0.000,0.000,0.359,-8.824,0.990,5.407,4.705,4.717,5.281,4.711,4.711,2.198,6.282,5.083,1.570,0.000,0.000,0.863,-8.404,0.990,5.407,4.706,4.717,
16.267,22.390,0.989,-9.066,2.265,0.000,6.272,2.997,0.000,1.749,2.306,0.000,3.142,1.662,0.000,3.013,2.575,0.000,2.720,0.000,0.000,0.000,0.000,0.000,0.000,0.000,0.000,0.000,0.000,0.000,3.142,6.283,0.000,1.003,1.569,1.569,4.085,6.281,1.199,4.712,0.000,0.000,0.359,-8.824,0.990,5.407,4.705,4.717,5.281,4.711,4.711,2.198,6.282,5.083,1.570,0.000,0.000,0.863,-8.404,0.990,5.407,4.706,4.717,
16.380,22.503,0.989,-9.066,2.265,0.000,6.272,2.997,0.000,1.749,2.306,0.000,3.142,1.662,0.000,3.013,2.575,0.000,2.720,0.000,0.000,0.000,0.000,0.000,0.000,0.000,0.000,0.000,0.000,0.000,3.142,6.283,0.000,1.003,1.569,1.569,4.085,6.281,1.199,4.712,0.000,0.000,0.359,-8.824,0.990,5.407,4.705,4.717,5.281,4.711,4.711,2.198,6.282,5.083,1.570,0.000,0.000,0.863,-8.404,0.990,5.407,4.706,4.717,
16.469,22.591,0.989,-9.066,2.265,0.000,6.272,2.997,0.000,1.749,2.306,0.000,3.142,1.662,0.000,3.013,2.575,0.000,2.720,0.000,0.000,0.000,0.000,0.000,0.000,0.000,0.000,0.000,0.000,0.000,3.142,6.283,0.000,1.003,1.569,1.569,4.085,6.281,1.199,4.712,0.000,0.000,0.359,-8.824,0.990,5.407,4.705,4.717,5.281,4.711,4.711,2.198,6.282,5.083,1.570,0.000,0.000,0.863,-8.404,0.990,5.407,4.706,4.717,
16.580,22.703,0.989,-9.066,2.265,0.000,6.272,2.997,0.000,1.749,2.306,0.000,3.142,1.662,0.000,3.013,2.575,0.000,2.720,0.000,0.000,0.000,0.000,0.000,0.000,0.000,0.000,0.000,0.000,0.000,3.142,6.283,0.000,1.003,1.569,1.569,4.085,6.281,1.199,4.712,0.000,0.000,0.359,-8.824,0.990,5.407,4.705,4.717,5.281,4.711,4.711,2.198,6.282,5.083,1.570,0.000,0.000,0.863,-8.404,0.990,5.407,4.706,4.717,
16.677,22.800,0.989,-9.066,2.265,0.000,6.272,2.997,0.000,1.749,2.306,0.000,3.142,1.662,0.000,3.013,2.575,0.000,2.720,0.000,0.000,0.000,0.000,0.000,0.000,0.000,0.000,0.000,0.000,0.000,3.142,6.283,0.000,1.003,1.569,1.569,4.085,6.281,1.199,4.712,0.000,0.000,0.359,-8.824,0.990,5.407,4.705,4.717,5.281,4.711,4.711,2.198,6.282,5.083,1.570,0.000,0.000,0.863,-8.404,0.990,5.407,4.706,4.717,
16.780,22.903,0.989,-9.066,2.265,0.000,6.272,2.997,0.000,1.749,2.306,0.000,3.142,1.662,0.000,3.013,2.575,0.000,2.720,0.000,0.000,0.000,0.000,0.000,0.000,0.000,0.000,0.000,0.000,0.000,3.142,6.283,0.000,1.003,1.569,1.569,4.085,6.281,1.199,4.712,0.000,0.000,0.359,-8.824,0.990,5.407,4.705,4.717,5.281,4.711,4.711,2.198,6.282,5.083,1.570,0.000,0.000,0.863,-8.404,0.990,5.407,4.706,4.717,
16.880,23.003,0.989,-9.066,2.265,0.000,6.272,2.997,0.000,1.749,2.306,0.000,3.142,1.662,0.000,3.013,2.575,0.000,2.720,0.000,0.000,0.000,0.000,0.000,0.000,0.000,0.000,0.000,0.000,0.000,3.142,6.283,0.000,1.003,1.569,1.569,4.085,6.281,1.199,4.712,0.000,0.000,0.359,-8.824,0.990,5.407,4.705,4.717,5.281,4.711,4.711,2.198,6.282,5.083,1.570,0.000,0.000,0.863,-8.404,0.990,5.407,4.706,4.717,
16.980,23.103,0.989,-9.066,2.265,0.000,6.272,2.997,0.000,1.749,2.306,0.000,3.142,1.662,0.000,3.013,2.575,0.000,2.720,0.000,0.000,0.000,0.000,0.000,0.000,0.000,0.000,0.000,0.000,0.000,3.142,6.283,0.000,1.003,1.569,1.569,4.085,6.281,1.199,4.712,0.000,0.000,0.359,-8.824,0.990,5.407,4.705,4.717,5.281,4.711,4.711,2.198,6.282,5.083,1.570,0.000,0.000,0.863,-8.404,0.990,5.407,4.706,4.717,
17.080,23.203,0.989,-9.066,2.265,0.000,6.272,2.997,0.000,1.749,2.306,0.000,3.142,1.662,0.000,3.013,2.575,0.000,2.720,0.000,0.000,0.000,0.000,0.000,0.000,0.000,0.000,0.000,0.000,0.000,3.142,6.283,0.000,1.003,1.569,1.569,4.085,6.281,1.199,4.712,0.000,0.000,0.359,-8.824,0.990,5.407,4.705,4.717,5.281,4.711,4.711,2.198,6.282,5.083,1.570,0.000,0.000,0.863,-8.404,0.990,5.407,4.706,4.717,
17.180,23.303,0.989,-9.066,2.265,0.000,6.272,2.997,0.000,1.749,2.306,0.000,3.142,1.662,0.000,3.013,2.575,0.000,2.720,0.000,0.000,0.000,0.000,0.000,0.000,0.000,0.000,0.000,0.000,0.000,3.142,6.283,0.000,1.003,1.569,1.569,4.085,6.281,1.199,4.712,0.000,0.000,0.359,-8.824,0.990,5.407,4.705,4.717,5.281,4.711,4.711,2.198,6.282,5.083,1.570,0.000,0.000,0.863,-8.404,0.990,5.407,4.706,4.717,
17.280,23.403,0.989,-9.066,2.265,0.000,6.272,2.997,0.000,1.749,2.306,0.000,3.142,1.662,0.000,3.013,2.575,0.000,2.720,0.000,0.000,0.000,0.000,0.000,0.000,0.000,0.000,0.000,0.000,0.000,3.142,6.283,0.000,1.003,1.569,1.569,4.085,6.281,1.199,4.712,0.000,0.000,0.359,-8.824,0.990,5.407,4.705,4.717,5.281,4.711,4.711,2.198,6.282,5.083,1.570,0.000,0.000,0.863,-8.404,0.990,5.407,4.706,4.717,
17.365,23.488,0.989,-9.066,2.265,0.000,6.272,2.997,0.000,1.749,2.306,0.000,3.142,1.662,0.000,3.013,2.575,0.000,2.720,0.000,0.000,0.000,0.000,0.000,0.000,0.000,0.000,0.000,0.000,0.000,3.142,6.283,0.000,1.003,1.569,1.569,4.085,6.281,1.199,4.712,0.000,0.000,0.359,-8.824,0.990,5.407,4.705,4.717,5.281,4.711,4.711,2.198,6.282,5.083,1.570,0.000,0.000,0.863,-8.404,0.990,5.407,4.706,4.717,
17.480,23.603,0.989,-9.066,2.265,0.000,6.272,2.997,0.000,1.749,2.306,0.000,3.142,1.662,0.000,3.013,2.575,0.000,2.720,0.000,0.000,0.000,0.000,0.000,0.000,0.000,0.000,0.000,0.000,0.000,3.142,6.283,0.000,1.003,1.569,1.569,4.085,6.281,1.199,4.712,0.000,0.000,0.359,-8.824,0.990,5.407,4.705,4.717,5.281,4.711,4.711,2.198,6.282,5.083,1.570,0.000,0.000,0.863,-8.404,0.990,5.407,4.706,4.717,
17.575,23.698,0.989,-9.066,2.265,0.000,6.272,2.997,0.000,1.749,2.306,0.000,3.142,1.662,0.000,3.013,2.575,0.000,2.720,0.000,0.000,0.000,0.000,0.000,0.000,0.000,0.000,0.000,0.000,0.000,3.142,6.283,0.000,1.003,1.569,1.569,4.085,6.281,1.199,4.712,0.000,0.000,0.359,-8.824,0.990,5.407,4.705,4.717,5.281,4.711,4.711,2.198,6.282,5.083,1.570,0.000,0.000,0.863,-8.404,0.990,5.407,4.706,4.717,
17.680,23.803,0.989,-9.066,2.265,0.000,6.272,2.997,0.000,1.749,2.306,0.000,3.142,1.662,0.000,3.013,2.575,0.000,2.720,0.000,0.000,0.000,0.000,0.000,0.000,0.000,0.000,0.000,0.000,0.000,3.142,6.283,0.000,1.003,1.569,1.569,4.085,6.281,1.199,4.712,0.000,0.000,0.359,-8.824,0.990,5.407,4.705,4.717,5.281,4.711,4.711,2.198,6.282,5.083,1.570,0.000,0.000,0.863,-8.404,0.990,5.407,4.706,4.717,
17.780,23.903,0.989,-9.066,2.265,0.000,6.272,2.997,0.000,1.749,2.306,0.000,3.142,1.662,0.000,3.013,2.575,0.000,2.720,0.000,0.000,0.000,0.000,0.000,0.000,0.000,0.000,0.000,0.000,0.000,3.142,6.283,0.000,1.003,1.569,1.569,4.085,6.281,1.199,4.712,0.000,0.000,0.359,-8.824,0.990,5.407,4.705,4.717,5.281,4.711,4.711,2.198,6.282,5.083,1.570,0.000,0.000,0.863,-8.404,0.990,5.407,4.706,4.717,
17.860,23.983,0.989,-9.066,2.265,0.000,6.272,2.997,0.000,1.749,2.306,0.000,3.142,1.662,0.000,3.013,2.575,0.000,2.720,0.000,0.000,0.000,0.000,0.000,0.000,0.000,0.000,0.000,0.000,0.000,3.142,6.283,0.000,1.003,1.569,1.569,4.085,6.281,1.199,4.712,0.000,0.000,0.359,-8.824,0.990,5.407,4.705,4.717,5.281,4.711,4.711,2.198,6.282,5.083,1.570,0.000,0.000,0.863,-8.404,0.990,5.407,4.706,4.717,
17.980,24.103,0.989,-9.066,2.265,0.000,6.272,2.997,0.000,1.749,2.306,0.000,3.142,1.662,0.000,3.013,2.575,0.000,2.720,0.000,0.000,0.000,0.000,0.000,0.000,0.000,0.000,0.000,0.000,0.000,3.142,6.283,0.000,1.003,1.569,1.569,4.085,6.281,1.199,4.712,0.000,0.000,0.359,-8.824,0.990,5.407,4.705,4.717,5.281,4.711,4.711,2.198,6.282,5.083,1.570,0.000,0.000,0.863,-8.404,0.990,5.407,4.706,4.717,
18.071,24.193,0.989,-9.066,2.265,0.000,6.272,2.997,0.000,1.749,2.306,0.000,3.142,1.662,0.000,3.013,2.575,0.000,2.720,0.000,0.000,0.000,0.000,0.000,0.000,0.000,0.000,0.000,0.000,0.000,3.142,6.283,0.000,1.003,1.569,1.569,4.085,6.281,1.199,4.712,0.000,0.000,0.359,-8.824,0.990,5.407,4.705,4.717,5.281,4.711,4.711,2.198,6.282,5.083,1.570,0.000,0.000,0.863,-8.404,0.990,5.407,4.706,4.717,
18.180,24.303,0.989,-9.066,2.265,0.000,6.272,2.997,0.000,1.749,2.306,0.000,3.142,1.662,0.000,3.013,2.575,0.000,2.720,0.000,0.000,0.000,0.000,0.000,0.000,0.000,0.000,0.000,0.000,0.000,3.142,6.283,0.000,1.003,1.569,1.569,4.085,6.281,1.199,4.712,0.000,0.000,0.359,-8.824,0.990,5.407,4.705,4.717,5.281,4.711,4.711,2.198,6.282,5.083,1.570,0.000,0.000,0.863,-8.404,0.990,5.407,4.706,4.717,
18.276,24.399,0.989,-9.066,2.265,0.000,6.272,2.997,0.000,1.749,2.306,0.000,3.142,1.662,0.000,3.013,2.575,0.000,2.720,0.000,0.000,0.000,0.000,0.000,0.000,0.000,0.000,0.000,0.000,0.000,3.142,6.283,0.000,1.003,1.569,1.569,4.085,6.281,1.199,4.712,0.000,0.000,0.359,-8.824,0.990,5.407,4.705,4.717,5.281,4.711,4.711,2.198,6.282,5.083,1.570,0.000,0.000,0.863,-8.404,0.990,5.407,4.706,4.717,
18.380,24.503,0.989,-9.066,2.265,0.000,6.272,2.997,0.000,1.749,2.306,0.000,3.142,1.662,0.000,3.013,2.575,0.000,2.720,0.000,0.000,0.000,0.000,0.000,0.000,0.000,0.000,0.000,0.000,0.000,3.142,6.283,0.000,1.003,1.569,1.569,4.085,6.281,1.199,4.712,0.000,0.000,0.359,-8.824,0.990,5.407,4.705,4.717,5.281,4.711,4.711,2.198,6.282,5.083,1.570,0.000,0.000,0.863,-8.404,0.990,5.407,4.706,4.717,
18.480,24.603,0.989,-9.066,2.265,0.000,6.272,2.997,0.000,1.749,2.306,0.000,3.142,1.662,0.000,3.013,2.575,0.000,2.720,0.000,0.000,0.000,0.000,0.000,0.000,0.000,0.000,0.000,0.000,0.000,3.142,6.283,0.000,1.003,1.569,1.569,4.085,6.281,1.199,4.712,0.000,0.000,0.359,-8.824,0.990,5.407,4.705,4.717,5.281,4.711,4.711,2.198,6.282,5.083,1.570,0.000,0.000,0.863,-8.404,0.990,5.407,4.706,4.717,
18.580,24.703,0.989,-9.066,2.265,0.000,6.272,2.997,0.000,1.749,2.306,0.000,3.142,1.662,0.000,3.013,2.575,0.000,2.720,0.000,0.000,0.000,0.000,0.000,0.000,0.000,0.000,0.000,0.000,0.000,3.142,6.283,0.000,1.003,1.569,1.569,4.085,6.281,1.199,4.712,0.000,0.000,0.359,-8.824,0.990,5.407,4.705,4.717,5.281,4.711,4.711,2.198,6.282,5.083,1.570,0.000,0.000,0.863,-8.404,0.990,5.407,4.706,4.717,
18.680,24.803,0.989,-9.066,2.265,0.000,6.272,2.997,0.000,1.749,2.306,0.000,3.142,1.662,0.000,3.013,2.575,0.000,2.720,0.000,0.000,0.000,0.000,0.000,0.000,0.000,0.000,0.000,0.000,0.000,3.142,6.283,0.000,1.003,1.569,1.569,4.085,6.281,1.199,4.712,0.000,0.000,0.359,-8.824,0.990,5.407,4.705,4.717,5.281,4.711,4.711,2.198,6.282,5.083,1.570,0.000,0.000,0.863,-8.404,0.990,5.407,4.706,4.717,
18.766,24.888,0.989,-9.066,2.265,0.000,6.272,2.997,0.000,1.749,2.306,0.000,3.142,1.662,0.000,3.013,2.575,0.000,2.720,0.000,0.000,0.000,0.000,0.000,0.000,0.000,0.000,0.000,0.000,0.000,3.142,6.283,0.000,1.003,1.569,1.569,4.085,6.281,1.199,4.712,0.000,0.000,0.359,-8.824,0.990,5.407,4.705,4.717,5.281,4.711,4.711,2.198,6.282,5.083,1.570,0.000,0.000,0.863,-8.404,0.990,5.407,4.706,4.717,
18.880,25.003,0.989,-9.066,2.265,0.000,6.272,2.997,0.000,1.749,2.306,0.000,3.142,1.662,0.000,3.013,2.575,0.000,2.720,0.000,0.000,0.000,0.000,0.000,0.000,0.000,0.000,0.000,0.000,0.000,3.142,6.283,0.000,1.003,1.569,1.569,4.085,6.281,1.199,4.712,0.000,0.000,0.359,-8.824,0.990,5.407,4.705,4.717,5.281,4.711,4.711,2.198,6.282,5.083,1.570,0.000,0.000,0.863,-8.404,0.990,5.407,4.706,4.717,
18.972,25.095,0.989,-9.066,2.265,0.000,6.272,2.997,0.000,1.749,2.306,0.000,3.142,1.662,0.000,3.013,2.575,0.000,2.720,0.000,0.000,0.000,0.000,0.000,0.000,0.000,0.000,0.000,0.000,0.000,3.142,6.283,0.000,1.003,1.569,1.569,4.085,6.281,1.199,4.712,0.000,0.000,0.359,-8.824,0.990,5.407,4.705,4.717,5.281,4.711,4.711,2.198,6.282,5.083,1.570,0.000,0.000,0.863,-8.404,0.990,5.407,4.706,4.717,
19.080,25.203,0.989,-9.066,2.265,0.000,6.272,2.997,0.000,1.749,2.306,0.000,3.142,1.662,0.000,3.013,2.575,0.000,2.720,0.000,0.000,0.000,0.000,0.000,0.000,0.000,0.000,0.000,0.000,0.000,3.142,6.283,0.000,1.003,1.569,1.569,4.085,6.281,1.199,4.712,0.000,0.000,0.359,-8.824,0.990,5.407,4.705,4.717,5.281,4.711,4.711,2.198,6.282,5.083,1.570,0.000,0.000,0.863,-8.404,0.990,5.407,4.706,4.717,
19.180,25.302,0.989,-9.066,2.265,0.000,6.272,2.997,0.000,1.749,2.306,0.000,3.142,1.662,0.000,3.013,2.575,0.000,2.720,0.000,0.000,0.000,0.000,0.000,0.000,0.000,0.000,0.000,0.000,0.000,3.142,6.283,0.000,1.003,1.569,1.569,4.085,6.281,1.199,4.712,0.000,0.000,0.359,-8.824,0.990,5.407,4.705,4.717,5.281,4.711,4.711,2.198,6.282,5.083,1.570,0.000,0.000,0.863,-8.404,0.990,5.407,4.706,4.717,
19.280,25.403,0.989,-9.066,2.265,0.000,6.272,2.997,0.000,1.749,2.306,0.000,3.142,1.662,0.000,3.013,2.575,0.000,2.720,0.000,0.000,0.000,0.000,0.000,0.000,0.000,0.000,0.000,0.000,0.000,3.142,6.283,0.000,1.003,1.569,1.569,4.085,6.281,1.199,4.712,0.000,0.000,0.359,-8.824,0.990,5.407,4.705,4.717,5.281,4.711,4.711,2.198,6.282,5.083,1.570,0.000,0.000,0.863,-8.404,0.990,5.407,4.706,4.717,
19.380,25.503,0.989,-9.066,2.265,0.000,6.272,2.997,0.000,1.749,2.306,0.000,3.142,1.662,0.000,3.013,2.575,0.000,2.720,0.000,0.000,0.000,0.000,0.000,0.000,0.000,0.000,0.000,0.000,0.000,3.142,6.283,0.000,1.003,1.569,1.569,4.085,6.281,1.199,4.712,0.000,0.000,0.359,-8.824,0.990,5.407,4.705,4.717,5.281,4.711,4.711,2.198,6.282,5.083,1.570,0.000,0.000,0.863,-8.404,0.990,5.407,4.706,4.717,
19.462,25.584,0.989,-9.066,2.265,0.000,6.272,2.997,0.000,1.749,2.306,0.000,3.142,1.662,0.000,3.013,2.575,0.000,2.720,0.000,0.000,0.000,0.000,0.000,0.000,0.000,0.000,0.000,0.000,0.000,3.142,6.283,0.000,1.003,1.569,1.569,4.085,6.281,1.199,4.712,0.000,0.000,0.359,-8.824,0.990,5.407,4.705,4.717,5.281,4.711,4.711,2.198,6.282,5.083,1.570,0.000,0.000,0.863,-8.404,0.990,5.407,4.706,4.717,
19.580,25.703,0.989,-9.066,2.265,0.000,6.272,2.997,0.000,1.749,2.306,0.000,3.142,1.662,0.000,3.013,2.575,0.000,2.720,0.000,0.000,0.000,0.000,0.000,0.000,0.000,0.000,0.000,0.000,0.000,3.142,6.283,0.000,1.003,1.569,1.569,4.085,6.281,1.199,4.712,0.000,0.000,0.359,-8.824,0.990,5.407,4.705,4.717,5.281,4.711,4.711,2.198,6.282,5.083,1.570,0.000,0.000,0.863,-8.404,0.990,5.407,4.706,4.717,
19.677,25.799,0.989,-9.066,2.265,0.000,6.272,2.997,0.000,1.749,2.306,0.000,3.142,1.662,0.000,3.013,2.575,0.000,2.720,0.000,0.000,0.000,0.000,0.000,0.000,0.000,0.000,0.000,0.000,0.000,3.142,6.283,0.000,1.003,1.569,1.569,4.085,6.281,1.199,4.712,0.000,0.000,0.359,-8.824,0.990,5.407,4.705,4.717,5.281,4.711,4.711,2.198,6.282,5.083,1.570,0.000,0.000,0.863,-8.404,0.990,5.407,4.706,4.717,
19.780,25.903,0.989,-9.066,2.265,0.000,6.272,2.997,0.000,1.749,2.306,0.000,3.142,1.662,0.000,3.013,2.575,0.000,2.720,0.000,0.000,0.000,0.000,0.000,0.000,0.000,0.000,0.000,0.000,0.000,3.142,6.283,0.000,1.003,1.569,1.569,4.085,6.281,1.199,4.712,0.000,0.000,0.359,-8.824,0.990,5.407,4.705,4.717,5.281,4.711,4.711,2.198,6.282,5.083,1.570,0.000,0.000,0.863,-8.404,0.990,5.407,4.706,4.717,
19.880,26.003,0.989,-9.066,2.265,0.000,6.272,2.997,0.000,1.749,2.306,0.000,3.142,1.662,0.000,3.013,2.575,0.000,2.720,0.000,0.000,0.000,0.000,0.000,0.000,0.000,0.000,0.000,0.000,0.000,3.142,6.283,0.000,1.003,1.569,1.569,4.085,6.281,1.199,4.712,0.000,0.000,0.359,-8.824,0.990,5.407,4.705,4.717,5.281,4.711,4.711,2.198,6.282,5.083,1.570,0.000,0.000,0.863,-8.404,0.990,5.407,4.706,4.717,
19.980,26.103,0.989,-9.066,2.265,0.000,6.272,2.997,0.000,1.749,2.306,0.000,3.142,1.662,0.000,3.013,2.575,0.000,2.720,0.000,0.000,0.000,0.000,0.000,0.000,0.000,0.000,0.000,0.000,0.000,3.142,6.283,0.000,1.003,1.569,1.569,4.085,6.281,1.199,4.712,0.000,0.000,0.359,-8.824,0.990,5.407,4.705,4.717,5.281,4.711,4.711,2.198,6.282,5.083,1.570,0.000,0.000,0.863,-8.404,0.990,5.407,4.706,4.717,
20.080,26.203,0.989,-9.066,2.265,0.000,6.272,2.997,0.000,1.749,2.306,0.000,3.142,1.662,0.000,3.013,2.575,0.000,2.720,0.000,0.000,0.000,0.000,0.000,0.000,0.000,0.000,0.000,0.000,0.000,3.142,6.283,0.000,1.003,1.569,1.569,4.085,6.281,1.199,4.712,0.000,0.000,0.359,-8.824,0.990,5.407,4.705,4.717,5.281,4.711,4.711,2.198,6.282,5.083,1.570,0.000,0.000,0.863,-8.404,0.990,5.407,4.706,4.717,
20.178,26.301,0.989,-9.066,2.265,0.000,6.272,2.997,0.000,1.749,2.306,0.000,3.142,1.662,0.000,3.013,2.575,0.000,2.720,0.000,0.000,0.000,0.000,0.000,0.000,0.000,0.000,0.000,0.000,0.000,3.142,6.283,0.000,1.003,1.569,1.569,4.085,6.281,1.199,4.712,0.000,0.000,0.359,-8.824,0.990,5.407,4.705,4.717,5.281,4.711,4.711,2.198,6.282,5.083,1.570,0.000,0.000,0.863,-8.404,0.990,5.407,4.706,4.717,
20.280,26.403,0.989,-9.066,2.265,0.000,6.272,2.997,0.000,1.749,2.306,0.000,3.142,1.662,0.000,3.013,2.575,0.000,2.720,0.000,0.000,0.000,0.000,0.000,0.000,0.000,0.000,0.000,0.000,0.000,3.142,6.283,0.000,1.003,1.569,1.569,4.085,6.281,1.199,4.712,0.000,0.000,0.359,-8.824,0.990,5.407,4.705,4.717,5.281,4.711,4.711,2.198,6.282,5.083,1.570,0.000,0.000,0.863,-8.404,0.990,5.407,4.706,4.717,
20.380,26.503,0.989,-9.066,2.265,0.000,6.272,2.997,0.000,1.749,2.306,0.000,3.142,1.662,0.000,3.013,2.575,0.000,2.720,0.000,0.000,0.000,0.000,0.000,0.000,0.000,0.000,0.000,0.000,0.000,3.142,6.283,0.000,1.003,1.569,1.569,4.085,6.281,1.199,4.712,0.000,0.000,0.359,-8.824,0.990,5.407,4.705,4.717,5.281,4.711,4.711,2.198,6.282,5.083,1.570,0.000,0.000,0.863,-8.404,0.990,5.407,4.706,4.717,
20.480,26.603,0.989,-9.066,2.265,0.000,6.272,2.997,0.000,1.749,2.306,0.000,3.142,1.662,0.000,3.013,2.575,0.000,2.720,0.000,0.000,0.000,0.000,0.000,0.000,0.000,0.000,0.000,0.000,0.000,3.142,6.283,0.000,1.003,1.569,1.569,4.085,6.281,1.199,4.712,0.000,0.000,0.359,-8.824,0.990,5.407,4.705,4.717,5.281,4.711,4.711,2.198,6.282,5.083,1.570,0.000,0.000,0.863,-8.404,0.990,5.407,4.706,4.717,
20.580,26.703,0.989,-9.066,2.265,0.000,6.272,2.997,0.000,1.749,2.306,0.000,3.142,1.662,0.000,3.013,2.575,0.000,2.720,0.000,0.000,0.000,0.000,0.000,0.000,0.000,0.000,0.000,0.000,0.000,3.142,6.283,0.000,1.003,1.569,1.569,4.085,6.281,1.199,4.712,0.000,0.000,0.359,-8.824,0.990,5.407,4.705,4.717,5.281,4.711,4.711,2.198,6.282,5.083,1.570,0.000,0.000,0.863,-8.404,0.990,5.407,4.706,4.717,
20.674,26.796,0.989,-9.066,2.265,0.000,6.272,2.997,0.000,1.749,2.306,0.000,3.142,1.662,0.000,3.013,2.575,0.000,2.720,0.000,0.000,0.000,0.000,0.000,0.000,0.000,0.000,0.000,0.000,0.000,3.142,6.283,0.000,1.003,1.569,1.569,4.085,6.281,1.199,4.712,0.000,0.000,0.359,-8.824,0.990,5.407,4.705,4.717,5.281,4.711,4.711,2.198,6.282,5.083,1.570,0.000,0.000,0.863,-8.404,0.990,5.407,4.706,4.717,
20.780,26.903,0.989,-9.066,2.265,0.000,6.272,2.997,0.000,1.749,2.306,0.000,3.142,1.662,0.000,3.013,2.575,0.000,2.720,0.000,0.000,0.000,0.000,0.000,0.000,0.000,0.000,0.000,0.000,0.000,3.142,6.283,0.000,1.003,1.569,1.569,4.085,6.281,1.199,4.712,0.000,0.000,0.359,-8.824,0.990,5.407,4.705,4.717,5.281,4.711,4.711,2.198,6.282,5.083,1.570,0.000,0.000,0.863,-8.404,0.990,5.407,4.706,4.717,
20.880,27.003,0.989,-9.066,2.265,0.000,6.272,2.997,0.000,1.749,2.306,0.000,3.142,1.662,0.000,3.013,2.575,0.000,2.720,0.000,0.000,0.000,0.000,0.000,0.000,0.000,0.000,0.000,0.000,0.000,3.142,6.283,0.000,1.003,1.569,1.569,4.085,6.281,1.199,4.712,0.000,0.000,0.359,-8.824,0.990,5.407,4.705,4.717,5.281,4.711,4.711,2.198,6.282,5.083,1.570,0.000,0.000,0.863,-8.404,0.990,5.407,4.706,4.717,
20.980,27.103,0.989,-9.066,2.265,0.000,6.272,2.997,0.000,1.749,2.306,0.000,3.142,1.662,0.000,3.013,2.575,0.000,2.720,0.000,0.000,0.000,0.000,0.000,0.000,0.000,0.000,0.000,0.000,0.000,3.142,6.283,0.000,1.003,1.569,1.569,4.085,6.281,1.199,4.712,0.000,0.000,0.359,-8.824,0.990,5.407,4.705,4.717,5.281,4.711,4.711,2.198,6.282,5.083,1.570,0.000,0.000,0.863,-8.404,0.990,5.407,4.706,4.717,
21.080,27.203,0.989,-9.066,2.265,0.000,6.272,2.997,0.000,1.749,2.306,0.000,3.142,1.662,0.000,3.013,2.575,0.000,2.720,0.000,0.000,0.000,0.000,0.000,0.000,0.000,0.000,0.000,0.000,0.000,3.142,6.283,0.000,1.003,1.569,1.569,4.085,6.281,1.199,4.712,0.000,0.000,0.359,-8.824,0.990,5.407,4.705,4.717,5.281,4.711,4.711,2.198,6.282,5.083,1.570,0.000,0.000,0.863,-8.404,0.990,5.407,4.706,4.717,
21.160,27.283,0.989,-9.066,2.265,0.000,6.272,2.997,0.000,1.749,2.306,0.000,3.142,1.662,0.000,3.013,2.575,0.000,2.720,0.000,0.000,0.000,0.000,0.000,0.000,0.000,0.000,0.000,0.000,0.000,3.142,6.283,0.000,1.003,1.569,1.569,4.085,6.281,1.199,4.712,0.000,0.000,0.359,-8.824,0.990,5.407,4.705,4.717,5.281,4.711,4.711,2.198,6.282,5.083,1.570,0.000,0.000,0.863,-8.404,0.990,5.407,4.706,4.717,
21.280,27.403,0.989,-9.066,2.265,0.000,6.272,2.997,0.000,1.749,2.306,0.000,3.142,1.662,0.000,3.013,2.575,0.000,2.720,0.000,0.000,0.000,0.000,0.000,0.000,0.000,0.000,0.000,0.000,0.000,3.142,6.283,0.000,1.003,1.569,1.569,4.085,6.281,1.199,4.712,0.000,0.000,0.359,-8.824,0.990,5.407,4.705,4.717,5.281,4.711,4.711,2.198,6.282,5.083,1.570,0.000,0.000,0.863,-8.404,0.990,5.407,4.706,4.717,
21.368,27.491,0.989,-9.066,2.265,0.000,6.272,2.997,0.000,1.749,2.306,0.000,3.142,1.662,0.000,3.013,2.575,0.000,2.720,0.000,0.000,0.000,0.000,0.000,0.000,0.000,0.000,0.000,0.000,0.000,3.142,6.283,0.000,1.003,1.569,1.569,4.085,6.281,1.199,4.712,0.000,0.000,0.359,-8.824,0.990,5.407,4.705,4.717,5.281,4.711,4.711,2.198,6.282,5.083,1.570,0.000,0.000,0.863,-8.404,0.990,5.407,4.706,4.717,
21.480,27.603,0.989,-9.066,2.265,0.000,6.272,2.997,0.000,1.749,2.306,0.000,3.142,1.662,0.000,3.013,2.575,0.000,2.720,0.000,0.000,0.000,0.000,0.000,0.000,0.000,0.000,0.000,0.000,0.000,3.142,6.283,0.000,1.003,1.569,1.569,4.085,6.281,1.199,4.712,0.000,0.000,0.359,-8.824,0.990,5.407,4.705,4.717,5.281,4.711,4.711,2.198,6.282,5.083,1.570,0.000,0.000,0.863,-8.404,0.990,5.407,4.706,4.717,
21.576,27.699,0.989,-9.066,2.265,0.000,6.272,2.997,0.000,1.749,2.306,0.000,3.142,1.662,0.000,3.013,2.575,0.000,2.720,0.000,0.000,0.000,0.000,0.000,0.000,0.000,0.000,0.000,0.000,0.000,3.142,6.283,0.000,1.003,1.569,1.569,4.085,6.281,1.199,4.712,0.000,0.000,0.359,-8.824,0.990,5.407,4.705,4.717,5.281,4.711,4.711,2.198,6.282,5.083,1.570,0.000,0.000,0.863,-8.404,0.990,5.407,4.706,4.717,
21.680,27.803,0.989,-9.066,2.265,0.000,6.272,2.997,0.000,1.749,2.306,0.000,3.142,1.662,0.000,3.013,2.575,0.000,2.720,0.000,0.000,0.000,0.000,0.000,0.000,0.000,0.000,0.000,0.000,0.000,3.142,6.283,0.000,1.003,1.569,1.569,4.085,6.281,1.199,4.712,0.000,0.000,0.359,-8.824,0.990,5.407,4.705,4.717,5.281,4.711,4.711,2.198,6.282,5.083,1.570,0.000,0.000,0.863,-8.404,0.990,5.407,4.706,4.717,
21.780,27.903,0.989,-9.066,2.265,0.000,6.272,2.997,0.000,1.749,2.306,0.000,3.142,1.662,0.000,3.013,2.575,0.000,2.720,0.000,0.000,0.000,0.000,0.000,0.000,0.000,0.000,0.000,0.000,0.000,3.142,6.283,0.000,1.003,1.569,1.569,4.085,6.281,1.199,4.712,0.000,0.000,0.359,-8.824,0.990,5.407,4.705,4.717,5.281,4.711,4.711,2.198,6.282,5.083,1.570,0.000,0.000,0.863,-8.404,0.990,5.407,4.706,4.717,
21.867,27.990,0.989,-9.066,2.265,0.000,6.272,2.997,0.000,1.749,2.306,0.000,3.142,1.662,0.000,3.013,2.575,0.000,2.720,0.000,0.000,0.000,0.000,0.000,0.000,0.000,0.000,0.000,0.000,0.000,3.142,6.283,0.000,1.003,1.569,1.569,4.085,6.281,1.199,4.712,0.000,0.000,0.359,-8.824,0.990,5.407,4.705,4.717,5.281,4.711,4.711,2.198,6.282,5.083,1.570,0.000,0.000,0.863,-8.404,0.990,5.407,4.706,4.717,
21.980,28.103,0.989,-9.066,2.265,0.000,6.272,2.997,0.000,1.749,2.306,0.000,3.142,1.662,0.000,3.013,2.575,0.000,2.720,0.000,0.000,0.000,0.000,0.000,0.000,0.000,0.000,0.000,0.000,0.000,3.142,6.283,0.000,1.003,1.569,1.569,4.085,6.281,1.199,4.712,0.000,0.000,0.359,-8.824,0.990,5.407,4.705,4.717,5.281,4.711,4.711,2.198,6.282,5.083,1.570,0.000,0.000,0.863,-8.404,0.990,5.407,4.706,4.717,
22.074,28.197,0.989,-9.066,2.265,0.000,6.272,2.997,0.000,1.749,2.306,0.000,3.142,1.662,0.000,3.013,2.575,0.000,2.720,0.000,0.000,0.000,0.000,0.000,0.000,0.000,0.000,0.000,0.000,0.000,3.142,6.283,0.000,1.003,1.569,1.569,4.085,6.281,1.199,4.712,0.000,0.000,0.359,-8.824,0.990,5.407,4.705,4.717,5.281,4.711,4.711,2.198,6.282,5.083,1.570,0.000,0.000,0.863,-8.404,0.990,5.407,4.706,4.717,
22.180,28.303,0.989,-9.066,2.265,0.000,6.272,2.997,0.000,1.749,2.306,0.000,3.142,1.662,0.000,3.013,2.575,0.000,2.720,0.000,0.000,0.000,0.000,0.000,0.000,0.000,0.000,0.000,0.000,0.000,3.142,6.283,0.000,1.003,1.569,1.569,4.085,6.281,1.199,4.712,0.000,0.000,0.359,-8.824,0.990,5.407,4.705,4.717,5.281,4.711,4.711,2.198,6.282,5.083,1.570,0.000,0.000,0.863,-8.404,0.990,5.407,4.706,4.717,
22.280,28.403,0.989,-9.066,2.265,0.000,6.272,2.997,0.000,1.749,2.306,0.000,3.142,1.662,0.000,3.013,2.575,0.000,2.720,0.000,0.000,0.000,0.000,0.000,0.000,0.000,0.000,0.000,0.000,0.000,3.142,6.283,0.000,1.003,1.569,1.569,4.085,6.281,1.199,4.712,0.000,0.000,0.359,-8.824,0.990,5.407,4.705,4.717,5.281,4.711,4.711,2.198,6.282,5.083,1.570,0.000,0.000,0.863,-8.404,0.990,5.407,4.706,4.717,
22.380,28.503,0.989,-9.066,2.265,0.000,6.272,2.997,0.000,1.749,2.306,0.000,3.142,1.662,0.000,3.013,2.575,0.000,2.720,0.000,0.000,0.000,0.000,0.000,0.000,0.000,0.000,0.000,0.000,0.000,3.142,6.283,0.000,1.003,1.569,1.569,4.085,6.281,1.199,4.712,0.000,0.000,0.359,-8.824,0.990,5.407,4.705,4.717,5.281,4.711,4.711,2.198,6.282,5.083,1.570,0.000,0.000,0.863,-8.404,0.990,5.407,4.706,4.717,
22.480,28.603,0.989,-9.066,2.265,0.000,6.272,2.997,0.000,1.749,2.306,0.000,3.142,1.662,0.000,3.013,2.575,0.000,2.720,0.000,0.000,0.000,0.000,0.000,0.000,0.000,0.000,0.000,0.000,0.000,3.142,6.283,0.000,1.003,1.569,1.569,4.085,6.281,1.199,4.712,0.000,0.000,0.359,-8.824,0.990,5.407,4.705,4.717,5.281,4.711,4.711,2.198,6.282,5.083,1.570,0.000,0.000,0.863,-8.404,0.990,5.407,4.706,4.717,
22.574,28.697,0.989,-9.066,2.265,0.000,6.272,2.997,0.000,1.749,2.306,0.000,3.142,1.662,0.000,3.013,2.575,0.000,2.720,0.000,0.000,0.000,0.000,0.000,0.000,0.000,0.000,0.000,0.000,0.000,3.142,6.283,0.000,1.003,1.569,1.569,4.085,6.281,1.199,4.712,0.000,0.000,0.359,-8.824,0.990,5.407,4.705,4.717,5.281,4.711,4.711,2.198,6.282,5.083,1.570,0.000,0.000,0.863,-8.404,0.990,5.407,4.706,4.717,
22.661,28.784,0.989,-9.066,2.265,0.000,6.272,2.997,0.000,1.749,2.306,0.000,3.142,1.662,0.000,3.013,2.575,0.000,2.720,0.000,0.000,0.000,0.000,0.000,0.000,0.000,0.000,0.000,0.000,0.000,3.142,6.283,0.000,1.003,1.569,1.569,4.085,6.281,1.199,4.712,0.000,0.000,0.359,-8.824,0.990,5.407,4.705,4.717,5.281,4.711,4.711,2.198,6.282,5.083,1.570,0.000,0.000,0.863,-8.404,0.990,5.407,4.706,4.717,
22.780,28.903,0.989,-9.066,2.265,0.000,6.272,2.997,0.000,1.749,2.306,0.000,3.142,1.662,0.000,3.013,2.575,0.000,2.720,0.000,0.000,0.000,0.000,0.000,0.000,0.000,0.000,0.000,0.000,0.000,3.142,6.283,0.000,1.003,1.569,1.569,4.085,6.281,1.199,4.712,0.000,0.000,0.359,-8.824,0.990,5.407,4.705,4.717,5.281,4.711,4.711,2.198,6.282,5.083,1.570,0.000,0.000,0.863,-8.404,0.990,5.407,4.706,4.717,
22.869,28.992,0.989,-9.066,2.265,0.000,6.272,2.997,0.000,1.749,2.306,0.000,3.142,1.662,0.000,3.013,2.575,0.000,2.720,0.000,0.000,0.000,0.000,0.000,0.000,0.000,0.000,0.000,0.000,0.000,3.142,6.283,0.000,1.003,1.569,1.569,4.085,6.281,1.199,4.712,0.000,0.000,0.359,-8.824,0.990,5.407,4.705,4.717,5.281,4.711,4.711,2.198,6.282,5.083,1.570,0.000,0.000,0.863,-8.404,0.990,5.407,4.706,4.717,
22.980,29.103,0.989,-9.066,2.265,0.000,6.272,2.997,0.000,1.749,2.306,0.000,3.142,1.662,0.000,3.013,2.575,0.000,2.720,0.000,0.000,0.000,0.000,0.000,0.000,0.000,0.000,0.000,0.000,0.000,3.142,6.283,0.000,1.003,1.569,1.569,4.085,6.281,1.199,4.712,0.000,0.000,0.359,-8.824,0.990,5.407,4.705,4.717,5.281,4.711,4.711,2.198,6.282,5.083,1.570,0.000,0.000,0.863,-8.404,0.990,5.407,4.706,4.717,
23.079,29.202,0.989,-9.066,2.265,0.000,6.272,2.997,0.000,1.749,2.306,0.000,3.142,1.662,0.000,3.013,2.575,0.000,2.720,0.000,0.000,0.000,0.000,0.000,0.000,0.000,0.000,0.000,0.000,0.000,3.142,6.283,0.000,1.003,1.569,1.569,4.085,6.281,1.199,4.712,0.000,0.000,0.359,-8.824,0.990,5.407,4.705,4.717,5.281,4.711,4.711,2.198,6.282,5.083,1.570,0.000,0.000,0.863,-8.404,0.990,5.407,4.706,4.717,
23.180,29.303,0.989,-9.066,2.265,0.000,6.272,2.997,0.000,1.749,2.306,0.000,3.142,1.662,0.000,3.013,2.575,0.000,2.720,0.000,0.000,0.000,0.000,0.000,0.000,0.000,0.000,0.000,0.000,0.000,3.142,6.283,0.000,1.003,1.569,1.569,4.085,6.281,1.199,4.712,0.000,0.000,0.359,-8.824,0.990,5.407,4.705,4.717,5.281,4.711,4.711,2.198,6.282,5.083,1.570,0.000,0.000,0.863,-8.404,0.990,5.407,4.706,4.717,
23.280,29.403,0.989,-9.066,2.265,0.000,6.272,2.997,0.000,1.749,2.306,0.000,3.142,1.662,0.000,3.013,2.575,0.000,2.720,0.000,0.000,0.000,0.000,0.000,0.000,0.000,0.000,0.000,0.000,0.000,3.142,6.283,0.000,1.003,1.569,1.569,4.085,6.281,1.199,4.712,0.000,0.000,0.359,-8.824,0.990,5.407,4.705,4.717,5.281,4.711,4.711,2.198,6.282,5.083,1.570,0.000,0.000,0.863,-8.404,0.990,5.407,4.706,4.717,
23.380,29.503,0.989,-9.066,2.265,0.000,6.272,2.997,0.000,1.749,2.306,0.000,3.142,1.662,0.000,3.013,2.575,0.000,2.720,0.000,0.000,0.000,0.000,0.000,0.000,0.000,0.000,0.000,0.000,0.000,3.142,6.283,0.000,1.003,1.569,1.569,4.085,6.281,1.199,4.712,0.000,0.000,0.359,-8.824,0.990,5.407,4.705,4.717,5.281,4.711,4.711,2.198,6.282,5.083,1.570,0.000,0.000,0.863,-8.404,0.990,5.407,4.706,4.717,
23.480,29.603,0.989,-9.066,2.265,0.000,6.272,2.997,0.000,1.749,2.306,0.000,3.142,1.662,0.000,3.013,2.575,0.000,2.720,0.000,0.000,0.000,0.000,0.000,0.000,0.000,0.000,0.000,0.000,0.000,3.142,6.283,0.000,1.003,1.569,1.569,4.085,6.281,1.199,4.712,0.000,0.000,0.359,-8.824,0.990,5.407,4.705,4.717,5.281,4.711,4.711,2.198,6.282,5.083,1.570,0.000,0.000,0.863,-8.404,0.990,5.407,4.706,4.717,
23.567,29.690,0.989,-9.066,2.265,0.000,6.272,2.997,0.000,1.749,2.306,0.000,3.142,1.662,0.000,3.013,2.575,0.000,2.720,0.000,0.000,0.000,0.000,0.000,0.000,0.000,0.000,0.000,0.000,0.000,3.142,6.283,0.000,1.003,1.569,1.569,4.085,6.281,1.199,4.712,0.000,0.000,0.359,-8.824,0.990,5.407,4.705,4.717,5.281,4.711,4.711,2.198,6.282,5.083,1.570,0.000,0.000,0.863,-8.404,0.990,5.407,4.706,4.717,
23.680,29.803,0.989,-9.066,2.265,0.000,6.272,2.997,0.000,1.749,2.306,0.000,3.142,1.662,0.000,3.013,2.575,0.000,2.720,0.000,0.000,0.000,0.000,0.000,0.000,0.000,0.000,0.000,0.000,0.000,3.142,6.283,0.000,1.003,1.569,1.569,4.085,6.281,1.199,4.712,0.000,0.000,0.359,-8.824,0.990,5.407,4.705,4.717,5.281,4.711,4.711,2.198,6.282,5.083,1.570,0.000,0.000,0.863,-8.404,0.990,5.407,4.706,4.717,
23.775,29.897,0.989,-9.066,2.265,0.000,6.272,2.997,0.000,1.749,2.306,0.000,3.142,1.662,0.000,3.013,2.575,0.000,2.720,0.000,0.000,0.000,0.000,0.000,0.000,0.000,0.000,0.000,0.000,0.000,3.142,6.283,0.000,1.003,1.569,1.569,4.085,6.281,1.199,4.712,0.000,0.000,0.359,-8.824,0.990,5.407,4.705,4.717,5.281,4.711,4.711,2.198,6.282,5.083,1.570,0.000,0.000,0.863,-8.404,0.990,5.407,4.706,4.717,
23.880,30.003,0.989,-9.066,2.265,0.000,6.272,2.997,0.000,1.749,2.306,0.000,3.142,1.662,0.000,3.013,2.575,0.000,2.720,0.000,0.000,0.000,0.000,0.000,0.000,0.000,0.000,0.000,0.000,0.000,3.142,6.283,0.000,1.003,1.569,1.569,4.085,6.281,1.199,4.712,0.000,0.000,0.359,-8.824,0.990,5.407,4.705,4.717,5.281,4.711,4.711,2.198,6.282,5.083,1.570,0.000,0.000,0.863,-8.404,0.990,5.407,4.706,4.717,
23.980,30.103,0.989,-9.066,2.265,0.000,6.272,2.997,0.000,1.749,2.306,0.000,3.142,1.662,0.000,3.013,2.575,0.000,2.720,0.000,0.000,0.000,0.000,0.000,0.000,0.000,0.000,0.000,0.000,0.000,3.142,6.283,0.000,1.003,1.569,1.569,4.085,6.281,1.199,4.712,0.000,0.000,0.359,-8.824,0.990,5.407,4.705,4.717,5.281,4.711,4.711,2.198,6.282,5.083,1.570,0.000,0.000,0.863,-8.404,0.990,5.407,4.706,4.717,
24.080,30.203,0.989,-9.066,2.265,0.000,6.272,2.997,0.000,1.749,2.306,0.000,3.142,1.662,0.000,3.013,2.575,0.000,2.720,0.000,0.000,0.000,0.000,0.000,0.000,0.000,0.000,0.000,0.000,0.000,3.142,6.283,0.000,1.003,1.569,1.569,4.085,6.281,1.199,4.712,0.000,0.000,0.359,-8.824,0.990,5.407,4.705,4.717,5.281,4.711,4.711,2.198,6.282,5.083,1.570,0.000,0.000,0.863,-8.404,0.990,5.407,4.706,4.717,
24.180,30.303,0.989,-9.066,2.265,0.000,6.272,2.997,0.000,1.749,2.306,0.000,3.142,1.662,0.000,3.013,2.575,0.000,2.720,0.000,0.000,0.000,0.000,0.000,0.000,0.000,0.000,0.000,0.000,0.000,3.142,6.283,0.000,1.003,1.569,1.569,4.085,6.281,1.199,4.712,0.000,0.000,0.359,-8.824,0.990,5.407,4.705,4.717,5.281,4.711,4.711,2.198,6.282,5.083,1.570,0.000,0.000,0.863,-8.404,0.990,5.407,4.706,4.717,
24.273,30.396,0.989,-9.066,2.265,0.000,6.272,2.997,0.000,1.749,2.306,0.000,3.142,1.662,0.000,3.013,2.575,0.000,2.720,0.000,0.000,0.000,0.000,0.000,0.000,0.000,0.000,0.000,0.000,0.000,3.142,6.283,0.000,1.003,1.569,1.569,4.085,6.281,1.199,4.712,0.000,0.000,0.359,-8.824,0.990,5.407,4.705,4.717,5.281,4.711,4.711,2.198,6.282,5.083,1.570,0.000,0.000,0.863,-8.404,0.990,5.407,4.706,4.717,
24.380,30.503,0.989,-9.066,2.265,0.000,6.272,2.997,0.000,1.749,2.306,0.000,3.142,1.662,0.000,3.013,2.575,0.000,2.720,0.000,0.000,0.000,0.000,0.000,0.000,0.000,0.000,0.000,0.000,0.000,3.142,6.283,0.000,1.003,1.569,1.569,4.085,6.281,1.199,4.712,0.000,0.000,0.359,-8.824,0.990,5.407,4.705,4.717,5.281,4.711,4.711,2.198,6.282,5.083,1.570,0.000,0.000,0.863,-8.404,0.990,5.407,4.706,4.717,
24.480,30.603,0.989,-9.066,2.265,0.000,6.272,2.997,0.000,1.749,2.306,0.000,3.142,1.662,0.000,3.013,2.575,0.000,2.720,0.000,0.000,0.000,0.000,0.000,0.000,0.000,0.000,0.000,0.000,0.000,3.142,6.283,0.000,1.003,1.569,1.569,4.085,6.281,1.199,4.712,0.000,0.000,0.359,-8.824,0.990,5.407,4.705,4.717,5.281,4.711,4.711,2.198,6.282,5.083,1.570,0.000,0.000,0.863,-8.404,0.990,5.407,4.706,4.717,
24.580,30.703,0.989,-9.066,2.265,0.000,6.272,2.997,0.000,1.749,2.306,0.000,3.142,1.662,0.000,3.013,2.575,0.000,2.720,0.000,0.000,0.000,0.000,0.000,0.000,0.000,0.000,0.000,0.000,0.000,3.142,6.283,0.000,1.003,1.569,1.569,4.085,6.281,1.199,4.712,0.000,0.000,0.359,-8.824,0.990,5.407,4.705,4.717,5.281,4.711,4.711,2.198,6.282,5.083,1.570,0.000,0.000,0.863,-8.404,0.990,5.407,4.706,4.717,
24.680,30.803,0.989,-9.066,2.265,0.000,6.272,2.997,0.000,1.749,2.306,0.000,3.142,1.662,0.000,3.013,2.575,0.000,2.720,0.000,0.000,0.000,0.000,0.000,0.000,0.000,0.000,0.000,0.000,0.000,3.142,6.283,0.000,1.003,1.569,1.569,4.085,6.281,1.199,4.712,0.000,0.000,0.359,-8.824,0.990,5.407,4.705,4.717,5.281,4.711,4.711,2.198,6.282,5.083,1.570,0.000,0.000,0.863,-8.404,0.990,5.407,4.706,4.717,
24.760,30.883,0.989,-9.066,2.265,0.000,6.272,2.997,0.000,1.749,2.306,0.000,3.142,1.662,0.000,3.013,2.575,0.000,2.720,0.000,0.000,0.000,0.000,0.000,0.000,0.000,0.000,0.000,0.000,0.000,3.142,6.283,0.000,1.003,1.569,1.569,4.085,6.281,1.199,4.712,0.000,0.000,0.359,-8.824,0.990,5.407,4.705,4.717,5.281,4.711,4.711,2.198,6.282,5.083,1.570,0.000,0.000,0.863,-8.404,0.990,5.407,4.706,4.717,
24.880,31.003,0.989,-9.066,2.265,0.000,6.272,2.997,0.000,1.749,2.306,0.000,3.142,1.662,0.000,3.013,2.575,0.000,2.720,0.000,0.000,0.000,0.000,0.000,0.000,0.000,0.000,0.000,0.000,0.000,3.142,6.283,0.000,1.003,1.569,1.569,4.085,6.281,1.199,4.712,0.000,0.000,0.359,-8.824,0.990,5.407,4.705,4.717,5.281,4.711,4.711,2.198,6.282,5.083,1.570,0.000,0.000,0.863,-8.404,0.990,5.407,4.706,4.717,
24.970,31.093,0.989,-9.066,2.265,0.000,6.272,2.997,0.000,1.749,2.306,0.000,3.142,1.662,0.000,3.013,2.575,0.000,2.720,0.000,0.000,0.000,0.000,0.000,0.000,0.000,0.000,0.000,0.000,0.000,3.142,6.283,0.000,1.003,1.569,1.569,4.085,6.281,1.199,4.712,0.000,0.000,0.359,-8.824,0.990,5.407,4.705,4.717,5.281,4.711,4.711,2.198,6.282,5.083,1.570,0.000,0.000,0.863,-8.404,0.990,5.407,4.706,4.717,
25.080,31.203,0.989,-9.066,2.265,0.000,6.272,2.997,0.000,1.749,2.306,0.000,3.142,1.662,0.000,3.013,2.575,0.000,2.720,0.000,0.000,0.000,0.000,0.000,0.000,0.000,0.000,0.000,0.000,0.000,3.142,6.283,0.000,1.003,1.569,1.569,4.085,6.281,1.199,4.712,0.000,0.000,0.359,-8.824,0.990,5.407,4.705,4.717,5.281,4.711,4.711,2.198,6.282,5.083,1.570,0.000,0.000,0.863,-8.404,0.990,5.407,4.706,4.717,
25.176,31.299,0.989,-9.066,2.265,0.000,6.272,2.997,0.000,1.749,2.306,0.000,3.142,1.662,0.000,3.013,2.575,0.000,2.720,0.000,0.000,0.000,0.000,0.000,0.000,0.000,0.000,0.000,0.000,0.000,3.142,6.283,0.000,1.003,1.569,1.569,4.085,6.281,1.199,4.712,0.000,0.000,0.359,-8.824,0.990,5.407,4.705,4.717,5.281,4.711,4.711,2.198,6.282,5.083,1.570,0.000,0.000,0.863,-8.404,0.990,5.407,4.706,4.717,
25.280,31.403,0.989,-9.066,2.265,0.000,6.272,2.997,0.000,1.749,2.306,0.000,3.142,1.662,0.000,3.013,2.575,0.000,2.720,0.000,0.000,0.000,0.000,0.000,0.000,0.000,0.000,0.000,0.000,0.000,3.142,6.283,0.000,1.003,1.569,1.569,4.085,6.281,1.199,4.712,0.000,0.000,0.359,-8.824,0.990,5.407,4.705,4.717,5.281,4.711,4.711,2.198,6.282,5.083,1.570,0.000,0.000,0.863,-8.404,0.990,5.407,4.706,4.717,
25.380,31.503,0.989,-9.066,2.265,0.000,6.272,2.997,0.000,1.749,2.306,0.000,3.142,1.662,0.000,3.013,2.575,0.000,2.720,0.000,0.000,0.000,0.000,0.000,0.000,0.000,0.000,0.000,0.000,0.000,3.142,6.283,0.000,1.003,1.569,1.569,4.085,6.281,1.199,4.712,0.000,0.000,0.359,-8.824,0.990,5.407,4.705,4.717,5.281,4.711,4.711,2.198,6.282,5.083,1.570,0.000,0.000,0.863,-8.404,0.990,5.407,4.706,4.717,
25.476,31.599,0.989,-9.066,2.265,0.000,6.272,2.997,0.000,1.749,2.306,0.000,3.142,1.662,0.000,3.013,2.575,0.000,2.720,0.000,0.000,0.000,0.000,0.000,0.000,0.000,0.000,0.000,0.000,0.000,3.142,6.283,0.000,1.003,1.569,1.569,4.085,6.281,1.199,4.712,0.000,0.000,0.359,-8.824,0.990,5.407,4.705,4.717,5.281,4.711,4.711,2.198,6.282,5.083,1.570,0.000,0.000,0.863,-8.404,0.990,5.407,4.706,4.717,
25.580,31.703,0.989,-9.066,2.265,0.000,6.272,2.997,0.000,1.749,2.306,0.000,3.142,1.662,0.000,3.013,2.575,0.000,2.720,0.000,0.000,0.000,0.000,0.000,0.000,0.000,0.000,0.000,0.000,0.000,3.142,6.283,0.000,1.003,1.569,1.569,4.085,6.281,1.199,4.712,0.000,0.000,0.359,-8.824,0.990,5.407,4.705,4.717,5.281,4.711,4.711,2.198,6.282,5.083,1.570,0.000,0.000,0.863,-8.404,0.990,5.407,4.706,4.717,
25.680,31.803,0.989,-9.066,2.265,0.000,6.272,2.997,0.000,1.749,2.306,0.000,3.142,1.662,0.000,3.013,2.575,0.000,2.720,0.000,0.000,0.000,0.000,0.000,0.000,0.000,0.000,0.000,0.000,0.000,3.142,6.283,0.000,1.003,1.569,1.569,4.085,6.281,1.199,4.712,0.000,0.000,0.359,-8.824,0.990,5.407,4.705,4.717,5.281,4.711,4.711,2.198,6.282,5.083,1.570,0.000,0.000,0.863,-8.404,0.990,5.407,4.706,4.717,
25.780,31.903,0.989,-9.066,2.265,0.000,6.272,2.997,0.000,1.749,2.306,0.000,3.142,1.662,0.000,3.013,2.575,0.000,2.720,0.000,0.000,0.000,0.000,0.000,0.000,0.000,0.000,0.000,0.000,0.000,3.142,6.283,0.000,1.003,1.569,1.569,4.085,6.281,1.199,4.712,0.000,0.000,0.359,-8.824,0.990,5.407,4.705,4.717,5.281,4.711,4.711,2.198,6.282,5.083,1.570,0.000,0.000,0.863,-8.404,0.990,5.407,4.706,4.717,
25.880,32.003,0.989,-9.066,2.265,0.000,6.272,2.997,0.000,1.749,2.306,0.000,3.142,1.662,0.000,3.013,2.575,0.000,2.720,0.000,0.000,0.000,0.000,0.000,0.000,0.000,0.000,0.000,0.000,0.000,3.142,6.283,0.000,1.003,1.569,1.569,4.085,6.281,1.199,4.712,0.000,0.000,0.359,-8.824,0.990,5.407,4.705,4.717,5.281,4.711,4.711,2.198,6.282,5.083,1.570,0.000,0.000,0.863,-8.404,0.990,5.407,4.706,4.717,
25.980,32.103,0.989,-9.066,2.265,0.000,6.272,2.997,0.000,1.749,2.306,0.000,3.142,1.662,0.000,3.013,2.575,0.000,2.720,0.000,0.000,0.000,0.000,0.000,0.000,0.000,0.000,0.000,0.000,0.000,3.142,6.283,0.000,1.003,1.569,1.569,4.085,6.281,1.199,4.712,0.000,0.000,0.359,-8.824,0.990,5.407,4.705,4.717,5.281,4.711,4.711,2.198,6.282,5.083,1.570,0.000,0.000,0.863,-8.404,0.990,5.407,4.706,4.717,
26.080,32.203,0.989,-9.066,2.265,0.000,6.272,2.997,0.000,1.749,2.306,0.000,3.142,1.662,0.000,3.013,2.575,0.000,2.720,0.000,0.000,0.000,0.000,0.000,0.000,0.000,0.000,0.000,0.000,0.000,3.142,6.283,0.000,1.003,1.569,1.569,4.085,6.281,1.199,4.712,0.000,0.000,0.359,-8.824,0.990,5.407,4.705,4.717,5.281,4.711,4.711,2.198,6.282,5.083,1.570,0.000,0.000,0.863,-8.404,0.990,5.407,4.706,4.717,
26.180,32.303,0.989,-9.066,2.265,0.000,6.272,2.997,0.000,1.749,2.306,0.000,3.142,1.662,0.000,3.013,2.575,0.000,2.720,0.000,0.000,0.000,0.000,0.000,0.000,0.000,0.000,0.000,0.000,0.000,3.142,6.283,0.000,1.003,1.569,1.569,4.085,6.281,1.199,4.712,0.000,0.000,0.359,-8.824,0.990,5.407,4.705,4.717,5.281,4.711,4.711,2.198,6.282,5.083,1.570,0.000,0.000,0.863,-8.404,0.990,5.407,4.706,4.717,
26.275,32.397,0.989,-9.066,2.265,0.000,6.272,2.997,0.000,1.749,2.306,0.000,3.142,1.662,0.000,3.013,2.575,0.000,2.720,0.000,0.000,0.000,0.000,0.000,0.000,0.000,0.000,0.000,0.000,0.000,3.142,6.283,0.000,1.003,1.569,1.569,4.085,6.281,1.199,4.712,0.000,0.000,0.359,-8.824,0.990,5.407,4.705,4.717,5.281,4.711,4.711,2.198,6.282,5.083,1.570,0.000,0.000,0.863,-8.404,0.990,5.407,4.706,4.717,
26.380,32.503,0.989,-9.066,2.265,0.000,6.272,2.997,0.000,1.749,2.306,0.000,3.142,1.662,0.000,3.013,2.575,0.000,2.720,0.000,0.000,0.000,0.000,0.000,0.000,0.000,0.000,0.000,0.000,0.000,3.142,6.283,0.000,1.003,1.569,1.569,4.085,6.281,1.199,4.712,0.000,0.000,0.359,-8.824,0.990,5.407,4.705,4.717,5.281,4.711,4.711,2.198,6.282,5.083,1.570,0.000,0.000,0.863,-8.404,0.990,5.407,4.706,4.717,
26.480,32.603,0.989,-9.066,2.265,0.000,6.272,2.997,0.000,1.749,2.306,0.000,3.142,1.662,0.000,3.013,2.575,0.000,2.720,0.000,0.000,0.000,0.000,0.000,0.000,0.000,0.000,0.000,0.000,0.000,3.142,6.283,0.000,1.003,1.569,1.569,4.085,6.281,1.199,4.712,0.000,0.000,0.359,-8.824,0.990,5.407,4.705,4.717,5.281,4.711,4.711,2.198,6.282,5.083,1.570,0.000,0.000,0.863,-8.404,0.990,5.407,4.706,4.717,
26.571,32.694,0.989,-9.066,2.265,0.000,6.272,2.997,0.000,1.749,2.306,0.000,3.142,1.662,0.000,3.013,2.575,0.000,2.720,0.000,0.000,0.000,0.000,0.000,0.000,0.000,0.000,0.000,0.000,0.000,3.142,6.283,0.000,1.003,1.569,1.569,4.085,6.281,1.199,4.712,0.000,0.000,0.359,-8.824,0.990,5.407,4.705,4.717,5.281,4.711,4.711,2.198,6.282,5.083,1.570,0.000,0.000,0.863,-8.404,0.990,5.407,4.706,4.717,
26.680,32.803,0.989,-9.066,2.265,0.000,6.272,2.997,0.000,1.749,2.306,0.000,3.142,1.662,0.000,3.013,2.575,0.000,2.720,0.000,0.000,0.000,0.000,0.000,0.000,0.000,0.000,0.000,0.000,0.000,3.142,6.283,0.000,1.003,1.569,1.569,4.085,6.281,1.199,4.712,0.000,0.000,0.359,-8.824,0.990,5.407,4.705,4.717,5.281,4.711,4.711,2.198,6.282,5.083,1.570,0.000,0.000,0.863,-8.404,0.990,5.407,4.706,4.717,
26.780,32.903,0.989,-9.066,2.265,0.000,6.272,2.997,0.000,1.749,2.306,0.000,3.142,1.662,0.000,3.013,2.575,0.000,2.720,0.000,0.000,0.000,0.000,0.000,0.000,0.000,0.000,0.000,0.000,0.000,3.142,6.283,0.000,1.003,1.569,1.569,4.085,6.281,1.199,4.712,0.000,0.000,0.359,-8.824,0.990,5.407,4.705,4.717,5.281,4.711,4.711,2.198,6.282,5.083,1.570,0.000,0.000,0.863,-8.404,0.990,5.407,4.706,4.717,
26.865,32.988,0.989,-9.066,2.265,0.000,6.272,2.997,0.000,1.749,2.306,0.000,3.142,1.662,0.000,3.013,2.575,0.000,2.720,0.000,0.000,0.000,0.000,0.000,0.000,0.000,0.000,0.000,0.000,0.000,3.142,6.283,0.000,1.003,1.569,1.569,4.085,6.281,1.199,4.712,0.000,0.000,0.359,-8.824,0.990,5.407,4.705,4.717,5.281,4.711,4.711,2.198,6.282,5.083,1.570,0.000,0.000,0.863,-8.404,0.990,5.407,4.706,4.717,
26.980,33.103,0.989,-9.066,2.265,0.000,6.272,2.997,0.000,1.749,2.306,0.000,3.142,1.662,0.000,3.013,2.575,0.000,2.720,0.000,0.000,0.000,0.000,0.000,0.000,0.000,0.000,0.000,0.000,0.000,3.142,6.283,0.000,1.003,1.569,1.569,4.085,6.281,1.199,4.712,0.000,0.000,0.359,-8.824,0.990,5.407,4.705,4.717,5.281,4.711,4.711,2.198,6.282,5.083,1.570,0.000,0.000,0.863,-8.404,0.990,5.407,4.706,4.717,
27.077,33.200,0.989,-9.066,2.265,0.000,6.272,2.997,0.000,1.749,2.306,0.000,3.142,1.662,0.000,3.013,2.575,0.000,2.720,0.000,0.000,0.000,0.000,0.000,0.000,0.000,0.000,0.000,0.000,0.000,3.142,6.283,0.000,1.003,1.569,1.569,4.085,6.281,1.199,4.712,0.000,0.000,0.359,-8.824,0.990,5.407,4.705,4.717,5.281,4.711,4.711,2.198,6.282,5.083,1.570,0.000,0.000,0.863,-8.404,0.990,5.407,4.706,4.717,
27.180,33.303,0.989,-9.066,2.265,0.000,6.272,2.997,0.000,1.749,2.306,0.000,3.142,1.662,0.000,3.013,2.575,0.000,2.720,0.000,0.000,0.000,0.000,0.000,0.000,0.000,0.000,0.000,0.000,0.000,3.142,6.283,0.000,1.003,1.569,1.569,4.085,6.281,1.199,4.712,0.000,0.000,0.359,-8.824,0.990,5.407,4.705,4.717,5.281,4.711,4.711,2.198,6.282,5.083,1.570,0.000,0.000,0.863,-8.404,0.990,5.407,4.706,4.717,
27.280,33.403,0.989,-9.066,2.265,0.000,6.272,2.997,0.000,1.749,2.306,0.000,3.142,1.662,0.000,3.013,2.575,0.000,2.720,0.000,0.000,0.000,0.000,0.000,0.000,0.000,0.000,0.000,0.000,0.000,3.142,6.283,0.000,1.003,1.569,1.569,4.085,6.281,1.199,4.712,0.000,0.000,0.359,-8.824,0.990,5.407,4.705,4.717,5.281,4.711,4.711,2.198,6.282,5.083,1.570,0.000,0.000,0.863,-8.404,0.990,5.407,4.706,4.717,
27.380,33.503,0.989,-9.066,2.265,0.000,6.272,2.997,0.000,1.749,2.306,0.000,3.142,1.662,0.000,3.013,2.575,0.000,2.720,0.000,0.000,0.000,0.000,0.000,0.000,0.000,0.000,0.000,0.000,0.000,3.142,6.283,0.000,1.003,1.569,1.569,4.085,6.281,1.199,4.712,0.000,0.000,0.359,-8.824,0.990,5.407,4.705,4.717,5.281,4.711,4.711,2.198,6.282,5.083,1.570,0.000,0.000,0.863,-8.404,0.990,5.407,4.706,4.717,
27.470,33.592,0.989,-9.066,2.265,0.000,6.272,2.997,0.000,1.749,2.306,0.000,3.142,1.662,0.000,3.013,2.575,0.000,2.720,0.000,0.000,0.000,0.000,0.000,0.000,0.000,0.000,0.000,0.000,0.000,3.142,6.283,0.000,1.003,1.569,1.569,4.085,6.281,1.199,4.712,0.000,0.000,0.359,-8.824,0.990,5.407,4.705,4.717,5.281,4.711,4.711,2.198,6.282,5.083,1.570,0.000,0.000,0.863,-8.404,0.990,5.407,4.706,4.717,
27.580,34.021,0.989,-9.066,2.265,0.000,6.272,2.997,0.000,1.749,2.306,0.000,3.142,1.662,0.000,3.013,2.575,0.000,2.720,0.000,0.000,0.000,0.000,0.000,0.000,0.000,0.000,0.000,0.000,0.000,3.142,6.283,0.000,1.003,1.569,1.569,4.085,6.281,1.199,4.712,0.000,0.000,0.359,-8.824,0.990,5.407,4.705,4.717,5.281,4.711,4.711,2.198,6.282,5.083,1.570,0.000,0.000,0.863,-8.404,0.990,5.407,4.706,4.717,
27.680,34.121,0.989,-9.066,2.265,0.000,6.272,2.997,0.000,1.749,2.306,0.000,3.142,1.662,0.000,3.013,2.575,0.000,2.720,0.000,0.000,0.000,0.000,0.000,0.000,0.000,0.000,0.000,0.000,0.000,3.142,6.283,0.000,1.003,1.569,1.569,4.085,6.281,1.199,4.712,0.000,0.000,0.359,-8.824,0.990,5.407,4.705,4.717,5.281,4.711,4.711,2.198,6.282,5.083,1.570,0.000,0.000,0.863,-8.404,0.990,5.407,4.706,4.717,
27.780,34.221,0.989,-9.066,2.265,0.000,6.272,2.997,0.000,1.749,2.306,0.000,3.142,1.662,0.000,3.013,2.575,0.000,2.720,0.000,0.000,0.000,0.000,0.000,0.000,0.000,0.000,0.000,0.000,0.000,3.142,6.283,0.000,1.003,1.569,1.569,4.085,6.281,1.199,4.712,0.000,0.000,0.359,-8.824,0.990,5.407,4.705,4.717,5.281,4.711,4.711,2.198,6.282,5.083,1.570,0.000,0.000,0.863,-8.404,0.990,5.407,4.706,4.717,
27.880,34.321,0.989,-9.066,2.265,0.000,6.272,2.997,0.000,1.749,2.306,0.000,3.142,1.662,0.000,3.013,2.575,0.000,2.720,0.000,0.000,0.000,0.000,0.000,0.000,0.000,0.000,0.000,0.000,0.000,3.142,6.283,0.000,1.003,1.569,1.569,4.085,6.281,1.199,4.712,0.000,0.000,0.359,-8.824,0.990,5.407,4.705,4.717,5.281,4.711,4.711,2.198,6.282,5.083,1.570,0.000,0.000,0.863,-8.404,0.990,5.407,4.706,4.717,
27.980,34.421,0.989,-9.066,2.265,0.000,6.272,2.997,0.000,1.749,2.306,0.000,3.142,1.662,0.000,3.013,2.575,0.000,2.720,0.000,0.000,0.000,0.000,0.000,0.000,0.000,0.000,0.000,0.000,0.000,3.142,6.283,0.000,1.003,1.569,1.569,4.085,6.281,1.199,4.712,0.000,0.000,0.359,-8.824,0.990,5.407,4.705,4.717,5.281,4.711,4.711,2.198,6.282,5.083,1.570,0.000,0.000,0.863,-8.404,0.990,5.407,4.706,4.717,
28.080,34.521,0.989,-9.066,2.265,0.000,6.272,2.997,0.000,1.749,2.306,0.000,3.142,1.662,0.000,3.013,2.575,0.000,2.720,0.000,0.000,0.000,0.000,0.000,0.000,0.000,0.000,0.000,0.000,0.000,3.142,6.283,0.000,1.003,1.569,1.569,4.085,6.281,1.199,4.712,0.000,0.000,0.359,-8.824,0.990,5.407,4.705,4.717,5.281,4.711,4.711,2.198,6.282,5.083,1.570,0.000,0.000,0.863,-8.404,0.990,5.407,4.706,4.717,
28.171,34.612,0.989,-9.066,2.265,0.000,6.272,2.997,0.000,1.749,2.306,0.000,3.142,1.662,0.000,3.013,2.575,0.000,2.720,0.000,0.000,0.000,0.000,0.000,0.000,0.000,0.000,0.000,0.000,0.000,3.142,6.283,0.000,1.003,1.569,1.569,4.085,6.281,1.199,4.712,0.000,0.000,0.359,-8.824,0.990,5.407,4.705,4.717,5.281,4.711,4.711,2.198,6.282,5.083,1.570,0.000,0.000,0.863,-8.404,0.990,5.407,4.706,4.717,
28.280,34.721,0.989,-9.066,2.265,0.000,6.272,2.997,0.000,1.749,2.306,0.000,3.142,1.662,0.000,3.013,2.575,0.000,2.720,0.000,0.000,0.000,0.000,0.000,0.000,0.000,0.000,0.000,0.000,0.000,3.142,6.283,0.000,1.003,1.569,1.569,4.085,6.281,1.199,4.712,0.000,0.000,0.359,-8.824,0.990,5.407,4.705,4.717,5.281,4.711,4.711,2.198,6.282,5.083,1.570,0.000,0.000,0.863,-8.404,0.990,5.407,4.706,4.717,
28.374,34.815,0.989,-9.066,2.265,0.000,6.272,2.997,0.000,1.749,2.306,0.000,3.142,1.662,0.000,3.013,2.575,0.000,2.720,0.000,0.000,0.000,0.000,0.000,0.000,0.000,0.000,0.000,0.000,0.000,3.142,6.283,0.000,1.003,1.569,1.569,4.085,6.281,1.199,4.712,0.000,0.000,0.359,-8.824,0.990,5.407,4.705,4.717,5.281,4.711,4.711,2.198,6.282,5.083,1.570,0.000,0.000,0.863,-8.404,0.990,5.407,4.706,4.717,
28.480,34.921,0.989,-9.066,2.265,0.000,6.272,2.997,0.000,1.749,2.306,0.000,3.142,1.662,0.000,3.013,2.575,0.000,2.720,0.000,0.000,0.000,0.000,0.000,0.000,0.000,0.000,0.000,0.000,0.000,3.142,6.283,0.000,1.003,1.569,1.569,4.085,6.281,1.199,4.712,0.000,0.000,0.359,-8.824,0.990,5.407,4.705,4.717,5.281,4.711,4.711,2.198,6.282,5.083,1.570,0.000,0.000,0.863,-8.404,0.990,5.407,4.706,4.717,
28.580,35.021,0.989,-9.066,2.265,0.000,6.272,2.997,0.000,1.749,2.306,0.000,3.142,1.662,0.000,3.013,2.575,0.000,2.720,0.000,0.000,0.000,0.000,0.000,0.000,0.000,0.000,0.000,0.000,0.000,3.142,6.283,0.000,1.003,1.569,1.569,4.085,6.281,1.199,4.712,0.000,0.000,0.359,-8.824,0.990,5.407,4.705,4.717,5.281,4.711,4.711,2.198,6.282,5.083,1.570,0.000,0.000,0.863,-8.404,0.990,5.407,4.706,4.717,
28.680,35.121,0.989,-9.066,2.265,0.000,6.272,2.997,0.000,1.749,2.306,0.000,3.142,1.662,0.000,3.013,2.575,0.000,2.720,0.000,0.000,0.000,0.000,0.000,0.000,0.000,0.000,0.000,0.000,0.000,3.142,6.283,0.000,1.003,1.569,1.569,4.085,6.281,1.199,4.712,0.000,0.000,0.359,-8.824,0.990,5.407,4.705,4.717,5.281,4.711,4.711,2.198,6.282,5.083,1.570,0.000,0.000,0.863,-8.404,0.990,5.407,4.706,4.717,
28.780,35.221,0.989,-9.066,2.265,0.000,6.272,2.997,0.000,1.749,2.306,0.000,3.142,1.662,0.000,3.013,2.575,0.000,2.720,0.000,0.000,0.000,0.000,0.000,0.000,0.000,0.000,0.000,0.000,0.000,3.142,6.283,0.000,1.003,1.569,1.569,4.085,6.281,1.199,4.712,0.000,0.000,0.359,-8.824,0.990,5.407,4.705,4.717,5.281,4.711,4.711,2.198,6.282,5.083,1.570,0.000,0.000,0.863,-8.404,0.990,5.407,4.706,4.717,
28.880,35.321,0.989,-9.066,2.265,0.000,6.272,2.997,0.000,1.749,2.306,0.000,3.142,1.662,0.000,3.013,2.575,0.000,2.720,0.000,0.000,0.000,0.000,0.000,0.000,0.000,0.000,0.000,0.000,0.000,3.142,6.283,0.000,1.003,1.569,1.569,4.085,6.281,1.199,4.712,0.000,0.000,0.359,-8.824,0.990,5.407,4.705,4.717,5.281,4.711,4.711,2.198,6.282,5.083,1.570,0.000,0.000,0.863,-8.404,0.990,5.407,4.706,4.717,
28.980,35.421,0.989,-9.066,2.265,0.000,6.272,2.997,0.000,1.749,2.306,0.000,3.142,1.662,0.000,3.013,2.575,0.000,2.720,0.000,0.000,0.000,0.000,0.000,0.000,0.000,0.000,0.000,0.000,0.000,3.142,6.283,0.000,1.003,1.569,1.569,4.085,6.281,1.199,4.712,0.000,0.000,0.359,-8.824,0.990,5.407,4.705,4.717,5.281,4.711,4.711,2.198,6.282,5.083,1.570,0.000,0.000,0.863,-8.404,0.990,5.407,4.706,4.717,
29.067,35.508,0.989,-9.066,2.265,0.000,6.272,2.997,0.000,1.749,2.306,0.000,3.142,1.662,0.000,3.013,2.575,0.000,2.720,0.000,0.000,0.000,0.000,0.000,0.000,0.000,3.506,0.000,0.000,0.000,3.142,6.283,0.000,1.003,1.569,1.569,4.085,6.281,1.199,4.712,0.000,0.000,0.359,-8.824,0.990,5.407,4.705,4.717,5.281,4.711,4.711,2.198,6.282,5.083,1.570,0.000,0.000,0.863,-8.404,0.990,5.407,4.706,4.717,
29.180,35.621,0.989,-9.066,2.265,0.000,6.272,2.997,0.000,1.749,2.306,0.000,3.142,1.662,0.000,3.013,2.575,0.000,2.720,0.000,0.000,0.000,0.000,0.000,0.000,0.000,3.393,0.000,0.000,0.000,3.142,6.283,0.000,1.003,1.569,1.569,4.085,6.281,1.199,4.712,0.000,0.000,0.359,-8.824,0.990,5.407,4.705,4.717,5.281,4.711,4.711,2.198,6.282,5.083,1.570,0.000,0.000,0.863,-8.404,0.990,5.407,4.706,4.717,
29.280,35.721,0.989,-9.066,2.265,0.000,6.272,2.997,0.000,1.749,2.306,0.000,3.142,1.662,0.000,3.013,2.575,0.000,2.720,0.000,0.000,0.000,0.000,0.000,0.000,0.000,3.218,0.000,0.000,0.000,3.142,6.283,0.000,1.003,1.569,1.569,4.085,6.281,1.199,4.712,0.000,0.000,0.359,-8.824,0.990,5.407,4.705,4.717,5.281,4.711,4.711,2.198,6.282,5.083,1.570,0.000,0.000,0.863,-8.404,0.990,5.407,4.706,4.717,
29.380,35.821,0.989,-9.066,2.265,0.000,6.272,2.997,0.000,1.749,2.306,0.000,3.142,1.662,0.000,3.013,2.575,0.000,2.720,0.000,0.000,0.000,0.000,0.000,0.000,0.000,3.131,0.000,0.000,0.000,3.142,6.283,0.000,1.003,1.569,1.569,4.085,6.281,1.199,4.712,0.000,0.000,0.359,-8.824,0.990,5.407,4.705,4.717,5.281,4.711,4.711,2.198,6.282,5.083,1.570,0.000,0.000,0.863,-8.404,0.990,5.407,4.706,4.717,
29.480,35.921,0.989,-9.066,2.265,0.000,6.272,2.997,0.000,1.749,2.306,0.000,3.142,1.662,0.000,3.013,2.575,0.000,2.720,0.000,0.000,0.000,0.000,0.000,0.000,0.000,2.987,0.000,0.000,0.000,3.142,6.283,0.000,1.003,1.569,1.569,4.085,6.281,1.199,4.712,0.000,0.000,0.359,-8.824,0.990,5.407,4.705,4.717,5.281,4.711,4.711,2.198,6.282,5.083,1.570,0.000,0.000,0.863,-8.404,0.990,5.407,4.706,4.717,
29.580,36.021,0.989,-9.066,2.265,0.000,6.272,2.997,0.000,1.749,2.306,0.000,3.142,1.662,0.000,3.013,2.575,0.000,2.720,0.000,0.000,0.000,0.000,0.000,0.000,0.000,2.906,0.000,0.000,0.000,3.142,6.283,0.000,1.003,1.569,1.569,4.085,6.281,1.199,4.712,0.000,0.000,0.359,-8.824,0.990,5.407,4.705,4.717,5.281,4.711,4.711,2.198,6.282,5.083,1.570,0.000,0.000,0.863,-8.404,0.990,5.407,4.706,4.717,
29.680,36.121,0.966,-9.040,2.267,0.763,0.124,2.966,0.000,1.751,2.266,0.000,3.173,1.686,0.000,2.979,2.549,0.000,2.720,0.000,0.000,0.000,0.000,0.000,0.000,0.000,2.786,0.000,0.000,0.000,3.142,6.278,6.283,1.008,1.567,1.565,4.076,6.282,1.199,4.712,0.000,0.000,0.335,-8.803,0.991,5.414,4.712,4.711,5.282,4.710,4.708,2.197,6.283,5.083,1.570,0.000,0.000,0.837,-8.380,0.991,5.413,4.706,4.717,
29.780,36.221,0.893,-8.953,2.271,1.423,6.278,2.859,0.000,1.759,2.136,0.000,3.272,1.759,0.000,2.871,2.462,0.000,2.720,0.000,0.000,0.000,0.000,0.000,0.000,0.000,2.707,0.000,0.000,0.000,3.142,6.280,0.000,1.006,1.568,1.567,4.081,6.281,1.199,4.712,0.000,0.000,0.261,-8.716,0.990,5.415,4.708,4.714,5.281,4.710,4.709,2.198,6.282,5.083,1.570,0.000,0.000,0.762,-8.292,0.990,5.415,4.706,4.717,
29.880,36.321,0.807,-8.851,2.271,1.155,6.265,2.725,0.000,1.771,1.967,0.000,3.403,1.847,0.000,2.751,2.360,0.000,2.720,0.000,0.000,0.000,0.000,0.000,0.000,0.000,2.598,0.000,0.000,0.000,3.142,0.001,0.001,1.002,1.570,1.571,4.089,6.281,1.200,4.712,0.000,0.000,0.176,-8.611,0.989,5.411,4.702,4.720,5.281,4.712,4.713,2.198,6.282,5.083,1.570,0.000,0.000,0.678,-8.189,0.990,5.411,4.705,4.717,
29.980,36.421,0.748,-8.781,2.271,0.797,6.265,2.633,0.000,1.544,1.851,0.000,3.493,1.908,0.000,2.668,2.289,0.000,2.755,0.000,0.000,0.000,0.000,0.000,0.000,0.000,2.547,0.000,0.000,0.000,3.142,0.000,0.001,1.003,1.570,1.570,4.087,6.281,1.199,4.712,0.000,0.000,0.117,-8.542,0.990,5.412,4.703,4.718,5.281,4.712,4.712,2.198,6.282,5.083,1.570,0.000,0.000,0.618,-8.119,0.990,5.413,4.705,4.717,
30.066,36.507,0.694,-8.718,2.272,0.944,6.266,2.550,0.000,1.414,1.746,0.000,3.574,1.963,0.000,2.593,2.226,0.000,2.755,0.000,0.000,0.000,0.000,0.000,0.000,0.000,2.409,0.000,0.000,0.000,3.142,6.281,0.000,1.005,1.569,1.568,4.083,6.281,1.199,4.712,0.000,0.000,0.063,-8.481,0.990,5.415,4.707,4.716,5.281,4.711,4.710,2.198,6.282,5.083,1.570,0.000,0.000,0.564,-8.057,0.990,5.415,4.705,4.717,
30.180,36.621,0.627,-8.638,2.272,1.124,6.266,2.446,0.000,1.251,1.729,0.000,3.676,2.090,0.000,2.500,2.147,0.000,2.755,0.000,0.000,0.000,0.000,0.000,0.000,0.000,2.390,0.000,0.000,0.000,3.142,6.282,0.000,1.004,1.569,1.569,4.084,6.281,1.199,4.712,0.000,0.000,-0.004,-8.401,0.990,5.415,4.706,4.716,5.281,4.711,4.711,2.198,6.282,5.083,1.570,0.000,0.000,0.497,-7.977,0.990,5.415,4.705,4.717,
30.280,36.721,0.573,-8.574,2.278,0.987,0.346,4.907,0.000,1.125,1.739,0.000,3.736,2.422,0.000,2.416,2.083,0.000,2.755,0.000,0.000,0.000,0.000,0.000,0.000,0.000,2.392,0.000,0.000,0.000,3.142,0.001,0.000,1.002,1.571,1.572,4.088,6.281,1.200,4.712,0.000,0.000,-0.059,-8.338,0.990,5.416,4.703,4.719,5.281,4.712,4.714,2.199,6.281,5.083,1.570,0.000,0.000,0.440,-7.912,0.991,5.417,4.706,4.717,
30.380,36.821,0.506,-8.499,2.375,0.786,1.378,4.789,0.000,1.116,1.800,0.000,3.464,3.723,4.194,1.723,2.035,0.000,2.650,0.000,0.000,0.000,0.000,0.000,0.000,0.000,0.000,0.000,0.000,0.000,3.142,0.002,0.000,1.003,1.571,1.572,4.086,6.281,1.199,4.712,0.000,0.000,-0.146,-8.325,0.990,5.514,4.706,4.716,5.282,4.713,4.714,2.198,6.282,5.083,1.571,0.000,0.000,0.310,-7.853,0.991,5.513,4.708,4.715,
30.480,36.921,0.445,-8.444,2.495,0.891,1.215,4.260,3.695,1.216,2.104,0.000,3.200,0.000,3.359,2.049,2.041,0.000,2.545,0.000,0.000,0.000,0.000,0.000,0.000,0.000,0.000,0.000,0.000,0.000,3.142,0.000,0.000,1.004,1.569,1.568,4.084,6.282,1.199,4.712,0.000,0.000,-0.223,-8.352,0.990,5.638,4.708,4.714,5.282,4.712,4.711,2.198,6.283,5.083,1.570,0.000,0.000,0.172,-7.828,0.991,5.637,4.708,4.714,
30.576,37.017,0.386,-8.401,2.567,0.963,0.888,3.989,3.646,1.240,2.478,4.737,3.114,0.000,2.989,1.962,2.048,0.000,2.510,0.000,0.000,0.000,0.000,0.000,0.000,0.000,0.000,0.000,0.000,0.000,3.142,0.000,0.000,1.004,1.569,1.569,4.085,6.282,1.199,4.712,0.000,0.000,-0.287,-8.357,0.990,5.710,4.707,4.714,5.282,4.712,4.711,2.198,6.282,5.083,1.570,0.000,0.000,0.069,-7.806,0.991,5.709,4.708,4.714,
30.680,37.121,0.291,-8.343,2.655,0.906,0.933,3.807,4.053,1.211,3.307,4.914,2.614,0.000,2.628,1.867,1.592,0.000,2.615,0.000,0.000,0.000,0.000,0.000,0.000,0.000,0.000,0.000,0.000,0.000,3.142,0.001,0.000,1.003,1.570,1.570,4.086,6.281,1.199,4.712,0.000,0.000,-0.384,-8.357,0.990,5.795,4.706,4.714,5.282,4.712,4.713,2.198,6.282,5.083,1.570,0.000,0.000,-0.077,-7.777,0.991,5.795,4.709,4.714,
30.780,37.221,0.213,-8.304,2.744,0.869,1.073,4.783,1.299,1.326,0.000,0.000,2.591,0.000,2.369,1.809,1.776,0.000,2.545,0.000,0.000,0.000,0.000,0.000,0.000,1.981,0.000,0.000,0.000,0.000,3.142,0.001,0.000,1.003,1.570,1.570,4.086,6.281,1.199,4.712,0.000,0.000,-0.457,-8.378,0.990,5.885,4.707,4.713,5.282,4.712,4.712,2.198,6.282,5.083,1.570,0.000,0.000,-0.203,-7.773,0.991,5.884,4.709,4.713,
30.880,37.321,0.149,-8.278,2.818,0.892,1.053,0.000,1.198,1.612,0.000,4.707,2.679,0.000,2.202,1.778,1.836,0.000,2.475,0.000,0.000,0.000,0.000,0.000,0.000,2.035,0.000,0.000,0.000,0.000,3.142,0.001,0.000,1.003,1.570,1.569,4.085,6.282,1.199,4.712,0.000,0.000,-0.514,-8.403,0.990,5.960,4.708,4.713,5.282,4.712,4.712,2.198,6.282,5.083,1.570,0.000,0.000,-0.305,-7.780,0.991,5.959,4.709,4.713,
30.962,37.403,0.046,-8.248,2.919,0.950,0.750,0.000,1.075,1.596,0.000,4.326,3.413,4.389,2.025,1.757,4.546,0.000,2.404,0.000,0.000,0.000,0.000,0.000,0.000,0.000,0.000,0.000,0.000,0.000,3.142,0.000,0.000,1.004,1.569,1.568,4.084,6.282,1.199,4.712,0.000,0.000,-0.601,-8.439,0.990,6.063,4.708,4.712,5.282,4.712,4.711,2.198,6.282,5.083,1.570,0.000,0.000,-0.457,-7.799,0.991,6.062,4.709,4.712,
31.080,37.521,-0.051,-8.227,2.941,1.053,6.254,0.000,1.021,0.845,0.000,4.365,3.890,3.238,1.976,1.740,4.297,0.000,2.404,0.000,0.000,0.000,0.000,0.000,0.000,0.000,0.000,0.000,0.000,0.000,3.142,6.282,0.000,1.004,1.569,1.568,4.084,6.281,1.199,4.712,0.000,0.000,-0.694,-8.433,0.990,6.085,4.708,4.712,5.281,4.711,4.710,2.198,6.282,5.083,1.570,0.000,0.000,-0.564,-7.790,0.990,6.085,4.708,4.712,
31.171,37.612,-0.133,-8.210,2.942,1.051,6.269,0.000,0.989,0.818,0.000,4.482,3.974,4.087,1.957,1.724,4.177,0.000,2.440,0.000,0.000,0.000,0.000,0.000,0.000,0.000,0.000,0.000,0.000,0.000,3.142,6.282,0.000,1.004,1.569,1.569,4.085,6.281,1.199,4.712,0.000,0.000,-0.775,-8.416,0.990,6.084,4.707,4.712,5.281,4.711,4.711,2.198,6.282,5.083,1.570,0.000,0.000,-0.645,-7.773,0.990,6.084,4.708,4.713,
31.280,37.721,-0.251,-8.186,2.942,0.990,6.268,0.000,0.943,0.780,0.000,4.649,4.098,4.028,1.929,1.700,4.005,0.000,2.475,0.000,0.000,0.000,0.000,0.000,0.000,0.000,0.000,0.000,0.000,0.000,3.142,6.282,0.000,1.004,1.569,1.569,4.085,6.281,1.199,4.712,0.000,0.000,-0.893,-8.392,0.990,6.084,4.707,4.712,5.281,4.711,4.711,2.198,6.282,5.083,1.570,0.000,0.000,-0.763,-7.749,0.990,6.084,4.708,4.713,
31.380,37.821,-0.327,-8.171,2.938,0.992,6.042,0.000,2.963,0.755,0.000,4.775,4.106,4.021,1.915,1.242,3.908,0.000,2.475,0.000,0.000,0.000,0.000,0.000,0.000,0.000,0.000,0.000,0.000,0.000,3.142,6.281,0.001,1.004,1.568,1.567,4.084,6.281,1.199,4.712,0.000,0.000,-0.970,-8.376,0.990,6.082,4.708,4.712,5.281,4.710,4.710,2.197,6.282,5.083,1.570,0.000,0.000,-0.838,-7.733,0.990,6.082,4.707,4.713,
31.480,37.921,-0.443,-8.145,2.853,1.024,4.978,0.000,2.647,0.720,1.890,0.000,3.457,3.581,1.988,1.208,4.130,0.000,2.615,0.000,0.000,0.000,0.000,0.000,0.000,0.000,0.000,0.000,0.000,0.000,3.142,6.280,0.001,1.005,1.568,1.565,4.084,6.281,1.199,4.711,0.000,0.000,-1.102,-8.295,0.990,5.999,4.708,4.712,5.282,4.710,4.708,2.197,6.282,5.083,1.570,0.000,0.000,-0.916,-7.665,0.991,5.998,4.708,4.712,
31.580,38.021,-0.539,-8.114,2.731,1.015,4.989,4.088,2.790,0.709,0.777,0.000,3.425,0.000,2.142,1.181,3.762,0.000,2.755,0.000,0.000,0.000,0.000,0.000,0.000,2.599,0.000,0.000,0.000,0.000,3.142,6.280,0.001,1.004,1.569,1.567,4.085,6.281,1.199,4.712,0.000,0.000,-1.211,-8.182,0.990,5.875,4.707,4.713,5.282,4.711,4.710,2.198,6.282,5.083,1.570,0.000,0.000,-0.949,-7.579,0.991,5.874,4.708,4.713,
31.672,38.113,-0.629,-8.073,2.668,1.004,6.170,3.573,2.662,0.709,0.745,0.000,4.078,0.000,2.214,1.147,3.705,0.000,2.826,0.000,0.000,0.000,0.000,0.000,0.000,2.609,0.000,0.000,0.000,0.000,3.142,6.282,0.000,1.004,1.570,1.571,4.085,6.280,1.199,4.712,0.000,0.000,-1.303,-8.095,0.990,5.807,4.707,4.714,5.282,4.712,4.713,2.198,6.281,5.083,1.571,0.000,0.000,-1.004,-7.511,0.991,5.807,4.708,4.714,
31.780,38.221,-0.717,-8.028,2.669,1.010,6.271,3.477,2.573,1.561,0.740,0.000,4.174,0.000,2.148,1.545,3.534,0.000,2.861,0.000,0.000,0.000,0.000,0.000,0.000,2.772,0.000,0.000,0.000,0.000,3.142,6.283,0.000,1.003,1.569,1.569,4.085,6.281,1.199,4.712,0.000,0.000,-1.391,-8.052,0.990,5.811,4.707,4.714,5.281,4.711,4.711,2.198,6.282,5.083,1.570,0.000,0.000,-1.093,-7.468,0.990,5.811,4.708,4.714,
31.880,38.321,-0.788,-7.992,2.670,1.015,6.266,3.401,2.501,1.610,0.736,0.000,4.252,0.000,2.095,1.206,3.495,0.000,2.896,0.000,0.000,0.000,0.000,0.000,0.000,2.966,0.000,0.000,0.000,0.000,3.142,6.283,0.000,1.003,1.569,1.569,4.085,6.281,1.199,4.712,0.000,0.000,-1.462,-8.017,0.990,5.812,4.707,4.714,5.281,4.711,4.711,2.198,6.282,5.083,1.570,0.000,0.000,-1.164,-7.432,0.990,5.812,4.708,4.714,
31.980,38.421,-0.895,-7.937,2.671,1.013,6.259,3.285,2.393,3.056,0.729,0.000,4.370,0.000,2.017,1.151,3.435,0.000,2.931,0.000,0.000,0.000,0.000,0.000,0.000,0.000,0.000,0.000,0.000,0.000,3.142,6.283,0.000,1.003,1.569,1.569,4.085,6.281,1.199,4.712,0.000,0.000,-1.569,-7.963,0.990,5.813,4.707,4.714,5.281,4.711,4.711,2.198,6.282,5.083,1.570,0.000,0.000,-1.272,-7.378,0.990,5.813,4.708,4.714,
32.080,38.521,-0.966,-7.901,2.672,1.010,6.261,3.207,2.321,2.955,0.725,0.000,4.448,0.000,1.965,1.115,3.396,0.000,2.931,0.000,0.000,0.000,0.000,0.000,0.000,0.000,0.000,0.000,0.000,0.000,3.142,6.283,0.000,1.003,1.569,1.569,4.085,6.281,1.199,4.712,0.000,0.000,-1.640,-7.928,0.990,5.814,4.707,4.714,5.281,4.711,4.711,2.198,6.282,5.083,1.570,0.000,0.000,-1.343,-7.343,0.990,5.814,4.707,4.714,
32.180,38.621,-1.072,-7.847,2.673,1.011,6.261,3.090,2.214,2.803,0.842,1.284,4.565,0.000,1.888,1.060,3.336,0.000,2.966,0.000,0.000,0.000,0.000,0.000,0.000,0.000,0.000,0.000,0.000,0.000,3.142,6.283,0.000,1.004,1.569,1.569,4.085,6.281,1.199,4.712,0.000,0.000,-1.746,-7.874,0.990,5.815,4.707,4.714,5.281,4.711,4.711,2.198,6.282,5.083,1.570,0.000,0.000,-1.450,-7.289,0.990,5.815,4.707,4.714,
32.280,38.721,-1.161,-7.802,2.674,1.013,6.262,2.991,2.124,2.676,1.097,1.274,4.663,0.000,1.823,1.150,3.287,0.000,3.001,0.000,0.000,0.000,0.000,0.000,0.000,0.000,0.000,0.000,0.000,0.000,3.142,6.283,0.000,1.004,1.569,1.569,4.085,6.281,1.199,4.712,0.000,0.000,-1.835,-7.830,0.990,5.815,4.707,4.714,5.281,4.711,4.711,2.198,6.282,5.083,1.570,0.000,0.000,-1.539,-7.245,0.990,5.815,4.707,4.714,
32.368,38.809,-1.232,-7.767,2.674,1.012,6.263,2.912,2.052,2.574,1.402,1.267,4.741,0.000,1.772,4.110,3.247,0.000,3.036,0.000,0.000,0.000,0.000,0.000,0.000,0.000,0.000,0.000,0.000,0.000,3.142,6.282,0.000,1.004,1.569,1.569,4.085,6.281,1.199,4.712,0.000,0.000,-1.906,-7.794,0.990,5.816,4.707,4.714,5.281,4.711,4.711,2.198,6.282,5.083,1.570,0.000,0.000,-1.611,-7.209,0.990,5.816,4.707,4.714,
32.480,38.921,-1.339,-7.713,2.675,1.011,6.264,2.793,2.133,2.420,1.456,1.255,4.859,0.000,1.696,3.835,3.187,0.000,3.071,0.000,0.000,0.000,0.000,0.000,0.000,0.000,0.000,0.000,0.000,0.000,3.142,6.282,0.000,1.004,1.569,1.569,4.085,6.281,1.199,4.712,0.000,0.000,-2.013,-7.741,0.990,5.817,4.707,4.714,5.281,4.711,4.711,2.198,6.282,5.083,1.570,0.000,0.000,-1.718,-7.155,0.990,5.817,4.707,4.714,
32.580,39.021,-1.410,-7.677,2.675,1.011,6.263,2.713,2.324,2.318,1.492,1.247,4.937,4.465,1.645,4.019,3.377,0.000,3.106,0.000,0.000,0.000,0.000,0.000,0.000,0.000,0.000,0.000,0.000,0.000,3.142,6.282,0.000,1.004,1.569,1.569,4.085,6.281,1.199,4.712,0.000,0.000,-2.084,-7.706,0.990,5.817,4.707,4.714,5.281,4.711,4.711,2.198,6.282,5.083,1.570,0.000,0.000,-1.789,-7.120,0.990,5.817,4.707,4.714,
32.669,39.110,-1.512,-7.626,2.703,0.910,0.820,2.752,2.270,2.235,1.538,1.294,4.545,0.000,1.127,4.514,3.008,0.000,3.106,0.000,0.000,0.000,0.000,0.000,0.000,0.000,0.000,0.000,0.000,0.000,3.142,0.002,0.000,1.002,1.571,1.573,4.087,6.281,1.199,4.712,0.000,0.000,-2.184,-7.671,0.990,5.840,4.706,4.715,5.281,4.713,4.714,2.199,6.281,5.083,1.571,0.000,0.000,-1.905,-7.077,0.991,5.840,4.709,4.714,
32.780,39.221,-1.591,-7.591,2.799,0.842,1.005,4.847,1.740,2.384,1.566,1.546,4.578,3.829,0.996,4.237,2.447,0.000,3.001,0.000,0.000,0.000,0.000,0.000,0.000,0.000,0.000,0.000,0.000,0.000,3.142,0.001,0.000,1.003,1.570,1.569,4.086,6.282,1.199,4.712,0.000,0.000,-2.257,-7.703,0.990,5.941,4.707,4.713,5.282,4.712,4.712,2.198,6.283,5.083,1.570,0.000,0.000,-2.036,-7.085,0.991,5.941,4.709,4.713,
32.880,39.321,-1.652,-7.570,2.833,0.801,0.051,4.127,1.696,2.393,1.588,1.642,4.883,3.374,1.133,4.100,2.235,0.000,2.966,0.000,0.000,0.000,0.000,0.000,0.000,0.000,0.000,0.000,0.000,0.000,3.142,6.283,0.001,1.004,1.568,1.566,4.085,6.282,1.199,4.711,0.000,0.000,-2.314,-7.706,0.990,5.978,4.707,4.712,5.281,4.710,4.709,2.198,6.283,5.083,1.570,0.000,0.000,-2.114,-7.081,0.990,5.978,4.708,4.712,
32.980,39.421,-1.742,-7.542,2.832,0.819,6.273,4.033,1.674,2.232,1.616,1.586,4.978,3.287,1.288,4.227,2.087,0.000,2.966,0.000,0.000,0.000,0.000,0.000,0.000,0.000,0.000,0.000,0.000,0.000,3.142,6.282,0.000,1.004,1.569,1.569,4.084,6.281,1.199,4.712,0.000,0.000,-2.403,-7.676,0.990,5.975,4.708,4.713,5.281,4.711,4.711,2.197,6.282,5.083,1.570,0.000,0.000,-2.204,-7.051,0.990,5.975,4.707,4.713,
33.080,39.521,-1.804,-7.522,2.832,0.842,6.272,3.968,1.734,1.899,1.636,1.549,0.000,3.225,1.396,4.316,1.984,0.000,3.142,0.000,0.000,0.000,0.000,0.000,0.000,0.000,0.000,0.000,0.000,0.000,3.142,6.282,0.000,1.004,1.569,1.569,4.084,6.281,1.199,4.712,0.000,0.000,-2.465,-7.656,0.990,5.975,4.708,4.713,5.281,4.711,4.711,2.197,6.282,5.083,1.570,0.000,0.000,-2.266,-7.031,0.990,5.975,4.707,4.713,
33.180,39.621,-1.898,-7.492,2.832,0.831,6.271,3.870,1.825,1.954,1.666,1.492,0.000,3.131,1.558,4.452,1.828,0.000,3.142,0.000,0.000,0.000,0.000,0.000,0.000,0.000,0.000,0.000,0.000,0.000,3.142,6.282,0.000,1.004,1.569,1.569,4.085,6.281,1.199,4.712,0.000,0.000,-2.559,-7.626,0.990,5.974,4.707,4.713,5.281,4.711,4.711,2.197,6.282,5.083,1.570,0.000,0.000,-2.360,-7.001,0.990,5.974,4.707,4.713,
33.280,39.721,-1.960,-7.472,2.832,0.820,6.270,3.806,1.884,1.850,1.686,1.455,0.000,3.069,0.000,4.542,1.726,0.000,3.142,0.000,0.000,0.000,0.000,0.000,0.000,0.000,0.000,0.000,0.000,0.000,3.142,6.282,0.000,1.004,1.569,1.569,4.085,6.281,1.199,4.712,0.000,0.000,-2.621,-7.606,0.990,5.974,4.707,4.713,5.281,4.711,4.711,2.198,6.282,5.083,1.570,0.000,0.000,-2.421,-6.981,0.990,5.974,4.707,4.713,
33.380,39.821,-2.052,-7.443,2.832,0.826,6.269,3.710,4.506,1.886,1.715,1.483,0.000,1.625,0.000,0.000,1.573,0.000,3.142,0.000,0.000,0.000,0.000,0.000,0.000,0.000,0.000,0.000,0.000,0.000,3.142,6.282,0.000,1.004,1.569,1.569,4.085,6.281,1.199,4.712,0.000,0.000,-2.713,-7.577,0.990,5.974,4.707,4.713,5.281,4.711,4.711,2.198,6.282,5.083,1.570,0.000,0.000,-2.514,-6.952,0.990,5.975,4.707,4.713,
33.480,39.921,-2.129,-7.418,2.832,0.832,6.269,3.629,4.401,1.915,0.000,1.569,0.000,1.707,0.000,0.000,1.444,0.000,3.142,0.000,0.000,0.000,0.000,0.000,0.000,0.000,0.000,0.000,0.000,0.000,3.142,6.282,0.000,1.004,1.569,1.569,4.085,6.281,1.199,4.712,0.000,0.000,-2.790,-7.552,0.990,5.974,4.707,4.713,5.281,4.711,4.711,2.198,6.282,5.083,1.570,0.000,0.000,-2.591,-6.927,0.990,5.975,4.707,4.713,
33.571,40.012,-2.191,-7.398,2.832,0.829,6.268,3.564,4.318,1.939,0.000,1.637,0.000,2.832,0.000,0.000,1.341,0.000,3.142,0.000,0.000,0.000,0.000,0.000,0.000,0.000,0.000,0.000,0.000,0.000,3.142,6.282,0.000,1.004,1.569,1.569,4.085,6.281,1.199,4.712,0.000,0.000,-2.852,-7.532,0.990,5.975,4.707,4.713,5.281,4.711,4.711,2.198,6.282,5.083,1.570,0.000,0.000,-2.653,-6.907,0.990,5.975,4.707,4.713,
33.680,40.121,-2.291,-7.366,2.852,0.970,0.688,3.440,4.251,1.752,0.000,1.735,0.000,1.693,0.000,2.468,1.146,0.000,3.142,0.000,0.000,0.000,0.000,0.000,0.000,0.000,0.000,0.000,0.000,0.000,3.142,0.000,0.000,1.004,1.570,1.572,4.085,6.281,1.199,4.712,0.000,0.000,-2.949,-7.512,0.990,5.991,4.708,4.713,5.281,4.712,4.714,2.199,6.281,5.083,1.571,0.000,0.000,-2.762,-6.883,0.991,5.991,4.709,4.713,
