deveshdatwani/Gopher/Assets/Data/07-21 09-56-41/Obstacle Handling_robot_value.csv
game_time,true_time,x,y,az,vx,vaz,dis_to_obs_0,dis_to_obs_36,dis_to_obs_72,dis_to_obs_108,dis_to_obs_144,dis_to_obs_180,dis_to_obs_-144,dis_to_obs_-108,dis_to_obs_-72,dis_to_obs_-36,dis_to_min_obs,direction_to_min_obs,dis_to_human_0,dis_to_human_36,dis_to_human_72,dis_to_human_108,dis_to_human_144,dis_to_human_180,dis_to_human_-144,dis_to_human_-108,dis_to_human_-72,dis_to_human_-36,dis_to_min_human,direction_to_min_human,main_cam_yaw,main_cam_pitch,left_joint_1,left_joint_2,left_joint_3,left_joint_4,left_joint_5,left_joint_6,left_joint_7,left_joint_gripper,left_is_grasping,left_end_x,left_end_y,left_end_z,left_end_ax,left_end_ay,left_end_az,right_joint_1,right_joint_2,right_joint_3,right_joint_4,right_joint_5,right_joint_6,right_joint_7,right_joint_gripper,right_is_grasping,right_end_x,right_end_y,right_end_z,right_end_ax,right_end_ay,right_end_az,
16.988,23.489,0.998,-10.190,1.576,0.000,6.271,3.691,0.000,1.741,1.258,2.122,4.722,3.103,2.097,1.695,4.498,0.000,0.860,0.000,0.000,0.000,0.000,0.000,0.000,0.000,0.000,0.000,0.000,0.000,3.142,6.283,0.000,1.003,1.569,1.569,4.085,6.281,1.199,4.712,0.000,0.000,0.666,-9.603,0.990,4.720,3.961,5.463,5.281,4.711,4.712,2.198,6.282,5.083,1.570,0.000,0.000,1.322,-9.599,0.990,4.719,4.040,5.384,
17.083,23.678,0.998,-10.190,1.576,0.000,6.271,3.691,0.000,1.741,1.258,2.122,4.722,3.103,2.097,1.695,4.498,0.000,0.860,0.000,0.000,0.000,0.000,0.000,0.000,0.000,0.000,0.000,0.000,0.000,3.142,6.283,0.000,1.003,1.569,1.569,4.085,6.281,1.199,4.712,0.000,0.000,0.666,-9.603,0.990,4.720,3.960,5.464,5.281,4.711,4.712,2.198,6.282,5.083,1.570,0.000,0.000,1.322,-9.599,0.990,4.719,4.041,5.383,
17.182,23.877,0.998,-10.190,1.576,0.000,6.271,3.691,0.000,1.741,1.258,2.122,4.722,3.103,2.097,1.695,4.498,0.000,0.860,0.000,0.000,0.000,0.000,0.000,0.000,0.000,0.000,0.000,0.000,0.000,3.142,6.283,0.000,1.003,1.569,1.569,4.085,6.281,1.199,4.712,0.000,0.000,0.666,-9.603,0.990,4.720,3.960,5.464,5.281,4.711,4.712,2.198,6.282,5.083,1.570,0.000,0.000,1.322,-9.599,0.990,4.719,4.041,5.384,
17.293,24.099,0.998,-10.190,1.576,0.000,6.271,3.691,0.000,1.741,1.258,2.122,4.722,3.103,2.097,1.695,4.498,0.000,0.860,0.000,0.000,0.000,0.000,0.000,0.000,0.000,0.000,0.000,0.000,0.000,3.142,6.283,0.000,1.003,1.569,1.569,4.085,6.281,1.199,4.712,0.000,0.000,0.666,-9.603,0.990,4.720,3.960,5.464,5.281,4.711,4.712,2.198,6.282,5.083,1.570,0.000,0.000,1.322,-9.599,0.990,4.719,4.041,5.383,
17.400,24.312,0.998,-10.190,1.576,0.000,6.271,3.691,0.000,1.741,1.258,2.122,4.722,3.103,2.097,1.695,4.498,0.000,0.860,0.000,0.000,0.000,0.000,0.000,0.000,0.000,0.000,0.000,0.000,0.000,3.142,6.283,0.000,1.003,1.569,1.569,4.085,6.281,1.199,4.712,0.000,0.000,0.666,-9.603,0.990,4.720,3.960,5.463,5.281,4.711,4.712,2.198,6.282,5.083,1.570,0.000,0.000,1.322,-9.599,0.990,4.719,4.041,5.383,
17.489,24.491,0.998,-10.190,1.576,0.000,6.271,3.691,0.000,1.741,1.258,2.122,4.722,3.103,2.097,1.695,4.498,0.000,0.860,0.000,0.000,0.000,0.000,0.000,0.000,0.000,0.000,0.000,0.000,0.000,3.142,6.283,0.000,1.003,1.569,1.569,4.085,6.281,1.199,4.712,0.000,0.000,0.666,-9.603,0.990,4.720,3.960,5.464,5.281,4.711,4.712,2.198,6.282,5.083,1.570,0.000,0.000,1.322,-9.599,0.990,4.719,4.041,5.383,
17.589,24.690,0.998,-10.190,1.576,0.000,6.271,3.691,0.000,1.741,1.258,2.122,4.722,3.103,2.097,1.695,4.498,0.000,0.860,0.000,0.000,0.000,0.000,0.000,0.000,0.000,0.000,0.000,0.000,0.000,3.142,6.283,0.000,1.003,1.569,1.569,4.085,6.281,1.199,4.712,0.000,0.000,0.666,-9.603,0.990,4.720,3.960,5.464,5.281,4.711,4.712,2.198,6.282,5.083,1.570,0.000,0.000,1.322,-9.599,0.990,4.719,4.041,5.383,
17.685,24.882,0.998,-10.190,1.576,0.000,6.271,3.691,0.000,1.741,1.258,2.122,4.722,3.103,2.097,1.695,4.498,0.000,0.860,0.000,0.000,0.000,0.000,0.000,0.000,0.000,0.000,0.000,0.000,0.000,3.142,6.283,0.000,1.003,1.569,1.569,4.085,6.281,1.199,4.712,0.000,0.000,0.666,-9.603,0.990,4.720,3.960,5.463,5.281,4.711,4.712,2.198,6.282,5.083,1.570,0.000,0.000,1.322,-9.599,0.990,4.719,4.041,5.383,
17.785,25.082,0.998,-10.190,1.576,0.000,6.271,3.691,0.000,1.741,1.258,2.122,4.722,3.103,2.097,1.695,4.498,0.000,0.860,0.000,0.000,0.000,0.000,0.000,0.000,0.000,0.000,0.000,0.000,0.000,3.142,6.283,0.000,1.003,1.569,1.569,4.085,6.281,1.199,4.712,0.000,0.000,0.666,-9.603,0.990,4.720,3.960,5.464,5.281,4.711,4.712,2.198,6.282,5.083,1.570,0.000,0.000,1.322,-9.599,0.990,4.719,4.041,5.383,
17.897,25.306,0.998,-10.190,1.576,0.000,6.271,3.691,0.000,1.741,1.258,2.122,4.722,3.103,2.097,1.695,4.498,0.000,0.860,0.000,0.000,0.000,0.000,0.000,0.000,0.000,0.000,0.000,0.000,0.000,3.142,6.283,0.000,1.003,1.569,1.569,4.085,6.281,1.199,4.712,0.000,0.000,0.666,-9.603,0.990,4.720,3.960,5.464,5.281,4.711,4.712,2.198,6.282,5.083,1.570,0.000,0.000,1.322,-9.599,0.990,4.719,4.041,5.383,
17.981,25.474,0.998,-10.190,1.576,0.000,6.271,3.691,0.000,1.741,1.258,2.122,4.722,3.103,2.097,1.695,4.498,0.000,0.860,0.000,0.000,0.000,0.000,0.000,0.000,0.000,0.000,0.000,0.000,0.000,3.142,6.283,0.000,1.003,1.569,1.569,4.085,6.281,1.199,4.712,0.000,0.000,0.666,-9.603,0.990,4.720,3.960,5.464,5.281,4.711,4.712,2.198,6.282,5.083,1.570,0.000,0.000,1.322,-9.599,0.990,4.719,4.041,5.384,
18.091,25.695,0.998,-10.190,1.576,0.000,6.271,3.691,0.000,1.741,1.258,2.122,4.722,3.103,2.097,1.695,4.498,0.000,0.860,0.000,0.000,0.000,0.000,0.000,0.000,0.000,0.000,0.000,0.000,0.000,3.142,6.283,0.000,1.003,1.569,1.569,4.085,6.281,1.199,4.712,0.000,0.000,0.666,-9.603,0.990,4.720,3.960,5.463,5.281,4.711,4.712,2.198,6.282,5.083,1.570,0.000,0.000,1.322,-9.599,0.990,4.719,4.041,5.383,
18.191,25.894,0.998,-10.190,1.576,0.000,6.271,3.691,0.000,1.741,1.258,2.122,4.722,3.103,2.097,1.695,4.498,0.000,0.860,0.000,0.000,0.000,0.000,0.000,0.000,0.000,0.000,0.000,0.000,0.000,3.142,6.283,0.000,1.003,1.569,1.569,4.085,6.281,1.199,4.712,0.000,0.000,0.666,-9.603,0.990,4.720,3.960,5.463,5.281,4.711,4.712,2.198,6.282,5.083,1.570,0.000,0.000,1.322,-9.599,0.990,4.719,4.041,5.383,
18.285,26.081,0.998,-10.190,1.576,0.000,6.271,3.691,0.000,1.741,1.258,2.122,4.722,3.103,2.097,1.695,4.498,0.000,0.860,0.000,0.000,0.000,0.000,0.000,0.000,0.000,0.000,0.000,0.000,0.000,3.142,6.283,0.000,1.003,1.569,1.569,4.085,6.281,1.199,4.712,0.000,0.000,0.666,-9.603,0.990,4.720,3.960,5.464,5.281,4.711,4.712,2.198,6.282,5.083,1.570,0.000,0.000,1.322,-9.599,0.990,4.719,4.041,5.384,
18.384,26.281,0.998,-10.190,1.576,0.000,6.271,3.691,0.000,1.741,1.258,2.122,4.722,3.103,2.097,1.695,4.498,0.000,0.860,0.000,0.000,0.000,0.000,0.000,0.000,0.000,0.000,0.000,0.000,0.000,3.142,6.283,0.000,1.003,1.569,1.569,4.085,6.281,1.199,4.712,0.000,0.000,0.666,-9.603,0.990,4.720,3.960,5.463,5.281,4.711,4.712,2.198,6.282,5.083,1.570,0.000,0.000,1.322,-9.599,0.990,4.719,4.041,5.383,
18.496,26.504,0.998,-10.190,1.576,0.000,6.271,3.691,0.000,1.741,1.258,2.122,4.722,3.103,2.097,1.695,4.498,0.000,0.860,0.000,0.000,0.000,0.000,0.000,0.000,0.000,0.000,0.000,0.000,0.000,3.142,6.283,0.000,1.003,1.569,1.569,4.085,6.281,1.199,4.712,0.000,0.000,0.666,-9.603,0.990,4.720,3.960,5.464,5.281,4.711,4.712,2.198,6.282,5.083,1.570,0.000,0.000,1.322,-9.599,0.990,4.719,4.041,5.383,
18.595,26.702,0.998,-10.190,1.576,0.000,6.271,3.691,0.000,1.741,1.258,2.122,4.722,3.103,2.097,1.695,4.498,0.000,0.860,0.000,0.000,0.000,0.000,0.000,0.000,0.000,0.000,0.000,0.000,0.000,3.142,6.283,0.000,1.003,1.569,1.569,4.085,6.281,1.199,4.712,0.000,0.000,0.666,-9.603,0.990,4.720,3.960,5.463,5.281,4.711,4.712,2.198,6.282,5.083,1.570,0.000,0.000,1.322,-9.599,0.990,4.719,4.041,5.383,
18.688,26.888,0.998,-10.190,1.576,0.000,6.271,3.691,0.000,1.741,1.258,2.122,4.722,3.103,2.097,1.695,4.498,0.000,0.860,0.000,0.000,0.000,0.000,0.000,0.000,0.000,0.000,0.000,0.000,0.000,3.142,6.283,0.000,1.003,1.569,1.569,4.085,6.281,1.199,4.712,0.000,0.000,0.666,-9.603,0.990,4.720,3.960,5.464,5.281,4.711,4.712,2.198,6.282,5.083,1.570,0.000,0.000,1.322,-9.599,0.990,4.719,4.041,5.383,
18.789,27.090,0.998,-10.190,1.576,0.000,6.271,3.691,0.000,1.741,1.258,2.122,4.722,3.103,2.097,1.695,4.498,0.000,0.860,0.000,0.000,0.000,0.000,0.000,0.000,0.000,0.000,0.000,0.000,0.000,3.142,6.283,0.000,1.003,1.569,1.569,4.085,6.281,1.199,4.712,0.000,0.000,0.666,-9.603,0.990,4.720,3.960,5.464,5.281,4.711,4.712,2.198,6.282,5.083,1.570,0.000,0.000,1.322,-9.599,0.990,4.719,4.041,5.383,
18.882,27.277,0.998,-10.190,1.576,0.000,6.271,3.691,0.000,1.741,1.258,2.122,4.722,3.103,2.097,1.695,4.498,0.000,0.860,0.000,0.000,0.000,0.000,0.000,0.000,0.000,0.000,0.000,0.000,0.000,3.142,6.283,0.000,1.003,1.569,1.569,4.085,6.281,1.199,4.712,0.000,0.000,0.666,-9.603,0.990,4.720,3.960,5.464,5.281,4.711,4.712,2.198,6.282,5.083,1.570,0.000,0.000,1.322,-9.599,0.990,4.719,4.041,5.383,
18.984,27.479,0.998,-10.190,1.576,0.000,6.271,3.691,0.000,1.741,1.258,2.122,4.722,3.103,2.097,1.695,4.498,0.000,0.860,0.000,0.000,0.000,0.000,0.000,0.000,0.000,0.000,0.000,0.000,0.000,3.142,6.283,0.000,1.003,1.569,1.569,4.085,6.281,1.199,4.712,0.000,0.000,0.666,-9.603,0.990,4.720,3.960,5.464,5.281,4.711,4.712,2.198,6.282,5.083,1.570,0.000,0.000,1.322,-9.599,0.990,4.719,4.041,5.383,
19.100,27.617,0.998,-10.190,1.576,0.000,6.271,3.691,0.000,1.741,1.258,2.122,4.722,3.103,2.097,1.695,4.498,0.000,0.860,0.000,0.000,0.000,0.000,0.000,0.000,0.000,0.000,0.000,0.000,0.000,3.142,6.283,0.000,1.003,1.569,1.569,4.085,6.281,1.199,4.712,0.000,0.000,0.666,-9.603,0.990,4.720,3.960,5.464,5.281,4.711,4.712,2.198,6.282,5.083,1.570,0.000,0.000,1.322,-9.599,0.990,4.719,4.041,5.383,
19.200,27.717,0.998,-10.190,1.576,0.000,6.271,3.691,0.000,1.741,1.258,2.122,4.722,3.103,2.097,1.695,4.498,0.000,0.860,0.000,0.000,0.000,0.000,0.000,0.000,0.000,0.000,0.000,0.000,0.000,3.142,6.283,0.000,1.003,1.569,1.569,4.085,6.281,1.199,4.712,0.000,0.000,0.666,-9.603,0.990,4.720,3.960,5.464,5.281,4.711,4.712,2.198,6.282,5.083,1.570,0.000,0.000,1.322,-9.599,0.990,4.719,4.041,5.383,
19.283,27.800,0.998,-10.190,1.576,0.000,6.271,3.691,0.000,1.741,1.258,2.122,4.722,3.103,2.097,1.695,4.498,0.000,0.860,0.000,0.000,0.000,0.000,0.000,0.000,0.000,0.000,0.000,0.000,0.000,3.142,6.283,0.000,1.003,1.569,1.569,4.085,6.281,1.199,4.712,0.000,0.000,0.666,-9.603,0.990,4.720,3.960,5.464,5.281,4.711,4.712,2.198,6.282,5.083,1.570,0.000,0.000,1.322,-9.599,0.990,4.719,4.041,5.383,
19.400,27.917,0.998,-10.190,1.576,0.000,6.271,3.691,0.000,1.741,1.258,2.122,4.722,3.103,2.097,1.695,4.498,0.000,0.860,0.000,0.000,0.000,0.000,0.000,0.000,0.000,0.000,0.000,0.000,0.000,3.142,6.283,0.000,1.003,1.569,1.569,4.085,6.281,1.199,4.712,0.000,0.000,0.666,-9.603,0.990,4.720,3.960,5.464,5.281,4.711,4.712,2.198,6.282,5.083,1.570,0.000,0.000,1.322,-9.599,0.990,4.719,4.041,5.383,
19.500,28.017,0.998,-10.180,1.577,0.390,0.003,3.681,0.000,1.754,1.258,2.123,4.732,3.117,2.096,1.696,4.485,0.000,0.860,0.000,0.000,0.000,0.000,0.000,0.000,0.000,0.000,0.000,0.000,0.000,3.142,6.278,6.283,1.007,1.567,1.566,4.078,6.282,1.199,4.712,0.000,0.000,0.663,-9.595,0.991,4.723,4.640,4.784,5.282,4.710,4.708,2.197,6.282,5.083,1.570,0.000,0.000,1.320,-9.588,0.991,4.723,4.288,5.136,
19.593,28.110,0.998,-10.077,1.576,1.302,6.272,3.578,0.000,1.907,1.257,2.120,4.835,3.243,2.097,1.696,4.362,0.000,2.861,0.000,0.000,0.000,0.000,0.000,0.000,0.000,0.000,0.000,0.000,0.000,3.142,6.279,6.283,1.007,1.567,1.566,4.079,6.281,1.199,4.712,0.000,0.000,0.664,-9.492,0.990,4.722,4.556,4.868,5.282,4.710,4.709,2.197,6.282,5.083,1.570,0.000,0.000,1.320,-9.486,0.991,4.722,4.249,5.175,
19.700,28.217,0.997,-9.942,1.576,1.287,6.247,3.442,0.000,2.106,1.256,2.118,4.970,3.368,2.098,1.696,4.197,0.000,3.001,0.000,0.000,0.000,0.000,0.000,0.000,0.000,0.000,0.000,0.000,0.000,3.142,6.283,0.001,1.003,1.570,1.570,4.087,6.281,1.200,4.712,0.000,0.000,0.666,-9.354,0.990,4.720,3.797,5.627,5.281,4.711,4.712,2.197,6.282,5.083,1.570,0.000,0.000,1.321,-9.350,0.990,4.719,3.915,5.509,
19.784,28.300,0.997,-9.838,1.540,0.856,5.374,3.338,0.000,1.696,1.241,2.012,0.000,3.452,2.123,1.677,4.177,0.000,3.142,0.000,0.000,0.000,0.000,0.000,0.000,0.000,0.000,0.000,0.000,0.000,3.142,6.282,0.001,1.003,1.568,1.567,4.087,6.281,1.199,4.712,0.000,0.000,0.684,-9.238,0.990,4.741,1.783,1.357,5.281,4.711,4.709,2.197,6.282,5.083,1.570,0.000,0.000,1.340,-9.258,0.990,4.741,1.767,1.373,
19.900,28.417,1.001,-9.757,1.428,0.875,4.847,3.282,3.383,1.631,1.374,1.759,0.000,3.316,2.220,1.628,4.480,0.000,3.142,0.000,0.000,0.000,0.000,0.000,0.000,0.000,0.000,0.000,0.000,0.000,3.142,6.279,0.000,1.005,1.568,1.566,4.083,6.281,1.199,4.712,0.000,0.000,0.757,-9.127,0.990,4.851,1.600,1.540,5.282,4.710,4.709,2.197,6.282,5.083,1.570,0.000,0.000,1.407,-9.219,0.991,4.852,1.599,1.542,
19.982,28.499,1.017,-9.660,1.312,1.091,5.153,3.254,3.418,0.000,1.604,1.593,0.000,3.334,2.349,1.588,4.918,0.000,3.142,0.000,0.000,0.000,0.000,0.000,0.000,0.000,0.000,0.000,0.000,0.000,3.142,6.280,0.000,1.005,1.568,1.567,4.083,6.281,1.199,4.712,0.000,0.000,0.849,-9.007,0.990,4.969,1.587,1.554,5.282,4.711,4.710,2.197,6.282,5.083,1.570,0.000,0.000,1.484,-9.174,0.991,4.970,1.585,1.556,
20.100,28.617,1.047,-9.556,1.228,1.080,5.417,3.225,3.205,0.000,1.867,1.526,3.666,4.755,2.452,1.555,0.000,0.000,1.492,0.000,0.000,0.000,0.000,0.000,0.000,0.000,0.000,0.000,0.000,0.000,3.142,6.281,0.001,1.004,1.569,1.568,4.085,6.281,1.199,4.712,0.000,0.000,0.935,-8.890,0.990,5.054,1.586,1.555,5.282,4.711,4.711,2.198,6.282,5.083,1.570,0.000,0.000,1.553,-9.110,0.991,5.054,1.584,1.557,
20.200,28.717,1.075,-9.479,1.169,0.989,5.394,3.214,3.072,0.000,1.733,1.498,3.219,0.000,2.536,1.531,0.000,0.000,1.562,0.000,0.000,0.000,0.000,0.000,0.000,0.000,0.000,0.000,0.000,0.000,3.142,6.281,0.001,1.004,1.569,1.568,4.086,6.281,1.199,4.712,0.000,0.000,1.003,-8.808,0.990,5.113,1.584,1.557,5.281,4.711,4.710,2.197,6.282,5.083,1.570,0.000,0.000,1.607,-9.065,0.990,5.113,1.583,1.559,
20.300,28.817,1.114,-9.392,1.083,0.967,5.223,3.244,2.930,0.000,1.658,1.552,2.773,0.000,2.692,1.508,0.000,0.000,1.702,0.000,0.000,0.000,0.000,0.000,0.000,0.000,0.000,0.000,0.000,0.000,3.142,6.280,0.001,1.004,1.568,1.567,4.085,6.281,1.199,4.712,0.000,0.000,1.098,-8.717,0.990,5.197,1.581,1.560,5.282,4.711,4.710,2.197,6.282,5.083,1.570,0.000,0.000,1.679,-9.024,0.991,5.198,1.580,1.561,
20.400,28.917,1.162,-9.307,0.989,1.026,5.225,3.321,2.813,3.279,1.838,1.707,2.451,0.000,2.915,1.900,0.000,0.000,1.843,0.000,0.000,0.000,0.000,0.000,0.000,0.000,0.000,0.000,0.000,0.000,3.142,6.280,0.001,1.005,1.568,1.567,4.084,6.281,1.199,4.712,0.000,0.000,1.210,-8.633,0.990,5.292,1.579,1.562,5.282,4.711,4.710,2.197,6.282,5.083,1.570,0.000,0.000,1.759,-8.993,0.991,5.292,1.578,1.563,
20.500,29.017,1.220,-9.222,0.901,1.038,5.306,2.871,2.281,3.165,0.000,1.893,2.261,0.000,3.183,1.892,0.000,0.000,1.948,0.000,0.000,0.000,0.000,0.000,0.000,0.000,0.000,0.000,0.000,0.000,3.142,6.281,0.001,1.004,1.569,1.567,4.085,6.281,1.199,4.712,0.000,0.000,1.327,-8.556,0.990,5.381,1.579,1.563,5.282,4.711,4.710,2.197,6.282,5.083,1.570,0.000,0.000,1.842,-8.963,0.991,5.381,1.578,1.564,
20.600,29.117,1.297,-9.130,0.798,1.002,5.302,3.611,2.650,3.011,0.000,2.155,2.123,0.000,3.611,1.889,0.000,0.000,2.089,0.000,0.000,0.000,0.000,0.000,0.000,0.000,0.000,0.000,0.000,0.000,3.142,6.281,0.001,1.004,1.568,1.567,4.085,6.281,1.199,4.712,0.000,0.000,1.472,-8.478,0.990,5.483,1.578,1.564,5.282,4.711,4.710,2.197,6.282,5.083,1.570,0.000,0.000,1.943,-8.936,0.990,5.484,1.577,1.565,
20.700,29.217,1.353,-9.074,0.728,1.000,5.278,3.793,2.623,2.843,0.000,2.003,2.060,0.000,4.029,1.896,0.000,0.000,2.194,0.000,0.000,0.000,0.000,0.000,0.000,0.000,0.000,0.000,0.000,0.000,3.142,6.280,0.001,1.004,1.568,1.567,4.085,6.281,1.199,4.712,0.000,0.000,1.573,-8.436,0.990,5.553,1.577,1.565,5.282,4.711,4.710,2.197,6.282,5.083,1.570,0.000,0.000,2.010,-8.925,0.991,5.553,1.577,1.566,
20.800,29.317,1.428,-9.010,0.640,1.017,5.267,4.108,2.612,2.672,0.000,1.921,2.004,0.000,3.888,1.913,0.000,0.000,2.299,0.000,0.000,0.000,0.000,0.000,0.000,0.000,0.000,0.000,0.000,0.000,3.142,6.280,0.001,1.004,1.569,1.567,4.085,6.281,1.199,4.712,0.000,0.000,1.704,-8.393,0.990,5.641,1.577,1.566,5.282,4.711,4.710,2.197,6.282,5.083,1.570,0.000,0.000,2.096,-8.920,0.991,5.642,1.576,1.566,
20.884,29.401,1.510,-8.951,0.552,1.020,5.286,3.729,2.629,2.538,0.000,2.166,2.132,4.487,3.848,1.939,1.493,0.000,2.404,0.000,0.000,0.000,0.000,0.000,0.000,0.000,0.000,0.000,0.000,0.000,3.142,6.281,0.001,1.004,1.568,1.567,4.085,6.281,1.199,4.712,0.000,0.000,1.839,-8.361,0.990,5.729,1.576,1.566,5.282,4.711,4.710,2.197,6.282,5.083,1.570,0.000,0.000,2.183,-8.920,0.991,5.730,1.576,1.567,
21.000,29.517,1.614,-8.891,0.447,1.010,5.293,0.000,2.688,1.974,3.112,4.919,2.322,3.810,4.225,1.987,1.406,0.000,2.510,0.000,0.000,0.000,0.000,0.000,0.000,0.000,0.000,0.000,0.000,0.000,3.142,6.281,0.001,1.004,1.568,1.567,4.085,6.281,1.199,4.712,0.000,0.000,2.002,-8.339,0.990,5.834,1.576,1.567,5.282,4.711,4.710,2.197,6.282,5.083,1.570,0.000,0.000,2.287,-8.931,0.991,5.834,1.576,1.568,
21.095,29.612,1.704,-8.850,0.360,1.010,5.268,0.000,2.259,2.356,3.077,0.000,2.507,3.450,0.000,2.050,1.113,0.000,2.615,0.000,0.000,0.000,0.000,0.000,0.000,0.000,0.000,0.000,0.000,0.000,3.142,6.281,0.001,1.004,1.569,1.567,4.085,6.281,1.199,4.712,0.000,0.000,2.140,-8.334,0.990,5.921,1.576,1.568,5.282,4.711,4.710,2.197,6.282,5.083,1.570,0.000,0.000,2.371,-8.948,0.991,5.922,1.575,1.568,
21.189,29.705,1.798,-8.817,0.309,1.015,0.057,0.000,2.832,2.317,2.912,0.000,2.671,3.365,0.000,2.030,1.043,0.000,2.720,0.000,0.000,0.000,0.000,0.000,0.000,0.000,0.000,0.000,0.000,0.000,3.142,6.282,0.000,1.004,1.571,1.572,4.085,6.280,1.199,4.712,0.000,0.000,2.260,-8.326,0.990,5.978,1.576,1.569,5.282,4.712,4.714,2.198,6.281,5.083,1.571,0.000,0.000,2.460,-8.951,0.991,5.978,1.575,1.570,
21.300,29.817,1.893,-8.786,0.352,1.010,1.049,0.000,2.714,2.290,2.974,0.000,2.713,3.752,0.000,1.132,1.146,0.000,2.720,0.000,0.000,0.000,0.000,0.000,0.000,0.000,0.000,0.000,0.000,0.000,3.142,0.001,0.000,1.003,1.571,1.572,4.086,6.281,1.199,4.712,0.000,0.000,2.334,-8.276,0.990,5.935,1.576,1.569,5.282,4.713,4.714,2.199,6.281,5.083,1.571,0.000,0.000,2.560,-8.892,0.991,5.935,1.574,1.570,
21.400,29.917,1.967,-8.757,0.445,1.009,1.454,0.000,2.047,2.285,3.198,0.000,2.689,4.540,3.965,0.912,1.442,0.000,2.615,0.000,0.000,0.000,0.000,0.000,0.000,0.000,0.000,0.000,0.000,0.000,3.142,0.002,0.000,1.003,1.571,1.571,4.085,6.282,1.199,4.712,0.000,0.000,2.358,-8.208,0.990,5.839,1.576,1.568,5.282,4.713,4.713,2.198,6.282,5.083,1.571,0.000,0.000,2.641,-8.800,0.991,5.840,1.574,1.569,
21.491,30.007,2.056,-8.711,0.560,1.021,1.059,4.052,2.364,2.295,3.381,3.161,2.699,0.000,3.776,0.705,0.000,0.000,2.510,0.000,0.000,0.000,0.000,0.000,0.000,0.000,0.000,0.000,0.000,0.000,3.142,0.001,0.000,1.003,1.570,1.569,4.085,6.282,1.199,4.712,0.000,0.000,2.381,-8.120,0.990,5.722,1.576,1.567,5.282,4.712,4.711,2.198,6.283,5.083,1.570,0.000,0.000,2.730,-8.676,0.991,5.723,1.575,1.568,
21.600,30.117,2.157,-8.644,0.649,1.019,0.815,3.469,2.227,2.291,3.115,2.914,2.939,0.000,2.516,0.864,0.000,0.000,2.440,0.000,0.000,0.000,0.000,0.000,0.000,0.000,0.000,0.000,0.000,0.000,3.142,0.001,0.000,1.003,1.570,1.570,4.086,6.281,1.199,4.712,0.000,0.000,2.428,-8.027,0.990,5.635,1.577,1.566,5.281,4.712,4.712,2.198,6.282,5.083,1.570,0.000,0.000,2.824,-8.550,0.991,5.635,1.575,1.567,
21.693,30.210,2.220,-8.595,0.690,1.009,0.357,3.225,2.153,2.275,3.502,2.871,3.117,0.000,1.023,0.919,0.000,0.000,2.440,0.000,0.000,0.000,0.000,0.000,0.000,0.000,0.000,0.000,0.000,0.000,3.142,0.000,0.000,1.004,1.569,1.568,4.085,6.281,1.199,4.712,0.000,0.000,2.465,-7.966,0.990,5.591,1.577,1.565,5.281,4.711,4.710,2.198,6.282,5.083,1.570,0.000,0.000,2.882,-8.472,0.991,5.592,1.576,1.566,
21.800,30.317,2.311,-8.520,0.695,1.007,6.267,3.089,2.073,2.198,3.184,3.041,3.250,0.000,0.768,0.917,0.000,0.000,2.440,0.000,0.000,0.000,0.000,0.000,0.000,0.000,0.000,0.000,0.000,0.000,3.142,6.282,0.000,1.004,1.569,1.569,4.085,6.281,1.199,4.712,0.000,0.000,2.553,-7.890,0.990,5.588,1.577,1.566,5.281,4.711,4.711,2.198,6.282,5.083,1.570,0.000,0.000,2.973,-8.393,0.990,5.588,1.577,1.566,
21.900,30.417,2.372,-8.469,0.688,1.013,5.908,3.037,2.024,2.136,3.462,3.201,3.309,0.000,0.712,1.003,0.000,0.000,2.475,0.000,0.000,0.000,0.000,0.000,0.000,0.000,0.000,0.000,0.000,0.000,3.142,6.281,0.001,1.005,1.568,1.567,4.084,6.281,1.199,4.712,0.000,0.000,2.617,-7.840,0.990,5.592,1.576,1.566,5.281,4.710,4.709,2.197,6.282,5.083,1.570,0.000,0.000,3.035,-8.346,0.990,5.592,1.578,1.565,
22.000,30.517,2.450,-8.406,0.612,1.016,5.001,3.239,1.538,2.010,3.295,0.000,3.219,0.000,0.759,1.002,0.000,0.000,2.545,0.000,0.000,0.000,0.000,0.000,0.000,0.000,0.000,0.000,0.000,0.000,3.142,6.280,0.001,1.005,1.568,1.565,4.084,6.281,1.199,4.711,0.000,0.000,2.742,-7.797,0.990,5.667,1.577,1.566,5.282,4.710,4.708,2.197,6.282,5.083,1.570,0.000,0.000,3.120,-8.334,0.990,5.668,1.577,1.566,
22.097,30.614,2.533,-8.351,0.491,1.008,4.983,3.804,2.037,1.889,2.751,0.000,3.368,0.000,0.793,0.947,0.000,0.000,2.685,0.000,0.000,0.000,0.000,0.000,0.000,0.000,0.000,0.000,0.000,0.000,3.142,6.280,0.001,1.004,1.569,1.567,4.085,6.281,1.199,4.712,0.000,0.000,2.897,-7.782,0.990,5.791,1.576,1.567,5.282,4.711,4.710,2.197,6.282,5.083,1.570,0.000,0.000,3.207,-8.361,0.991,5.791,1.575,1.568,
22.182,30.699,2.640,-8.298,0.376,1.011,5.380,0.000,2.104,1.805,2.389,0.000,3.635,0.000,0.834,0.918,3.050,0.000,2.826,0.000,0.000,0.000,0.000,0.000,0.000,0.000,0.000,0.000,0.000,0.000,3.142,6.281,0.001,1.004,1.569,1.568,4.085,6.281,1.199,4.712,0.000,0.000,3.067,-7.776,0.990,5.906,1.576,1.568,5.282,4.711,4.711,2.197,6.282,5.083,1.570,0.000,0.000,3.309,-8.386,0.991,5.906,1.575,1.568,
22.299,30.816,2.734,-8.263,0.304,1.019,5.623,0.000,2.163,1.764,2.208,0.000,3.514,4.918,0.867,0.911,3.624,0.000,2.896,0.000,0.000,0.000,0.000,0.000,0.000,0.000,0.000,0.000,0.000,0.000,3.142,6.281,0.000,1.004,1.569,1.569,4.085,6.281,1.199,4.712,0.000,0.000,3.198,-7.773,0.990,5.979,1.576,1.568,5.282,4.711,4.711,2.198,6.282,5.083,1.570,0.000,0.000,3.394,-8.399,0.991,5.979,1.575,1.569,
22.389,30.906,2.830,-8.234,0.281,1.011,6.183,0.000,2.164,1.734,2.135,0.000,3.528,4.926,0.896,0.931,3.551,0.000,2.931,0.000,0.000,0.000,0.000,0.000,0.000,0.000,0.000,0.000,0.000,0.000,3.142,6.282,0.000,1.004,1.569,1.569,4.084,6.281,1.199,4.712,0.000,0.000,3.304,-7.755,0.990,6.003,1.576,1.569,5.281,4.711,4.711,2.197,6.282,5.083,1.570,0.000,0.000,3.487,-8.385,0.990,6.002,1.576,1.569,
22.498,31.015,2.925,-8.207,0.243,1.007,5.401,0.000,2.192,1.267,2.048,4.071,3.494,4.852,0.925,0.940,3.497,0.000,2.966,0.000,0.000,0.000,0.000,0.000,0.000,0.000,0.000,0.000,0.000,0.000,3.142,6.280,0.001,1.005,1.568,1.565,4.084,6.281,1.199,4.711,0.000,0.000,3.416,-7.744,0.990,6.035,1.575,1.568,5.281,4.710,4.708,2.197,6.282,5.083,1.570,0.000,0.000,3.576,-8.381,0.990,6.036,1.576,1.568,
22.587,31.104,3.022,-8.185,0.140,1.012,5.148,0.000,2.374,1.704,1.902,3.821,3.923,4.474,0.958,0.911,3.645,0.000,3.071,0.000,0.000,0.000,0.000,0.000,0.000,0.000,0.000,0.000,0.000,0.000,3.142,6.280,0.001,1.004,1.569,1.568,4.085,6.281,1.199,4.712,0.000,0.000,3.559,-7.777,0.990,6.142,1.576,1.569,5.282,4.711,4.710,2.198,6.282,5.083,1.570,0.000,0.000,3.651,-8.427,0.991,6.142,1.575,1.569,
22.700,31.217,3.121,-8.173,0.095,1.016,6.265,0.000,2.470,1.705,1.847,3.477,0.000,4.422,0.979,0.905,3.622,0.000,3.142,0.000,0.000,0.000,0.000,0.000,0.000,0.000,0.000,0.000,0.000,0.000,3.142,6.282,0.000,1.004,1.570,1.571,4.085,6.280,1.199,4.712,0.000,0.000,3.677,-7.792,0.990,6.191,1.576,1.570,5.281,4.712,4.713,2.198,6.281,5.083,1.571,0.000,0.000,3.739,-8.445,0.991,6.191,1.575,1.570,
22.800,31.317,3.201,-8.166,0.096,1.012,6.271,0.000,2.456,1.697,1.839,3.468,0.000,4.533,0.853,0.914,3.528,0.000,3.142,0.000,0.000,0.000,0.000,0.000,0.000,0.000,0.000,0.000,0.000,0.000,3.142,6.283,0.000,1.003,1.569,1.569,4.085,6.281,1.199,4.712,0.000,0.000,3.756,-7.782,0.990,6.187,1.576,1.569,5.281,4.711,4.711,2.198,6.282,5.083,1.570,0.000,0.000,3.818,-8.435,0.990,6.187,1.575,1.570,
22.896,31.413,3.299,-8.156,0.097,1.009,6.267,0.000,1.797,1.687,1.830,3.455,4.439,4.670,0.863,0.925,3.412,0.000,3.106,0.000,0.000,0.000,0.000,0.000,0.000,0.000,0.000,0.000,0.000,0.000,3.142,6.283,0.000,1.003,1.569,1.569,4.085,6.281,1.199,4.712,0.000,0.000,3.854,-7.772,0.990,6.186,1.576,1.569,5.281,4.711,4.711,2.198,6.282,5.083,1.570,0.000,0.000,3.918,-8.425,0.990,6.186,1.575,1.570,
23.000,31.517,3.418,-8.144,0.098,1.012,6.261,0.000,2.419,1.675,1.818,2.522,4.551,4.834,0.875,0.938,3.181,0.000,3.106,0.000,0.000,0.000,0.000,0.000,0.000,0.000,0.000,0.000,0.000,0.000,3.142,6.283,0.000,1.003,1.569,1.569,4.085,6.281,1.199,4.712,0.000,0.000,3.972,-7.760,0.990,6.185,1.576,1.569,5.281,4.711,4.711,2.198,6.282,5.083,1.570,0.000,0.000,4.037,-8.413,0.990,6.185,1.575,1.570,
23.100,31.617,3.497,-8.137,0.099,1.013,6.261,0.000,2.406,1.667,1.321,2.501,4.627,4.943,0.883,0.947,3.088,0.000,3.106,0.000,0.000,0.000,0.000,0.000,0.000,0.000,0.000,0.000,0.000,0.000,3.142,6.283,0.000,1.003,1.569,1.569,4.085,6.281,1.199,4.712,0.000,0.000,4.051,-7.752,0.990,6.185,1.576,1.569,5.281,4.711,4.711,2.198,6.282,5.083,1.570,0.000,0.000,4.116,-8.404,0.990,6.184,1.575,1.570,
23.192,31.709,3.597,-8.127,0.099,1.012,6.262,0.000,2.390,1.657,1.370,2.601,4.722,0.000,0.892,0.958,2.973,0.000,3.106,0.000,0.000,0.000,0.000,0.000,0.000,0.000,0.000,0.000,0.000,0.000,3.142,6.283,0.000,1.004,1.569,1.569,4.085,6.281,1.199,4.712,0.000,0.000,4.150,-7.741,0.990,6.184,1.576,1.569,5.281,4.711,4.711,2.198,6.282,5.083,1.570,0.000,0.000,4.215,-8.394,0.990,6.184,1.575,1.570,
23.300,31.817,3.715,-8.115,0.095,1.011,6.013,0.000,2.383,1.646,1.783,3.359,0.000,0.000,0.905,0.969,2.843,0.000,3.142,0.000,0.000,0.000,0.000,0.000,0.000,0.000,0.000,0.000,0.000,0.000,3.142,6.281,0.001,1.004,1.568,1.567,4.084,6.281,1.199,4.712,0.000,0.000,4.270,-7.730,0.990,6.185,1.575,1.569,5.281,4.710,4.709,2.197,6.282,5.083,1.570,0.000,0.000,4.333,-8.383,0.990,6.185,1.576,1.569,
23.400,31.917,3.795,-8.108,0.052,1.013,5.454,0.000,2.491,1.654,1.741,3.104,0.000,0.000,0.922,0.960,2.824,0.000,3.142,0.000,0.000,0.000,0.000,0.000,0.000,0.000,0.000,0.000,0.000,0.000,3.142,6.281,0.001,1.004,1.568,1.566,4.084,6.281,1.199,4.712,0.000,0.000,4.365,-7.747,0.990,6.227,1.575,1.569,5.281,4.710,4.709,2.197,6.282,5.083,1.570,0.000,0.000,4.401,-8.402,0.990,6.228,1.576,1.569,
23.490,32.007,3.895,-8.104,0.001,1.013,6.047,0.000,2.648,1.673,1.704,2.860,0.000,0.000,0.940,0.946,2.799,0.000,3.142,0.000,0.000,0.000,0.000,0.000,0.000,0.000,0.000,0.000,0.000,0.000,3.142,6.282,0.000,1.004,1.570,1.570,4.085,6.281,1.199,4.712,0.000,0.000,4.483,-7.775,0.990,0.000,1.576,1.570,5.282,4.712,4.712,2.198,6.281,5.083,1.571,0.000,0.000,4.484,-8.431,0.991,6.283,1.575,1.570,
23.600,32.117,4.014,-8.104,6.283,1.008,6.264,4.987,2.654,1.674,1.703,2.853,0.000,1.738,0.940,0.893,2.657,0.000,3.142,0.000,0.000,0.000,0.000,0.000,0.000,0.000,0.000,0.000,0.000,0.000,3.142,6.282,0.000,1.004,1.569,1.569,4.085,6.281,1.199,4.712,0.000,0.000,4.603,-7.775,0.990,0.000,1.576,1.570,5.281,4.711,4.711,2.198,6.282,5.083,1.570,0.000,0.000,4.603,-8.431,0.990,6.283,1.575,1.570,
23.700,32.217,4.093,-8.104,0.000,1.011,6.263,4.908,2.652,1.674,1.703,2.855,0.000,1.737,0.940,0.893,2.559,0.000,3.142,0.000,0.000,0.000,0.000,0.000,0.000,0.000,0.000,0.000,0.000,0.000,3.142,6.282,0.000,1.004,1.569,1.569,4.085,6.281,1.199,4.712,0.000,0.000,4.682,-7.775,0.990,6.283,1.576,1.570,5.281,4.711,4.711,2.198,6.282,5.083,1.570,0.000,0.000,4.683,-8.431,0.990,6.283,1.575,1.570,
23.791,32.307,4.193,-8.104,0.001,1.014,6.264,4.808,2.650,1.673,1.703,2.857,0.000,1.736,0.940,0.000,1.727,0.000,3.142,0.000,0.000,0.000,0.000,0.000,0.000,0.000,0.000,0.000,0.000,0.000,3.142,6.282,0.000,1.004,1.569,1.569,4.085,6.281,1.199,4.712,0.000,0.000,4.782,-7.775,0.990,6.282,1.576,1.570,5.281,4.711,4.711,2.198,6.282,5.083,1.570,0.000,0.000,4.782,-8.431,0.990,6.282,1.575,1.570,
23.900,32.417,4.312,-8.104,0.001,1.012,6.265,4.688,2.648,1.212,1.703,2.859,0.000,1.515,0.940,0.000,1.580,0.000,3.142,0.000,0.000,0.000,0.000,0.000,0.000,0.000,0.000,0.000,0.000,0.000,3.142,6.282,0.000,1.004,1.569,1.569,4.085,6.281,1.199,4.712,0.000,0.000,4.901,-7.774,0.990,6.282,1.576,1.570,5.281,4.711,4.711,2.198,6.282,5.083,1.570,0.000,0.000,4.902,-8.430,0.990,6.282,1.575,1.570,
24.000,32.517,4.392,-8.104,0.002,1.011,6.265,4.609,2.646,1.673,1.703,2.861,0.000,1.514,0.940,0.000,1.482,0.000,3.142,0.000,0.000,0.000,0.000,0.000,0.000,0.000,0.000,0.000,0.000,0.000,3.142,6.282,0.000,1.004,1.569,1.569,4.085,6.281,1.199,4.712,0.000,0.000,4.980,-7.774,0.990,6.281,1.576,1.570,5.281,4.711,4.711,2.198,6.282,5.083,1.570,0.000,0.000,4.982,-8.430,0.990,6.281,1.575,1.570,
24.091,32.608,4.491,-8.104,0.002,1.012,6.265,4.509,3.363,1.672,1.704,2.862,0.000,1.514,0.940,0.000,1.473,0.000,3.142,0.000,0.000,0.000,0.000,0.000,0.000,0.000,0.000,0.000,0.000,0.000,3.142,6.282,0.000,1.004,1.569,1.569,4.085,6.281,1.199,4.712,0.000,0.000,5.080,-7.773,0.990,6.281,1.576,1.570,5.281,4.711,4.711,2.198,6.282,5.083,1.570,0.000,0.000,5.081,-8.429,0.990,6.281,1.575,1.570,
24.200,32.717,4.611,-8.103,0.003,1.012,6.266,4.390,0.000,1.672,1.704,2.864,0.000,1.513,0.888,0.000,1.562,0.000,3.142,0.000,0.000,0.000,0.000,0.000,0.000,0.000,0.000,0.000,0.000,0.000,3.142,6.282,0.000,1.004,1.569,1.569,4.085,6.281,1.199,4.712,0.000,0.000,5.199,-7.773,0.990,6.280,1.576,1.570,5.281,4.711,4.711,2.198,6.282,5.083,1.570,0.000,0.000,5.201,-8.429,0.990,6.280,1.575,1.570,
24.300,32.817,4.691,-8.103,0.003,1.012,6.265,4.310,0.000,1.671,1.704,2.076,0.000,1.513,0.922,0.000,1.563,0.000,3.142,0.000,0.000,0.000,0.000,0.000,0.000,0.000,0.000,0.000,0.000,0.000,3.142,6.282,0.000,1.004,1.569,1.569,4.085,6.281,1.199,4.712,0.000,0.000,5.279,-7.772,0.990,6.280,1.576,1.570,5.281,4.711,4.711,2.198,6.282,5.083,1.570,0.000,0.000,5.281,-8.428,0.990,6.280,1.575,1.570,
24.400,32.917,4.790,-8.103,0.003,1.011,6.265,4.211,1.987,1.671,1.703,2.146,0.000,1.512,3.919,0.000,1.564,0.000,3.142,0.000,0.000,0.000,0.000,0.000,0.000,0.000,0.000,0.000,0.000,0.000,3.142,6.282,0.000,1.004,1.569,1.569,4.085,6.281,1.199,4.712,0.000,0.000,5.378,-7.772,0.990,6.279,1.576,1.570,5.281,4.711,4.711,2.198,6.282,5.083,1.570,0.000,0.000,5.380,-8.428,0.990,6.279,1.575,1.570,
24.484,33.001,4.890,-8.102,0.004,1.012,6.265,4.111,1.910,1.670,1.703,2.868,0.000,1.512,4.257,0.000,1.566,0.000,3.142,0.000,0.000,0.000,0.000,0.000,0.000,0.000,0.000,0.000,0.000,0.000,3.142,6.282,0.000,1.004,1.569,1.569,4.085,6.281,1.199,4.712,0.000,0.000,5.477,-7.771,0.990,6.279,1.576,1.570,5.281,4.711,4.711,2.198,6.282,5.083,1.570,0.000,0.000,5.480,-8.427,0.990,6.279,1.575,1.570,
24.600,33.117,4.989,-8.102,0.004,1.012,6.265,4.012,0.000,1.669,1.703,2.869,0.000,1.512,4.596,0.000,1.568,0.000,3.142,0.000,0.000,0.000,0.000,0.000,0.000,0.000,0.000,0.000,0.000,0.000,3.142,6.282,0.000,1.004,1.569,1.569,4.085,6.281,1.199,4.712,0.000,0.000,5.577,-7.771,0.990,6.279,1.576,1.570,5.281,4.711,4.711,2.198,6.282,5.083,1.570,0.000,0.000,5.580,-8.427,0.990,6.278,1.575,1.570,
24.700,33.217,5.089,-8.101,0.005,1.012,6.266,3.912,4.928,1.669,1.233,2.870,0.000,1.512,4.937,0.000,1.569,0.000,3.142,0.000,0.000,0.000,0.000,0.000,0.000,0.000,0.000,0.000,0.000,0.000,3.142,6.282,0.000,1.004,1.569,1.569,4.085,6.281,1.199,4.712,0.000,0.000,5.676,-7.770,0.990,6.278,1.576,1.570,5.281,4.711,4.711,2.198,6.282,5.083,1.570,0.000,0.000,5.679,-8.426,0.990,6.278,1.575,1.570,
24.800,33.316,5.188,-8.101,0.005,1.012,6.266,3.813,4.805,1.668,1.703,2.870,0.000,1.512,0.000,0.000,1.571,0.000,3.142,0.000,0.000,0.000,0.000,0.000,0.000,0.000,0.000,0.000,0.000,0.000,3.142,6.282,0.000,1.004,1.569,1.569,4.085,6.281,1.199,4.712,0.000,0.000,5.775,-7.769,0.990,6.278,1.576,1.570,5.281,4.711,4.711,2.198,6.282,5.083,1.570,0.000,0.000,5.779,-8.425,0.990,6.278,1.575,1.570,
24.900,33.417,5.308,-8.100,0.006,1.012,6.266,3.693,4.656,1.667,1.702,2.871,0.000,1.512,0.000,0.915,1.573,0.000,3.142,0.000,0.000,0.000,0.000,0.000,0.000,0.000,0.000,0.000,0.000,0.000,3.142,6.282,0.000,1.004,1.569,1.569,4.085,6.281,1.199,4.712,0.000,0.000,5.895,-7.768,0.990,6.277,1.576,1.570,5.281,4.711,4.711,2.198,6.282,5.083,1.570,0.000,0.000,5.899,-8.424,0.990,6.277,1.575,1.570,
25.000,33.517,5.387,-8.100,0.006,1.012,6.266,3.614,0.000,1.667,1.702,2.872,0.000,1.428,0.000,0.899,1.575,0.000,3.142,0.000,2.931,0.000,0.000,0.000,0.000,0.000,0.000,0.000,0.000,0.000,3.142,6.282,0.000,1.004,1.569,1.569,4.085,6.281,1.199,4.712,0.000,0.000,5.974,-7.768,0.990,6.277,1.576,1.570,5.281,4.711,4.711,2.198,6.282,5.083,1.570,0.000,0.000,5.978,-8.424,0.990,6.277,1.575,1.570,
25.083,33.600,5.487,-8.099,0.006,1.012,6.266,3.514,0.000,1.666,1.702,2.873,0.000,1.428,4.381,0.952,1.577,0.000,3.142,0.000,2.705,0.000,0.000,0.000,0.000,0.000,0.000,0.000,0.000,0.000,3.142,6.282,0.000,1.004,1.569,1.569,4.085,6.281,1.199,4.712,0.000,0.000,6.074,-7.767,0.990,6.277,1.576,1.570,5.281,4.711,4.711,2.198,6.282,5.083,1.570,0.000,0.000,6.078,-8.423,0.990,6.276,1.575,1.570,
25.188,33.705,5.586,-8.099,0.007,1.011,6.266,3.415,0.000,1.665,1.701,2.873,0.000,1.459,4.338,0.953,1.579,0.000,3.142,0.000,2.497,0.000,0.000,0.000,0.000,0.000,0.000,0.000,0.000,0.000,3.142,6.282,0.000,1.004,1.569,1.569,4.085,6.281,1.199,4.712,0.000,0.000,6.173,-7.766,0.990,6.276,1.576,1.570,5.281,4.711,4.711,2.198,6.282,5.083,1.570,0.000,0.000,6.178,-8.422,0.990,6.276,1.575,1.570,
25.286,33.803,5.706,-8.098,0.007,1.012,6.266,3.295,0.000,1.664,1.701,2.874,0.000,1.608,4.286,0.954,1.581,0.000,3.142,0.000,2.300,0.000,0.000,0.000,0.000,0.000,0.000,0.000,0.000,0.000,3.142,6.282,0.000,1.004,1.569,1.569,4.085,6.281,1.199,4.712,0.000,0.000,6.292,-7.765,0.990,6.276,1.576,1.570,5.281,4.711,4.711,2.198,6.282,5.083,1.570,0.000,0.000,6.297,-8.421,0.990,6.276,1.575,1.570,
25.399,33.916,5.785,-8.097,0.007,1.012,6.266,3.216,0.000,1.663,1.700,2.874,0.000,1.708,4.252,0.955,1.583,0.000,3.142,0.000,2.144,0.000,0.000,0.000,0.000,0.000,0.000,0.000,0.000,0.000,3.142,6.282,0.000,1.004,1.569,1.569,4.085,6.281,1.199,4.712,0.000,0.000,6.372,-7.764,0.990,6.275,1.576,1.570,5.281,4.711,4.711,2.198,6.282,5.083,1.570,0.000,0.000,6.377,-8.420,0.990,6.275,1.575,1.570,
25.500,34.017,5.905,-8.096,0.008,1.011,6.266,3.096,0.000,1.662,1.699,2.874,0.000,1.904,0.893,0.956,1.585,0.000,3.142,0.000,1.955,0.000,0.000,0.000,0.000,0.000,0.000,0.000,0.000,0.000,3.142,6.282,0.000,1.004,1.569,1.569,4.085,6.281,1.199,4.712,0.000,0.000,6.491,-7.763,0.990,6.275,1.576,1.570,5.281,4.711,4.711,2.198,6.282,5.083,1.570,0.000,0.000,6.497,-8.419,0.990,6.275,1.575,1.570,
25.584,34.101,5.984,-8.096,0.008,1.012,6.266,3.017,0.000,1.661,1.699,2.874,0.000,2.079,0.894,0.957,1.587,0.000,3.142,0.000,1.839,0.000,0.000,0.000,0.000,0.000,0.000,0.000,0.000,0.000,3.142,6.282,0.000,1.004,1.569,1.569,4.085,6.281,1.199,4.712,0.000,0.000,6.571,-7.762,0.990,6.275,1.576,1.570,5.281,4.711,4.711,2.198,6.282,5.083,1.570,0.000,0.000,6.576,-8.418,0.990,6.275,1.575,1.570,
25.688,34.205,6.084,-8.095,0.009,1.012,6.266,2.917,0.000,1.201,1.698,2.874,0.000,2.297,0.947,0.958,1.590,0.000,3.142,0.000,1.682,0.000,0.000,0.000,0.000,0.000,0.000,0.000,0.000,0.000,3.142,6.282,0.000,1.004,1.569,1.569,4.085,6.281,1.199,4.712,0.000,0.000,6.670,-7.761,0.990,6.274,1.576,1.570,5.281,4.711,4.711,2.198,6.282,5.083,1.570,0.000,0.000,6.676,-8.417,0.990,6.274,1.575,1.570,
25.790,34.306,6.183,-8.094,0.009,1.012,6.266,2.818,0.000,0.000,1.698,2.874,0.000,2.516,0.948,0.959,1.592,0.000,3.142,0.000,1.544,0.000,0.000,0.000,0.000,0.000,0.000,0.000,0.000,0.000,3.142,6.282,0.000,1.004,1.569,1.569,4.085,6.281,1.199,4.712,0.000,0.000,6.769,-7.760,0.990,6.274,1.576,1.570,5.281,4.711,4.711,2.198,6.282,5.083,1.570,0.000,0.000,6.776,-8.416,0.990,6.274,1.575,1.570,
25.899,34.415,6.303,-8.093,0.009,1.012,6.265,2.698,0.000,0.000,1.697,2.874,0.000,2.779,0.949,0.960,1.595,0.000,3.142,0.000,1.392,0.000,0.000,0.000,0.000,0.000,0.000,0.000,0.000,0.000,3.142,6.282,0.000,1.004,1.569,1.569,4.085,6.281,1.199,4.712,0.000,0.000,6.889,-7.759,0.990,6.273,1.576,1.570,5.281,4.711,4.711,2.198,6.282,5.083,1.570,0.000,0.000,6.895,-8.415,0.990,6.273,1.575,1.570,
25.983,34.500,6.382,-8.092,0.010,1.011,6.265,2.619,0.000,0.000,1.696,2.077,0.000,2.955,0.950,0.961,1.597,0.000,3.142,0.000,1.295,0.000,0.000,0.000,0.000,0.000,0.000,0.000,0.000,0.000,3.142,6.282,0.000,1.004,1.569,1.569,4.085,6.281,1.199,4.712,0.000,0.000,6.968,-7.758,0.990,6.273,1.576,1.570,5.281,4.711,4.711,2.198,6.282,5.083,1.570,0.000,0.000,6.975,-8.414,0.990,6.273,1.575,1.570,
26.083,34.599,6.482,-8.091,0.010,1.012,6.266,2.519,0.000,0.000,1.695,2.116,0.000,3.175,0.950,0.962,1.600,0.000,3.142,0.000,1.168,0.000,0.000,0.000,0.000,0.000,0.000,0.000,0.000,0.000,3.142,6.282,0.000,1.004,1.569,1.569,4.085,6.281,1.199,4.712,0.000,0.000,7.068,-7.756,0.990,6.273,1.576,1.570,5.281,4.711,4.711,2.198,6.282,5.083,1.570,0.000,0.000,7.074,-8.412,0.990,6.273,1.575,1.570,
26.198,34.715,6.581,-8.090,0.010,1.012,6.266,2.420,0.000,2.119,1.694,2.874,0.000,3.395,0.951,0.963,1.602,0.000,3.142,0.000,1.041,0.000,0.000,0.000,0.000,0.000,0.000,0.000,0.000,0.000,3.142,6.282,0.000,1.004,1.569,1.569,4.085,6.281,1.199,4.712,0.000,0.000,7.167,-7.755,0.990,6.272,1.576,1.570,5.281,4.711,4.711,2.198,6.282,5.083,1.570,0.000,0.000,7.174,-8.411,0.990,6.272,1.575,1.570,
26.285,34.802,6.701,-8.089,0.011,1.012,6.266,2.300,0.000,1.826,1.693,2.874,0.000,4.498,0.953,0.965,1.335,0.000,3.142,0.000,0.890,0.000,0.000,0.000,0.000,0.000,0.000,0.000,0.000,0.000,3.142,6.282,0.000,1.004,1.569,1.569,4.085,6.281,1.199,4.712,0.000,0.000,7.286,-7.754,0.990,6.272,1.576,1.570,5.281,4.711,4.711,2.198,6.282,5.083,1.570,0.000,0.000,7.294,-8.410,0.990,6.272,1.575,1.570,
26.400,34.917,6.800,-8.088,0.011,1.012,6.266,2.201,0.000,0.000,1.222,2.873,0.000,1.438,0.954,0.966,1.214,0.000,3.142,0.000,0.769,0.000,0.000,0.000,0.000,0.000,0.000,0.000,0.000,0.000,3.142,6.282,0.000,1.004,1.569,1.569,4.085,6.281,1.199,4.712,0.000,0.000,7.386,-7.752,0.990,6.272,1.576,1.570,5.281,4.711,4.711,2.198,6.282,5.083,1.570,0.000,0.000,7.393,-8.408,0.990,6.271,1.575,1.570,
26.500,35.017,6.880,-8.087,0.012,1.012,6.266,2.121,0.000,0.000,1.221,2.873,0.000,1.439,0.954,0.967,1.117,0.000,3.142,0.000,0.676,0.000,0.000,0.000,0.000,0.000,0.000,0.000,0.000,0.000,3.142,6.282,0.000,1.004,1.569,1.569,4.085,6.281,1.199,4.712,0.000,0.000,7.465,-7.751,0.990,6.271,1.576,1.570,5.281,4.711,4.711,2.198,6.282,5.083,1.570,0.000,0.000,7.473,-8.407,0.990,6.271,1.575,1.570,
26.586,35.103,6.967,-8.086,0.080,0.752,1.553,2.042,0.000,0.000,1.254,3.209,0.000,1.400,0.938,0.994,0.968,0.000,3.142,0.000,0.626,0.000,0.000,0.000,0.000,0.000,0.000,0.000,0.000,0.000,3.142,6.281,6.281,1.018,1.578,1.603,3.949,6.219,1.333,4.559,0.039,0.000,7.489,-7.751,0.995,0.014,1.587,1.412,5.281,4.716,4.720,2.200,6.281,5.083,1.571,0.000,0.000,7.581,-8.372,0.991,6.214,1.573,1.571,
26.699,35.216,7.043,-8.077,0.226,0.856,1.337,1.965,0.000,1.981,1.871,4.352,4.121,1.220,0.926,1.083,0.818,0.000,3.106,0.000,0.599,0.000,0.000,0.000,0.000,0.000,0.000,0.000,0.000,0.000,3.142,6.279,6.282,1.033,1.578,1.665,3.865,6.035,1.408,4.695,0.043,0.000,7.488,-7.755,0.993,0.102,1.600,1.552,5.282,4.712,4.712,2.198,6.283,5.083,1.570,0.000,0.000,7.691,-8.264,0.991,6.057,1.574,1.570,
26.800,35.317,7.142,-8.051,0.393,0.886,1.493,0.000,0.000,0.000,2.092,0.000,2.965,1.110,0.953,1.001,1.365,0.000,2.966,0.536,0.570,0.000,0.000,0.000,0.000,0.000,0.000,0.000,0.000,0.000,3.142,6.279,6.281,1.057,1.572,1.755,3.746,5.872,1.472,4.696,0.043,0.000,7.491,-7.755,0.993,0.176,1.598,1.601,5.282,4.711,4.714,2.198,6.282,5.083,1.570,0.000,0.000,7.812,-8.129,0.991,5.892,1.574,1.570,
26.900,35.417,7.204,-8.025,0.507,0.894,1.285,0.000,4.458,3.267,2.308,0.000,3.585,1.074,0.995,0.806,1.806,0.000,2.861,0.436,0.000,0.000,0.000,0.000,0.000,0.000,0.000,0.000,0.000,0.000,3.142,6.279,6.282,1.073,1.570,1.821,3.685,5.783,1.446,4.497,0.043,0.000,7.497,-7.751,1.002,0.216,1.554,1.428,5.282,4.711,4.712,2.198,6.282,5.083,1.570,0.000,0.000,7.879,-8.025,0.991,5.776,1.575,1.569,
26.991,35.508,7.281,-7.980,0.612,0.956,0.904,0.000,0.000,2.042,2.559,0.000,1.776,1.077,1.069,0.644,1.719,0.000,2.755,0.368,0.492,0.000,0.000,0.000,0.000,0.000,0.000,0.000,0.000,0.000,3.142,6.279,6.281,1.090,1.568,1.908,3.608,5.748,1.407,4.274,0.043,0.000,7.519,-7.734,1.015,0.237,1.494,1.244,5.281,4.711,4.711,2.198,6.282,5.083,1.570,0.000,0.000,7.952,-7.909,0.991,5.670,1.576,1.568,
27.100,35.617,7.362,-7.917,0.853,0.716,3.681,0.000,0.000,1.676,2.840,4.271,1.437,1.087,0.844,1.130,1.634,0.000,2.510,0.412,0.000,0.000,0.000,0.000,0.000,0.000,0.000,0.000,0.000,0.000,3.142,6.277,6.279,1.035,1.562,1.551,3.609,5.879,1.312,4.845,0.043,0.000,7.457,-7.462,1.097,5.845,1.214,1.886,5.278,4.720,4.728,2.204,6.281,5.084,1.572,0.000,0.000,8.004,-7.698,0.991,5.450,1.571,1.573,
27.200,35.717,7.399,-7.876,1.045,0.547,1.370,0.000,1.576,1.368,0.000,3.438,1.299,1.130,0.640,1.634,0.000,0.000,2.334,0.485,0.000,0.000,0.000,0.000,0.000,0.000,0.000,0.000,0.000,0.000,3.142,0.003,0.001,1.004,1.570,1.585,3.810,6.243,1.210,4.716,0.000,0.000,7.379,-7.292,1.085,5.340,1.120,1.952,5.281,4.711,4.709,2.197,0.001,5.083,1.570,0.000,0.000,7.976,-7.530,0.990,5.234,1.581,1.560,
27.295,35.811,7.414,-7.848,1.115,0.197,0.165,0.000,4.947,1.336,0.000,3.837,1.284,1.170,0.726,1.600,0.000,0.000,2.264,0.510,0.000,0.000,0.000,0.000,0.000,0.000,0.000,0.000,0.000,0.000,3.142,0.001,0.001,1.003,1.569,1.568,4.084,6.280,1.200,4.712,0.000,0.000,7.378,-7.174,0.990,5.168,1.580,1.561,5.281,4.711,4.709,2.198,6.283,5.083,1.570,0.000,0.000,7.966,-7.462,0.990,5.166,1.581,1.560,
27.395,35.912,7.418,-7.840,1.115,0.009,6.270,0.000,4.939,1.325,0.000,3.842,1.292,1.179,0.739,1.595,0.000,0.000,2.264,0.597,0.000,0.000,0.000,0.000,0.000,0.000,0.000,0.000,0.000,0.000,3.142,6.283,0.001,1.003,1.569,1.569,4.086,6.281,1.199,4.712,0.000,0.000,7.382,-7.166,0.990,5.168,1.583,1.559,5.281,4.711,4.712,2.198,6.282,5.083,1.570,0.000,0.000,7.972,-7.454,0.990,5.168,1.581,1.561,
27.500,36.017,7.418,-7.840,1.116,0.002,6.261,0.000,4.939,1.325,0.000,3.842,1.292,1.179,0.739,1.595,0.000,0.000,2.264,0.693,0.000,0.000,0.000,0.000,0.000,0.000,0.000,0.000,0.000,0.000,3.142,6.283,0.000,1.003,1.570,1.569,4.085,6.281,1.199,4.712,0.000,0.000,7.382,-7.166,0.990,5.168,1.582,1.559,5.281,4.711,4.712,2.198,6.282,5.083,1.570,0.000,0.000,7.971,-7.454,0.990,5.168,1.581,1.561,
27.600,36.117,7.418,-7.840,1.116,0.002,6.261,0.000,4.939,1.325,0.000,3.842,1.292,1.179,0.739,1.595,0.000,0.000,2.264,0.792,0.000,0.000,0.000,0.000,0.000,0.000,0.000,0.000,0.000,0.000,3.142,6.283,0.000,1.003,1.570,1.569,4.085,6.281,1.199,4.712,0.000,0.000,7.382,-7.166,0.990,5.168,1.582,1.559,5.281,4.711,4.712,2.198,6.282,5.083,1.570,0.000,0.000,7.971,-7.454,0.990,5.168,1.581,1.561,
27.699,36.215,7.418,-7.840,1.116,0.002,6.261,0.000,4.939,1.325,0.000,3.842,1.292,1.179,0.739,1.595,0.000,0.000,2.264,0.931,0.000,0.000,0.000,0.000,0.000,0.000,0.000,0.000,0.000,0.000,3.142,6.283,0.000,1.003,1.570,1.569,4.085,6.281,1.199,4.712,0.000,0.000,7.382,-7.166,0.990,5.168,1.582,1.559,5.281,4.711,4.712,2.198,6.282,5.083,1.570,0.000,0.000,7.971,-7.454,0.990,5.168,1.581,1.561,
27.791,36.308,7.419,-7.839,1.113,0.064,6.083,0.000,4.936,1.320,0.000,3.825,1.295,1.179,0.738,1.595,0.000,0.000,2.264,1.197,0.000,0.000,0.000,0.000,0.000,0.000,0.000,0.000,0.000,0.000,3.142,6.281,0.000,1.005,1.569,1.567,4.083,6.281,1.199,4.712,0.000,0.000,7.383,-7.165,0.990,5.168,1.580,1.562,5.281,4.711,4.710,2.197,6.282,5.083,1.570,0.000,0.000,7.972,-7.454,0.990,5.168,1.582,1.560,
27.900,36.417,7.430,-7.818,1.065,0.433,5.312,3.350,1.568,1.846,0.000,3.541,1.351,1.191,0.733,1.597,0.000,0.000,2.334,0.000,0.000,0.000,0.000,0.000,0.000,0.000,0.000,0.000,0.000,0.000,3.142,6.279,0.000,1.006,1.567,1.564,4.081,6.282,1.199,4.711,0.000,0.000,7.423,-7.143,0.990,5.212,1.577,1.564,5.282,4.709,4.707,2.197,6.282,5.083,1.570,0.000,0.000,7.999,-7.459,0.990,5.213,1.581,1.561,
28.000,36.517,7.448,-7.786,0.979,0.425,4.953,2.859,0.000,1.667,0.000,3.270,1.462,1.215,0.721,1.609,0.000,0.000,2.404,0.000,0.000,0.000,0.000,0.000,0.000,0.000,0.000,0.000,0.000,0.000,3.142,6.281,0.001,1.003,1.569,1.567,4.087,6.281,1.199,4.712,0.000,0.000,7.503,-7.113,0.989,5.302,1.582,1.560,5.282,4.711,4.710,2.197,6.282,5.083,1.570,0.000,0.000,8.048,-7.479,0.991,5.303,1.578,1.564,
28.095,36.611,7.455,-7.774,0.864,-0.110,5.075,2.430,0.000,1.758,3.576,0.000,1.612,1.229,0.679,1.665,0.000,0.000,2.545,0.000,1.366,0.000,0.000,0.000,0.000,0.000,0.000,0.000,0.000,0.000,3.142,6.283,0.001,1.001,1.571,1.571,4.090,6.281,1.199,4.712,0.000,0.000,7.590,-7.112,0.989,5.421,1.582,1.561,5.281,4.713,4.713,2.198,6.282,5.083,1.570,0.000,0.000,8.088,-7.539,0.990,5.421,1.577,1.565,
28.200,36.717,7.443,-7.787,0.743,-0.118,5.223,2.080,0.000,1.876,2.757,0.000,1.793,1.236,0.847,1.166,1.520,0.000,2.650,0.000,1.483,0.000,0.000,0.000,0.000,0.000,0.000,0.000,0.000,0.000,3.142,6.281,0.000,1.004,1.569,1.569,4.084,6.281,1.199,4.712,0.000,0.000,7.654,-7.147,0.990,5.540,1.576,1.566,5.281,4.712,4.711,2.198,6.282,5.083,1.570,0.000,0.000,8.098,-7.630,0.991,5.540,1.576,1.567,
28.288,36.805,7.423,-7.804,0.692,-0.616,5.786,2.038,0.000,2.359,2.550,0.000,1.875,1.234,1.004,1.037,1.582,0.000,2.685,0.000,1.636,0.000,0.000,0.000,0.000,0.000,0.000,0.000,0.000,0.000,3.142,0.004,0.001,0.999,1.573,1.575,4.094,6.281,1.200,4.712,0.000,0.000,7.672,-7.177,0.989,5.599,1.583,1.563,5.280,4.715,4.717,2.199,6.282,5.083,1.571,0.000,0.000,8.088,-7.684,0.990,5.598,1.576,1.567,
28.400,36.917,7.325,-7.885,0.675,-1.410,0.032,2.206,0.000,1.926,2.633,0.000,1.785,1.155,1.195,0.860,1.678,0.000,2.685,0.000,1.877,0.000,0.000,0.000,0.000,0.000,0.000,0.000,0.000,0.000,3.142,0.002,0.001,1.001,1.571,1.572,4.090,6.281,1.200,4.712,0.000,0.000,7.582,-7.261,0.989,5.612,1.580,1.564,5.280,4.713,4.714,2.199,6.282,5.083,1.570,0.000,0.000,7.990,-7.774,0.990,5.612,1.576,1.567,
28.482,36.998,7.240,-7.952,0.675,-1.245,6.274,2.311,0.000,1.968,2.763,0.000,1.676,1.085,1.123,0.736,1.763,0.000,2.685,0.000,2.044,0.000,0.000,0.000,0.000,0.000,0.000,0.000,0.000,0.000,3.142,6.282,6.283,1.005,1.569,1.568,4.083,6.281,1.199,4.712,0.000,0.000,7.494,-7.327,0.990,5.607,1.575,1.567,5.281,4.711,4.711,2.199,6.282,5.083,1.570,0.000,0.000,7.904,-7.839,0.991,5.607,1.576,1.567,
28.600,37.117,7.163,-8.014,0.674,-0.735,6.165,2.411,0.000,1.769,2.875,0.000,1.580,1.022,1.056,0.758,1.840,0.000,2.685,0.000,2.258,0.000,0.000,0.000,0.000,0.000,0.000,0.000,0.000,0.000,3.142,6.280,6.283,1.007,1.568,1.567,4.080,6.281,1.199,4.712,0.000,0.000,7.416,-7.389,0.990,5.606,1.573,1.568,5.281,4.710,4.709,2.197,6.282,5.083,1.570,0.000,0.000,7.827,-7.901,0.990,5.606,1.577,1.567,
28.700,37.217,7.143,-8.030,0.658,0.193,5.904,2.485,0.000,1.786,2.833,0.000,1.586,1.009,1.033,0.789,1.859,0.000,2.685,0.000,2.464,0.000,0.000,0.000,0.000,0.000,0.000,0.000,0.000,0.000,3.142,6.278,0.000,1.007,1.567,1.564,4.078,6.282,1.199,4.712,0.000,0.000,7.404,-7.408,0.990,5.619,1.573,1.568,5.282,4.709,4.707,2.196,6.283,5.083,1.570,0.000,0.000,7.808,-7.926,0.990,5.620,1.577,1.566,
28.784,37.301,7.174,-8.006,0.631,0.794,6.222,4.151,0.000,2.015,2.677,0.000,1.685,1.043,1.048,0.766,1.826,0.000,2.720,0.000,0.000,0.000,0.000,0.000,0.000,0.000,0.000,0.000,0.000,0.000,3.142,6.277,6.283,1.008,1.568,1.567,4.077,6.281,1.199,4.712,0.000,0.000,7.453,-7.394,0.990,5.650,1.572,1.569,5.283,4.710,4.710,2.197,6.282,5.083,1.571,0.000,0.000,7.843,-7.922,0.991,5.650,1.576,1.567,
28.899,37.416,7.288,-7.923,0.631,1.406,6.266,4.015,0.000,1.955,2.528,0.000,1.826,1.130,1.136,0.739,1.712,0.000,2.755,0.000,0.000,0.000,0.000,0.000,0.000,0.000,0.000,0.000,0.000,0.000,3.142,6.281,0.000,1.004,1.569,1.568,4.083,6.281,1.199,4.712,0.000,0.000,7.569,-7.310,0.990,5.651,1.576,1.567,5.281,4.711,4.710,2.198,6.282,5.083,1.570,0.000,0.000,7.957,-7.840,0.990,5.651,1.576,1.567,
28.986,37.503,7.389,-7.850,0.631,1.041,6.265,3.892,0.000,2.654,2.399,0.000,1.949,1.207,1.213,0.866,1.612,0.000,2.755,0.000,0.000,0.000,0.000,0.000,0.000,0.000,0.000,0.000,0.000,0.000,3.142,0.001,0.001,1.002,1.570,1.571,4.089,6.281,1.200,4.712,0.000,0.000,7.672,-7.237,0.989,5.654,1.579,1.565,5.281,4.712,4.713,2.198,6.282,5.083,1.570,0.000,0.000,8.058,-7.768,0.990,5.654,1.577,1.567,
29.092,37.609,7.446,-7.808,0.631,0.811,6.265,3.821,0.000,2.822,2.326,0.000,2.019,1.250,1.257,0.939,1.555,0.000,2.755,0.000,0.000,0.000,0.000,0.000,0.000,0.000,0.000,0.000,0.000,0.000,3.142,6.283,0.001,1.003,1.570,1.570,4.086,6.281,1.199,4.712,0.000,0.000,7.728,-7.195,0.990,5.652,1.578,1.566,5.281,4.711,4.712,2.198,6.282,5.083,1.570,0.000,0.000,8.115,-7.725,0.990,5.652,1.577,1.567,
29.200,37.717,7.529,-7.748,0.632,0.975,0.030,3.716,0.000,3.060,2.222,0.000,2.119,1.314,0.849,1.046,1.472,0.000,2.755,0.000,0.000,0.000,0.000,0.000,0.000,0.000,0.000,0.000,0.000,0.000,3.142,6.282,0.000,1.004,1.569,1.569,4.084,6.281,1.199,4.712,0.000,0.000,7.809,-7.134,0.990,5.650,1.576,1.567,5.281,4.711,4.711,2.198,6.282,5.083,1.570,0.000,0.000,8.197,-7.663,0.990,5.650,1.576,1.567,
29.300,37.817,7.592,-7.701,0.654,0.999,0.738,1.968,0.000,3.062,1.398,0.000,2.134,1.353,0.690,1.163,1.359,0.000,2.755,0.000,0.000,0.000,0.000,0.000,0.000,0.000,0.000,0.000,0.000,0.000,3.142,0.001,0.000,1.003,1.571,1.572,4.086,6.281,1.199,4.712,0.000,0.000,7.861,-7.083,0.990,5.633,1.577,1.567,5.281,4.712,4.714,2.199,6.281,5.083,1.571,0.000,0.000,8.260,-7.604,0.991,5.632,1.575,1.568,
29.383,37.900,7.665,-7.643,0.757,0.897,1.436,1.798,0.000,2.585,2.516,0.000,1.976,1.380,0.786,1.512,0.000,0.000,2.650,0.000,0.000,0.000,0.000,0.000,0.000,0.000,0.000,0.000,0.000,0.000,3.142,0.002,0.000,1.003,1.571,1.571,4.087,6.281,1.199,4.712,0.000,0.000,7.869,-7.000,0.990,5.528,1.578,1.565,5.282,4.713,4.714,2.198,6.282,5.083,1.571,0.000,0.000,8.319,-7.477,0.991,5.529,1.575,1.567,
29.500,38.017,7.737,-7.568,0.893,0.886,1.038,2.058,0.000,2.181,3.242,4.907,1.838,1.433,0.938,1.346,0.000,0.000,2.510,0.000,0.000,0.000,0.000,0.000,0.000,0.000,0.000,0.000,0.000,0.000,3.142,0.001,0.000,1.004,1.569,1.568,4.085,6.282,1.199,4.712,0.000,0.000,7.850,-6.903,0.990,5.389,1.578,1.564,5.282,4.712,4.711,2.198,6.282,5.083,1.570,0.000,0.000,8.362,-7.315,0.991,5.390,1.576,1.566,
29.600,38.117,7.781,-7.512,0.954,0.930,0.825,2.162,0.000,1.859,3.738,4.251,1.824,1.230,1.050,1.273,0.000,0.000,2.475,0.000,3.031,0.000,0.000,0.000,0.000,0.000,0.000,0.000,0.000,0.000,3.142,0.000,0.000,1.004,1.570,1.569,4.085,6.281,1.199,4.712,0.000,0.000,7.853,-6.841,0.990,5.328,1.579,1.563,5.282,4.712,4.711,2.198,6.282,5.083,1.570,0.000,0.000,8.389,-7.221,0.991,5.329,1.577,1.565,
29.681,38.197,7.843,-7.420,1.046,0.931,1.003,2.383,0.000,1.815,0.000,3.806,1.826,0.935,1.719,1.130,0.000,0.000,2.404,0.000,2.961,0.000,0.000,0.000,0.000,0.000,0.000,0.000,0.000,0.000,3.142,0.001,0.000,1.003,1.570,1.570,4.086,6.281,1.199,4.712,0.000,0.000,7.854,-6.746,0.990,5.238,1.581,1.561,5.282,4.712,4.713,2.198,6.282,5.083,1.570,0.000,0.000,8.422,-7.075,0.991,5.238,1.577,1.565,
29.782,38.299,7.886,-7.341,1.138,0.905,1.083,2.764,0.000,1.847,4.895,4.321,1.827,1.029,1.508,0.000,3.680,0.000,2.334,0.000,3.038,0.000,0.000,0.000,0.000,0.000,0.000,0.000,0.000,0.000,3.142,0.001,0.000,1.003,1.570,1.570,4.086,6.282,1.199,4.712,0.000,0.000,7.835,-6.668,0.990,5.145,1.582,1.560,5.282,4.712,4.712,2.198,6.282,5.083,1.570,0.000,0.000,8.431,-6.943,0.991,5.146,1.579,1.563,
29.900,38.417,7.921,-7.259,1.229,0.909,1.017,3.387,4.529,1.594,0.000,2.861,1.848,1.138,1.354,0.000,1.357,0.000,2.264,0.000,0.000,0.000,0.000,0.000,0.000,0.000,0.000,0.000,0.000,0.000,3.142,0.001,0.000,1.003,1.570,1.569,4.085,6.281,1.199,4.712,0.000,0.000,7.809,-6.594,0.990,5.054,1.585,1.557,5.282,4.712,4.712,2.198,6.282,5.083,1.570,0.000,0.000,8.427,-6.814,0.991,5.055,1.581,1.561,
30.000,38.517,7.949,-7.174,1.314,0.923,0.984,2.638,4.625,1.696,0.000,2.777,1.888,1.264,1.243,0.000,1.374,0.000,2.475,0.000,0.000,0.000,0.000,0.000,0.000,0.000,0.000,0.000,0.000,0.000,3.142,0.001,0.000,1.003,1.570,1.570,4.085,6.281,1.199,4.712,0.000,0.000,7.781,-6.521,0.990,4.969,1.589,1.552,5.282,4.712,4.712,2.198,6.282,5.083,1.570,0.000,0.000,8.416,-6.687,0.991,4.969,1.584,1.557,
30.100,38.617,7.970,-7.085,1.401,0.921,1.019,4.265,3.189,1.641,0.000,2.659,1.943,1.412,1.103,0.000,1.458,0.000,2.404,0.000,0.000,0.000,0.000,0.000,0.000,0.000,0.000,0.000,0.000,0.000,3.142,0.001,0.000,1.003,1.570,1.570,4.086,6.281,1.199,4.712,0.000,0.000,7.747,-6.449,0.990,4.883,1.599,1.542,5.282,4.712,4.712,2.198,6.282,5.083,1.570,0.000,0.000,8.393,-6.560,0.991,4.883,1.590,1.551,
30.200,38.717,7.981,-7.014,1.471,0.914,1.032,0.000,2.836,1.601,0.000,2.589,1.343,2.008,1.246,0.000,1.555,0.000,2.334,0.000,0.000,0.000,0.000,0.000,0.000,0.000,0.000,0.000,0.000,0.000,3.142,0.001,0.000,1.003,1.570,1.570,4.086,6.281,1.199,4.712,0.000,0.000,7.713,-6.395,0.990,4.813,1.618,1.522,5.282,4.712,4.712,2.198,6.282,5.083,1.570,0.000,0.000,8.366,-6.461,0.991,4.813,1.604,1.537,
30.300,38.817,7.989,-6.921,1.525,1.010,0.197,0.000,2.621,1.576,0.000,2.596,1.431,1.827,0.000,0.000,1.650,0.000,2.299,0.000,0.000,0.000,0.000,0.000,0.000,0.000,0.000,0.000,0.000,0.000,3.142,6.282,0.000,1.004,1.568,1.566,4.084,6.282,1.199,4.711,0.000,0.000,7.685,-6.318,0.990,4.754,1.675,1.465,5.281,4.710,4.709,2.198,6.283,5.083,1.570,0.000,0.000,8.341,-6.347,0.991,4.755,1.669,1.472,
30.381,38.898,7.994,-6.797,1.526,1.056,6.269,0.000,2.628,1.439,0.000,2.749,1.555,1.815,0.000,1.159,1.643,0.000,2.334,0.000,0.000,0.000,0.000,0.000,0.000,0.000,0.000,0.000,0.000,0.000,3.142,6.282,0.000,1.004,1.569,1.569,4.085,6.281,1.199,4.712,0.000,0.000,7.692,-6.194,0.990,4.757,1.678,1.462,5.281,4.711,4.711,2.198,6.282,5.083,1.570,0.000,0.000,8.347,-6.223,0.990,4.757,1.677,1.464,
30.481,38.998,7.999,-6.696,1.526,1.001,6.268,0.000,2.635,1.586,0.000,2.875,1.656,1.806,0.000,0.990,1.636,0.000,2.369,0.000,0.000,0.000,0.000,0.000,0.000,0.000,0.000,0.000,0.000,0.000,3.142,6.282,0.000,1.004,1.569,1.569,4.085,6.281,1.199,4.712,0.000,0.000,7.696,-6.093,0.990,4.757,1.683,1.458,5.281,4.711,4.711,2.198,6.282,5.083,1.570,0.000,0.000,8.352,-6.121,0.990,4.757,1.678,1.464,
30.584,39.101,8.003,-6.599,1.527,0.989,6.268,0.000,2.642,0.845,0.000,2.996,1.753,1.798,0.000,1.038,1.629,0.000,2.369,0.000,0.000,0.000,0.000,0.000,0.000,0.000,0.000,0.000,0.000,0.000,3.142,6.282,0.000,1.004,1.569,1.569,4.085,6.281,1.199,4.712,0.000,0.000,7.700,-5.996,0.990,4.756,1.677,1.463,5.281,4.711,4.711,2.198,6.282,5.083,1.570,0.000,0.000,8.356,-6.024,0.990,4.756,1.678,1.463,
30.682,39.199,8.007,-6.500,1.527,1.018,6.268,0.000,2.649,1.595,0.000,3.118,1.852,1.790,0.000,1.033,1.623,0.000,2.404,0.000,0.000,0.000,0.000,0.000,0.000,0.000,0.000,0.000,0.000,0.000,3.142,6.282,0.000,1.004,1.569,1.569,4.085,6.281,1.199,4.712,0.000,0.000,7.705,-5.897,0.990,4.756,1.676,1.464,5.281,4.711,4.711,2.198,6.282,5.083,1.570,0.000,0.000,8.360,-5.926,0.990,4.756,1.678,1.463,
30.780,39.297,8.012,-6.400,1.527,1.023,6.267,0.000,2.656,1.600,1.622,3.243,1.952,1.781,0.000,1.029,1.616,0.000,2.404,0.000,0.000,0.000,0.000,0.000,0.000,0.000,0.000,0.000,0.000,0.000,3.142,6.282,0.000,1.004,1.569,1.569,4.085,6.281,1.199,4.712,0.000,0.000,7.709,-5.797,0.990,4.756,1.680,1.460,5.281,4.711,4.711,2.198,6.282,5.083,1.570,0.000,0.000,8.364,-5.825,0.990,4.756,1.678,1.463,
30.887,39.404,8.016,-6.300,1.527,1.008,6.266,0.000,2.594,1.604,0.000,3.367,2.052,1.773,0.000,1.024,1.609,0.000,2.440,0.000,0.000,0.000,0.000,0.000,0.000,0.000,0.000,0.000,0.000,0.000,3.142,6.282,0.000,1.004,1.569,1.569,4.085,6.281,1.199,4.712,0.000,0.000,7.713,-5.697,0.990,4.756,1.682,1.459,5.281,4.711,4.711,2.198,6.282,5.083,1.570,0.000,0.000,8.369,-5.725,0.990,4.756,1.678,1.463,
30.993,39.510,8.020,-6.201,1.528,1.006,6.266,0.000,2.581,1.609,0.000,3.489,2.151,1.674,0.000,1.020,1.603,0.000,2.440,0.000,0.000,0.000,0.000,0.000,0.000,0.000,0.000,0.000,0.000,0.000,3.142,6.282,0.000,1.004,1.569,1.569,4.085,6.281,1.199,4.712,0.000,0.000,7.717,-5.598,0.990,4.755,1.681,1.460,5.281,4.711,4.711,2.198,6.282,5.083,1.570,0.000,0.000,8.373,-5.626,0.990,4.755,1.679,1.462,
31.090,39.607,8.025,-6.102,1.539,1.013,0.498,0.000,2.548,1.607,0.000,3.584,2.249,1.702,0.981,1.019,1.619,0.000,2.440,0.000,0.000,0.000,0.000,0.000,0.000,0.000,0.000,0.000,0.000,0.000,3.142,0.001,0.000,1.003,1.570,1.572,4.086,6.281,1.199,4.712,0.000,0.000,7.717,-5.502,0.990,4.748,1.714,1.427,5.281,4.712,4.713,2.199,6.281,5.083,1.571,0.000,0.000,8.372,-5.524,0.991,4.747,1.673,1.469,
31.200,39.717,8.026,-6.002,1.620,1.014,1.133,0.000,2.373,1.571,0.000,3.511,2.351,2.053,1.007,1.046,1.819,0.000,2.404,0.000,0.000,0.000,0.000,0.000,0.000,0.000,0.000,0.000,0.000,0.000,3.142,0.001,0.000,1.003,1.570,1.570,4.085,6.282,1.199,4.712,0.000,0.000,7.670,-5.430,0.990,4.761,4.617,4.807,5.282,4.713,4.713,2.198,6.282,5.083,1.571,0.000,0.000,8.325,-5.397,0.991,4.760,4.647,4.778,
31.300,39.817,8.021,-5.922,1.672,1.017,0.339,0.000,2.229,1.548,0.904,3.498,2.440,2.597,1.000,1.075,1.996,0.000,2.334,0.000,0.000,0.000,0.000,0.000,0.000,0.000,0.000,0.000,0.000,0.000,3.142,6.283,0.000,1.004,1.568,1.567,4.085,6.282,1.199,4.711,0.000,0.000,7.632,-5.370,0.990,4.818,4.667,4.756,5.281,4.711,4.709,2.198,6.283,5.083,1.570,0.000,0.000,8.286,-5.303,0.991,4.817,4.673,4.750,
31.400,39.917,8.011,-5.823,1.675,1.011,6.271,0.000,2.207,1.537,0.000,3.605,2.541,2.885,1.010,1.088,2.027,0.000,2.369,0.000,0.000,0.000,0.000,0.000,0.000,0.000,0.000,0.000,0.000,0.000,3.142,6.282,0.000,1.004,1.569,1.569,4.085,6.281,1.199,4.712,0.000,0.000,7.622,-5.272,0.990,4.817,4.668,4.756,5.281,4.711,4.711,2.197,6.282,5.083,1.570,0.000,0.000,8.275,-5.202,0.990,4.818,4.667,4.757,
31.500,40.017,8.001,-5.724,1.675,1.008,6.271,0.000,2.135,1.527,1.664,3.717,2.640,3.146,1.020,1.099,1.275,0.000,2.369,0.000,0.000,0.000,0.000,0.000,0.000,0.000,0.000,0.000,0.000,0.000,3.142,6.282,0.000,1.004,1.569,1.569,4.085,6.281,1.199,4.712,0.000,0.000,7.612,-5.173,0.990,4.818,4.668,4.755,5.281,4.711,4.711,2.197,6.282,5.083,1.570,0.000,0.000,8.264,-5.104,0.990,4.818,4.667,4.757,
31.600,40.117,7.988,-5.606,1.675,1.013,6.270,0.000,2.101,1.514,1.519,3.852,2.759,4.485,1.033,1.113,1.169,0.000,2.404,0.000,0.000,0.000,0.000,0.000,0.000,0.000,0.000,0.000,0.000,0.000,3.142,6.282,0.000,1.004,1.569,1.569,4.085,6.281,1.199,4.712,0.000,0.000,7.599,-5.054,0.990,4.818,4.668,4.755,5.281,4.711,4.711,2.198,6.282,5.083,1.570,0.000,0.000,8.252,-4.985,0.990,4.818,4.668,4.756,
31.700,40.217,7.978,-5.507,1.675,1.013,6.269,0.000,4.673,1.503,1.639,3.964,2.859,4.500,1.044,1.124,2.095,0.000,2.404,0.000,0.000,0.000,0.000,0.000,0.000,0.000,0.000,0.000,0.000,0.000,3.142,6.282,0.000,1.004,1.569,1.569,4.085,6.281,1.199,4.712,0.000,0.000,7.589,-4.955,0.990,4.818,4.668,4.756,5.281,4.711,4.711,2.198,6.282,5.083,1.570,0.000,0.000,8.241,-4.886,0.990,4.818,4.668,4.756,
31.800,40.317,7.969,-5.427,1.675,1.011,6.269,0.000,4.565,1.495,1.480,4.054,2.939,4.512,1.052,1.134,2.113,0.000,2.440,0.000,0.000,0.000,0.000,0.000,0.000,0.000,0.000,0.000,0.000,0.000,3.142,6.282,0.000,1.004,1.569,1.569,4.085,6.281,1.199,4.712,0.000,0.000,7.581,-4.876,0.990,4.818,4.668,4.756,5.281,4.711,4.711,2.198,6.282,5.083,1.570,0.000,0.000,8.233,-4.807,0.990,4.818,4.668,4.756,
31.889,40.405,7.957,-5.309,1.676,1.011,6.268,0.000,4.403,1.482,1.616,4.188,3.058,1.478,1.065,1.147,2.139,0.000,2.440,0.000,0.000,0.000,0.000,0.000,0.000,0.000,0.000,0.000,0.000,0.000,3.142,6.282,0.000,1.004,1.569,1.569,4.085,6.281,1.199,4.712,0.000,0.000,7.568,-4.757,0.990,4.818,4.668,4.756,5.281,4.711,4.711,2.198,6.282,5.083,1.570,0.000,0.000,8.220,-4.688,0.990,4.818,4.668,4.756,
31.987,40.504,7.946,-5.210,1.676,1.012,6.268,0.000,4.268,1.471,1.604,4.300,3.158,1.515,1.075,1.159,2.161,0.000,2.475,0.000,0.000,0.000,0.000,0.000,0.000,0.000,0.000,0.000,0.000,0.000,3.142,6.282,0.000,1.004,1.569,1.569,4.085,6.281,1.199,4.712,0.000,0.000,7.558,-4.659,0.990,4.818,4.668,4.756,5.281,4.711,4.711,2.198,6.282,5.083,1.570,0.000,0.000,8.210,-4.589,0.990,4.818,4.668,4.756,
32.088,40.605,7.936,-5.111,1.676,1.012,6.267,0.000,3.586,1.461,1.593,4.411,3.257,1.583,1.086,1.171,2.183,0.000,2.440,0.000,0.000,0.000,0.000,0.000,0.000,0.000,0.000,0.000,0.000,0.000,3.142,6.282,0.000,1.004,1.569,1.569,4.085,6.281,1.199,4.712,0.000,0.000,7.547,-4.560,0.990,4.818,4.668,4.756,5.281,4.711,4.711,2.198,6.282,5.083,1.570,0.000,0.000,8.199,-4.490,0.990,4.818,4.669,4.755,
32.200,40.717,7.926,-5.012,1.676,1.011,6.267,0.000,3.310,1.450,1.581,4.523,3.357,1.598,1.097,1.182,2.206,0.000,2.475,0.000,0.000,0.000,0.000,0.000,0.000,0.000,0.000,0.000,0.000,0.000,3.142,6.282,0.000,1.004,1.569,1.569,4.085,6.281,1.199,4.712,0.000,0.000,7.536,-4.461,0.990,4.818,4.668,4.756,5.281,4.711,4.711,2.198,6.282,5.083,1.570,0.000,0.000,8.189,-4.391,0.990,4.819,4.669,4.755,
32.300,40.817,7.917,-4.933,1.677,1.011,6.267,0.000,3.089,1.441,1.572,1.511,3.436,1.610,1.105,0.771,2.224,0.000,2.510,0.000,0.000,0.000,0.000,0.000,0.000,0.000,0.000,0.000,0.000,0.000,3.142,6.282,0.000,1.004,1.569,1.569,4.085,6.281,1.199,4.712,0.000,0.000,7.528,-4.382,0.990,4.819,4.668,4.756,5.281,4.711,4.711,2.198,6.282,5.083,1.570,0.000,0.000,8.180,-4.312,0.990,4.819,4.669,4.755,
32.400,40.917,7.907,-4.834,1.677,1.012,6.267,0.000,2.812,1.431,1.561,4.667,3.536,1.625,1.116,0.717,2.247,0.000,2.475,0.000,0.000,0.000,0.000,0.000,0.000,0.000,0.000,0.000,0.000,0.000,3.142,6.282,0.000,1.004,1.569,1.569,4.085,6.281,1.199,4.712,0.000,0.000,7.517,-4.283,0.990,4.819,4.668,4.756,5.281,4.711,4.711,2.198,6.282,5.083,1.570,0.000,0.000,8.169,-4.213,0.990,4.819,4.669,4.755,
32.500,41.017,7.896,-4.735,1.677,1.012,6.267,0.000,2.535,1.420,1.549,1.468,3.636,1.641,1.127,1.215,2.270,0.000,2.510,0.000,0.000,0.000,0.000,0.000,0.000,0.000,0.000,0.000,0.000,0.000,3.142,6.282,0.000,1.004,1.569,1.569,4.085,6.281,1.199,4.712,0.000,0.000,7.507,-4.184,0.990,4.819,4.668,4.756,5.281,4.711,4.711,2.198,6.282,5.083,1.570,0.000,0.000,8.159,-4.114,0.990,4.819,4.669,4.755,
32.600,41.117,7.883,-4.616,1.677,1.011,6.266,0.000,2.231,1.407,1.535,0.000,3.755,1.659,1.139,1.229,2.206,0.000,2.545,0.000,0.000,0.000,0.000,0.000,0.000,0.000,0.000,0.000,0.000,0.000,3.142,6.282,0.000,1.004,1.569,1.569,4.085,6.281,1.199,4.712,0.000,0.000,7.494,-4.065,0.990,4.820,4.668,4.755,5.281,4.711,4.711,2.198,6.282,5.083,1.570,0.000,0.000,8.146,-3.995,0.990,4.820,4.669,4.754,
32.700,41.217,7.873,-4.517,1.678,1.011,6.266,0.000,2.096,1.396,1.524,0.000,3.855,1.674,1.150,1.241,2.218,0.000,2.545,0.000,0.000,0.000,0.000,0.000,0.000,0.000,0.000,0.000,0.000,0.000,3.142,6.282,0.000,1.004,1.569,1.569,4.085,6.281,1.199,4.712,0.000,0.000,7.483,-3.967,0.990,4.820,4.668,4.755,5.281,4.711,4.711,2.198,6.282,5.083,1.570,0.000,0.000,8.135,-3.896,0.990,4.820,4.670,4.754,
32.785,41.301,7.862,-4.418,1.678,1.012,6.266,0.000,1.960,1.382,1.512,0.000,3.954,1.689,0.711,1.253,0.000,0.000,2.615,0.000,0.000,0.000,0.000,0.000,0.000,0.000,0.000,0.000,0.000,0.000,3.142,6.282,0.000,1.004,1.569,1.569,4.085,6.281,1.199,4.712,0.000,0.000,7.472,-3.868,0.990,4.820,4.668,4.755,5.281,4.711,4.711,2.198,6.282,5.083,1.570,0.000,0.000,8.124,-3.797,0.990,4.820,4.670,4.754,
32.882,41.399,7.851,-4.319,1.678,1.012,6.266,0.000,1.895,1.323,1.501,2.960,4.054,1.704,1.172,1.265,0.000,0.000,2.650,0.000,0.000,0.000,0.000,0.000,0.000,0.000,0.000,0.000,0.000,0.000,3.142,6.282,0.000,1.004,1.569,1.569,4.085,6.281,1.199,4.712,0.000,0.000,7.461,-3.769,0.990,4.821,4.668,4.755,5.281,4.711,4.711,2.198,6.282,5.083,1.570,0.000,0.000,8.113,-3.698,0.990,4.821,4.670,4.754,
32.989,41.505,7.841,-4.220,1.679,1.012,6.266,0.000,1.879,3.528,1.489,2.998,4.154,1.720,1.183,1.277,1.544,0.000,2.650,0.000,0.000,0.000,0.000,0.000,0.000,0.000,0.000,0.000,0.000,0.000,3.142,6.282,0.000,1.004,1.569,1.569,4.085,6.281,1.199,4.712,0.000,0.000,7.450,-3.670,0.990,4.821,4.669,4.755,5.281,4.711,4.711,2.198,6.282,5.083,1.570,0.000,0.000,8.102,-3.599,0.990,4.821,4.670,4.754,
33.100,41.617,7.830,-4.122,1.679,1.012,6.266,0.000,1.935,0.000,1.477,3.110,4.253,1.735,1.194,1.289,1.511,0.000,2.791,0.000,0.000,0.000,0.000,0.000,0.000,0.000,0.000,0.000,0.000,0.000,3.142,6.282,0.000,1.004,1.569,1.569,4.085,6.281,1.199,4.712,0.000,0.000,7.439,-3.572,0.990,4.821,4.669,4.755,5.281,4.711,4.711,2.198,6.282,5.083,1.570,0.000,0.000,8.091,-3.500,0.990,4.821,4.670,4.754,
33.187,41.703,7.819,-4.023,1.680,1.012,6.266,0.000,1.918,0.000,1.466,2.535,4.353,1.750,1.205,1.301,0.000,0.000,2.931,0.000,0.000,0.000,0.000,0.000,0.000,0.000,0.000,0.000,0.000,0.000,3.142,6.282,0.000,1.004,1.569,1.569,4.085,6.281,1.199,4.712,0.000,0.000,7.428,-3.473,0.990,4.822,4.669,4.755,5.281,4.711,4.711,2.198,6.282,5.083,1.570,0.000,0.000,8.080,-3.401,0.990,4.822,4.670,4.754,
33.286,41.803,7.808,-3.924,1.680,1.012,6.266,0.000,1.902,0.000,1.454,2.792,4.453,1.766,1.215,1.313,0.000,0.000,3.001,0.000,0.000,0.000,0.000,0.000,0.000,0.000,0.000,0.000,0.000,0.000,3.142,6.282,0.000,1.004,1.569,1.569,4.085,6.281,1.199,4.712,0.000,0.000,7.417,-3.374,0.990,4.822,4.669,4.755,5.281,4.711,4.711,2.198,6.282,5.083,1.570,0.000,0.000,8.069,-3.302,0.990,4.822,4.671,4.753,
33.387,41.903,7.797,-3.825,1.680,1.012,6.266,0.000,1.885,4.119,1.442,2.494,4.552,1.781,1.226,1.326,2.660,0.000,3.001,4.997,0.000,0.000,0.000,0.000,0.000,0.000,0.000,0.000,0.000,0.000,3.142,6.282,0.000,1.004,1.569,1.569,4.085,6.281,1.199,4.712,0.000,0.000,7.406,-3.275,0.990,4.822,4.669,4.754,5.281,4.711,4.711,2.198,6.282,5.083,1.570,0.000,0.000,8.058,-3.203,0.990,4.823,4.671,4.753,
33.487,42.004,7.787,-3.726,1.681,1.012,6.266,0.000,1.869,3.574,1.430,2.750,4.652,1.143,1.237,1.338,2.547,0.000,3.001,4.788,0.000,0.000,0.000,0.000,0.000,0.000,0.000,0.000,0.000,0.000,3.142,6.282,0.000,1.004,1.569,1.569,4.085,6.281,1.199,4.712,0.000,0.000,7.395,-3.177,0.990,4.823,4.669,4.754,5.281,4.711,4.711,2.198,6.282,5.083,1.570,0.000,0.000,8.047,-3.104,0.990,4.823,4.671,4.753,
33.600,42.117,7.776,-3.627,1.681,1.012,6.266,0.000,1.852,3.335,1.418,2.728,4.752,1.210,1.249,1.350,2.433,0.000,3.001,4.593,0.000,0.000,0.000,0.000,0.000,0.000,0.000,0.000,0.000,0.000,3.142,6.282,0.000,1.004,1.569,1.569,4.085,6.281,1.199,4.712,0.000,0.000,7.384,-3.078,0.990,4.823,4.669,4.754,5.281,4.711,4.711,2.198,6.282,5.083,1.570,0.000,0.000,8.036,-3.005,0.990,4.823,4.671,4.753,
33.691,42.208,7.765,-3.528,1.681,1.012,6.266,0.000,1.836,3.323,1.351,2.707,4.852,1.827,1.260,1.362,2.456,0.000,3.036,4.424,0.000,0.000,0.000,0.000,0.000,0.000,0.000,0.000,0.000,0.000,3.142,6.282,0.000,1.004,1.569,1.569,4.085,6.281,1.199,4.712,0.000,0.000,7.373,-2.979,0.990,4.824,4.670,4.754,5.281,4.711,4.711,2.198,6.282,5.083,1.570,0.000,0.000,8.025,-2.906,0.990,4.824,4.671,4.753,
33.792,42.309,7.754,-3.429,1.682,1.012,6.266,0.000,1.819,3.312,1.357,2.685,4.951,1.843,1.271,1.375,2.584,0.000,3.036,4.293,0.000,0.000,0.000,0.000,0.000,0.000,0.000,0.000,0.000,0.000,3.142,6.282,0.000,1.004,1.569,1.569,4.085,6.281,1.199,4.712,0.000,0.000,7.362,-2.880,0.990,4.824,4.670,4.754,5.281,4.711,4.711,2.198,6.282,5.083,1.570,0.000,0.000,8.013,-2.807,0.990,4.824,4.671,4.753,
33.885,42.402,7.743,-3.330,1.682,1.012,6.266,0.000,1.802,3.301,0.000,2.663,0.000,1.858,1.282,1.387,2.609,0.000,3.142,0.000,0.000,0.000,2.924,0.000,0.000,0.000,0.000,0.000,0.000,0.000,3.142,6.282,0.000,1.004,1.569,1.569,4.085,6.281,1.199,4.712,0.000,0.000,7.350,-2.782,0.990,4.824,4.670,4.754,5.281,4.711,4.711,2.198,6.282,5.083,1.570,0.000,0.000,8.002,-2.708,0.990,4.824,4.671,4.752,
33.986,42.503,7.731,-3.232,1.683,1.012,6.266,0.000,1.974,1.349,0.000,2.642,0.000,1.874,1.293,0.916,2.634,0.000,3.142,0.000,0.000,0.000,2.935,0.000,0.000,0.000,0.000,0.000,0.000,0.000,3.142,6.282,0.000,1.004,1.569,1.569,4.085,6.281,1.199,4.712,0.000,0.000,7.339,-2.683,0.990,4.825,4.670,4.754,5.281,4.711,4.711,2.198,6.282,5.083,1.570,0.000,0.000,7.991,-2.609,0.990,4.825,4.672,4.752,
34.100,42.617,7.720,-3.133,1.683,1.012,6.266,0.000,1.957,1.189,0.000,2.620,0.000,1.890,1.304,1.357,2.659,0.000,3.142,0.000,0.000,0.000,2.980,0.000,0.000,0.000,0.000,0.000,0.000,0.000,3.142,6.282,0.000,1.004,1.569,1.569,4.085,6.281,1.199,4.712,0.000,0.000,7.328,-2.584,0.990,4.825,4.670,4.753,5.281,4.711,4.711,2.198,6.282,5.083,1.570,0.000,0.000,7.979,-2.510,0.990,4.825,4.672,4.752,
34.184,42.700,7.709,-3.034,1.683,1.012,6.266,0.000,1.940,1.228,0.000,2.598,0.000,1.905,1.316,0.000,2.684,0.000,3.142,0.000,0.000,0.000,3.071,0.000,0.000,0.000,0.000,0.000,0.000,0.000,3.142,6.282,0.000,1.004,1.569,1.569,4.085,6.281,1.199,4.712,0.000,0.000,7.316,-2.485,0.990,4.825,4.670,4.753,5.281,4.711,4.711,2.198,6.282,5.083,1.570,0.000,0.000,7.968,-2.411,0.990,4.826,4.672,4.752,
34.300,42.817,7.698,-2.935,1.684,1.012,6.266,0.000,1.923,1.217,0.000,2.575,0.000,1.921,1.327,0.000,2.709,0.000,3.142,0.000,0.000,0.000,0.000,0.000,0.000,0.000,0.000,0.000,0.000,0.000,3.142,6.282,0.000,1.004,1.569,1.569,4.085,6.281,1.199,4.712,0.000,0.000,7.305,-2.387,0.990,4.826,4.670,4.753,5.281,4.711,4.711,2.198,6.282,5.083,1.570,0.000,0.000,7.957,-2.312,0.990,4.826,4.672,4.752,
34.400,42.917,7.689,-2.856,1.684,1.012,6.266,0.000,4.591,1.208,0.000,2.558,0.000,1.934,1.336,0.000,2.729,0.000,3.142,0.000,0.000,0.000,0.000,0.000,0.000,0.000,0.000,0.000,0.000,0.000,3.142,6.282,0.000,1.004,1.569,1.569,4.085,6.281,1.199,4.712,0.000,0.000,7.296,-2.308,0.990,4.826,4.670,4.753,5.281,4.711,4.711,2.198,6.282,5.083,1.570,0.000,0.000,7.947,-2.233,0.990,4.826,4.672,4.752,
34.500,43.017,7.678,-2.757,1.684,1.012,6.266,0.000,4.513,1.196,3.410,2.535,0.000,1.949,1.347,0.000,2.755,0.000,3.142,0.000,0.000,0.000,0.000,0.000,0.000,0.000,0.000,0.000,0.000,0.000,3.142,6.282,0.000,1.004,1.569,1.569,4.085,6.281,1.199,4.712,0.000,0.000,7.284,-2.209,0.990,4.826,4.671,4.753,5.281,4.711,4.711,2.198,6.282,5.083,1.570,0.000,0.000,7.936,-2.134,0.990,4.827,4.672,4.752,
34.600,43.117,7.666,-2.658,1.685,1.012,6.265,0.000,0.000,1.185,3.434,2.513,0.000,1.965,0.913,0.000,2.780,0.000,3.142,0.000,0.000,0.000,0.000,0.000,0.000,0.000,0.000,0.000,0.000,0.000,3.142,6.282,0.000,1.004,1.569,1.569,4.085,6.281,1.199,4.712,0.000,0.000,7.273,-2.110,0.990,4.827,4.671,4.753,5.281,4.711,4.711,2.198,6.282,5.083,1.570,0.000,0.000,7.924,-2.035,0.990,4.827,4.672,4.752,
34.700,43.217,7.655,-2.559,1.685,1.012,6.266,0.000,4.928,1.173,3.457,2.490,0.000,1.981,1.370,0.000,2.806,0.000,3.142,0.000,0.000,0.000,0.000,0.000,0.000,0.000,0.000,0.000,0.000,0.000,3.142,6.282,0.000,1.004,1.569,1.569,4.085,6.281,1.199,4.712,0.000,0.000,7.261,-2.012,0.990,4.827,4.671,4.753,5.281,4.711,4.711,2.198,6.282,5.083,1.570,0.000,0.000,7.913,-1.936,0.990,4.827,4.673,4.751,
34.800,43.317,7.644,-2.460,1.686,1.012,6.266,0.000,4.793,1.161,3.480,2.467,0.000,1.997,1.382,0.000,2.423,0.000,3.142,0.000,0.000,0.000,0.000,0.000,0.000,0.000,0.000,0.000,0.000,0.000,3.142,6.282,0.000,1.004,1.569,1.569,4.085,6.281,1.199,4.712,0.000,0.000,7.250,-1.913,0.990,4.828,4.671,4.753,5.281,4.711,4.711,2.198,6.282,5.083,1.570,0.000,0.000,7.901,-1.837,0.990,4.828,4.673,4.751,
34.898,43.415,7.632,-2.362,1.685,1.012,6.221,0.000,3.755,1.150,1.206,2.441,0.000,2.015,1.343,0.000,2.365,0.000,3.142,0.000,0.000,0.000,0.000,0.000,0.000,0.000,0.000,0.000,0.000,0.000,3.142,6.282,0.000,1.004,1.569,1.568,4.084,6.281,1.199,4.712,0.000,0.000,7.238,-1.814,0.990,4.828,4.673,4.750,5.281,4.711,4.711,2.197,6.282,5.083,1.570,0.000,0.000,7.889,-1.739,0.990,4.828,4.669,4.754,
35.000,43.517,7.620,-2.243,1.629,1.013,5.383,0.000,0.000,1.505,1.216,2.087,0.000,2.167,1.373,0.000,2.617,0.000,3.142,0.000,2.024,0.000,0.000,0.000,0.000,0.000,0.000,0.000,0.000,0.000,3.142,6.281,0.001,1.004,1.568,1.566,4.085,6.281,1.199,4.712,0.000,0.000,7.255,-1.674,0.990,4.775,4.636,4.787,5.281,4.711,4.709,2.197,6.282,5.083,1.570,0.000,0.000,7.910,-1.635,0.990,4.774,4.635,4.788,
35.100,43.617,7.616,-2.163,1.582,1.014,5.892,0.000,0.000,1.296,1.189,2.233,0.000,2.309,1.395,0.000,2.440,0.000,3.142,0.000,1.801,0.000,0.000,0.000,0.000,0.000,0.000,0.000,0.000,0.000,3.142,6.282,0.000,1.004,1.570,1.570,4.085,6.281,1.199,4.712,0.000,0.000,7.281,-1.577,0.990,4.723,4.246,5.178,5.282,4.712,4.712,2.198,6.281,5.083,1.571,0.000,0.000,7.937,-1.570,0.991,4.723,4.313,5.111,
35.185,43.701,7.615,-2.044,1.576,1.008,6.262,0.000,0.000,1.297,1.186,3.782,0.000,2.329,1.623,0.000,2.422,0.000,3.142,0.000,1.763,0.000,0.000,0.000,0.000,0.000,0.000,0.000,0.000,0.000,3.142,6.282,0.000,1.004,1.569,1.569,4.085,6.281,1.199,4.712,0.000,0.000,7.283,-1.456,0.990,4.720,4.012,5.412,5.281,4.711,4.711,2.198,6.282,5.083,1.570,0.000,0.000,7.939,-1.453,0.990,4.720,4.056,5.369,
35.289,43.806,7.614,-1.944,1.577,1.011,6.263,0.000,2.977,1.296,1.185,3.867,0.000,2.327,1.961,1.412,2.015,0.000,3.142,0.000,0.000,0.000,0.000,0.000,0.000,0.000,0.000,0.000,0.000,0.000,3.142,6.282,0.000,1.004,1.569,1.569,4.085,6.281,1.199,4.712,0.000,0.000,7.282,-1.357,0.990,4.720,4.054,5.370,5.281,4.711,4.711,2.198,6.282,5.083,1.570,0.000,0.000,7.938,-1.353,0.990,4.720,4.095,5.329,
35.386,43.902,7.614,-1.845,1.577,1.014,6.264,0.000,2.974,0.000,1.185,3.953,0.000,2.327,2.301,1.413,2.428,0.000,3.142,0.000,0.000,0.000,0.000,0.000,0.000,0.000,0.000,0.000,0.000,0.000,3.142,6.282,0.000,1.004,1.569,1.569,4.085,6.281,1.199,4.712,0.000,0.000,7.281,-1.258,0.990,4.721,4.098,5.326,5.281,4.711,4.711,2.198,6.282,5.083,1.570,0.000,0.000,7.937,-1.253,0.990,4.721,4.136,5.288,
35.483,44.000,7.613,-1.745,1.578,1.012,6.263,0.000,2.970,0.000,1.184,4.039,0.000,2.326,2.642,1.467,2.020,0.000,3.142,0.000,0.000,0.000,0.000,0.000,0.000,0.000,0.000,0.000,0.000,0.000,3.142,6.282,0.000,1.004,1.569,1.569,4.085,6.281,1.199,4.712,0.000,0.000,7.280,-1.158,0.990,4.721,4.134,5.290,5.281,4.711,4.711,2.198,6.282,5.083,1.570,0.000,0.000,7.936,-1.153,0.990,4.721,4.170,5.254,
35.600,44.117,7.612,-1.646,1.578,1.011,6.264,0.000,2.967,0.000,1.184,4.125,0.000,2.326,4.251,1.468,2.434,0.000,3.142,0.000,0.000,0.000,0.000,0.000,0.000,0.000,0.000,0.000,0.000,0.000,3.142,6.282,0.000,1.004,1.569,1.569,4.085,6.281,1.199,4.712,0.000,0.000,7.279,-1.059,0.990,4.722,4.168,5.256,5.281,4.711,4.711,2.198,6.282,5.083,1.570,0.000,0.000,7.935,-1.054,0.990,4.722,4.200,5.224,
35.682,44.199,7.611,-1.546,1.579,1.012,6.264,0.000,2.964,0.000,1.322,4.211,0.000,1.592,4.596,1.469,2.438,0.000,3.142,0.000,0.000,0.000,0.000,0.000,0.000,0.000,0.000,0.000,0.000,0.000,3.142,6.282,0.000,1.004,1.569,1.569,4.085,6.281,1.199,4.712,0.000,0.000,7.278,-0.960,0.990,4.722,4.198,5.226,5.281,4.711,4.711,2.198,6.282,5.083,1.570,0.000,0.000,7.934,-0.954,0.990,4.722,4.226,5.198,
35.800,44.317,7.610,-1.447,1.579,1.012,6.264,0.000,3.092,0.000,1.610,0.000,0.000,1.675,4.941,1.470,2.441,0.000,3.142,0.000,0.000,1.860,0.000,0.000,0.000,0.000,0.000,0.000,0.000,0.000,3.142,6.282,0.000,1.004,1.569,1.569,4.085,6.281,1.199,4.712,0.000,0.000,7.277,-0.860,0.990,4.723,4.222,5.202,5.281,4.711,4.711,2.198,6.282,5.083,1.570,0.000,0.000,7.933,-0.855,0.990,4.723,4.248,5.176,
35.900,44.417,7.610,-1.367,1.580,1.012,6.265,0.000,2.993,0.000,1.321,1.911,0.000,2.325,0.000,1.471,2.443,0.000,3.142,0.000,0.000,1.918,0.000,0.000,0.000,0.000,0.000,0.000,0.000,0.000,3.142,6.282,0.000,1.004,1.569,1.569,4.085,6.281,1.199,4.712,0.000,0.000,7.276,-0.781,0.990,4.723,4.239,5.185,5.281,4.711,4.711,2.198,6.282,5.083,1.570,0.000,0.000,7.932,-0.775,0.990,4.723,4.264,5.160,
36.000,44.517,7.609,-1.268,1.580,1.011,6.265,0.000,2.868,0.000,1.320,1.911,0.000,2.325,0.000,1.473,2.447,0.000,3.142,0.000,0.000,2.036,0.000,0.000,0.000,0.000,0.000,0.000,0.000,0.000,3.142,6.282,0.000,1.004,1.569,1.569,4.085,6.281,1.199,4.712,0.000,0.000,7.274,-0.682,0.990,4.723,4.259,5.165,5.281,4.711,4.711,2.198,6.282,5.083,1.570,0.000,0.000,7.930,-0.675,0.990,4.723,4.283,5.142,
36.100,44.617,7.608,-1.148,1.581,1.012,6.265,0.000,2.718,0.000,1.319,2.001,0.000,2.326,4.884,1.474,1.034,0.000,3.142,0.000,0.000,2.241,0.000,0.000,0.000,0.000,0.000,0.000,0.000,0.000,3.142,6.282,0.000,1.004,1.569,1.569,4.085,6.281,1.199,4.712,0.000,0.000,7.273,-0.562,0.990,4.724,4.280,5.144,5.281,4.711,4.711,2.198,6.282,5.083,1.570,0.000,0.000,7.929,-0.556,0.990,4.724,4.302,5.122,
36.200,44.717,7.607,-1.069,1.574,1.012,5.933,0.000,2.604,3.723,1.315,1.980,0.000,2.348,1.408,1.472,2.429,0.000,3.142,0.000,0.000,0.000,0.000,0.000,0.000,0.000,0.000,0.000,0.000,0.000,3.142,6.281,0.001,1.004,1.568,1.567,4.084,6.281,1.199,4.712,0.000,0.000,7.274,-0.481,0.990,4.720,4.127,5.297,5.281,4.710,4.709,2.197,6.282,5.083,1.570,0.000,0.000,7.930,-0.478,0.990,4.721,4.041,5.383,
36.300,44.817,7.608,-0.969,1.505,1.013,5.259,0.000,2.178,3.518,2.014,1.800,0.000,2.598,1.442,1.440,2.213,0.000,3.142,0.000,0.000,0.000,0.000,0.000,0.000,0.000,0.000,0.000,0.000,0.000,3.142,6.280,0.001,1.004,1.568,1.567,4.085,6.281,1.199,4.712,0.000,0.000,7.317,-0.359,0.990,4.776,1.647,1.493,5.282,4.711,4.709,2.197,6.282,5.083,1.570,0.000,0.000,7.972,-0.402,0.990,4.776,1.641,1.499,
36.400,44.917,7.616,-0.869,1.451,1.014,6.137,0.000,2.210,3.369,3.504,1.699,0.000,2.826,1.466,1.414,2.066,0.000,3.142,0.000,0.000,0.000,0.000,0.000,0.000,0.000,0.000,0.000,0.000,0.000,3.142,6.282,0.000,1.004,1.570,1.571,4.085,6.281,1.199,4.712,0.000,0.000,7.361,-0.245,0.990,4.835,1.610,1.531,5.282,4.712,4.713,2.198,6.281,5.083,1.571,0.000,0.000,8.013,-0.324,0.991,4.834,1.605,1.537,
36.500,45.017,7.628,-0.771,1.451,1.010,6.260,0.000,2.232,2.816,3.516,1.718,0.000,2.800,1.452,1.401,0.903,0.000,3.142,0.000,0.000,0.000,0.000,0.000,0.000,0.000,0.000,0.000,0.000,0.000,3.142,6.283,0.000,1.003,1.569,1.569,4.085,6.281,1.199,4.712,0.000,0.000,7.372,-0.146,0.990,4.832,1.612,1.529,5.281,4.711,4.711,2.198,6.282,5.083,1.570,0.000,0.000,8.023,-0.225,0.990,4.832,1.608,1.533,
36.582,45.098,7.640,-0.672,1.452,1.011,6.261,0.000,2.253,2.573,3.529,1.760,0.000,2.772,1.494,1.390,0.830,0.000,3.142,0.000,0.000,0.000,0.000,0.000,0.000,0.000,0.000,0.000,0.000,0.000,3.142,6.283,0.000,1.004,1.569,1.569,4.085,6.281,1.199,4.712,0.000,0.000,7.383,-0.048,0.990,4.831,1.611,1.529,5.281,4.711,4.711,2.198,6.282,5.083,1.570,0.000,0.000,8.035,-0.126,0.990,4.831,1.608,1.533,
36.700,45.217,7.654,-0.553,1.453,1.013,6.262,0.000,2.277,2.279,3.791,1.915,0.000,2.739,1.478,1.136,2.013,0.000,3.142,0.000,0.000,0.000,0.000,0.000,0.000,0.000,0.000,0.000,0.000,0.000,3.142,6.282,0.000,1.004,1.569,1.569,4.085,6.281,1.199,4.712,0.000,0.000,7.397,0.070,0.990,4.830,1.612,1.529,5.281,4.711,4.711,2.198,6.282,5.083,1.570,0.000,0.000,8.048,-0.007,0.990,4.830,1.609,1.533,
36.781,45.298,7.666,-0.454,1.453,1.012,6.263,0.000,2.298,2.032,4.377,2.045,0.000,2.712,1.465,1.364,1.997,0.000,3.142,0.000,0.000,0.000,0.000,0.000,0.000,0.000,0.000,0.000,0.000,0.000,3.142,6.282,0.000,1.004,1.569,1.569,4.085,6.281,1.199,4.712,0.000,0.000,7.408,0.169,0.990,4.830,1.612,1.529,5.281,4.711,4.711,2.198,6.282,5.083,1.570,0.000,0.000,8.060,0.092,0.990,4.830,1.609,1.532,
36.897,45.414,7.677,-0.356,1.454,1.011,6.263,0.000,2.318,2.044,4.390,1.997,0.000,2.584,1.451,1.352,1.981,0.000,3.142,0.000,0.000,0.000,0.000,0.000,0.000,0.000,0.000,0.000,0.000,0.000,3.142,6.282,0.000,1.004,1.569,1.569,4.085,6.281,1.199,4.712,0.000,0.000,7.419,0.268,0.990,4.829,1.612,1.529,5.281,4.711,4.711,2.198,6.282,5.083,1.570,0.000,0.000,8.071,0.191,0.990,4.829,1.609,1.532,
37.000,45.517,7.689,-0.257,1.455,1.012,6.264,0.000,2.339,2.056,4.638,2.016,0.000,2.609,1.438,1.101,1.965,0.000,3.142,0.000,0.000,0.000,0.000,0.000,0.000,0.000,0.000,0.000,0.000,0.000,3.142,6.282,0.000,1.004,1.569,1.569,4.085,6.281,1.199,4.712,0.000,0.000,7.430,0.366,0.990,4.829,1.612,1.529,5.281,4.711,4.711,2.198,6.282,5.083,1.570,0.000,0.000,8.082,0.290,0.990,4.828,1.610,1.532,
37.100,45.617,7.698,-0.178,1.455,1.012,6.264,0.000,2.355,2.065,4.982,2.031,0.000,2.701,1.428,0.509,1.952,0.000,3.142,0.000,0.000,0.000,0.000,0.000,0.000,0.000,0.000,0.000,0.000,0.000,3.142,6.282,0.000,1.004,1.569,1.569,4.085,6.281,1.199,4.712,0.000,0.000,7.439,0.445,0.990,4.828,1.612,1.529,5.281,4.711,4.711,2.198,6.282,5.083,1.570,0.000,0.000,8.091,0.370,0.990,4.828,1.610,1.531,
37.200,45.717,7.709,-0.079,1.458,1.012,0.183,0.000,2.367,2.075,0.000,2.056,0.000,2.819,0.532,1.320,1.888,0.000,3.142,0.000,0.000,0.000,0.000,0.000,0.000,0.000,0.000,0.000,0.000,0.000,3.142,0.000,0.000,1.003,1.570,1.570,4.086,6.281,1.199,4.712,0.000,0.000,7.450,0.544,0.990,4.827,1.615,1.526,5.281,4.712,4.712,2.199,6.282,5.083,1.570,0.000,0.000,8.102,0.469,0.990,4.827,1.605,1.536,
37.300,45.817,7.720,0.020,1.515,1.011,1.172,0.000,2.182,2.040,4.663,2.222,0.000,3.035,1.370,1.328,0.000,0.000,3.142,0.000,0.000,0.000,0.000,0.000,0.000,0.000,0.000,0.000,0.000,0.000,3.142,0.001,0.000,1.003,1.571,1.572,4.086,6.281,1.199,4.712,0.000,0.000,7.427,0.627,0.990,4.772,1.654,1.487,5.282,4.713,4.714,2.199,6.282,5.083,1.571,0.000,0.000,8.082,0.590,0.991,4.772,1.621,1.520,
37.400,45.917,7.723,0.120,1.602,1.017,0.549,0.000,1.944,1.989,4.160,2.511,0.000,1.995,1.328,1.362,4.594,0.000,3.142,0.000,0.000,0.000,0.000,0.000,0.000,0.000,0.000,0.000,0.000,0.000,3.142,0.000,0.000,1.004,1.569,1.567,4.085,6.282,1.199,4.712,0.000,0.000,7.374,0.698,0.990,4.747,4.581,4.842,5.282,4.711,4.710,2.198,6.283,5.083,1.570,0.000,0.000,8.031,0.719,0.991,4.746,4.596,4.828,
37.498,46.015,7.719,0.220,1.610,1.014,6.274,0.000,1.918,1.981,4.338,2.616,0.000,2.007,1.085,1.371,4.449,0.000,3.142,0.000,0.000,0.000,0.000,0.000,0.000,0.000,0.000,0.000,0.000,0.000,3.142,6.282,0.000,1.004,1.569,1.569,4.085,6.281,1.199,4.712,0.000,0.000,7.367,0.795,0.990,4.753,4.596,4.828,5.281,4.711,4.711,2.197,6.282,5.083,1.570,0.000,0.000,8.023,0.822,0.990,4.753,4.593,4.831,
37.595,46.112,7.714,0.339,1.610,1.008,6.272,0.000,1.911,1.976,4.651,2.542,0.000,0.774,1.333,1.376,2.603,0.000,3.142,0.000,0.000,0.000,0.000,0.000,0.000,0.000,0.000,0.000,0.000,0.000,3.142,6.282,0.000,1.004,1.569,1.569,4.085,6.281,1.199,4.712,0.000,0.000,7.363,0.914,0.990,4.753,4.597,4.827,5.281,4.711,4.711,2.197,6.282,5.083,1.570,0.000,0.000,8.018,0.941,0.990,4.753,4.594,4.830,
37.688,46.204,7.711,0.438,1.610,1.011,6.271,0.000,1.905,2.267,4.659,2.534,0.000,2.074,1.337,1.380,2.485,0.000,3.142,0.000,0.000,0.000,0.000,0.000,0.000,0.000,0.000,0.000,0.000,0.000,3.142,6.282,0.000,1.004,1.569,1.569,4.085,6.281,1.199,4.712,0.000,0.000,7.359,1.014,0.990,4.753,4.597,4.827,5.281,4.711,4.711,2.197,6.282,5.083,1.570,0.000,0.000,8.014,1.040,0.990,4.753,4.594,4.830,
37.789,46.306,7.707,0.538,1.610,1.013,6.270,0.000,1.899,1.341,4.926,2.527,0.000,0.786,1.341,1.384,2.367,0.000,3.142,0.000,0.000,0.000,0.000,0.000,0.000,0.000,0.000,0.000,0.000,0.000,3.142,6.282,0.000,1.004,1.569,1.569,4.085,6.281,1.199,4.712,0.000,0.000,7.355,1.113,0.990,4.752,4.596,4.828,5.281,4.711,4.711,2.198,6.282,5.083,1.570,0.000,0.000,8.010,1.139,0.990,4.753,4.595,4.829,
37.886,46.403,7.703,0.637,1.610,1.012,6.270,0.000,1.893,1.465,0.000,2.521,0.000,0.850,1.345,1.388,2.293,0.000,3.142,0.000,0.000,0.000,0.000,0.000,0.000,0.000,0.000,0.000,0.000,0.000,3.142,6.282,0.000,1.004,1.569,1.569,4.085,6.281,1.199,4.712,0.000,0.000,7.351,1.213,0.990,4.753,4.595,4.829,5.281,4.711,4.711,2.198,6.282,5.083,1.570,0.000,0.000,8.006,1.239,0.990,4.753,4.596,4.829,
37.989,46.505,7.699,0.737,1.610,1.011,6.269,0.000,1.886,1.237,0.000,2.638,0.000,2.092,1.349,1.392,2.301,0.000,3.142,0.000,0.000,0.000,0.000,0.000,0.000,0.000,0.000,0.000,0.000,0.000,3.142,6.282,0.000,1.004,1.569,1.569,4.085,6.281,1.199,4.712,0.000,0.000,7.347,1.312,0.990,4.753,4.595,4.828,5.281,4.711,4.711,2.198,6.282,5.083,1.570,0.000,0.000,8.002,1.338,0.990,4.753,4.596,4.828,
38.087,46.604,7.695,0.836,1.610,1.012,6.268,0.000,1.880,1.233,0.000,2.754,0.000,2.098,1.353,1.391,2.401,0.000,3.142,0.000,0.000,0.000,0.000,0.000,0.000,0.000,0.000,0.000,0.000,0.000,3.142,6.282,0.000,1.004,1.569,1.569,4.085,6.281,1.199,4.712,0.000,0.000,7.343,1.411,0.990,4.753,4.596,4.828,5.281,4.711,4.711,2.198,6.282,5.083,1.570,0.000,0.000,7.998,1.438,0.990,4.753,4.597,4.827,
38.189,46.705,7.691,0.935,1.611,1.012,6.268,0.000,1.873,1.229,0.000,2.871,0.000,2.104,1.357,1.348,2.409,0.000,3.142,0.000,0.000,0.000,0.000,0.000,0.000,0.000,0.000,0.000,0.000,0.000,3.142,6.282,0.000,1.004,1.569,1.569,4.085,6.281,1.199,4.712,0.000,0.000,7.339,1.511,0.990,4.753,4.596,4.828,5.281,4.711,4.711,2.198,6.282,5.083,1.570,0.000,0.000,7.994,1.537,0.990,4.753,4.598,4.826,
38.281,46.798,7.687,1.035,1.611,1.012,6.268,0.000,1.866,1.225,0.000,2.988,0.000,1.733,1.361,0.000,2.417,0.000,3.142,0.000,0.000,0.000,0.000,0.000,0.000,0.000,0.000,0.000,0.000,0.000,3.142,6.282,0.000,1.004,1.569,1.569,4.085,6.281,1.199,4.712,0.000,0.000,7.335,1.610,0.990,4.753,4.596,4.828,5.281,4.711,4.711,2.198,6.282,5.083,1.570,0.000,0.000,7.990,1.637,0.990,4.753,4.599,4.825,
38.388,46.905,7.683,1.134,1.611,1.011,6.267,0.000,1.859,1.221,2.030,3.105,0.000,1.784,1.365,0.000,2.425,0.000,3.142,0.000,0.000,0.000,0.000,0.000,0.000,0.000,0.000,0.000,0.000,0.000,3.142,6.282,0.000,1.004,1.569,1.569,4.085,6.281,1.199,4.712,0.000,0.000,7.331,1.710,0.990,4.753,4.597,4.827,5.281,4.711,4.711,2.198,6.282,5.083,1.570,0.000,0.000,7.986,1.736,0.990,4.753,4.600,4.824,
38.488,47.004,7.679,1.234,1.611,1.012,6.267,0.000,1.852,1.217,2.026,3.221,0.000,2.121,1.369,0.000,1.733,0.000,3.142,0.000,0.000,0.000,0.000,0.000,0.000,0.000,0.000,0.000,0.000,0.000,3.142,6.282,0.000,1.004,1.569,1.569,4.085,6.281,1.199,4.712,0.000,0.000,7.326,1.809,0.990,4.754,4.597,4.826,5.281,4.711,4.711,2.198,6.282,5.083,1.570,0.000,0.000,7.982,1.836,0.990,4.754,4.601,4.823,
38.580,47.097,7.675,1.333,1.612,1.012,6.266,0.000,1.845,1.212,2.021,3.338,0.000,1.750,1.374,0.000,1.629,0.000,3.142,0.000,0.000,0.000,0.000,0.000,0.000,0.000,0.000,0.000,0.000,0.000,3.142,6.282,0.000,1.004,1.569,1.569,4.085,6.281,1.199,4.712,0.000,0.000,7.322,1.908,0.990,4.754,4.598,4.826,5.281,4.711,4.711,2.198,6.282,5.083,1.570,0.000,0.000,7.978,1.935,0.990,4.754,4.602,4.823,
38.700,47.217,7.671,1.433,1.612,1.012,6.266,0.000,1.838,1.208,1.362,3.454,0.000,2.133,1.378,0.000,2.451,0.000,3.142,0.000,0.000,0.000,0.000,0.000,0.000,0.000,0.000,0.000,0.000,0.000,3.142,6.282,0.000,1.004,1.569,1.569,4.085,6.281,1.199,4.712,0.000,0.000,7.318,2.008,0.990,4.754,4.599,4.825,5.281,4.711,4.711,2.198,6.282,5.083,1.570,0.000,0.000,7.973,2.035,0.990,4.754,4.602,4.822,
38.780,47.297,7.667,1.532,1.612,1.012,6.266,0.000,1.831,1.204,1.258,3.788,0.000,2.138,1.382,0.000,2.460,0.000,3.142,0.000,0.000,0.000,0.000,0.000,0.000,0.000,0.000,0.000,0.000,0.000,3.142,6.282,0.000,1.004,1.569,1.569,4.085,6.281,1.199,4.712,0.000,0.000,7.314,2.107,0.990,4.754,4.599,4.824,5.281,4.711,4.711,2.198,6.282,5.083,1.570,0.000,0.000,7.969,2.134,0.990,4.755,4.603,4.821,
38.900,47.417,7.663,1.631,1.613,1.012,6.266,0.000,1.824,1.199,1.254,3.782,0.000,2.144,1.386,0.000,2.469,0.000,3.142,0.000,0.000,0.000,0.000,0.000,0.000,0.000,0.000,0.000,0.000,0.000,3.142,6.282,0.000,1.004,1.569,1.569,4.085,6.281,1.199,4.712,0.000,0.000,7.309,2.206,0.990,4.755,4.600,4.823,5.281,4.711,4.711,2.198,6.282,5.083,1.570,0.000,0.000,7.965,2.234,0.990,4.755,4.604,4.820,
39.000,47.517,7.659,1.711,1.613,1.012,6.266,0.000,1.818,1.196,1.250,3.780,0.000,2.149,1.337,0.000,2.476,0.000,3.142,0.000,0.000,0.000,0.000,0.000,0.000,0.000,0.000,0.000,0.000,0.000,3.142,6.282,0.000,1.004,1.569,1.569,4.085,6.281,1.199,4.712,0.000,0.000,7.306,2.286,0.990,4.755,4.601,4.823,5.281,4.711,4.711,2.198,6.282,5.083,1.570,0.000,0.000,7.961,2.314,0.990,4.755,4.605,4.819,
39.080,47.597,7.654,1.830,1.613,1.012,6.266,0.000,1.809,1.190,1.245,3.919,0.000,2.156,1.343,0.000,2.487,0.000,3.142,0.000,0.000,0.000,0.000,0.000,0.000,0.000,0.000,0.000,0.000,0.000,3.142,6.282,0.000,1.004,1.569,1.569,4.085,6.281,1.199,4.712,0.000,0.000,7.301,2.405,0.990,4.755,4.602,4.822,5.281,4.711,4.711,2.198,6.282,5.083,1.570,0.000,0.000,7.956,2.433,0.990,4.756,4.606,4.818,
39.200,47.717,7.650,1.930,1.614,1.012,6.266,0.000,1.802,1.186,1.241,4.035,0.000,2.162,1.668,0.000,2.496,0.000,3.142,0.000,0.000,0.000,0.000,0.000,0.000,0.000,0.000,0.000,0.000,0.000,3.142,6.282,0.000,1.004,1.569,1.569,4.085,6.281,1.199,4.712,0.000,0.000,7.296,2.504,0.990,4.756,4.603,4.821,5.281,4.711,4.711,2.198,6.282,5.083,1.570,0.000,0.000,7.952,2.533,0.990,4.756,4.607,4.817,
39.300,47.817,7.647,2.009,1.614,1.012,6.266,0.000,1.719,1.182,1.237,4.128,0.000,2.166,1.974,1.430,2.503,0.000,3.142,3.732,0.000,0.000,0.000,0.000,0.000,0.000,0.000,0.000,0.000,0.000,3.142,6.282,0.000,1.004,1.569,1.569,4.085,6.281,1.199,4.712,0.000,0.000,7.293,2.584,0.990,4.756,4.604,4.820,5.281,4.711,4.711,2.198,6.282,5.083,1.570,0.000,0.000,7.948,2.612,0.990,4.756,4.608,4.816,
39.400,47.917,7.642,2.109,1.614,1.012,6.266,0.000,1.710,1.178,1.233,4.244,0.000,2.172,2.358,1.402,2.513,0.000,3.142,3.394,0.000,0.000,0.000,0.000,0.000,0.000,0.000,0.000,0.000,0.000,3.142,6.282,0.000,1.004,1.569,1.569,4.085,6.281,1.199,4.712,0.000,0.000,7.288,2.683,0.990,4.756,4.604,4.819,5.281,4.711,4.711,2.198,6.282,5.083,1.570,0.000,0.000,7.943,2.712,0.990,4.757,4.609,4.815,
39.500,48.017,7.638,2.208,1.615,1.012,6.266,0.000,4.149,1.173,1.228,4.360,0.000,2.178,3.619,1.460,2.522,0.000,3.142,3.131,0.000,0.000,0.000,0.000,0.000,0.000,0.000,0.000,0.000,0.000,3.142,6.282,0.000,1.004,1.569,1.569,4.085,6.281,1.199,4.712,0.000,0.000,7.284,2.782,0.990,4.757,4.605,4.818,5.281,4.711,4.711,2.198,6.282,5.083,1.570,0.000,0.000,7.939,2.811,0.990,4.757,4.609,4.815,
39.600,48.117,7.634,2.308,1.615,1.012,6.266,0.000,4.021,1.169,1.224,4.476,0.000,2.184,3.624,1.058,2.532,0.000,3.142,2.874,0.000,0.000,0.000,0.000,0.000,0.000,0.000,0.000,0.000,0.000,3.142,6.282,0.000,1.004,1.569,1.569,4.085,6.281,1.199,4.712,0.000,0.000,7.279,2.882,0.990,4.757,4.606,4.818,5.281,4.711,4.711,2.198,6.282,5.083,1.570,0.000,0.000,7.934,2.911,0.990,4.757,4.610,4.814,
39.700,48.217,7.629,2.407,1.615,1.012,6.266,0.000,3.388,1.164,1.219,4.591,0.000,2.190,3.628,0.997,2.541,0.000,3.142,2.635,0.000,0.000,0.000,0.000,0.000,0.000,0.000,0.000,0.000,0.000,3.142,6.282,0.000,1.004,1.569,1.569,4.085,6.281,1.199,4.712,0.000,0.000,7.274,2.981,0.990,4.758,4.607,4.817,5.281,4.711,4.711,2.198,6.282,5.083,1.570,0.000,0.000,7.930,3.010,0.990,4.758,4.611,4.813,
39.800,48.317,7.625,2.506,1.616,1.012,6.266,0.000,3.149,1.159,1.215,4.707,0.000,2.196,3.632,1.475,2.551,0.000,3.142,2.391,0.000,0.000,0.000,0.000,0.000,0.000,0.000,0.000,0.000,0.000,3.142,6.282,0.000,1.004,1.569,1.569,4.085,6.281,1.199,4.712,0.000,0.000,7.270,3.080,0.990,4.758,4.608,4.816,5.281,4.711,4.711,2.198,6.282,5.083,1.570,0.000,0.000,7.925,3.110,0.990,4.758,4.612,4.812,
39.900,48.417,7.620,2.606,1.616,1.012,6.266,0.000,2.909,1.154,1.210,0.000,0.000,2.202,3.636,1.480,2.561,0.000,3.142,2.175,0.000,0.000,0.000,0.000,0.000,0.000,0.000,0.000,0.000,0.000,3.142,6.282,0.000,1.004,1.569,1.569,4.085,6.281,1.199,4.712,0.000,0.000,7.265,3.179,0.990,4.758,4.609,4.815,5.281,4.711,4.711,2.198,6.282,5.083,1.570,0.000,0.000,7.920,3.209,0.990,4.758,4.613,4.811,
40.000,48.517,7.616,2.705,1.601,1.012,5.716,0.000,2.562,1.154,1.198,0.000,0.000,2.252,3.656,1.476,2.511,0.000,3.142,1.945,0.000,0.000,0.000,0.000,0.000,0.000,0.000,0.000,0.000,0.000,3.142,6.281,0.001,1.004,1.568,1.566,4.084,6.281,1.199,4.712,0.000,0.000,7.267,3.284,0.990,4.747,4.586,4.837,5.281,4.710,4.708,2.197,6.282,5.083,1.570,0.000,0.000,7.923,3.305,0.990,4.747,4.559,4.864,
40.100,48.617,7.615,2.823,1.497,0.938,5.335,0.000,2.007,1.193,1.156,1.794,0.000,2.617,3.790,1.430,2.180,0.000,3.142,0.000,0.000,0.000,0.000,0.000,0.000,0.000,0.000,0.000,0.000,0.000,3.142,6.281,0.001,1.004,1.569,1.569,4.086,6.281,1.199,4.712,0.000,0.000,7.331,3.435,0.989,4.787,1.648,1.492,5.282,4.711,4.711,2.198,6.281,5.083,1.570,0.000,0.000,7.985,3.387,0.991,4.787,1.626,1.515,
40.180,48.697,7.621,2.891,1.465,0.812,6.253,0.000,2.071,1.160,1.153,1.734,0.000,2.749,3.835,1.413,2.091,0.000,3.142,0.000,0.000,0.000,0.000,0.000,0.000,0.000,0.000,0.000,0.000,0.000,3.142,6.283,0.000,1.003,1.571,1.572,4.086,6.280,1.199,4.712,0.000,0.000,7.358,3.512,0.990,4.822,1.621,1.521,5.281,4.712,4.714,2.198,6.281,5.083,1.571,0.000,0.000,8.010,3.443,0.990,4.821,1.611,1.531,
40.285,48.802,7.630,2.985,1.466,0.825,6.262,0.000,2.182,1.170,1.163,1.751,0.000,2.723,3.822,1.403,2.079,0.000,3.142,0.000,0.000,0.000,0.000,0.000,0.000,0.000,0.000,0.000,0.000,0.000,3.142,6.282,0.000,1.004,1.569,1.569,4.085,6.281,1.199,4.712,0.000,0.000,7.365,3.605,0.990,4.817,1.614,1.527,5.281,4.711,4.711,2.198,6.282,5.083,1.570,0.000,0.000,8.017,3.536,0.990,4.817,1.613,1.529,
40.387,48.903,7.639,3.069,1.467,0.899,6.262,0.000,2.196,3.503,1.172,1.767,0.000,2.702,3.811,1.395,2.068,0.000,3.142,0.000,0.000,0.000,0.000,0.000,0.000,0.000,0.000,0.000,0.000,0.000,3.142,6.282,0.000,1.004,1.569,1.569,4.085,6.281,1.199,4.712,0.000,0.000,7.373,3.689,0.990,4.816,1.615,1.526,5.281,4.711,4.711,2.198,6.282,5.083,1.570,0.000,0.000,8.026,3.621,0.990,4.816,1.613,1.528,
40.498,49.015,7.648,3.157,1.467,0.882,6.262,0.000,0.000,3.414,1.182,1.783,0.000,2.680,0.993,1.385,2.055,0.000,3.142,0.000,1.084,0.000,0.000,0.000,0.000,0.000,0.000,0.000,0.000,0.000,3.142,6.283,0.000,1.003,1.569,1.569,4.085,6.281,1.199,4.712,0.000,0.000,7.382,3.777,0.990,4.816,1.620,1.521,5.281,4.711,4.711,2.198,6.282,5.083,1.570,0.000,0.000,8.035,3.709,0.990,4.816,1.614,1.527,
40.600,49.117,7.657,3.241,1.468,0.844,6.263,0.000,0.000,3.423,1.191,1.797,0.000,2.660,1.438,1.377,2.044,0.000,3.142,0.000,0.922,0.000,0.000,0.000,0.000,0.000,0.000,0.000,0.000,0.000,3.142,6.283,0.000,1.003,1.569,1.569,4.085,6.281,1.199,4.712,0.000,0.000,7.390,3.861,0.990,4.815,1.619,1.522,5.281,4.711,4.711,2.198,6.282,5.083,1.570,0.000,0.000,8.043,3.793,0.990,4.815,1.614,1.527,
40.700,49.217,7.664,3.307,1.469,0.849,6.263,0.000,0.000,3.429,1.198,1.809,0.000,2.644,1.456,1.370,1.435,0.000,3.142,0.000,0.887,0.000,0.000,0.000,0.000,0.000,0.000,0.000,0.000,0.000,3.142,6.282,0.000,1.004,1.569,1.569,4.085,6.281,1.199,4.712,0.000,0.000,7.397,3.926,0.990,4.814,1.617,1.523,5.281,4.711,4.711,2.198,6.282,5.083,1.570,0.000,0.000,8.049,3.860,0.990,4.814,1.615,1.526,
40.800,49.317,7.672,3.391,1.469,0.871,6.263,0.000,2.251,3.438,1.207,1.824,0.000,2.625,1.447,1.361,1.350,0.000,3.142,0.000,0.000,0.000,0.000,0.000,0.000,0.000,0.000,0.000,0.000,0.000,3.142,6.282,0.000,1.004,1.569,1.569,4.085,6.281,1.199,4.712,0.000,0.000,7.405,4.010,0.990,4.814,1.618,1.523,5.281,4.711,4.711,2.198,6.282,5.083,1.570,0.000,0.000,8.058,3.944,0.990,4.814,1.615,1.526,
40.900,49.417,7.681,3.476,1.470,0.870,6.264,0.000,2.265,0.000,1.216,1.838,0.000,2.605,1.437,1.353,1.343,0.000,3.142,0.000,0.000,0.914,0.000,0.000,0.000,0.000,0.000,0.000,0.000,0.000,3.142,6.282,0.000,1.004,1.569,1.569,4.085,6.281,1.199,4.712,0.000,0.000,7.413,4.095,0.990,4.813,1.619,1.522,5.281,4.711,4.711,2.198,6.282,5.083,1.570,0.000,0.000,8.066,4.029,0.990,4.813,1.616,1.526,
40.995,49.512,7.690,3.560,1.470,0.859,6.264,0.000,0.000,0.000,1.225,1.853,0.000,2.487,1.427,1.344,1.999,0.000,3.142,0.000,0.000,0.895,0.000,0.000,0.000,0.000,0.000,0.000,0.000,0.000,3.142,6.282,0.000,1.004,1.569,1.569,4.085,6.281,1.199,4.712,0.000,0.000,7.422,4.179,0.990,4.813,1.619,1.522,5.281,4.711,4.711,2.198,6.282,5.083,1.570,0.000,0.000,8.074,4.114,0.990,4.813,1.616,1.525,
41.091,49.608,7.700,3.661,1.471,0.861,6.265,0.000,0.000,0.000,1.184,1.870,0.000,2.515,1.416,1.334,1.985,0.000,3.142,0.000,0.000,1.104,0.000,0.000,0.000,0.000,0.000,0.000,0.000,0.000,3.142,6.282,0.000,1.004,1.569,1.569,4.085,6.281,1.199,4.712,0.000,0.000,7.431,4.280,0.990,4.812,1.619,1.522,5.281,4.711,4.711,2.198,6.282,5.083,1.570,0.000,0.000,8.084,4.214,0.990,4.812,1.616,1.525,
41.184,49.700,7.709,3.751,1.485,1.011,0.572,0.000,0.000,3.455,1.198,1.916,0.000,2.642,1.398,1.329,2.004,0.000,3.142,0.000,0.000,0.000,0.000,0.000,0.000,0.000,0.000,0.000,0.000,0.000,3.142,6.283,0.000,1.004,1.570,1.571,4.084,6.281,1.199,4.712,0.000,0.000,7.433,4.366,0.990,4.801,1.619,1.522,5.281,4.712,4.713,2.199,6.281,5.083,1.571,0.000,0.000,8.087,4.310,0.991,4.800,1.609,1.532,
41.300,49.817,7.716,3.856,1.576,1.087,1.399,0.000,1.996,3.356,1.240,2.181,0.000,1.417,1.345,1.358,2.245,0.000,3.142,0.000,0.000,0.000,0.000,0.000,0.000,0.000,0.000,0.000,0.000,0.000,3.142,0.002,0.000,1.003,1.571,1.571,4.085,6.282,1.199,4.712,0.000,0.000,7.385,4.444,0.990,4.718,3.753,5.671,5.282,4.713,4.714,2.198,6.282,5.083,1.571,0.000,0.000,8.042,4.447,0.991,4.716,3.931,5.493,
41.400,49.917,7.712,3.960,1.663,1.018,0.375,0.000,1.796,3.282,1.281,2.506,0.000,1.869,1.318,1.408,2.580,0.000,3.142,0.000,0.000,0.000,0.000,0.000,0.000,0.000,0.000,0.000,0.000,0.000,3.142,0.000,0.001,1.004,1.569,1.566,4.085,6.282,1.199,4.711,0.000,0.000,7.329,4.517,0.990,4.808,4.660,4.762,5.281,4.711,4.709,2.198,6.283,5.083,1.570,0.000,0.000,7.983,4.577,0.991,4.807,4.668,4.755,
41.500,50.017,7.703,4.057,1.666,0.975,6.278,4.974,1.776,3.271,1.372,2.501,0.000,1.877,1.327,0.936,2.612,0.000,3.142,0.000,0.000,0.000,0.000,0.000,0.000,0.000,0.000,0.000,0.000,0.000,3.142,6.282,0.000,1.004,1.569,1.569,4.084,6.281,1.199,4.712,0.000,0.000,7.320,4.612,0.990,4.808,4.664,4.760,5.281,4.711,4.711,2.197,6.282,5.083,1.570,0.000,0.000,7.973,4.675,0.990,4.808,4.661,4.763,
41.600,50.117,7.696,4.134,1.665,1.000,6.275,4.896,1.766,3.264,0.000,2.484,0.000,1.961,1.334,1.428,2.532,0.000,3.142,0.000,0.000,0.000,0.000,0.000,0.000,0.000,0.000,0.000,0.000,0.000,3.142,6.282,0.000,1.004,1.569,1.568,4.084,6.281,1.199,4.712,0.000,0.000,7.313,4.689,0.990,4.808,4.666,4.757,5.281,4.711,4.711,2.197,6.282,5.083,1.570,0.000,0.000,7.966,4.752,0.990,4.808,4.662,4.762,
41.700,50.217,7.687,4.234,1.665,1.030,6.273,4.796,2.760,3.254,0.000,2.464,0.000,1.978,1.344,1.438,2.543,0.000,3.142,0.000,0.000,0.000,1.760,0.000,0.000,0.000,0.000,0.000,0.000,0.000,3.142,6.282,0.000,1.004,1.569,1.569,4.084,6.281,1.199,4.712,0.000,0.000,7.303,4.789,0.990,4.808,4.665,4.759,5.281,4.711,4.711,2.197,6.282,5.083,1.570,0.000,0.000,7.956,4.852,0.990,4.808,4.662,4.762,
41.800,50.317,7.677,4.335,1.665,1.017,6.272,4.695,0.000,1.149,0.000,2.443,0.000,1.993,1.354,1.448,0.000,0.000,3.142,0.000,0.000,0.000,1.864,0.000,0.000,0.000,0.000,0.000,0.000,0.000,3.142,6.282,0.000,1.004,1.569,1.569,4.085,6.281,1.199,4.712,0.000,0.000,7.294,4.890,0.990,4.807,4.662,4.761,5.281,4.711,4.711,2.197,6.282,5.083,1.570,0.000,0.000,7.947,4.952,0.990,4.807,4.662,4.762,
41.894,50.411,7.668,4.433,1.665,1.002,6.271,4.595,0.000,1.139,0.000,2.423,0.000,2.007,1.363,1.458,4.898,0.000,3.142,0.000,0.000,0.000,2.031,0.000,0.000,0.000,0.000,0.000,0.000,0.000,3.142,6.282,0.000,1.004,1.569,1.569,4.085,6.281,1.199,4.712,0.000,0.000,7.285,4.989,0.990,4.807,4.663,4.761,5.281,4.711,4.711,2.197,6.282,5.083,1.570,0.000,0.000,7.938,5.051,0.990,4.807,4.662,4.762,
41.990,50.507,7.657,4.551,1.665,1.011,6.270,4.476,0.000,1.179,0.000,2.400,0.000,2.024,1.375,1.470,1.821,0.000,3.142,0.000,0.000,0.000,2.386,0.000,0.000,0.000,0.000,0.000,0.000,0.000,3.142,6.282,0.000,1.004,1.569,1.569,4.085,6.281,1.199,4.712,0.000,0.000,7.274,5.107,0.990,4.807,4.664,4.760,5.281,4.711,4.711,2.198,6.282,5.083,1.570,0.000,0.000,7.927,5.169,0.990,4.807,4.663,4.761,
42.100,50.617,7.647,4.651,1.665,1.017,6.269,4.376,0.000,1.169,3.343,2.381,0.000,2.038,0.932,1.481,4.647,0.000,3.142,0.000,0.000,0.000,0.000,0.000,0.000,0.000,0.000,0.000,0.000,0.000,3.142,6.282,0.000,1.004,1.569,1.569,4.085,6.281,1.199,4.712,0.000,0.000,7.264,5.206,0.990,4.807,4.663,4.761,5.281,4.711,4.711,2.198,6.282,5.083,1.570,0.000,0.000,7.917,5.268,0.990,4.807,4.663,4.761,
42.200,50.717,7.640,4.730,1.665,1.013,6.269,4.296,0.000,1.162,3.363,2.366,0.000,2.049,1.392,1.489,4.556,0.000,3.142,0.000,0.000,0.000,0.000,0.000,0.000,0.000,0.000,0.000,0.000,0.000,3.142,6.282,0.000,1.004,1.569,1.569,4.085,6.281,1.199,4.712,0.000,0.000,7.257,5.286,0.990,4.807,4.662,4.761,5.281,4.711,4.711,2.198,6.282,5.083,1.570,0.000,0.000,7.910,5.348,0.990,4.807,4.663,4.761,
42.288,50.805,7.630,4.829,1.665,1.009,6.268,4.197,4.919,1.152,3.389,2.347,0.000,2.063,1.401,1.499,4.441,0.000,3.142,0.000,0.000,0.000,0.000,0.000,0.000,0.000,0.000,0.000,0.000,0.000,3.142,6.282,0.000,1.004,1.569,1.569,4.085,6.281,1.199,4.712,0.000,0.000,7.247,5.385,0.990,4.807,4.663,4.761,5.281,4.711,4.711,2.198,6.282,5.083,1.570,0.000,0.000,7.900,5.447,0.990,4.807,4.663,4.761,
42.384,50.901,7.619,4.948,1.665,1.012,6.268,4.078,4.759,1.141,3.419,2.325,0.000,2.079,1.413,1.512,2.967,0.000,3.142,0.000,0.000,0.000,0.000,0.000,0.000,0.000,0.000,0.000,0.000,0.000,3.142,6.282,0.000,1.004,1.569,1.569,4.085,6.281,1.199,4.712,0.000,0.000,7.236,5.503,0.990,4.808,4.663,4.761,5.281,4.711,4.711,2.198,6.282,5.083,1.570,0.000,0.000,7.889,5.566,0.990,4.808,4.664,4.760,
42.500,51.017,7.610,5.047,1.666,1.013,6.267,3.978,4.625,1.131,1.170,2.306,0.000,2.093,1.422,1.522,2.853,0.000,3.142,0.000,0.000,0.000,0.000,0.000,0.000,0.000,0.000,0.000,0.000,0.000,3.142,6.282,0.000,1.004,1.569,1.569,4.085,6.281,1.199,4.712,0.000,0.000,7.226,5.602,0.990,4.808,4.663,4.761,5.281,4.711,4.711,2.198,6.282,5.083,1.570,0.000,0.000,7.880,5.665,0.990,4.808,4.664,4.760,
42.599,51.116,7.602,5.127,1.666,1.012,6.267,3.898,4.518,1.123,1.161,2.291,0.000,2.104,1.430,1.531,2.761,0.000,3.142,0.000,0.000,0.000,0.000,0.000,0.000,0.000,0.000,0.000,0.000,0.000,3.142,6.282,0.000,1.004,1.569,1.569,4.085,6.281,1.199,4.712,0.000,0.000,7.219,5.682,0.990,4.808,4.663,4.761,5.281,4.711,4.711,2.198,6.282,5.083,1.570,0.000,0.000,7.872,5.744,0.990,4.808,4.664,4.760,
42.689,51.205,7.591,5.245,1.666,1.011,6.267,3.779,4.358,1.112,1.204,2.165,0.000,2.120,1.441,1.543,2.740,0.000,3.142,0.000,0.000,0.000,0.000,0.000,0.000,0.000,0.000,0.000,0.000,0.000,3.142,6.282,0.000,1.004,1.569,1.569,4.085,6.281,1.199,4.712,0.000,0.000,7.207,5.800,0.990,4.808,4.663,4.761,5.281,4.711,4.711,2.198,6.282,5.083,1.570,0.000,0.000,7.860,5.863,0.990,4.808,4.664,4.760,
