deveshdatwani/Gopher/Assets/Data/07-21 09-56-41/Reading_robot_value.csv
game_time,true_time,x,y,az,vx,vaz,dis_to_obs_0,dis_to_obs_36,dis_to_obs_72,dis_to_obs_108,dis_to_obs_144,dis_to_obs_180,dis_to_obs_-144,dis_to_obs_-108,dis_to_obs_-72,dis_to_obs_-36,dis_to_min_obs,direction_to_min_obs,dis_to_human_0,dis_to_human_36,dis_to_human_72,dis_to_human_108,dis_to_human_144,dis_to_human_180,dis_to_human_-144,dis_to_human_-108,dis_to_human_-72,dis_to_human_-36,dis_to_min_human,direction_to_min_human,main_cam_yaw,main_cam_pitch,left_joint_1,left_joint_2,left_joint_3,left_joint_4,left_joint_5,left_joint_6,left_joint_7,left_joint_gripper,left_is_grasping,left_end_x,left_end_y,left_end_z,left_end_ax,left_end_ay,left_end_az,right_joint_1,right_joint_2,right_joint_3,right_joint_4,right_joint_5,right_joint_6,right_joint_7,right_joint_gripper,right_is_grasping,right_end_x,right_end_y,right_end_z,right_end_ax,right_end_ay,right_end_az,
133.487,142.004,-5.340,9.185,4.852,0.193,6.266,0.000,1.355,1.407,2.152,2.280,0.000,0.000,2.292,0.944,1.221,0.000,3.142,0.000,0.000,0.000,0.000,0.000,0.000,0.000,0.000,0.000,0.000,0.000,3.142,6.283,0.000,1.004,1.569,1.569,4.085,6.281,1.199,4.712,0.000,0.000,-4.933,8.648,0.990,1.431,1.606,1.605,5.688,4.111,4.554,1.587,5.530,5.219,1.644,0.022,1.000,-5.312,8.491,1.137,1.492,1.192,1.092,
133.600,142.117,-5.337,9.165,4.852,0.193,6.267,0.000,1.342,1.394,2.195,2.309,0.000,0.000,2.313,0.947,1.197,0.000,3.142,0.000,0.000,0.000,0.000,0.000,0.000,0.000,0.000,0.000,0.000,0.000,3.142,6.282,0.000,1.004,1.569,1.569,4.085,6.281,1.199,4.712,0.000,0.000,-4.930,8.627,0.990,1.431,1.606,1.605,5.688,4.111,4.554,1.586,5.530,5.219,1.644,0.022,1.000,-5.309,8.470,1.137,1.492,1.194,1.094,
133.699,142.216,-5.335,9.147,4.852,0.193,6.267,0.000,1.330,1.382,2.232,2.333,0.000,0.000,3.803,0.950,1.177,0.000,3.142,0.000,0.000,0.000,0.000,0.000,0.000,0.000,0.000,0.000,0.000,0.000,3.142,6.282,0.000,1.004,1.569,1.569,4.085,6.281,1.199,4.712,0.000,0.000,-4.927,8.610,0.990,1.430,1.606,1.604,5.688,4.111,4.554,1.586,5.530,5.219,1.644,0.022,1.000,-5.306,8.452,1.137,1.491,1.196,1.096,
133.800,142.317,-5.332,9.129,4.853,0.194,6.267,0.000,1.319,1.371,2.268,2.357,0.000,0.000,3.806,0.953,1.157,0.000,3.142,0.000,0.000,0.000,0.000,0.000,0.000,0.000,0.000,0.000,0.000,0.000,3.142,6.282,0.000,1.004,1.569,1.569,4.085,6.281,1.199,4.712,0.000,0.000,-4.924,8.592,0.990,1.430,1.606,1.604,5.688,4.111,4.554,1.586,5.530,5.219,1.644,0.022,1.000,-5.303,8.435,1.137,1.491,1.197,1.097,
133.900,142.417,-5.330,9.112,4.853,0.193,6.267,0.000,1.308,1.359,2.304,2.381,0.000,0.000,3.808,0.956,1.137,0.000,3.142,0.000,0.000,0.000,0.000,0.000,0.000,0.000,0.000,0.000,0.000,0.000,3.142,6.282,0.000,1.004,1.569,1.569,4.085,6.281,1.199,4.712,0.000,0.000,-4.922,8.575,0.990,1.430,1.606,1.604,5.688,4.111,4.554,1.586,5.530,5.219,1.644,0.022,1.000,-5.301,8.417,1.137,1.491,1.199,1.099,
133.983,142.500,-5.328,9.098,4.853,0.193,6.267,0.000,1.299,1.350,2.333,2.400,0.000,0.000,3.810,0.958,1.121,0.000,3.142,0.000,0.000,0.000,0.000,0.000,0.000,0.000,0.000,0.000,0.000,0.000,3.142,6.282,0.000,1.004,1.569,1.569,4.085,6.281,1.199,4.712,0.000,0.000,-4.920,8.561,0.990,1.429,1.606,1.604,5.688,4.111,4.554,1.586,5.530,5.219,1.644,0.022,1.000,-5.299,8.403,1.137,1.491,1.200,1.100,
134.100,142.617,-5.325,9.077,4.854,0.193,6.267,0.000,1.285,1.336,2.376,2.429,0.000,0.000,3.813,0.962,1.097,0.000,3.142,0.000,0.000,0.000,0.000,0.000,0.000,0.000,0.000,0.000,0.000,0.000,3.142,6.282,0.000,1.004,1.569,1.569,4.085,6.281,1.199,4.712,0.000,0.000,-4.916,8.540,0.990,1.429,1.605,1.604,5.688,4.111,4.554,1.586,5.530,5.219,1.644,0.022,1.000,-5.295,8.382,1.137,1.490,1.202,1.102,
134.199,142.716,-5.323,9.060,4.854,0.193,6.268,0.000,1.274,1.324,2.412,2.453,0.000,0.000,3.815,0.965,1.078,0.000,3.142,0.000,0.000,0.000,0.000,0.000,0.000,0.000,0.000,0.000,0.000,0.000,3.142,6.282,0.000,1.004,1.569,1.569,4.085,6.281,1.199,4.712,0.000,0.000,-4.914,8.523,0.990,1.429,1.605,1.604,5.688,4.111,4.554,1.586,5.530,5.219,1.644,0.022,1.000,-5.293,8.365,1.137,1.490,1.203,1.103,
134.300,142.817,-5.320,9.042,4.854,0.193,6.267,0.000,1.273,1.313,2.449,2.478,0.000,0.000,3.817,0.968,1.058,0.000,3.142,0.000,0.000,0.000,0.000,0.000,0.000,0.000,0.000,0.000,0.000,0.000,3.142,6.282,0.000,1.004,1.569,1.569,4.085,6.281,1.199,4.712,0.000,0.000,-4.911,8.505,0.990,1.428,1.605,1.604,5.688,4.111,4.554,1.586,5.530,5.219,1.644,0.022,1.000,-5.290,8.347,1.137,1.490,1.205,1.105,
134.400,142.917,-5.318,9.025,4.855,0.193,6.268,0.000,1.269,1.301,2.485,2.502,0.000,0.000,3.297,0.971,0.982,0.000,3.142,0.000,0.000,0.000,0.000,0.000,0.000,0.000,0.000,0.000,0.000,0.000,3.142,6.282,0.000,1.004,1.569,1.569,4.085,6.281,1.199,4.712,0.000,0.000,-4.908,8.488,0.990,1.428,1.605,1.604,5.688,4.111,4.554,1.586,5.530,5.219,1.644,0.022,1.000,-5.287,8.330,1.137,1.489,1.206,1.106,
134.494,143.011,-5.316,9.011,4.855,0.193,6.268,0.000,1.266,1.292,2.504,2.521,0.000,0.000,3.299,0.973,0.966,0.000,3.142,0.000,0.000,0.000,0.000,0.000,0.000,0.000,0.000,0.000,0.000,0.000,3.142,6.282,0.000,1.004,1.569,1.569,4.085,6.281,1.199,4.712,0.000,0.000,-4.906,8.474,0.990,1.428,1.605,1.604,5.688,4.111,4.554,1.586,5.530,5.219,1.644,0.022,1.000,-5.285,8.316,1.137,1.489,1.207,1.107,
134.600,143.117,-5.313,8.990,4.855,0.193,6.267,0.000,1.261,1.278,2.501,2.550,0.000,0.000,3.824,0.977,0.942,0.000,3.142,0.000,0.000,0.000,0.000,0.000,0.000,0.000,0.000,0.000,0.000,0.000,3.142,6.282,0.000,1.004,1.569,1.569,4.085,6.281,1.199,4.712,0.000,0.000,-4.903,8.453,0.990,1.427,1.605,1.604,5.688,4.111,4.554,1.586,5.530,5.219,1.644,0.022,1.000,-5.282,8.295,1.137,1.489,1.209,1.109,
134.700,143.217,-5.310,8.972,4.856,0.193,6.267,0.000,1.257,1.267,2.499,2.574,0.000,0.000,3.827,0.980,0.923,0.000,3.142,0.000,0.000,0.000,0.000,0.000,0.000,0.000,0.000,0.000,0.000,0.000,3.142,6.282,0.000,1.004,1.569,1.569,4.085,6.281,1.199,4.712,0.000,0.000,-4.900,8.436,0.990,1.427,1.605,1.604,5.688,4.111,4.554,1.586,5.530,5.219,1.644,0.022,1.000,-5.279,8.277,1.137,1.488,1.210,1.110,
134.787,143.304,-5.308,8.958,4.856,0.193,6.268,0.000,1.254,1.257,2.497,2.593,0.000,0.000,3.828,0.982,0.907,0.000,3.142,0.000,0.000,0.000,0.000,0.000,0.000,0.000,0.000,0.000,0.000,0.000,3.142,6.282,0.000,1.004,1.569,1.569,4.085,6.281,1.199,4.712,0.000,0.000,-4.898,8.422,0.990,1.427,1.605,1.603,5.688,4.111,4.554,1.586,5.530,5.219,1.644,0.022,1.000,-5.277,8.264,1.137,1.488,1.211,1.111,
134.900,143.417,-5.305,8.937,4.856,0.193,6.267,0.000,1.249,1.243,2.494,2.622,0.000,0.000,3.831,0.985,0.883,0.000,3.142,0.000,0.000,0.000,0.000,0.000,0.000,0.000,0.000,0.000,0.000,0.000,3.142,6.282,0.000,1.004,1.569,1.569,4.085,6.281,1.199,4.712,0.000,0.000,-4.895,8.401,0.990,1.427,1.605,1.603,5.688,4.111,4.554,1.586,5.530,5.219,1.644,0.022,1.000,-5.274,8.243,1.137,1.488,1.213,1.113,
135.000,143.517,-5.302,8.920,4.857,0.193,6.267,0.000,1.246,1.232,2.491,2.646,0.000,0.000,3.834,0.988,0.863,0.000,3.142,0.000,0.000,0.000,0.000,0.000,0.000,0.000,0.000,0.000,0.000,0.000,3.142,6.282,0.000,1.004,1.569,1.569,4.085,6.281,1.199,4.712,0.000,0.000,-4.892,8.384,0.990,1.426,1.605,1.603,5.688,4.111,4.554,1.586,5.530,5.219,1.644,0.022,1.000,-5.271,8.225,1.137,1.488,1.214,1.114,
135.085,143.602,-5.300,8.906,4.857,0.193,6.267,0.000,1.242,1.222,2.489,3.329,0.000,0.000,3.836,0.991,0.848,0.000,3.142,0.000,0.000,0.000,0.000,0.000,0.000,0.000,0.000,0.000,0.000,0.000,3.142,6.282,0.000,1.004,1.569,1.569,4.085,6.281,1.199,4.712,0.000,0.000,-4.890,8.370,0.990,1.426,1.605,1.603,5.688,4.111,4.554,1.586,5.530,5.219,1.644,0.022,1.000,-5.269,8.211,1.137,1.487,1.215,1.115,
135.200,143.717,-5.297,8.885,4.857,0.193,6.267,0.000,1.238,1.208,2.486,3.352,0.000,0.000,3.838,0.994,0.824,0.000,3.142,0.000,0.000,0.000,0.000,0.000,0.000,0.000,0.000,0.000,0.000,0.000,3.142,6.282,0.000,1.004,1.569,1.569,4.085,6.281,1.199,4.712,0.000,0.000,-4.887,8.349,0.990,1.426,1.605,1.603,5.688,4.111,4.554,1.586,5.530,5.219,1.644,0.022,1.000,-5.265,8.190,1.137,1.487,1.217,1.117,
135.300,143.817,-5.295,8.867,4.857,0.193,6.267,0.000,1.234,1.197,2.484,3.371,0.000,0.000,3.841,0.997,0.804,0.000,3.142,1.979,0.000,0.000,0.000,0.000,0.000,0.000,0.000,0.000,0.000,0.000,3.142,6.282,0.000,1.004,1.569,1.569,4.085,6.281,1.199,4.712,0.000,0.000,-4.884,8.332,0.990,1.425,1.605,1.603,5.688,4.111,4.554,1.586,5.530,5.219,1.644,0.022,1.000,-5.263,8.173,1.137,1.487,1.218,1.118,
135.400,143.917,-5.293,8.853,4.858,0.193,6.268,0.000,1.231,1.187,2.482,3.386,0.000,0.000,3.843,1.000,0.788,0.000,3.142,1.907,0.000,0.000,0.000,0.000,0.000,0.000,0.000,0.000,0.000,0.000,3.142,6.282,0.000,1.004,1.569,1.569,4.085,6.281,1.199,4.712,0.000,0.000,-4.882,8.318,0.990,1.425,1.604,1.603,5.688,4.111,4.554,1.586,5.530,5.219,1.644,0.022,1.000,-5.260,8.159,1.137,1.487,1.219,1.119,
135.500,144.017,-5.290,8.832,4.858,0.193,6.268,0.000,1.226,1.173,2.479,3.409,0.000,0.000,0.988,1.004,0.765,0.000,3.142,1.907,0.000,0.000,0.000,0.000,0.000,0.000,0.000,0.000,0.000,0.000,3.142,6.282,0.000,1.004,1.569,1.569,4.085,6.281,1.199,4.712,0.000,0.000,-4.879,8.297,0.990,1.425,1.604,1.603,5.688,4.111,4.554,1.586,5.530,5.219,1.644,0.022,1.000,-5.257,8.138,1.137,1.486,1.220,1.120,
135.600,144.116,-5.287,8.815,4.858,0.193,6.267,0.000,1.222,1.162,2.476,3.428,0.000,0.000,0.991,1.007,0.745,0.000,3.142,1.960,0.000,0.000,0.000,0.000,0.000,0.000,0.000,0.000,0.000,0.000,3.142,6.282,0.000,1.004,1.569,1.569,4.085,6.281,1.199,4.712,0.000,0.000,-4.876,8.280,0.990,1.424,1.604,1.603,5.688,4.111,4.554,1.586,5.530,5.219,1.644,0.022,1.000,-5.254,8.120,1.137,1.486,1.221,1.121,
135.700,144.217,-5.285,8.797,4.859,0.193,6.267,0.000,0.000,1.150,2.474,3.447,0.000,0.000,0.993,1.010,0.725,0.000,3.142,0.000,0.000,0.000,0.000,0.000,0.000,0.000,0.000,0.000,0.000,0.000,3.142,6.282,0.000,1.004,1.569,1.569,4.085,6.281,1.199,4.712,0.000,0.000,-4.873,8.262,0.990,1.424,1.604,1.603,5.688,4.111,4.554,1.586,5.530,5.219,1.644,0.022,1.000,-5.252,8.103,1.137,1.486,1.222,1.123,
135.800,144.317,-5.282,8.780,4.859,0.193,6.267,0.000,0.000,1.138,2.471,3.466,0.000,0.000,0.996,1.013,0.715,0.000,3.142,0.000,0.000,0.000,0.000,0.000,0.000,0.000,0.000,0.000,0.000,0.000,3.142,6.282,0.000,1.004,1.569,1.569,4.085,6.281,1.199,4.712,0.000,0.000,-4.871,8.245,0.990,1.424,1.604,1.603,5.688,4.111,4.554,1.586,5.530,5.219,1.644,0.022,1.000,-5.249,8.085,1.137,1.485,1.224,1.124,
135.895,144.412,-5.280,8.766,4.859,0.193,6.268,0.000,0.000,1.129,2.469,3.481,0.000,0.000,0.998,1.015,0.720,0.000,3.142,0.000,0.000,0.000,0.000,0.000,0.000,0.000,0.000,0.000,0.000,0.000,3.142,6.282,0.000,1.004,1.569,1.569,4.085,6.281,1.199,4.712,0.000,0.000,-4.868,8.231,0.990,1.424,1.604,1.603,5.688,4.111,4.554,1.586,5.530,5.219,1.644,0.022,1.000,-5.247,8.071,1.137,1.485,1.225,1.125,
136.000,144.517,-5.277,8.745,4.859,0.193,6.268,0.000,0.000,1.115,2.466,3.503,0.000,3.872,1.001,1.019,0.727,0.000,3.142,0.000,0.000,0.000,0.000,0.000,0.000,0.000,0.000,0.000,0.000,0.000,3.142,6.282,0.000,1.004,1.569,1.569,4.085,6.281,1.199,4.712,0.000,0.000,-4.865,8.210,0.990,1.423,1.604,1.603,5.688,4.111,4.554,1.586,5.530,5.219,1.644,0.022,1.000,-5.243,8.050,1.137,1.485,1.226,1.126,
136.100,144.617,-5.274,8.727,4.860,0.193,6.268,0.000,0.000,1.103,2.464,3.522,0.000,3.898,1.003,1.022,0.733,0.000,3.142,0.000,0.000,0.000,0.000,0.000,0.000,0.000,0.000,0.000,0.000,0.000,3.142,6.282,0.000,1.004,1.569,1.569,4.085,6.281,1.199,4.712,0.000,0.000,-4.862,8.193,0.990,1.423,1.604,1.603,5.688,4.111,4.554,1.586,5.530,5.219,1.644,0.022,1.000,-5.240,8.033,1.137,1.485,1.227,1.127,
136.197,144.714,-5.272,8.710,4.860,0.193,6.268,0.000,0.000,1.092,2.461,3.541,0.000,3.924,1.006,1.025,0.740,0.000,3.142,0.000,0.000,0.000,0.000,0.000,0.000,0.000,0.000,0.000,0.000,0.000,3.142,6.282,0.000,1.004,1.569,1.569,4.085,6.281,1.199,4.712,0.000,0.000,-4.860,8.176,0.990,1.423,1.604,1.603,5.688,4.111,4.554,1.586,5.530,5.219,1.644,0.022,1.000,-5.238,8.015,1.137,1.484,1.228,1.128,
136.300,144.817,-5.269,8.692,4.860,0.193,6.268,0.000,0.000,1.080,2.459,3.560,0.000,3.950,1.009,1.301,0.746,0.000,3.142,0.000,0.000,0.000,0.000,0.000,0.000,0.000,0.000,0.000,0.000,0.000,3.142,6.282,0.000,1.004,1.569,1.569,4.085,6.281,1.199,4.712,0.000,0.000,-4.857,8.158,0.990,1.422,1.604,1.602,5.688,4.111,4.554,1.586,5.530,5.219,1.644,0.022,1.000,-5.235,7.998,1.137,1.484,1.229,1.129,
136.400,144.917,-5.266,8.675,4.861,0.193,6.268,0.000,0.000,1.068,2.456,3.579,0.000,3.975,1.011,1.262,0.752,0.000,3.142,0.000,0.000,0.000,0.000,0.000,0.000,0.000,0.000,0.000,0.000,0.000,3.142,6.282,0.000,1.004,1.569,1.569,4.085,6.281,1.199,4.712,0.000,0.000,-4.854,8.141,0.990,1.422,1.604,1.602,5.688,4.111,4.554,1.586,5.530,5.219,1.644,0.022,1.000,-5.232,7.980,1.137,1.484,1.230,1.131,
136.492,145.008,-5.264,8.661,4.861,0.193,6.268,0.000,0.000,1.059,2.454,3.594,0.000,3.996,1.013,1.231,0.757,0.000,3.142,0.000,2.397,0.000,0.000,0.000,0.000,0.000,0.000,0.000,0.000,0.000,3.142,6.282,0.000,1.004,1.569,1.569,4.085,6.281,1.199,4.712,0.000,0.000,-4.852,8.127,0.990,1.422,1.604,1.602,5.688,4.111,4.554,1.586,5.530,5.219,1.644,0.022,1.000,-5.230,7.966,1.137,1.484,1.231,1.132,
136.600,145.117,-5.261,8.640,4.861,0.193,6.268,0.000,0.000,1.045,2.451,3.617,0.000,4.027,1.016,1.184,0.765,0.000,3.142,0.000,2.406,0.000,0.000,0.000,0.000,0.000,0.000,0.000,0.000,0.000,3.142,6.282,0.000,1.004,1.569,1.569,4.085,6.281,1.199,4.712,0.000,0.000,-4.849,8.106,0.990,1.422,1.604,1.602,5.688,4.111,4.554,1.586,5.530,5.219,1.644,0.022,1.000,-5.226,7.946,1.137,1.483,1.233,1.133,
136.700,145.217,-5.259,8.622,4.861,0.193,6.271,0.000,0.000,1.033,2.448,3.636,0.000,4.052,1.019,1.145,2.767,0.000,3.142,0.000,2.466,0.000,0.000,0.000,0.000,0.000,0.000,0.000,0.000,0.000,3.142,0.049,0.050,1.003,1.569,1.569,4.086,6.281,1.199,4.712,0.000,0.000,-4.846,8.089,0.990,1.422,1.605,1.604,5.688,4.111,4.555,1.587,5.530,5.219,1.644,0.022,1.000,-5.224,7.928,1.137,1.483,1.231,1.132,
136.800,145.317,-5.256,8.605,4.861,0.193,6.272,0.000,0.000,1.021,2.445,3.655,0.000,4.076,0.940,1.107,2.747,0.000,3.142,0.000,2.552,0.000,0.000,0.000,0.000,0.000,0.000,0.000,0.000,0.000,3.142,0.148,0.011,1.003,1.569,1.569,4.086,6.281,1.199,4.712,0.000,0.000,-4.844,8.071,0.990,1.422,1.605,1.604,5.688,4.111,4.555,1.587,5.530,5.219,1.644,0.022,1.000,-5.221,7.911,1.137,1.483,1.231,1.132,
136.900,145.417,-5.253,8.588,4.861,0.193,6.272,0.000,0.000,1.009,2.442,3.675,0.000,4.101,0.943,1.069,2.728,0.000,3.142,0.000,2.692,0.000,0.000,0.000,0.000,0.000,0.000,0.000,0.000,0.000,3.142,0.248,0.050,1.003,1.569,1.569,4.086,6.281,1.199,4.712,0.000,0.000,-4.841,8.054,0.990,1.422,1.605,1.604,5.688,4.111,4.555,1.587,5.530,5.219,1.644,0.022,1.000,-5.219,7.893,1.137,1.483,1.231,1.131,
137.000,145.517,-5.251,8.574,4.861,0.193,6.272,0.000,0.000,1.000,2.440,3.690,0.000,4.120,0.945,1.039,2.712,0.000,3.142,0.000,0.000,0.000,0.000,0.000,0.000,0.000,0.000,0.000,0.000,0.000,3.142,0.328,0.130,1.003,1.569,1.569,4.086,6.281,1.199,4.712,0.000,0.000,-4.839,8.040,0.990,1.422,1.605,1.604,5.688,4.111,4.555,1.587,5.530,5.219,1.644,0.022,1.000,-5.217,7.879,1.137,1.483,1.231,1.131,
137.100,145.617,-5.248,8.553,4.861,0.193,6.271,0.000,0.000,0.986,2.436,3.713,0.000,4.150,0.948,0.992,2.688,0.000,3.142,0.000,0.000,0.000,0.000,0.000,0.000,0.000,0.000,0.000,0.000,0.000,3.142,0.389,0.250,1.003,1.569,1.569,4.085,6.281,1.199,4.712,0.000,0.000,-4.836,8.019,0.990,1.422,1.605,1.604,5.688,4.111,4.554,1.587,5.530,5.219,1.644,0.035,1.000,-5.213,7.858,1.137,1.483,1.233,1.133,
137.198,145.715,-5.246,8.535,4.861,0.193,6.272,0.000,0.000,0.974,2.433,3.733,0.000,4.175,0.951,0.954,2.669,0.000,3.142,0.000,0.000,0.000,0.000,0.000,0.000,0.000,0.000,0.000,0.000,0.000,3.142,0.488,0.349,1.003,1.569,1.569,4.086,6.281,1.199,4.712,0.000,0.000,-4.833,8.001,0.990,1.422,1.605,1.604,5.688,4.111,4.555,1.587,5.530,5.219,1.644,0.042,1.000,-5.211,7.841,1.137,1.483,1.231,1.132,
137.300,145.817,-5.243,8.518,4.861,0.193,6.272,0.000,0.000,0.962,2.430,3.752,0.000,4.199,0.953,0.916,2.649,0.000,3.142,0.000,0.000,0.000,0.000,0.000,0.000,0.000,0.000,0.000,0.000,0.000,3.142,0.588,0.449,1.003,1.569,1.569,4.086,6.281,1.199,4.712,0.000,0.000,-4.830,7.984,0.990,1.422,1.605,1.604,5.688,4.111,4.555,1.587,5.530,5.219,1.644,0.042,1.000,-5.208,7.823,1.137,1.483,1.231,1.132,
137.400,145.917,-5.241,8.504,4.862,0.078,6.267,0.000,0.000,0.953,2.428,3.767,0.000,4.220,0.955,0.885,2.633,0.000,3.142,0.000,0.000,0.000,0.000,0.000,0.000,0.000,0.000,0.000,0.000,0.000,3.142,0.560,0.470,1.003,1.569,1.570,4.086,6.281,1.199,4.712,0.000,0.000,-4.828,7.970,0.990,1.422,1.608,1.607,5.688,4.112,4.555,1.586,5.530,5.219,1.644,0.042,1.000,-5.206,7.809,1.137,1.484,1.236,1.136,
137.500,146.017,-5.241,8.502,4.862,0.000,6.271,0.000,0.000,0.952,2.429,3.768,0.000,4.225,0.955,0.880,2.631,0.000,3.142,0.000,0.000,0.000,0.000,0.000,0.000,0.000,0.000,0.000,0.000,0.000,3.142,0.461,0.540,1.004,1.569,1.569,4.085,6.281,1.199,4.712,0.000,0.000,-4.827,7.969,0.990,1.421,1.603,1.602,5.688,4.111,4.554,1.586,5.530,5.219,1.644,0.042,1.000,-5.205,7.808,1.137,1.482,1.235,1.136,
137.589,146.106,-5.241,8.502,4.862,0.000,6.272,0.000,0.000,0.952,2.429,3.768,0.000,4.225,0.955,0.880,2.631,0.000,3.142,0.000,0.000,0.000,0.000,0.000,0.000,0.000,0.000,0.000,0.000,0.000,3.142,0.381,0.570,1.004,1.569,1.569,4.085,6.281,1.199,4.712,0.000,0.000,-4.827,7.969,0.990,1.421,1.603,1.602,5.688,4.111,4.554,1.586,5.530,5.219,1.644,0.042,1.000,-5.205,7.808,1.137,1.482,1.235,1.136,
137.700,146.217,-5.241,8.505,4.861,-0.191,0.041,0.000,0.000,0.953,2.427,3.768,0.000,4.214,0.955,0.889,2.636,0.000,3.142,0.000,0.000,0.000,0.000,0.000,0.000,0.000,0.000,0.000,0.000,0.000,3.142,0.263,0.570,1.001,1.570,1.571,4.090,6.281,1.200,4.712,0.000,0.000,-4.830,7.969,0.989,1.424,1.621,1.619,5.688,4.113,4.556,1.587,5.530,5.219,1.644,0.042,1.000,-5.208,7.810,1.136,1.486,1.225,1.125,
137.800,146.317,-5.250,8.564,4.845,-1.001,6.010,0.000,0.000,0.987,2.418,3.730,0.000,4.071,0.949,1.050,2.723,0.000,3.142,0.000,0.000,0.000,0.000,0.000,0.000,0.000,0.000,0.000,0.000,0.000,3.142,0.165,0.501,0.999,1.572,1.572,4.093,6.281,1.200,4.712,0.000,0.000,-4.848,8.020,0.989,1.442,1.640,1.638,5.688,4.115,4.557,1.588,5.530,5.218,1.643,0.043,1.000,-5.230,7.867,1.136,1.503,1.152,1.051,
137.887,146.404,-5.262,8.655,4.842,-1.213,6.270,0.000,0.000,1.045,2.427,3.635,0.000,3.931,1.019,1.265,0.735,0.000,3.142,0.000,0.000,0.000,0.000,0.000,0.000,0.000,0.000,0.000,0.000,0.000,3.142,0.082,0.421,1.003,1.570,1.570,4.086,6.281,1.199,4.712,0.000,0.000,-4.861,8.113,0.990,1.443,1.612,1.611,5.688,4.112,4.555,1.587,5.530,5.219,1.644,0.042,1.000,-5.241,7.960,1.137,1.502,1.131,1.031,
138.000,146.517,-5.277,8.769,4.843,-0.708,6.266,0.000,0.000,1.121,2.445,3.505,0.000,0.000,1.004,1.010,0.704,0.000,3.142,0.000,0.000,0.000,0.000,0.000,0.000,0.000,0.000,0.000,0.000,0.000,3.142,6.243,0.301,1.005,1.569,1.568,4.082,6.281,1.199,4.712,0.000,0.000,-4.873,8.229,0.990,1.439,1.593,1.592,5.688,4.109,4.553,1.587,5.530,5.219,1.644,0.042,1.000,-5.253,8.075,1.138,1.498,1.143,1.044,
138.100,146.617,-5.285,8.829,4.844,-0.634,6.273,0.000,1.237,1.161,2.455,3.436,0.000,0.000,3.860,1.002,0.767,0.000,3.142,0.000,0.000,0.000,0.000,0.000,0.000,0.000,0.000,0.000,0.000,0.000,3.142,6.145,0.201,1.003,1.570,1.570,4.086,6.281,1.199,4.712,0.000,0.000,-4.882,8.288,0.990,1.440,1.613,1.612,5.688,4.112,4.555,1.587,5.530,5.219,1.644,0.042,1.000,-5.263,8.134,1.137,1.501,1.143,1.043,
138.200,146.717,-5.294,8.902,4.844,-0.869,6.275,0.000,1.249,1.209,2.466,3.354,0.000,0.000,3.850,0.991,0.849,0.000,3.142,0.000,0.000,0.000,0.000,0.000,0.000,0.000,0.000,0.000,0.000,0.000,3.142,6.046,0.101,1.002,1.570,1.570,4.088,6.281,1.200,4.712,0.000,0.000,-4.892,8.361,0.990,1.440,1.618,1.616,5.688,4.112,4.555,1.587,5.530,5.219,1.644,0.042,1.000,-5.273,8.207,1.137,1.501,1.147,1.047,
138.300,146.817,-5.304,8.973,4.845,-0.918,6.274,0.000,1.262,1.256,2.477,3.274,4.970,3.501,3.317,0.981,0.929,0.000,0.579,0.000,0.000,0.000,0.000,0.000,0.000,0.000,0.000,0.000,0.000,0.000,3.142,6.034,0.021,1.003,1.570,1.570,4.086,6.281,1.199,4.712,0.000,0.000,-4.901,8.432,0.990,1.439,1.611,1.610,5.688,4.111,4.555,1.588,5.530,5.219,1.644,0.042,1.000,-5.281,8.278,1.137,1.499,1.149,1.049,
138.394,146.911,-5.315,9.057,4.845,-0.801,6.278,0.000,1.278,1.311,2.461,2.484,4.886,3.385,3.829,0.969,1.080,0.000,0.544,0.000,0.000,0.000,0.000,0.000,0.000,0.000,0.000,0.000,0.000,0.000,3.142,6.033,6.226,1.004,1.569,1.569,4.085,6.281,1.199,4.712,0.000,0.000,-4.911,8.517,0.990,1.438,1.606,1.605,5.688,4.111,4.554,1.588,5.530,5.219,1.644,0.042,1.000,-5.291,8.363,1.137,1.498,1.152,1.052,
138.500,147.017,-5.327,9.146,4.845,-0.765,6.275,0.000,1.325,1.370,2.264,2.356,4.796,3.263,2.329,0.956,1.180,0.000,0.509,0.000,0.000,0.000,0.000,0.000,0.000,0.000,0.000,0.000,0.000,0.000,3.142,6.034,6.224,1.003,1.570,1.570,4.086,6.281,1.199,4.712,0.000,0.000,-4.923,8.605,0.990,1.439,1.612,1.611,5.688,4.112,4.555,1.588,5.530,5.219,1.643,0.042,1.000,-5.304,8.451,1.137,1.499,1.153,1.053,
138.595,147.112,-5.337,9.224,4.846,-0.829,6.275,0.000,1.375,1.422,2.094,2.244,4.718,3.157,3.806,1.034,1.267,0.000,0.474,0.000,0.000,0.000,0.000,0.000,0.000,0.000,0.000,0.000,0.000,0.000,3.142,6.034,6.224,1.003,1.570,1.570,4.087,6.281,1.199,4.712,0.000,0.000,-4.934,8.683,0.990,1.438,1.613,1.612,5.688,4.112,4.555,1.588,5.530,5.219,1.643,0.042,1.000,-5.314,8.529,1.137,1.499,1.154,1.055,
138.700,147.217,-5.348,9.305,4.846,-0.836,6.275,0.000,1.426,1.476,1.946,2.126,4.636,3.045,3.794,1.022,1.359,0.000,0.439,0.000,0.000,0.000,0.000,0.000,0.000,0.000,0.000,0.000,0.000,0.000,3.142,6.033,6.224,1.003,1.570,1.570,4.086,6.281,1.199,4.712,0.000,0.000,-4.944,8.765,0.990,1.438,1.610,1.609,5.688,4.111,4.555,1.588,5.530,5.219,1.644,0.042,1.000,-5.324,8.610,1.137,1.498,1.157,1.057,
138.800,147.317,-5.359,9.385,4.846,-0.802,6.275,0.000,1.477,1.528,1.959,2.012,4.556,2.945,3.783,1.010,1.448,0.000,0.439,0.000,0.000,0.000,0.000,0.000,0.000,0.000,0.000,0.000,0.000,0.000,3.142,6.033,6.224,1.003,1.570,1.570,4.086,6.281,1.199,4.712,0.000,0.000,-4.955,8.844,0.990,1.437,1.609,1.608,5.688,4.111,4.555,1.588,5.530,5.219,1.644,0.042,1.000,-5.335,8.690,1.137,1.498,1.159,1.059,
138.886,147.403,-5.367,9.446,4.847,-0.797,6.275,0.000,1.517,1.569,1.968,1.923,4.494,2.932,3.774,1.018,1.518,0.000,0.088,0.000,0.000,0.000,0.000,0.000,0.000,0.000,0.000,0.000,0.000,0.000,3.142,6.033,6.224,1.003,1.570,1.570,4.086,6.281,1.199,4.712,0.000,0.000,-4.963,8.906,0.990,1.437,1.610,1.609,5.688,4.111,4.555,1.588,5.530,5.219,1.644,0.042,1.000,-5.343,8.752,1.137,1.498,1.160,1.060,
139.000,147.517,-5.380,9.540,4.847,-0.817,6.275,0.000,1.576,2.308,1.983,1.787,4.399,2.913,3.761,1.229,1.624,0.000,0.404,0.000,0.000,0.000,0.000,0.000,0.000,0.000,0.000,0.000,0.000,0.000,3.142,6.033,6.224,1.003,1.570,1.570,4.086,6.281,1.199,4.712,0.000,0.000,-4.976,9.000,0.990,1.437,1.611,1.609,5.688,4.111,4.555,1.588,5.530,5.219,1.644,0.042,1.000,-5.356,8.846,1.137,1.497,1.162,1.062,
139.084,147.601,-5.388,9.604,4.847,-0.819,6.275,0.000,1.617,2.316,1.993,1.696,4.335,2.900,3.752,1.372,1.695,0.000,0.088,0.000,0.000,0.000,0.000,0.000,0.000,0.000,0.000,0.000,0.000,0.000,3.142,6.033,6.224,1.003,1.570,1.570,4.086,6.281,1.199,4.712,0.000,0.000,-4.984,9.064,0.990,1.437,1.610,1.609,5.688,4.111,4.555,1.588,5.530,5.219,1.644,0.042,1.000,-5.364,8.909,1.137,1.497,1.164,1.064,
139.200,147.717,-5.401,9.699,4.848,-0.810,6.275,0.000,1.677,2.329,2.008,1.560,4.240,2.880,4.566,1.995,1.802,0.000,0.088,0.000,0.000,0.000,0.000,0.000,0.000,0.000,0.000,0.000,0.000,0.000,3.142,6.033,6.224,1.003,1.570,1.570,4.086,6.281,1.199,4.712,0.000,0.000,-4.997,9.159,0.990,1.436,1.610,1.608,5.688,4.111,4.555,1.588,5.530,5.219,1.644,0.042,1.000,-5.377,9.004,1.137,1.497,1.166,1.066,
139.285,147.802,-5.410,9.762,4.848,-0.808,6.275,0.000,1.718,2.338,2.018,1.469,4.177,2.867,4.557,1.986,1.680,0.000,0.088,0.000,0.000,0.000,0.000,0.000,0.000,0.000,0.000,0.000,0.000,0.000,3.142,6.033,6.224,1.003,1.570,1.570,4.086,6.281,1.199,4.712,0.000,0.000,-5.005,9.222,0.990,1.436,1.610,1.609,5.688,4.111,4.555,1.588,5.530,5.219,1.644,0.042,1.000,-5.385,9.067,1.137,1.496,1.167,1.067,
139.400,147.917,-5.423,9.856,4.848,-0.813,6.275,0.000,1.778,2.351,2.032,1.334,4.082,2.848,4.544,1.972,1.653,0.000,0.088,0.000,0.000,0.000,0.000,0.000,0.000,0.000,0.000,0.000,0.000,0.000,3.142,6.033,6.224,1.003,1.570,1.570,4.086,6.281,1.199,4.712,0.000,0.000,-5.018,9.316,0.990,1.436,1.610,1.609,5.688,4.111,4.555,1.588,5.530,5.219,1.644,0.042,1.000,-5.398,9.161,1.137,1.496,1.169,1.069,
139.493,148.010,-5.431,9.919,4.848,-0.814,6.275,0.000,1.818,2.359,2.042,1.243,4.018,2.835,4.535,1.963,1.635,0.000,0.053,0.000,0.000,0.000,0.000,0.000,0.000,0.000,0.000,0.000,0.000,0.000,3.142,6.033,6.224,1.003,1.570,1.570,4.086,6.281,1.199,4.712,0.000,0.000,-5.026,9.380,0.990,1.435,1.610,1.608,5.688,4.111,4.555,1.588,5.530,5.219,1.644,0.042,1.000,-5.406,9.224,1.137,1.496,1.170,1.070,
139.600,148.117,-5.439,9.975,4.848,-0.247,6.279,0.000,1.854,2.367,2.051,1.210,3.962,2.823,4.527,2.088,1.619,0.000,0.053,0.000,0.000,0.000,0.000,0.000,0.000,0.000,0.000,0.000,0.000,0.000,3.142,6.032,6.223,1.005,1.569,1.568,4.083,6.281,1.199,4.712,0.000,0.000,-5.033,9.437,0.990,1.434,1.597,1.596,5.688,4.110,4.554,1.587,5.530,5.219,1.644,0.042,1.000,-5.412,9.281,1.138,1.494,1.172,1.072,
139.694,148.211,-5.441,9.986,4.848,-0.080,6.278,0.000,1.861,2.368,2.053,1.206,3.950,2.821,4.526,2.113,1.616,0.000,0.053,0.000,0.000,0.000,0.000,0.000,0.000,0.000,0.000,0.000,0.000,0.000,3.142,6.033,6.224,1.004,1.569,1.569,4.084,6.281,1.199,4.712,0.000,0.000,-5.035,9.447,0.990,1.434,1.603,1.601,5.688,4.110,4.554,1.588,5.530,5.219,1.644,0.042,1.000,-5.414,9.292,1.137,1.495,1.171,1.072,
139.800,148.317,-5.441,9.988,4.849,0.000,6.268,0.000,1.862,2.369,2.053,1.206,3.949,2.820,4.525,2.116,1.616,0.000,0.053,0.000,0.000,0.000,0.000,0.000,0.000,0.000,0.000,0.000,0.000,0.000,3.142,6.033,6.224,1.003,1.569,1.569,4.085,6.281,1.199,4.712,0.000,0.000,-5.035,9.449,0.990,1.435,1.608,1.607,5.688,4.111,4.555,1.587,5.530,5.219,1.644,0.042,1.000,-5.415,9.293,1.137,1.495,1.174,1.074,
139.900,148.417,-5.441,9.988,4.848,0.000,6.268,0.000,1.862,2.369,2.053,1.206,3.949,2.820,4.525,2.116,1.616,0.000,0.053,0.000,0.000,0.000,0.000,0.000,0.000,0.000,0.000,0.000,0.000,0.000,3.142,6.033,6.224,1.003,1.569,1.569,4.085,6.281,1.199,4.712,0.000,0.000,-5.035,9.449,0.990,1.435,1.608,1.607,5.688,4.111,4.555,1.587,5.530,5.219,1.644,0.042,1.000,-5.415,9.293,1.137,1.495,1.174,1.074,
140.000,148.517,-5.441,9.988,4.848,0.000,6.268,0.000,1.862,2.369,2.053,1.206,3.949,2.820,4.525,2.116,1.616,0.000,0.053,0.000,0.000,0.000,0.000,0.000,0.000,0.000,0.000,0.000,0.000,0.000,3.142,6.033,6.224,1.003,1.569,1.569,4.085,6.281,1.199,4.712,0.000,0.000,-5.035,9.449,0.990,1.435,1.608,1.607,5.688,4.111,4.555,1.587,5.530,5.219,1.644,0.042,1.000,-5.415,9.293,1.137,1.495,1.174,1.074,
140.089,148.606,-5.441,9.988,4.848,0.000,6.268,0.000,1.862,2.369,2.053,1.206,3.949,2.820,4.525,2.116,1.616,0.000,0.053,0.000,0.000,0.000,0.000,0.000,0.000,0.000,0.000,0.000,0.000,0.000,3.142,6.033,6.224,1.003,1.569,1.569,4.085,6.281,1.199,4.712,0.000,0.000,-5.035,9.449,0.990,1.435,1.608,1.607,5.688,4.111,4.555,1.587,5.530,5.219,1.644,0.042,1.000,-5.415,9.293,1.137,1.495,1.174,1.074,
140.200,148.717,-5.441,9.988,4.848,0.000,6.268,0.000,1.862,2.369,2.053,1.206,3.949,2.820,4.525,2.116,1.616,0.000,0.053,0.000,0.000,0.000,0.000,0.000,0.000,0.000,0.000,0.000,0.000,0.000,3.142,6.033,6.224,1.003,1.569,1.569,4.085,6.281,1.199,4.712,0.000,0.000,-5.035,9.449,0.990,1.435,1.608,1.607,5.688,4.111,4.555,1.587,5.530,5.219,1.644,0.042,1.000,-5.415,9.293,1.137,1.495,1.174,1.074,
140.289,148.806,-5.441,9.988,4.848,0.000,6.268,0.000,1.862,2.369,2.053,1.206,3.949,2.820,4.525,2.116,1.616,0.000,0.053,0.000,0.000,0.000,0.000,0.000,0.000,0.000,0.000,0.000,0.000,0.000,3.142,6.033,6.224,1.003,1.569,1.569,4.085,6.281,1.199,4.712,0.000,0.000,-5.035,9.449,0.990,1.435,1.608,1.607,5.688,4.111,4.555,1.587,5.530,5.219,1.644,0.042,1.000,-5.415,9.293,1.137,1.495,1.174,1.074,
140.400,148.917,-5.441,9.988,4.848,0.000,6.268,0.000,1.862,2.369,2.053,1.206,3.949,2.820,4.525,2.116,1.616,0.000,0.053,0.000,0.000,0.000,0.000,0.000,0.000,0.000,0.000,0.000,0.000,0.000,3.142,6.033,6.224,1.003,1.569,1.569,4.085,6.281,1.199,4.712,0.000,0.000,-5.035,9.449,0.990,1.435,1.608,1.607,5.688,4.111,4.555,1.587,5.530,5.219,1.644,0.042,1.000,-5.415,9.293,1.137,1.495,1.174,1.074,
140.500,149.016,-5.441,9.988,4.848,0.000,6.268,0.000,1.862,2.369,2.053,1.206,3.949,2.820,4.525,2.116,1.616,0.000,0.053,0.000,0.000,0.000,0.000,0.000,0.000,0.000,0.000,0.000,0.000,0.000,3.142,6.033,6.224,1.003,1.569,1.569,4.085,6.281,1.199,4.712,0.000,0.000,-5.035,9.449,0.990,1.435,1.608,1.607,5.688,4.111,4.555,1.587,5.530,5.219,1.644,0.042,1.000,-5.415,9.293,1.137,1.495,1.174,1.074,
140.600,149.117,-5.441,9.988,4.848,0.000,6.268,0.000,1.862,2.369,2.053,1.206,3.949,2.820,4.525,2.116,1.616,0.000,0.053,0.000,0.000,0.000,0.000,0.000,0.000,0.000,0.000,0.000,0.000,0.000,3.142,6.033,6.224,1.003,1.569,1.569,4.085,6.281,1.199,4.712,0.000,0.000,-5.035,9.449,0.990,1.435,1.608,1.607,5.688,4.111,4.555,1.587,5.530,5.219,1.644,0.042,1.000,-5.415,9.293,1.137,1.495,1.174,1.074,
140.700,149.217,-5.441,9.988,4.848,0.000,6.268,0.000,1.862,2.369,2.053,1.206,3.949,2.820,4.525,2.116,1.616,0.000,0.053,0.000,0.000,0.000,0.000,0.000,0.000,0.000,0.000,0.000,0.000,0.000,3.142,6.033,6.224,1.003,1.569,1.569,4.085,6.281,1.199,4.712,0.000,0.000,-5.035,9.449,0.990,1.435,1.608,1.607,5.688,4.111,4.555,1.587,5.530,5.219,1.644,0.042,1.000,-5.415,9.293,1.137,1.495,1.174,1.074,
140.800,149.317,-5.441,9.988,4.848,0.000,6.268,0.000,1.862,2.369,2.053,1.206,3.949,2.820,4.525,2.116,1.616,0.000,0.053,0.000,0.000,0.000,0.000,0.000,0.000,0.000,0.000,0.000,0.000,0.000,3.142,6.033,6.224,1.003,1.569,1.569,4.085,6.281,1.199,4.712,0.000,0.000,-5.035,9.449,0.990,1.435,1.608,1.607,5.688,4.111,4.555,1.587,5.530,5.219,1.644,0.042,1.000,-5.415,9.293,1.137,1.495,1.174,1.074,
140.900,149.417,-5.441,9.988,4.848,0.000,6.268,0.000,1.862,2.369,2.053,1.206,3.949,2.820,4.525,2.116,1.616,0.000,0.053,0.000,0.000,0.000,0.000,0.000,0.000,0.000,0.000,0.000,0.000,0.000,3.142,6.033,6.224,1.003,1.569,1.569,4.085,6.281,1.199,4.712,0.000,0.000,-5.035,9.449,0.990,1.435,1.608,1.607,5.688,4.111,4.555,1.587,5.530,5.219,1.644,0.042,1.000,-5.415,9.293,1.137,1.495,1.174,1.074,
140.993,149.510,-5.441,9.988,4.848,0.000,6.268,0.000,1.862,2.369,2.053,1.206,3.949,2.820,4.525,2.116,1.616,0.000,0.053,0.000,0.000,0.000,0.000,0.000,0.000,0.000,0.000,0.000,0.000,0.000,3.142,6.033,6.224,1.003,1.569,1.569,4.085,6.281,1.199,4.712,0.000,0.000,-5.035,9.449,0.990,1.435,1.608,1.607,5.688,4.111,4.555,1.587,5.530,5.219,1.644,0.042,1.000,-5.415,9.293,1.137,1.495,1.174,1.074,
141.100,149.617,-5.441,9.988,4.848,0.000,6.268,0.000,1.862,2.369,2.053,1.206,3.949,2.820,4.525,2.116,1.616,0.000,0.053,0.000,0.000,0.000,0.000,0.000,0.000,0.000,0.000,0.000,0.000,0.000,3.142,6.033,6.224,1.003,1.569,1.569,4.085,6.281,1.199,4.712,0.000,0.000,-5.035,9.449,0.990,1.435,1.608,1.607,5.688,4.111,4.555,1.587,5.530,5.219,1.644,0.042,1.000,-5.415,9.293,1.137,1.495,1.174,1.074,
141.197,149.713,-5.441,9.988,4.848,0.000,6.268,0.000,1.862,2.369,2.053,1.206,3.949,2.820,4.525,2.116,1.616,0.000,0.053,0.000,0.000,0.000,0.000,0.000,0.000,0.000,0.000,0.000,0.000,0.000,3.142,6.033,6.224,1.003,1.569,1.569,4.085,6.281,1.199,4.712,0.000,0.000,-5.035,9.449,0.990,1.435,1.608,1.607,5.688,4.111,4.555,1.587,5.530,5.219,1.644,0.042,1.000,-5.415,9.293,1.137,1.495,1.174,1.074,
141.300,149.817,-5.441,9.988,4.848,0.000,6.268,0.000,1.862,2.369,2.053,1.206,3.949,2.820,4.525,2.116,1.616,0.000,0.053,0.000,0.000,0.000,0.000,0.000,0.000,0.000,0.000,0.000,0.000,0.000,3.142,6.033,6.224,1.003,1.569,1.569,4.085,6.281,1.199,4.712,0.000,0.000,-5.035,9.449,0.990,1.435,1.608,1.607,5.688,4.111,4.555,1.587,5.530,5.219,1.644,0.042,1.000,-5.415,9.293,1.137,1.495,1.174,1.074,
141.385,149.902,-5.441,9.988,4.848,0.000,6.268,0.000,1.862,2.369,2.053,1.206,3.949,2.820,4.525,2.116,1.616,0.000,0.053,0.000,0.000,0.000,0.000,0.000,0.000,0.000,0.000,0.000,0.000,0.000,3.142,6.033,6.224,1.003,1.569,1.569,4.085,6.281,1.199,4.712,0.000,0.000,-5.035,9.449,0.990,1.435,1.608,1.607,5.688,4.111,4.555,1.587,5.530,5.219,1.644,0.042,1.000,-5.415,9.293,1.137,1.495,1.174,1.074,
141.500,150.017,-5.441,9.988,4.848,0.000,6.268,0.000,1.862,2.369,2.053,1.206,3.949,2.820,4.525,2.116,1.616,0.000,0.053,0.000,0.000,0.000,0.000,0.000,0.000,0.000,0.000,0.000,0.000,0.000,3.142,6.033,6.224,1.003,1.569,1.569,4.085,6.281,1.199,4.712,0.000,0.000,-5.035,9.449,0.990,1.435,1.608,1.607,5.688,4.111,4.555,1.587,5.530,5.219,1.644,0.042,1.000,-5.415,9.293,1.137,1.495,1.174,1.074,
141.590,150.106,-5.441,9.988,4.848,0.000,6.268,0.000,1.862,2.369,2.053,1.206,3.949,2.820,4.525,2.116,1.616,0.000,0.053,0.000,0.000,0.000,0.000,0.000,0.000,0.000,0.000,0.000,0.000,0.000,3.142,6.033,6.224,1.003,1.569,1.569,4.085,6.281,1.199,4.712,0.000,0.000,-5.035,9.449,0.990,1.435,1.608,1.607,5.688,4.111,4.555,1.587,5.530,5.219,1.644,0.042,1.000,-5.415,9.293,1.137,1.495,1.174,1.074,
141.700,150.217,-5.441,9.988,4.848,0.000,6.268,0.000,1.862,2.369,2.053,1.206,3.949,2.820,4.525,2.116,1.616,0.000,0.053,0.000,0.000,0.000,0.000,0.000,0.000,0.000,0.000,0.000,0.000,0.000,3.142,6.033,6.224,1.003,1.569,1.569,4.085,6.281,1.199,4.712,0.000,0.000,-5.035,9.449,0.990,1.435,1.608,1.607,5.688,4.111,4.555,1.587,5.530,5.219,1.644,0.042,1.000,-5.415,9.293,1.137,1.495,1.174,1.074,
141.798,150.315,-5.441,9.988,4.848,0.000,6.268,0.000,1.862,2.369,2.053,1.206,3.949,2.820,4.525,2.116,1.616,0.000,0.053,0.000,0.000,0.000,0.000,0.000,0.000,0.000,0.000,0.000,0.000,0.000,3.142,6.033,6.224,1.003,1.569,1.569,4.085,6.281,1.199,4.712,0.000,0.000,-5.035,9.449,0.990,1.435,1.608,1.607,5.688,4.111,4.555,1.587,5.530,5.219,1.644,0.042,1.000,-5.415,9.293,1.137,1.495,1.174,1.074,
141.900,150.417,-5.441,9.988,4.848,0.000,6.268,0.000,1.862,2.369,2.053,1.206,3.949,2.820,4.525,2.116,1.616,0.000,0.053,0.000,0.000,0.000,0.000,0.000,0.000,0.000,0.000,0.000,0.000,0.000,3.142,6.033,6.224,1.003,1.569,1.569,4.085,6.281,1.199,4.712,0.000,0.000,-5.035,9.449,0.990,1.435,1.608,1.607,5.688,4.111,4.555,1.587,5.530,5.219,1.644,0.042,1.000,-5.415,9.293,1.137,1.495,1.174,1.074,
141.998,150.515,-5.441,9.988,4.848,0.000,6.268,0.000,1.862,2.369,2.053,1.206,3.949,2.820,4.525,2.116,1.616,0.000,0.053,0.000,0.000,0.000,0.000,0.000,0.000,0.000,0.000,0.000,0.000,0.000,3.142,6.033,6.224,1.003,1.569,1.569,4.085,6.281,1.199,4.712,0.000,0.000,-5.035,9.449,0.990,1.435,1.608,1.607,5.688,4.111,4.555,1.587,5.530,5.219,1.644,0.042,1.000,-5.415,9.293,1.137,1.495,1.174,1.074,
142.100,150.617,-5.441,9.988,4.848,0.000,6.268,0.000,1.862,2.369,2.053,1.206,3.949,2.820,4.525,2.116,1.616,0.000,0.053,0.000,0.000,0.000,0.000,0.000,0.000,0.000,0.000,0.000,0.000,0.000,3.142,6.033,6.224,1.003,1.569,1.569,4.085,6.281,1.199,4.712,0.000,0.000,-5.035,9.449,0.990,1.435,1.608,1.607,5.688,4.111,4.555,1.587,5.530,5.219,1.644,0.042,1.000,-5.415,9.293,1.137,1.495,1.174,1.074,
142.200,150.717,-5.441,9.988,4.849,0.000,6.268,0.000,1.862,2.369,2.053,1.206,3.949,2.820,4.525,2.116,1.616,0.000,0.053,0.000,0.000,0.000,0.000,0.000,0.000,0.000,0.000,0.000,0.000,0.000,3.142,6.033,6.224,1.003,1.569,1.569,4.085,6.281,1.199,4.712,0.000,0.000,-5.035,9.449,0.990,1.435,1.608,1.607,5.688,4.111,4.555,1.587,5.530,5.219,1.644,0.042,1.000,-5.415,9.293,1.137,1.495,1.174,1.074,
142.285,150.802,-5.441,9.988,4.848,0.000,6.268,0.000,1.862,2.369,2.053,1.206,3.949,2.820,4.525,2.116,1.616,0.000,0.053,0.000,0.000,0.000,0.000,0.000,0.000,0.000,0.000,0.000,0.000,0.000,3.142,6.033,6.224,1.003,1.569,1.569,4.085,6.281,1.199,4.712,0.000,0.000,-5.035,9.449,0.990,1.435,1.608,1.607,5.688,4.111,4.555,1.587,5.530,5.219,1.644,0.042,1.000,-5.415,9.293,1.137,1.495,1.174,1.074,
142.400,150.917,-5.441,9.988,4.848,0.000,6.268,0.000,1.862,2.369,2.053,1.206,3.949,2.820,4.525,2.116,1.616,0.000,0.053,0.000,0.000,0.000,0.000,0.000,0.000,0.000,0.000,0.000,0.000,0.000,3.142,6.033,6.224,1.003,1.569,1.569,4.085,6.281,1.199,4.712,0.000,0.000,-5.035,9.449,0.990,1.435,1.608,1.607,5.688,4.111,4.555,1.587,5.530,5.219,1.644,0.042,1.000,-5.415,9.293,1.137,1.495,1.174,1.074,
142.500,151.017,-5.441,9.988,4.848,0.000,6.268,0.000,1.862,2.369,2.053,1.206,3.949,2.820,4.525,2.116,1.616,0.000,0.053,0.000,0.000,0.000,0.000,0.000,0.000,0.000,0.000,0.000,0.000,0.000,3.142,6.033,6.224,1.003,1.569,1.569,4.085,6.281,1.199,4.712,0.000,0.000,-5.035,9.449,0.990,1.435,1.608,1.607,5.688,4.111,4.555,1.587,5.530,5.219,1.644,0.042,1.000,-5.415,9.293,1.137,1.495,1.174,1.074,
142.600,151.117,-5.441,9.988,4.849,0.000,6.268,0.000,1.862,2.369,2.053,1.206,3.949,2.820,4.525,2.116,1.616,0.000,0.053,0.000,0.000,0.000,0.000,0.000,0.000,0.000,0.000,0.000,0.000,0.000,3.142,6.033,6.224,1.003,1.569,1.569,4.085,6.281,1.199,4.712,0.000,0.000,-5.035,9.449,0.990,1.435,1.608,1.607,5.688,4.111,4.555,1.587,5.530,5.219,1.644,0.042,1.000,-5.415,9.293,1.137,1.495,1.174,1.074,
142.691,151.208,-5.441,9.988,4.848,0.000,6.268,0.000,1.862,2.369,2.053,1.206,3.949,2.820,4.525,2.116,1.616,0.000,0.053,0.000,0.000,0.000,0.000,0.000,0.000,0.000,0.000,0.000,0.000,0.000,3.142,6.033,6.224,1.003,1.569,1.569,4.085,6.281,1.199,4.712,0.000,0.000,-5.035,9.449,0.990,1.435,1.608,1.607,5.688,4.111,4.555,1.587,5.530,5.219,1.644,0.042,1.000,-5.415,9.293,1.137,1.495,1.174,1.074,
142.800,151.317,-5.441,9.988,4.848,0.000,6.268,0.000,1.862,2.369,2.053,1.206,3.949,2.820,4.525,2.116,1.616,0.000,0.053,0.000,0.000,0.000,0.000,0.000,0.000,0.000,0.000,0.000,0.000,0.000,3.142,6.033,6.224,1.003,1.569,1.569,4.085,6.281,1.199,4.712,0.000,0.000,-5.035,9.449,0.990,1.435,1.608,1.607,5.688,4.111,4.555,1.587,5.530,5.219,1.644,0.042,1.000,-5.415,9.293,1.137,1.495,1.174,1.074,
142.900,151.417,-5.441,9.988,4.848,0.000,6.268,0.000,1.862,2.369,2.053,1.206,3.949,2.820,4.525,2.116,1.616,0.000,0.053,0.000,0.000,0.000,0.000,0.000,0.000,0.000,0.000,0.000,0.000,0.000,3.142,6.033,6.224,1.003,1.569,1.569,4.085,6.281,1.199,4.712,0.000,0.000,-5.035,9.449,0.990,1.435,1.608,1.607,5.688,4.111,4.555,1.587,5.530,5.219,1.644,0.042,1.000,-5.415,9.293,1.137,1.495,1.174,1.074,
143.000,151.517,-5.441,9.988,4.848,0.000,6.268,0.000,1.862,2.369,2.053,1.206,3.949,2.820,4.525,2.116,1.616,0.000,0.053,0.000,0.000,0.000,0.000,0.000,0.000,0.000,0.000,0.000,0.000,0.000,3.142,6.033,6.224,1.003,1.569,1.569,4.085,6.281,1.199,4.712,0.000,0.000,-5.035,9.449,0.990,1.435,1.608,1.607,5.688,4.111,4.555,1.587,5.530,5.219,1.644,0.042,1.000,-5.415,9.293,1.137,1.495,1.174,1.074,
143.100,151.617,-5.441,9.988,4.848,0.000,6.268,0.000,1.862,2.369,2.053,1.206,3.949,2.820,4.525,2.116,1.616,0.000,0.053,0.000,0.000,0.000,0.000,0.000,0.000,0.000,0.000,0.000,0.000,0.000,3.142,6.033,6.224,1.003,1.569,1.569,4.085,6.281,1.199,4.712,0.000,0.000,-5.035,9.449,0.990,1.435,1.608,1.607,5.688,4.111,4.555,1.587,5.530,5.219,1.644,0.042,1.000,-5.415,9.293,1.137,1.495,1.174,1.074,
143.200,151.717,-5.441,9.988,4.848,0.000,6.268,0.000,1.862,2.369,2.053,1.206,3.949,2.820,4.525,2.116,1.616,0.000,0.053,0.000,0.000,0.000,0.000,0.000,0.000,0.000,0.000,0.000,0.000,0.000,3.142,6.033,6.224,1.003,1.569,1.569,4.085,6.281,1.199,4.712,0.000,0.000,-5.035,9.449,0.990,1.435,1.608,1.607,5.688,4.111,4.555,1.587,5.530,5.219,1.644,0.042,1.000,-5.415,9.293,1.137,1.495,1.174,1.074,
143.298,151.814,-5.441,9.988,4.848,0.000,6.268,0.000,1.862,2.369,2.053,1.206,3.949,2.820,4.525,2.116,1.616,0.000,0.053,0.000,0.000,0.000,0.000,0.000,0.000,0.000,0.000,0.000,0.000,0.000,3.142,6.033,6.224,1.003,1.569,1.569,4.085,6.281,1.199,4.712,0.000,0.000,-5.035,9.449,0.990,1.435,1.608,1.607,5.688,4.111,4.555,1.587,5.530,5.219,1.644,0.042,1.000,-5.415,9.293,1.137,1.495,1.174,1.074,
143.400,151.917,-5.441,9.988,4.848,0.000,6.268,0.000,1.862,2.369,2.053,1.206,3.949,2.820,4.525,2.116,1.616,0.000,0.053,0.000,0.000,0.000,0.000,0.000,0.000,0.000,0.000,0.000,0.000,0.000,3.142,6.033,6.224,1.003,1.569,1.569,4.085,6.281,1.199,4.712,0.000,0.000,-5.035,9.449,0.990,1.435,1.608,1.607,5.688,4.111,4.555,1.587,5.530,5.219,1.644,0.042,1.000,-5.415,9.293,1.137,1.495,1.174,1.074,
143.500,152.017,-5.441,9.988,4.848,0.000,6.268,0.000,1.862,2.369,2.053,1.206,3.949,2.820,4.525,2.116,1.616,0.000,0.053,0.000,0.000,0.000,0.000,0.000,0.000,0.000,0.000,0.000,0.000,0.000,3.142,6.033,6.224,1.003,1.569,1.569,4.085,6.281,1.199,4.712,0.000,0.000,-5.035,9.449,0.990,1.435,1.608,1.607,5.688,4.111,4.555,1.587,5.530,5.219,1.644,0.042,1.000,-5.415,9.293,1.137,1.495,1.174,1.074,
143.585,152.102,-5.441,9.988,4.848,0.000,6.268,0.000,1.862,2.369,2.053,1.206,3.949,2.820,4.525,2.116,1.616,0.000,0.053,0.000,0.000,0.000,0.000,0.000,0.000,0.000,0.000,0.000,0.000,0.000,3.142,6.033,6.224,1.003,1.569,1.569,4.085,6.281,1.199,4.712,0.000,0.000,-5.035,9.449,0.990,1.435,1.608,1.607,5.688,4.111,4.555,1.587,5.530,5.219,1.644,0.042,1.000,-5.415,9.293,1.137,1.495,1.174,1.074,
143.700,152.217,-5.441,9.988,4.848,0.000,6.268,0.000,1.862,2.369,2.053,1.206,3.949,2.820,4.525,2.116,1.616,0.000,0.053,0.000,0.000,0.000,0.000,0.000,0.000,0.000,0.000,0.000,0.000,0.000,3.142,6.033,6.224,1.003,1.569,1.569,4.085,6.281,1.199,4.712,0.000,0.000,-5.035,9.449,0.990,1.435,1.608,1.607,5.688,4.111,4.555,1.587,5.530,5.219,1.644,0.042,1.000,-5.415,9.293,1.137,1.495,1.174,1.074,
143.800,152.317,-5.441,9.988,4.848,0.000,6.268,0.000,1.862,2.369,2.053,1.206,3.949,2.820,4.525,2.116,1.616,0.000,0.053,0.000,0.000,0.000,0.000,0.000,0.000,0.000,0.000,0.000,0.000,0.000,3.142,6.033,6.224,1.003,1.569,1.569,4.085,6.281,1.199,4.712,0.000,0.000,-5.035,9.449,0.990,1.435,1.608,1.607,5.688,4.111,4.555,1.587,5.530,5.219,1.644,0.042,1.000,-5.415,9.293,1.137,1.495,1.174,1.074,
143.900,152.417,-5.441,9.988,4.848,0.000,6.268,0.000,1.862,2.369,2.053,1.206,3.949,2.820,4.525,2.116,1.616,0.000,0.053,0.000,0.000,0.000,0.000,0.000,0.000,0.000,0.000,0.000,0.000,0.000,3.142,6.033,6.224,1.003,1.569,1.569,4.085,6.281,1.199,4.712,0.000,0.000,-5.035,9.449,0.990,1.435,1.608,1.607,5.688,4.111,4.555,1.587,5.530,5.219,1.644,0.042,1.000,-5.415,9.293,1.137,1.495,1.174,1.074,
144.000,152.517,-5.441,9.988,4.848,0.000,6.268,0.000,1.862,2.369,2.053,1.206,3.949,2.820,4.525,2.116,1.616,0.000,0.053,0.000,0.000,0.000,0.000,0.000,0.000,0.000,0.000,0.000,0.000,0.000,3.142,6.033,6.224,1.003,1.569,1.569,4.085,6.281,1.199,4.712,0.000,0.000,-5.035,9.449,0.990,1.435,1.608,1.607,5.688,4.111,4.555,1.587,5.530,5.219,1.644,0.042,1.000,-5.415,9.293,1.137,1.495,1.174,1.074,
144.100,152.617,-5.441,9.988,4.848,0.000,6.268,0.000,1.862,2.369,2.053,1.206,3.949,2.820,4.525,2.116,1.616,0.000,0.053,0.000,0.000,0.000,0.000,0.000,0.000,0.000,0.000,0.000,0.000,0.000,3.142,6.033,6.224,1.003,1.569,1.569,4.085,6.281,1.199,4.712,0.000,0.000,-5.035,9.449,0.990,1.435,1.608,1.607,5.688,4.111,4.555,1.587,5.530,5.219,1.644,0.042,1.000,-5.415,9.293,1.137,1.495,1.174,1.074,
144.184,152.700,-5.441,9.988,4.848,0.000,6.268,0.000,1.862,2.369,2.053,1.206,3.949,2.820,4.525,2.116,1.616,0.000,0.053,0.000,0.000,0.000,0.000,0.000,0.000,0.000,0.000,0.000,0.000,0.000,3.142,6.033,6.224,1.003,1.569,1.569,4.085,6.281,1.199,4.712,0.000,0.000,-5.035,9.449,0.990,1.435,1.608,1.607,5.688,4.111,4.555,1.587,5.530,5.219,1.644,0.042,1.000,-5.415,9.293,1.137,1.495,1.174,1.074,
144.300,152.817,-5.441,9.988,4.848,0.000,6.268,0.000,1.862,2.369,2.053,1.206,3.949,2.820,4.525,2.116,1.616,0.000,0.053,0.000,0.000,0.000,0.000,0.000,0.000,0.000,0.000,0.000,0.000,0.000,3.142,6.033,6.224,1.003,1.569,1.569,4.085,6.281,1.199,4.712,0.000,0.000,-5.035,9.449,0.990,1.435,1.608,1.607,5.688,4.111,4.555,1.587,5.530,5.219,1.644,0.042,1.000,-5.415,9.293,1.137,1.495,1.174,1.074,
144.387,152.904,-5.441,9.988,4.848,0.000,6.268,0.000,1.862,2.369,2.053,1.206,3.949,2.820,4.525,2.116,1.616,0.000,0.053,0.000,0.000,0.000,0.000,0.000,0.000,0.000,0.000,0.000,0.000,0.000,3.142,6.033,6.224,1.003,1.569,1.569,4.085,6.281,1.199,4.712,0.000,0.000,-5.035,9.449,0.990,1.435,1.608,1.607,5.688,4.111,4.555,1.587,5.530,5.219,1.644,0.042,1.000,-5.415,9.293,1.137,1.495,1.174,1.074,
144.500,153.017,-5.441,9.988,4.848,0.000,6.268,0.000,1.862,2.369,2.053,1.206,3.949,2.820,4.525,2.116,1.616,0.000,0.053,0.000,0.000,0.000,0.000,0.000,0.000,0.000,0.000,0.000,0.000,0.000,3.142,6.033,6.224,1.003,1.569,1.569,4.085,6.281,1.199,4.712,0.000,0.000,-5.035,9.449,0.990,1.435,1.608,1.607,5.688,4.111,4.555,1.587,5.530,5.219,1.644,0.042,1.000,-5.415,9.293,1.137,1.495,1.174,1.074,
144.593,153.110,-5.441,9.988,4.848,0.000,6.268,0.000,1.862,2.369,2.053,1.206,3.949,2.820,4.525,2.116,1.616,0.000,0.053,0.000,0.000,0.000,0.000,0.000,0.000,0.000,0.000,0.000,0.000,0.000,3.142,6.033,6.224,1.003,1.569,1.569,4.085,6.281,1.199,4.712,0.000,0.000,-5.035,9.449,0.990,1.435,1.608,1.607,5.688,4.111,4.555,1.587,5.530,5.219,1.644,0.042,1.000,-5.415,9.293,1.137,1.495,1.174,1.074,
144.700,153.217,-5.441,9.988,4.848,-0.001,6.282,0.000,1.862,2.369,2.053,1.206,3.949,2.821,4.525,2.116,1.615,0.000,0.053,0.000,0.000,0.000,0.000,0.000,0.000,0.000,0.000,0.000,0.000,0.000,3.142,6.122,0.030,1.003,1.570,1.570,4.086,6.281,1.199,4.712,0.000,0.000,-5.036,9.448,0.990,1.435,1.610,1.609,5.688,4.111,4.555,1.587,5.530,5.219,1.643,0.042,1.000,-5.415,9.293,1.137,1.496,1.172,1.072,
144.800,153.317,-5.441,9.988,4.848,-0.001,6.282,0.000,1.862,2.369,2.053,1.206,3.949,2.821,4.525,2.116,1.615,0.000,0.053,0.000,0.000,0.000,0.000,0.000,0.000,0.000,0.000,0.000,0.000,0.000,3.142,6.222,0.030,1.003,1.570,1.570,4.086,6.281,1.199,4.712,0.000,0.000,-5.036,9.448,0.990,1.435,1.610,1.609,5.688,4.111,4.555,1.588,5.530,5.219,1.643,0.042,1.000,-5.415,9.293,1.137,1.496,1.172,1.072,
144.881,153.398,-5.441,9.988,4.849,0.000,6.256,0.000,1.862,2.369,2.053,1.206,3.949,2.820,4.525,2.116,1.616,0.000,0.053,0.000,0.000,0.000,0.000,0.000,0.000,0.000,0.000,0.000,0.000,0.000,3.142,6.164,6.234,1.004,1.569,1.569,4.085,6.281,1.199,4.712,0.000,0.000,-5.035,9.449,0.990,1.434,1.606,1.605,5.688,4.111,4.554,1.587,5.530,5.219,1.644,0.042,1.000,-5.415,9.293,1.137,1.495,1.176,1.076,
145.000,153.517,-5.441,9.988,4.848,0.000,6.278,0.000,1.862,2.369,2.053,1.206,3.949,2.821,4.525,2.116,1.615,0.000,0.053,0.000,0.000,0.000,0.000,0.000,0.000,0.000,0.000,0.000,0.000,0.000,3.142,6.105,6.114,1.003,1.570,1.570,4.086,6.281,1.199,4.712,0.000,0.000,-5.035,9.448,0.990,1.435,1.609,1.608,5.688,4.111,4.555,1.587,5.530,5.219,1.644,0.042,1.000,-5.415,9.293,1.137,1.496,1.172,1.072,
145.086,153.603,-5.441,9.988,4.848,-0.001,6.282,0.000,1.862,2.369,2.053,1.206,3.949,2.821,4.525,2.116,1.615,0.000,0.053,0.000,0.000,0.000,0.000,0.000,0.000,0.000,0.000,0.000,0.000,0.000,3.142,6.182,6.034,1.003,1.570,1.570,4.086,6.281,1.199,4.712,0.000,0.000,-5.036,9.448,0.990,1.435,1.610,1.608,5.688,4.111,4.555,1.588,5.530,5.219,1.643,0.042,1.000,-5.415,9.293,1.137,1.496,1.172,1.072,
145.200,153.717,-5.441,9.988,4.848,-0.001,6.282,0.000,1.862,2.369,2.053,1.206,3.949,2.821,4.525,2.116,1.615,0.000,0.053,0.000,0.000,0.000,0.000,0.000,0.000,0.000,0.000,0.000,0.000,0.000,3.142,0.018,5.914,1.003,1.570,1.570,4.086,6.281,1.199,4.712,0.000,0.000,-5.036,9.448,0.990,1.435,1.610,1.608,5.688,4.111,4.555,1.588,5.530,5.219,1.643,0.042,1.000,-5.415,9.293,1.137,1.496,1.172,1.072,
145.287,153.804,-5.441,9.988,4.848,-0.001,6.282,0.000,1.862,2.369,2.053,1.206,3.949,2.821,4.525,2.116,1.615,0.000,0.053,0.000,0.000,0.000,0.000,0.000,0.000,0.000,0.000,0.000,0.000,0.000,3.142,0.119,5.894,1.003,1.570,1.570,4.086,6.281,1.199,4.712,0.000,0.000,-5.036,9.448,0.990,1.435,1.610,1.609,5.688,4.111,4.555,1.588,5.530,5.219,1.643,0.042,1.000,-5.415,9.293,1.137,1.496,1.172,1.072,
145.400,153.917,-5.441,9.988,4.849,0.000,6.256,0.000,1.862,2.369,2.053,1.206,3.949,2.820,4.525,2.116,1.616,0.000,0.053,0.000,0.000,0.000,0.000,0.000,0.000,0.000,0.000,0.000,0.000,0.000,3.142,0.041,5.804,1.004,1.569,1.569,4.085,6.281,1.199,4.712,0.000,0.000,-5.035,9.449,0.990,1.434,1.606,1.605,5.688,4.111,4.554,1.587,5.530,5.219,1.644,0.042,1.000,-5.415,9.293,1.137,1.495,1.176,1.076,
145.489,154.006,-5.441,9.988,4.849,0.000,6.256,0.000,1.862,2.369,2.053,1.206,3.949,2.820,4.525,2.116,1.616,0.000,0.053,0.000,0.000,0.000,0.000,0.000,0.000,0.000,0.000,0.000,0.000,0.000,3.142,6.224,5.804,1.004,1.569,1.569,4.085,6.281,1.199,4.712,0.000,0.000,-5.035,9.449,0.990,1.434,1.606,1.605,5.688,4.111,4.554,1.587,5.530,5.219,1.644,0.042,1.000,-5.415,9.293,1.137,1.495,1.176,1.076,
145.600,154.117,-5.441,9.988,4.849,0.000,6.257,0.000,1.862,2.369,2.053,1.206,3.949,2.820,4.525,2.116,1.616,0.000,0.053,0.000,0.000,0.000,0.000,0.000,0.000,0.000,0.000,0.000,0.000,0.000,3.142,6.183,5.903,1.004,1.569,1.569,4.085,6.281,1.199,4.712,0.000,0.000,-5.035,9.449,0.990,1.434,1.607,1.605,5.688,4.111,4.554,1.587,5.530,5.219,1.644,0.042,1.000,-5.415,9.293,1.137,1.495,1.176,1.076,
145.700,154.217,-5.441,9.988,4.849,0.000,6.256,0.000,1.862,2.369,2.053,1.206,3.949,2.820,4.525,2.116,1.616,0.000,0.053,0.000,0.000,0.000,0.000,0.000,0.000,0.000,0.000,0.000,0.000,0.000,3.142,6.104,5.983,1.004,1.569,1.569,4.085,6.281,1.199,4.712,0.000,0.000,-5.035,9.449,0.990,1.434,1.606,1.605,5.688,4.111,4.554,1.587,5.530,5.219,1.644,0.042,1.000,-5.415,9.293,1.137,1.495,1.176,1.076,
145.800,154.317,-5.441,9.988,4.849,0.000,6.256,0.000,1.862,2.369,2.053,1.206,3.949,2.820,4.525,2.116,1.616,0.000,0.053,0.000,0.000,0.000,0.000,0.000,0.000,0.000,0.000,0.000,0.000,0.000,3.142,5.984,6.103,1.004,1.569,1.569,4.085,6.281,1.199,4.712,0.000,0.000,-5.035,9.449,0.990,1.434,1.606,1.605,5.688,4.111,4.554,1.587,5.530,5.219,1.644,0.042,1.000,-5.415,9.293,1.137,1.495,1.176,1.076,
145.887,154.404,-5.441,9.988,4.849,0.000,6.267,0.000,1.862,2.369,2.053,1.206,3.949,2.820,4.525,2.116,1.616,0.000,0.053,0.000,0.000,0.000,0.000,0.000,0.000,0.000,0.000,0.000,0.000,0.000,3.142,5.954,6.183,1.003,1.569,1.569,4.085,6.281,1.199,4.712,0.000,0.000,-5.035,9.449,0.990,1.435,1.608,1.606,5.688,4.111,4.555,1.587,5.530,5.219,1.644,0.042,1.000,-5.415,9.293,1.137,1.495,1.174,1.074,
146.000,154.517,-5.441,9.988,4.848,0.000,6.268,0.000,1.862,2.369,2.053,1.206,3.949,2.820,4.525,2.116,1.616,0.000,0.053,0.000,0.000,0.000,0.000,0.000,0.000,0.000,0.000,0.000,0.000,0.000,3.142,5.953,0.020,1.003,1.569,1.569,4.085,6.281,1.199,4.712,0.000,0.000,-5.035,9.449,0.990,1.435,1.608,1.607,5.688,4.111,4.555,1.587,5.530,5.219,1.644,0.042,1.000,-5.415,9.293,1.137,1.495,1.174,1.074,
146.083,154.600,-5.441,9.988,4.848,0.000,6.268,0.000,1.862,2.369,2.053,1.206,3.949,2.820,4.525,2.116,1.616,0.000,0.053,0.000,0.000,0.000,0.000,0.000,0.000,0.000,0.000,0.000,0.000,0.000,3.142,5.953,0.100,1.003,1.569,1.569,4.085,6.281,1.199,4.712,0.000,0.000,-5.035,9.449,0.990,1.435,1.608,1.607,5.688,4.111,4.555,1.587,5.530,5.219,1.644,0.042,1.000,-5.415,9.293,1.137,1.495,1.174,1.074,
146.200,154.717,-5.441,9.988,4.848,0.000,6.268,0.000,1.862,2.369,2.053,1.206,3.949,2.820,4.525,2.116,1.616,0.000,0.053,0.000,0.000,0.000,0.000,0.000,0.000,0.000,0.000,0.000,0.000,0.000,3.142,5.953,0.220,1.003,1.569,1.569,4.085,6.281,1.199,4.712,0.000,0.000,-5.035,9.449,0.990,1.435,1.608,1.607,5.688,4.111,4.555,1.587,5.530,5.219,1.644,0.042,1.000,-5.415,9.293,1.137,1.495,1.174,1.074,
146.300,154.817,-5.441,9.988,4.848,0.000,6.268,0.000,1.862,2.369,2.053,1.206,3.949,2.820,4.525,2.116,1.616,0.000,0.053,0.000,0.000,0.000,0.000,0.000,0.000,0.000,0.000,0.000,0.000,0.000,3.142,5.953,0.298,1.003,1.569,1.569,4.085,6.281,1.199,4.712,0.000,0.000,-5.035,9.449,0.990,1.435,1.608,1.607,5.688,4.111,4.555,1.587,5.530,5.219,1.644,0.042,1.000,-5.415,9.293,1.137,1.495,1.174,1.074,
146.400,154.917,-5.441,9.988,4.848,0.000,6.268,0.000,1.862,2.369,2.053,1.206,3.949,2.820,4.525,2.116,1.616,0.000,0.053,0.000,0.000,0.000,0.000,0.000,0.000,0.000,0.000,0.000,0.000,0.000,3.142,5.953,0.301,1.003,1.569,1.569,4.085,6.281,1.199,4.712,0.000,0.000,-5.035,9.449,0.990,1.435,1.608,1.607,5.688,4.111,4.555,1.587,5.530,5.219,1.644,0.042,1.000,-5.415,9.293,1.137,1.495,1.174,1.074,
146.500,155.017,-5.441,9.988,4.848,0.000,6.268,0.000,1.862,2.369,2.053,1.206,3.949,2.820,4.525,2.116,1.616,0.000,0.053,0.000,0.000,0.000,0.000,0.000,0.000,0.000,0.000,0.000,0.000,0.000,3.142,5.953,0.301,1.003,1.569,1.569,4.085,6.281,1.199,4.712,0.000,0.000,-5.035,9.449,0.990,1.435,1.608,1.607,5.688,4.111,4.555,1.587,5.530,5.219,1.644,0.042,1.000,-5.415,9.293,1.137,1.495,1.174,1.074,
146.598,155.115,-5.441,9.988,4.848,0.000,6.268,0.000,1.862,2.369,2.053,1.206,3.949,2.820,4.525,2.116,1.616,0.000,0.053,0.000,0.000,0.000,0.000,0.000,0.000,0.000,0.000,0.000,0.000,0.000,3.142,5.953,0.301,1.003,1.569,1.569,4.085,6.281,1.199,4.712,0.000,0.000,-5.035,9.449,0.990,1.435,1.608,1.607,5.688,4.111,4.555,1.587,5.530,5.219,1.644,0.042,1.000,-5.415,9.293,1.137,1.495,1.174,1.074,
146.700,155.217,-5.441,9.988,4.848,0.000,6.268,0.000,1.862,2.369,2.053,1.206,3.949,2.820,4.525,2.116,1.616,0.000,0.053,0.000,0.000,0.000,0.000,0.000,0.000,0.000,0.000,0.000,0.000,0.000,3.142,5.953,0.301,1.003,1.569,1.569,4.085,6.281,1.199,4.712,0.000,0.000,-5.035,9.449,0.990,1.435,1.608,1.607,5.688,4.111,4.555,1.587,5.530,5.219,1.644,0.042,1.000,-5.415,9.293,1.137,1.495,1.174,1.074,
146.800,155.317,-5.441,9.988,4.849,0.000,6.268,0.000,1.862,2.369,2.053,1.206,3.949,2.820,4.525,2.116,1.616,0.000,0.053,0.000,0.000,0.000,0.000,0.000,0.000,0.000,0.000,0.000,0.000,0.000,3.142,5.953,0.301,1.003,1.569,1.569,4.085,6.281,1.199,4.712,0.000,0.000,-5.035,9.449,0.990,1.435,1.608,1.607,5.688,4.111,4.555,1.587,5.530,5.219,1.644,0.042,1.000,-5.415,9.293,1.137,1.495,1.174,1.074,
146.900,155.417,-5.441,9.988,4.848,-0.001,6.282,0.000,1.862,2.369,2.053,1.206,3.949,2.821,4.525,2.116,1.615,0.000,0.053,0.000,0.000,0.000,0.000,0.000,0.000,0.000,0.000,0.000,0.000,0.000,3.142,6.022,0.231,1.003,1.570,1.570,4.086,6.281,1.199,4.712,0.000,0.000,-5.036,9.448,0.990,1.435,1.610,1.609,5.688,4.111,4.555,1.587,5.530,5.219,1.644,0.042,1.000,-5.415,9.293,1.137,1.496,1.172,1.072,
146.983,155.500,-5.441,9.988,4.848,-0.001,6.282,0.000,1.862,2.369,2.053,1.206,3.949,2.821,4.525,2.116,1.615,0.000,0.053,0.000,0.000,0.000,0.000,0.000,0.000,0.000,0.000,0.000,0.000,0.000,3.142,6.102,0.151,1.003,1.570,1.570,4.086,6.281,1.199,4.712,0.000,0.000,-5.036,9.448,0.990,1.435,1.610,1.609,5.688,4.111,4.555,1.587,5.530,5.219,1.643,0.042,1.000,-5.415,9.293,1.137,1.496,1.172,1.072,
147.100,155.617,-5.441,9.988,4.848,-0.001,6.282,0.000,1.862,2.369,2.053,1.206,3.949,2.821,4.525,2.116,1.615,0.000,0.053,0.000,0.000,0.000,0.000,0.000,0.000,0.000,0.000,0.000,0.000,0.000,3.142,6.222,0.121,1.003,1.570,1.570,4.086,6.281,1.199,4.712,0.000,0.000,-5.036,9.448,0.990,1.435,1.610,1.609,5.688,4.111,4.555,1.588,5.530,5.219,1.643,0.042,1.000,-5.415,9.293,1.137,1.496,1.172,1.072,
147.193,155.710,-5.441,9.988,4.848,-0.001,6.282,0.000,1.862,2.369,2.053,1.206,3.949,2.821,4.525,2.116,1.615,0.000,0.053,0.000,0.000,0.000,0.000,0.000,0.000,0.000,0.000,0.000,0.000,0.000,3.142,0.038,0.081,1.003,1.570,1.570,4.086,6.281,1.199,4.712,0.000,0.000,-5.036,9.448,0.990,1.435,1.610,1.609,5.688,4.111,4.555,1.588,5.530,5.219,1.643,0.042,1.000,-5.415,9.293,1.137,1.496,1.172,1.072,
147.300,155.817,-5.441,9.988,4.848,-0.001,6.282,0.000,1.862,2.369,2.053,1.206,3.949,2.821,4.525,2.116,1.615,0.000,0.053,0.000,0.000,0.000,0.000,0.000,0.000,0.000,0.000,0.000,0.000,0.000,3.142,0.139,0.042,1.003,1.570,1.570,4.086,6.281,1.199,4.712,0.000,0.000,-5.036,9.448,0.990,1.435,1.610,1.609,5.688,4.111,4.555,1.588,5.530,5.219,1.643,0.042,1.000,-5.415,9.293,1.137,1.496,1.172,1.072,
147.400,155.917,-5.441,9.988,4.848,-0.001,6.282,0.000,1.862,2.369,2.053,1.206,3.949,2.821,4.525,2.116,1.615,0.000,0.053,0.000,0.000,0.000,0.000,0.000,0.000,0.000,0.000,0.000,0.000,0.000,3.142,0.239,0.090,1.003,1.570,1.570,4.086,6.281,1.199,4.712,0.000,0.000,-5.036,9.448,0.990,1.435,1.610,1.609,5.688,4.111,4.555,1.588,5.530,5.219,1.643,0.042,1.000,-5.415,9.293,1.137,1.496,1.172,1.072,
147.484,156.001,-5.441,9.988,4.848,-0.001,6.282,0.000,1.862,2.369,2.053,1.206,3.949,2.821,4.525,2.116,1.615,0.000,0.053,0.000,0.000,0.000,0.000,0.000,0.000,0.000,0.000,0.000,0.000,0.000,3.142,0.319,0.090,1.003,1.570,1.570,4.086,6.281,1.199,4.712,0.000,0.000,-5.036,9.448,0.990,1.435,1.610,1.609,5.688,4.111,4.555,1.588,5.530,5.219,1.643,0.042,1.000,-5.415,9.293,1.137,1.496,1.172,1.072,
147.582,156.099,-5.441,9.988,4.849,0.000,6.257,0.000,1.862,2.369,2.053,1.206,3.949,2.820,4.525,2.116,1.616,0.000,0.053,0.000,0.000,0.000,0.000,0.000,0.000,0.000,0.000,0.000,0.000,0.000,3.142,0.299,0.200,1.004,1.569,1.569,4.085,6.281,1.199,4.712,0.000,0.000,-5.035,9.449,0.990,1.434,1.607,1.605,5.688,4.111,4.554,1.587,5.530,5.219,1.644,0.042,1.000,-5.415,9.293,1.137,1.495,1.176,1.076,
147.700,156.217,-5.441,9.988,4.849,0.000,6.256,0.000,1.862,2.369,2.053,1.206,3.949,2.820,4.525,2.116,1.616,0.000,0.053,0.000,0.000,0.000,0.000,0.000,0.000,0.000,0.000,0.000,0.000,0.000,3.142,0.201,0.269,1.004,1.569,1.569,4.085,6.281,1.199,4.712,0.000,0.000,-5.035,9.449,0.990,1.434,1.606,1.605,5.688,4.111,4.554,1.587,5.530,5.219,1.644,0.042,1.000,-5.415,9.293,1.137,1.495,1.176,1.076,
147.786,156.303,-5.441,9.988,4.849,0.000,6.256,0.000,1.862,2.369,2.053,1.206,3.949,2.820,4.525,2.116,1.616,0.000,0.053,0.000,0.000,0.000,0.000,0.000,0.000,0.000,0.000,0.000,0.000,0.000,3.142,0.111,0.201,1.004,1.569,1.569,4.085,6.281,1.199,4.712,0.000,0.000,-5.035,9.449,0.990,1.434,1.606,1.605,5.688,4.111,4.554,1.587,5.530,5.219,1.644,0.042,1.000,-5.415,9.293,1.137,1.495,1.176,1.076,
147.900,156.417,-5.441,9.988,4.849,0.000,6.256,0.000,1.862,2.369,2.053,1.206,3.949,2.820,4.525,2.116,1.616,0.000,0.053,0.000,0.000,0.000,0.000,0.000,0.000,0.000,0.000,0.000,0.000,0.000,3.142,0.011,0.123,1.004,1.569,1.569,4.085,6.281,1.199,4.712,0.000,0.000,-5.035,9.449,0.990,1.434,1.606,1.605,5.688,4.111,4.554,1.587,5.530,5.219,1.644,0.042,1.000,-5.415,9.293,1.137,1.495,1.176,1.076,
148.000,156.517,-5.441,9.988,4.849,0.000,6.256,0.000,1.862,2.369,2.053,1.206,3.949,2.820,4.525,2.116,1.616,0.000,0.053,0.000,0.000,0.000,0.000,0.000,0.000,0.000,0.000,0.000,0.000,0.000,3.142,6.194,0.120,1.004,1.569,1.569,4.085,6.281,1.199,4.712,0.000,0.000,-5.035,9.449,0.990,1.434,1.606,1.605,5.688,4.111,4.554,1.587,5.530,5.219,1.644,0.042,1.000,-5.415,9.293,1.137,1.495,1.176,1.076,
148.100,156.617,-5.441,9.988,4.849,0.000,6.256,0.000,1.862,2.369,2.053,1.206,3.949,2.820,4.525,2.116,1.616,0.000,0.053,0.000,0.000,0.000,0.000,0.000,0.000,0.000,0.000,0.000,0.000,0.000,3.142,6.114,0.051,1.004,1.569,1.569,4.085,6.281,1.199,4.712,0.000,0.000,-5.035,9.449,0.990,1.434,1.606,1.605,5.688,4.111,4.554,1.587,5.530,5.219,1.644,0.042,1.000,-5.415,9.293,1.137,1.495,1.176,1.076,
148.200,156.717,-5.441,9.988,4.848,0.000,6.268,0.000,1.862,2.369,2.053,1.206,3.949,2.820,4.525,2.116,1.616,0.000,0.053,0.000,0.000,0.000,0.000,0.000,0.000,0.000,0.000,0.000,0.000,0.000,3.142,6.083,6.260,1.003,1.569,1.569,4.085,6.281,1.199,4.712,0.000,0.000,-5.035,9.449,0.990,1.435,1.608,1.607,5.688,4.111,4.555,1.587,5.530,5.219,1.644,0.042,1.000,-5.415,9.293,1.137,1.495,1.174,1.074,
148.300,156.816,-5.441,9.988,4.849,0.000,6.256,0.000,1.862,2.369,2.053,1.206,3.949,2.820,4.525,2.116,1.616,0.000,0.053,0.000,0.000,0.000,0.000,0.000,0.000,0.000,0.000,0.000,0.000,0.000,3.142,6.014,6.184,1.004,1.569,1.569,4.085,6.281,1.199,4.712,0.000,0.000,-5.035,9.449,0.990,1.434,1.606,1.605,5.688,4.111,4.554,1.587,5.530,5.219,1.644,0.042,1.000,-5.415,9.293,1.137,1.495,1.176,1.076,
148.400,156.917,-5.441,9.988,4.848,0.000,6.268,0.000,1.862,2.369,2.053,1.206,3.949,2.820,4.525,2.116,1.616,0.000,0.053,0.000,0.000,0.000,0.000,0.000,0.000,0.000,0.000,0.000,0.000,0.000,3.142,6.003,6.125,1.003,1.569,1.569,4.085,6.281,1.199,4.712,0.000,0.000,-5.035,9.449,0.990,1.435,1.608,1.607,5.688,4.111,4.555,1.587,5.530,5.219,1.644,0.042,1.000,-5.415,9.293,1.137,1.495,1.174,1.074,
148.494,157.011,-5.441,9.988,4.848,0.000,6.268,0.000,1.862,2.369,2.053,1.206,3.949,2.820,4.525,2.116,1.616,0.000,0.053,0.000,0.000,0.000,0.000,0.000,0.000,0.000,0.000,0.000,0.000,0.000,3.142,6.003,6.124,1.003,1.569,1.569,4.085,6.281,1.199,4.712,0.000,0.000,-5.035,9.449,0.990,1.435,1.608,1.607,5.688,4.111,4.555,1.587,5.530,5.219,1.644,0.042,1.000,-5.415,9.293,1.137,1.495,1.174,1.074,
148.600,157.117,-5.441,9.988,4.848,0.000,6.268,0.000,1.862,2.369,2.053,1.206,3.949,2.820,4.525,2.116,1.616,0.000,0.053,0.000,0.000,0.000,0.000,0.000,0.000,0.000,0.000,0.000,0.000,0.000,3.142,6.003,6.124,1.003,1.569,1.569,4.085,6.281,1.199,4.712,0.000,0.000,-5.035,9.449,0.990,1.435,1.608,1.607,5.688,4.111,4.555,1.587,5.530,5.219,1.644,0.042,1.000,-5.415,9.293,1.137,1.495,1.174,1.074,
148.700,157.217,-5.441,9.988,4.848,0.000,6.268,0.000,1.862,2.369,2.053,1.206,3.949,2.820,4.525,2.116,1.616,0.000,0.053,0.000,0.000,0.000,0.000,0.000,0.000,0.000,0.000,0.000,0.000,0.000,3.142,6.003,6.124,1.003,1.569,1.569,4.085,6.281,1.199,4.712,0.000,0.000,-5.035,9.449,0.990,1.435,1.608,1.607,5.688,4.111,4.555,1.587,5.530,5.219,1.644,0.042,1.000,-5.415,9.293,1.137,1.495,1.174,1.074,
148.800,157.317,-5.441,9.988,4.848,0.000,6.268,0.000,1.862,2.369,2.053,1.206,3.949,2.820,4.525,2.116,1.616,0.000,0.053,0.000,0.000,0.000,0.000,0.000,0.000,0.000,0.000,0.000,0.000,0.000,3.142,6.003,6.124,1.003,1.569,1.569,4.085,6.281,1.199,4.712,0.000,0.000,-5.035,9.449,0.990,1.435,1.608,1.607,5.688,4.111,4.555,1.587,5.530,5.219,1.644,0.042,1.000,-5.415,9.293,1.137,1.495,1.174,1.074,
148.900,157.417,-5.441,9.988,4.848,0.000,6.268,0.000,1.862,2.369,2.053,1.206,3.949,2.820,4.525,2.116,1.616,0.000,0.053,0.000,0.000,0.000,0.000,0.000,0.000,0.000,0.000,0.000,0.000,0.000,3.142,6.003,6.124,1.003,1.569,1.569,4.085,6.281,1.199,4.712,0.000,0.000,-5.035,9.449,0.990,1.435,1.608,1.607,5.688,4.111,4.555,1.587,5.530,5.219,1.644,0.042,1.000,-5.415,9.293,1.137,1.495,1.174,1.074,
148.983,157.500,-5.441,9.988,4.848,0.000,6.268,0.000,1.862,2.369,2.053,1.206,3.949,2.820,4.525,2.116,1.616,0.000,0.053,0.000,0.000,0.000,0.000,0.000,0.000,0.000,0.000,0.000,0.000,0.000,3.142,6.003,6.124,1.003,1.569,1.569,4.085,6.281,1.199,4.712,0.000,0.000,-5.035,9.449,0.990,1.435,1.608,1.607,5.688,4.111,4.555,1.587,5.530,5.219,1.644,0.042,1.000,-5.415,9.293,1.137,1.495,1.174,1.074,
149.100,157.617,-5.441,9.988,4.848,0.000,6.268,0.000,1.862,2.369,2.053,1.206,3.949,2.820,4.525,2.116,1.616,0.000,0.053,0.000,0.000,0.000,0.000,0.000,0.000,0.000,0.000,0.000,0.000,0.000,3.142,6.003,6.124,1.003,1.569,1.569,4.085,6.281,1.199,4.712,0.000,0.000,-5.035,9.449,0.990,1.435,1.608,1.607,5.688,4.111,4.555,1.587,5.530,5.219,1.644,0.042,1.000,-5.415,9.293,1.137,1.495,1.174,1.074,
149.200,157.717,-5.441,9.988,4.848,0.000,6.268,0.000,1.862,2.369,2.053,1.206,3.949,2.820,4.525,2.116,1.616,0.000,0.053,0.000,0.000,0.000,0.000,0.000,0.000,0.000,0.000,0.000,0.000,0.000,3.142,6.003,6.124,1.003,1.569,1.569,4.085,6.281,1.199,4.712,0.000,0.000,-5.035,9.449,0.990,1.435,1.608,1.607,5.688,4.111,4.555,1.587,5.530,5.219,1.644,0.042,1.000,-5.415,9.293,1.137,1.495,1.174,1.074,
149.300,157.817,-5.441,9.988,4.848,0.000,6.268,0.000,1.862,2.369,2.053,1.206,3.949,2.820,4.525,2.116,1.616,0.000,0.053,0.000,0.000,0.000,0.000,0.000,0.000,0.000,0.000,0.000,0.000,0.000,3.142,6.003,6.124,1.003,1.569,1.569,4.085,6.281,1.199,4.712,0.000,0.000,-5.035,9.449,0.990,1.435,1.608,1.607,5.688,4.111,4.555,1.587,5.530,5.219,1.644,0.042,1.000,-5.415,9.293,1.137,1.495,1.174,1.074,
149.398,157.915,-5.441,9.988,4.848,0.000,6.268,0.000,1.862,2.369,2.053,1.206,3.949,2.820,4.525,2.116,1.616,0.000,0.053,0.000,0.000,0.000,0.000,0.000,0.000,0.000,0.000,0.000,0.000,0.000,3.142,6.003,6.124,1.003,1.569,1.569,4.085,6.281,1.199,4.712,0.000,0.000,-5.035,9.449,0.990,1.435,1.608,1.607,5.688,4.111,4.555,1.587,5.530,5.219,1.644,0.042,1.000,-5.415,9.293,1.137,1.495,1.174,1.074,
149.500,158.017,-5.441,9.988,4.848,0.000,6.268,0.000,1.862,2.369,2.053,1.206,3.949,2.820,4.525,2.116,1.616,0.000,0.053,0.000,0.000,0.000,0.000,0.000,0.000,0.000,0.000,0.000,0.000,0.000,3.142,6.003,6.124,1.003,1.569,1.569,4.085,6.281,1.199,4.712,0.000,0.000,-5.035,9.449,0.990,1.435,1.608,1.607,5.688,4.111,4.555,1.587,5.530,5.219,1.644,0.042,1.000,-5.415,9.293,1.137,1.495,1.174,1.074,
149.599,158.116,-5.441,9.988,4.848,0.000,6.268,0.000,1.862,2.369,2.053,1.206,3.949,2.820,4.525,2.116,1.616,0.000,0.053,0.000,0.000,0.000,0.000,0.000,0.000,0.000,0.000,0.000,0.000,0.000,3.142,6.003,6.124,1.003,1.569,1.569,4.085,6.281,1.199,4.712,0.000,0.000,-5.035,9.449,0.990,1.435,1.608,1.607,5.688,4.111,4.555,1.587,5.530,5.219,1.644,0.042,1.000,-5.415,9.293,1.137,1.495,1.174,1.074,
149.700,158.217,-5.441,9.988,4.848,0.000,6.268,0.000,1.862,2.369,2.053,1.206,3.949,2.820,4.525,2.116,1.616,0.000,0.053,0.000,0.000,0.000,0.000,0.000,0.000,0.000,0.000,0.000,0.000,0.000,3.142,6.003,6.124,1.003,1.569,1.569,4.085,6.281,1.199,4.712,0.000,0.000,-5.035,9.449,0.990,1.435,1.608,1.607,5.688,4.111,4.555,1.587,5.530,5.219,1.644,0.042,1.000,-5.415,9.293,1.137,1.495,1.174,1.074,
149.800,158.317,-5.441,9.988,4.848,0.000,6.268,0.000,1.862,2.369,2.053,1.206,3.949,2.820,4.525,2.116,1.616,0.000,0.053,0.000,0.000,0.000,0.000,0.000,0.000,0.000,0.000,0.000,0.000,0.000,3.142,6.003,6.124,1.003,1.569,1.569,4.085,6.281,1.199,4.712,0.000,0.000,-5.035,9.449,0.990,1.435,1.608,1.607,5.688,4.111,4.555,1.587,5.530,5.219,1.644,0.042,1.000,-5.415,9.293,1.137,1.495,1.174,1.074,
149.895,158.412,-5.441,9.988,4.848,0.000,6.268,0.000,1.862,2.369,2.053,1.206,3.949,2.820,4.525,2.116,1.616,0.000,0.053,0.000,0.000,0.000,0.000,0.000,0.000,0.000,0.000,0.000,0.000,0.000,3.142,6.003,6.124,1.003,1.569,1.569,4.085,6.281,1.199,4.712,0.000,0.000,-5.035,9.449,0.990,1.435,1.608,1.607,5.688,4.111,4.555,1.587,5.530,5.219,1.644,0.042,1.000,-5.415,9.293,1.137,1.495,1.174,1.074,
150.000,158.517,-5.441,9.988,4.848,0.000,6.268,0.000,1.862,2.369,2.053,1.206,3.949,2.820,4.525,2.116,1.616,0.000,0.053,0.000,0.000,0.000,0.000,0.000,0.000,0.000,0.000,0.000,0.000,0.000,3.142,6.003,6.124,1.003,1.569,1.569,4.085,6.281,1.199,4.712,0.000,0.000,-5.035,9.449,0.990,1.435,1.608,1.607,5.688,4.111,4.555,1.587,5.530,5.219,1.644,0.042,1.000,-5.415,9.293,1.137,1.495,1.174,1.074,
150.100,158.617,-5.441,9.988,4.848,0.000,6.268,0.000,1.862,2.369,2.053,1.206,3.949,2.820,4.525,2.116,1.616,0.000,0.053,0.000,0.000,0.000,0.000,0.000,0.000,0.000,0.000,0.000,0.000,0.000,3.142,6.003,6.124,1.003,1.569,1.569,4.085,6.281,1.199,4.712,0.000,0.000,-5.035,9.449,0.990,1.435,1.608,1.607,5.688,4.111,4.555,1.587,5.530,5.219,1.644,0.042,1.000,-5.415,9.293,1.137,1.495,1.174,1.074,
150.182,158.699,-5.441,9.988,4.848,0.000,6.268,0.000,1.862,2.369,2.053,1.206,3.949,2.820,4.525,2.116,1.616,0.000,0.053,0.000,0.000,0.000,0.000,0.000,0.000,0.000,0.000,0.000,0.000,0.000,3.142,6.003,6.124,1.003,1.569,1.569,4.085,6.281,1.199,4.712,0.000,0.000,-5.035,9.449,0.990,1.435,1.608,1.607,5.688,4.111,4.555,1.587,5.530,5.219,1.644,0.042,1.000,-5.415,9.293,1.137,1.495,1.174,1.074,
150.300,158.817,-5.441,9.988,4.848,0.000,6.268,0.000,1.862,2.369,2.053,1.206,3.949,2.820,4.525,2.116,1.616,0.000,0.053,0.000,0.000,0.000,0.000,0.000,0.000,0.000,0.000,0.000,0.000,0.000,3.142,6.003,6.124,1.003,1.569,1.569,4.085,6.281,1.199,4.712,0.000,0.000,-5.035,9.449,0.990,1.435,1.608,1.607,5.688,4.111,4.555,1.587,5.530,5.219,1.644,0.042,1.000,-5.415,9.293,1.137,1.495,1.174,1.074,
150.383,158.900,-5.441,9.988,4.849,0.000,6.268,0.000,1.862,2.369,2.053,1.206,3.949,2.820,4.525,2.116,1.616,0.000,0.053,0.000,0.000,0.000,0.000,0.000,0.000,0.000,0.000,0.000,0.000,0.000,3.142,6.003,6.124,1.003,1.569,1.569,4.085,6.281,1.199,4.712,0.000,0.000,-5.035,9.449,0.990,1.435,1.608,1.607,5.688,4.111,4.555,1.587,5.530,5.219,1.644,0.042,1.000,-5.415,9.293,1.137,1.495,1.174,1.074,
150.500,159.017,-5.441,9.988,4.848,0.000,6.268,0.000,1.862,2.369,2.053,1.206,3.949,2.820,4.525,2.116,1.616,0.000,0.053,0.000,0.000,0.000,0.000,0.000,0.000,0.000,0.000,0.000,0.000,0.000,3.142,6.003,6.124,1.003,1.569,1.569,4.085,6.281,1.199,4.712,0.000,0.000,-5.035,9.449,0.990,1.435,1.608,1.607,5.688,4.111,4.555,1.587,5.530,5.219,1.644,0.042,1.000,-5.415,9.293,1.137,1.495,1.174,1.074,
150.600,159.117,-5.441,9.988,4.848,0.000,6.268,0.000,1.862,2.369,2.053,1.206,3.949,2.820,4.525,2.116,1.616,0.000,0.053,0.000,0.000,0.000,0.000,0.000,0.000,0.000,0.000,0.000,0.000,0.000,3.142,6.003,6.124,1.003,1.569,1.569,4.085,6.281,1.199,4.712,0.000,0.000,-5.035,9.449,0.990,1.435,1.608,1.607,5.688,4.111,4.555,1.587,5.530,5.219,1.644,0.042,1.000,-5.415,9.293,1.137,1.495,1.174,1.074,
150.700,159.217,-5.441,9.988,4.848,0.000,6.268,0.000,1.862,2.369,2.053,1.206,3.949,2.820,4.525,2.116,1.616,0.000,0.053,0.000,0.000,0.000,0.000,0.000,0.000,0.000,0.000,0.000,0.000,0.000,3.142,6.003,6.124,1.003,1.569,1.569,4.085,6.281,1.199,4.712,0.000,0.000,-5.035,9.449,0.990,1.435,1.608,1.607,5.688,4.111,4.555,1.587,5.530,5.219,1.644,0.042,1.000,-5.415,9.293,1.137,1.495,1.174,1.074,
150.793,159.310,-5.441,9.988,4.848,0.000,6.268,0.000,1.862,2.369,2.053,1.206,3.949,2.820,4.525,2.116,1.616,0.000,0.053,0.000,0.000,0.000,0.000,0.000,0.000,0.000,0.000,0.000,0.000,0.000,3.142,6.003,6.124,1.003,1.569,1.569,4.085,6.281,1.199,4.712,0.000,0.000,-5.035,9.449,0.990,1.435,1.608,1.607,5.688,4.111,4.555,1.587,5.530,5.219,1.644,0.042,1.000,-5.415,9.293,1.137,1.495,1.174,1.074,
150.900,159.417,-5.441,9.988,4.848,0.000,6.268,0.000,1.862,2.369,2.053,1.206,3.949,2.820,4.525,2.116,1.616,0.000,0.053,0.000,0.000,0.000,0.000,0.000,0.000,0.000,0.000,0.000,0.000,0.000,3.142,6.003,6.124,1.003,1.569,1.569,4.085,6.281,1.199,4.712,0.000,0.000,-5.035,9.449,0.990,1.435,1.608,1.607,5.688,4.111,4.555,1.587,5.530,5.219,1.644,0.042,1.000,-5.415,9.293,1.137,1.495,1.174,1.074,
150.982,159.499,-5.441,9.988,4.848,0.000,6.268,0.000,1.862,2.369,2.053,1.206,3.949,2.820,4.525,2.116,1.616,0.000,0.053,0.000,0.000,0.000,0.000,0.000,0.000,0.000,0.000,0.000,0.000,0.000,3.142,6.003,6.124,1.003,1.569,1.569,4.085,6.281,1.199,4.712,0.000,0.000,-5.035,9.449,0.990,1.435,1.608,1.607,5.688,4.111,4.555,1.587,5.530,5.219,1.644,0.042,1.000,-5.415,9.293,1.137,1.495,1.174,1.074,
151.100,159.617,-5.441,9.988,4.848,0.000,6.268,0.000,1.862,2.369,2.053,1.206,3.949,2.820,4.525,2.116,1.616,0.000,0.053,0.000,0.000,0.000,0.000,0.000,0.000,0.000,0.000,0.000,0.000,0.000,3.142,6.003,6.124,1.003,1.569,1.569,4.085,6.281,1.199,4.712,0.000,0.000,-5.035,9.449,0.990,1.435,1.608,1.607,5.688,4.111,4.555,1.587,5.530,5.219,1.644,0.042,1.000,-5.415,9.293,1.137,1.495,1.174,1.074,
151.187,159.704,-5.441,9.988,4.848,0.000,6.268,0.000,1.862,2.369,2.053,1.206,3.949,2.820,4.525,2.116,1.616,0.000,0.053,0.000,0.000,0.000,0.000,0.000,0.000,0.000,0.000,0.000,0.000,0.000,3.142,6.003,6.124,1.003,1.569,1.569,4.085,6.281,1.199,4.712,0.000,0.000,-5.035,9.449,0.990,1.435,1.608,1.607,5.688,4.111,4.555,1.587,5.530,5.219,1.644,0.042,1.000,-5.415,9.293,1.137,1.495,1.174,1.074,
151.300,159.817,-5.441,9.988,4.848,0.000,6.268,0.000,1.862,2.369,2.053,1.206,3.949,2.820,4.525,2.116,1.616,0.000,0.053,0.000,0.000,0.000,0.000,0.000,0.000,0.000,0.000,0.000,0.000,0.000,3.142,6.003,6.124,1.003,1.569,1.569,4.085,6.281,1.199,4.712,0.000,0.000,-5.035,9.449,0.990,1.435,1.608,1.607,5.688,4.111,4.555,1.587,5.530,5.219,1.644,0.042,1.000,-5.415,9.293,1.137,1.495,1.174,1.074,
151.392,159.909,-5.441,9.988,4.848,0.000,6.268,0.000,1.862,2.369,2.053,1.206,3.949,2.820,4.525,2.116,1.616,0.000,0.053,0.000,0.000,0.000,0.000,0.000,0.000,0.000,0.000,0.000,0.000,0.000,3.142,6.003,6.124,1.003,1.569,1.569,4.085,6.281,1.199,4.712,0.000,0.000,-5.035,9.449,0.990,1.435,1.608,1.607,5.688,4.111,4.555,1.587,5.530,5.219,1.644,0.042,1.000,-5.415,9.293,1.137,1.495,1.174,1.074,
151.500,160.017,-5.441,9.988,4.848,0.000,6.268,0.000,1.862,2.369,2.053,1.206,3.949,2.820,4.525,2.116,1.616,0.000,0.053,0.000,0.000,0.000,0.000,0.000,0.000,0.000,0.000,0.000,0.000,0.000,3.142,6.003,6.124,1.003,1.569,1.569,4.085,6.281,1.199,4.712,0.000,0.000,-5.035,9.449,0.990,1.435,1.608,1.607,5.688,4.111,4.555,1.587,5.530,5.219,1.644,0.042,1.000,-5.415,9.293,1.137,1.495,1.174,1.074,
151.593,160.110,-5.441,9.988,4.848,0.000,6.268,0.000,1.862,2.369,2.053,1.206,3.949,2.820,4.525,2.116,1.616,0.000,0.053,0.000,0.000,0.000,0.000,0.000,0.000,0.000,0.000,0.000,0.000,0.000,3.142,6.003,6.124,1.003,1.569,1.569,4.085,6.281,1.199,4.712,0.000,0.000,-5.035,9.449,0.990,1.435,1.608,1.607,5.688,4.111,4.555,1.587,5.530,5.219,1.644,0.042,1.000,-5.415,9.293,1.137,1.495,1.174,1.074,
151.700,160.217,-5.441,9.988,4.848,0.000,6.268,0.000,1.862,2.369,2.053,1.206,3.949,2.820,4.525,2.116,1.616,0.000,0.053,0.000,0.000,0.000,0.000,0.000,0.000,0.000,0.000,0.000,0.000,0.000,3.142,6.003,6.124,1.003,1.569,1.569,4.085,6.281,1.199,4.712,0.000,0.000,-5.035,9.449,0.990,1.435,1.608,1.607,5.688,4.111,4.555,1.587,5.530,5.219,1.644,0.042,1.000,-5.415,9.293,1.137,1.495,1.174,1.074,
151.798,160.314,-5.441,9.988,4.848,0.000,6.268,0.000,1.862,2.369,2.053,1.206,3.949,2.820,4.525,2.116,1.616,0.000,0.053,0.000,0.000,0.000,0.000,0.000,0.000,0.000,0.000,0.000,0.000,0.000,3.142,6.003,6.124,1.003,1.569,1.569,4.085,6.281,1.199,4.712,0.000,0.000,-5.035,9.449,0.990,1.435,1.608,1.607,5.688,4.111,4.555,1.587,5.530,5.219,1.644,0.042,1.000,-5.415,9.293,1.137,1.495,1.174,1.074,
151.900,160.417,-5.441,9.988,4.848,0.000,6.268,0.000,1.862,2.369,2.053,1.206,3.949,2.820,4.525,2.116,1.616,0.000,0.053,0.000,0.000,0.000,0.000,0.000,0.000,0.000,0.000,0.000,0.000,0.000,3.142,6.003,6.124,1.003,1.569,1.569,4.085,6.281,1.199,4.712,0.000,0.000,-5.035,9.449,0.990,1.435,1.608,1.607,5.688,4.111,4.555,1.587,5.530,5.219,1.644,0.042,1.000,-5.415,9.293,1.137,1.495,1.174,1.074,
152.000,160.516,-5.441,9.988,4.848,0.000,6.268,0.000,1.862,2.369,2.053,1.206,3.949,2.820,4.525,2.116,1.616,0.000,0.053,0.000,0.000,0.000,0.000,0.000,0.000,0.000,0.000,0.000,0.000,0.000,3.142,6.003,6.124,1.003,1.569,1.569,4.085,6.281,1.199,4.712,0.000,0.000,-5.035,9.449,0.990,1.435,1.608,1.607,5.688,4.111,4.555,1.587,5.530,5.219,1.644,0.042,1.000,-5.415,9.293,1.137,1.495,1.174,1.074,
152.100,160.617,-5.441,9.988,4.848,0.000,6.268,0.000,1.862,2.369,2.053,1.206,3.949,2.820,4.525,2.116,1.616,0.000,0.053,0.000,0.000,0.000,0.000,0.000,0.000,0.000,0.000,0.000,0.000,0.000,3.142,6.003,6.124,1.003,1.569,1.569,4.085,6.281,1.199,4.712,0.000,0.000,-5.035,9.449,0.990,1.435,1.608,1.607,5.688,4.111,4.555,1.587,5.530,5.219,1.644,0.042,1.000,-5.415,9.293,1.137,1.495,1.174,1.074,
152.200,160.717,-5.441,9.988,4.848,0.000,6.268,0.000,1.862,2.369,2.053,1.206,3.949,2.820,4.525,2.116,1.616,0.000,0.053,0.000,0.000,0.000,0.000,0.000,0.000,0.000,0.000,0.000,0.000,0.000,3.142,6.003,6.124,1.003,1.569,1.569,4.085,6.281,1.199,4.712,0.000,0.000,-5.035,9.449,0.990,1.435,1.608,1.607,5.688,4.111,4.555,1.587,5.530,5.219,1.644,0.042,1.000,-5.415,9.293,1.137,1.495,1.174,1.074,
152.300,160.817,-5.441,9.988,4.848,0.000,6.268,0.000,1.862,2.369,2.053,1.206,3.949,2.820,4.525,2.116,1.616,0.000,0.053,0.000,0.000,0.000,0.000,0.000,0.000,0.000,0.000,0.000,0.000,0.000,3.142,6.003,6.124,1.003,1.569,1.569,4.085,6.281,1.199,4.712,0.000,0.000,-5.035,9.449,0.990,1.435,1.608,1.607,5.688,4.111,4.555,1.587,5.530,5.219,1.644,0.042,1.000,-5.415,9.293,1.137,1.495,1.174,1.074,
152.400,160.917,-5.441,9.988,4.848,0.000,6.268,0.000,1.862,2.369,2.053,1.206,3.949,2.820,4.525,2.116,1.616,0.000,0.053,0.000,0.000,0.000,0.000,0.000,0.000,0.000,0.000,0.000,0.000,0.000,3.142,6.003,6.124,1.003,1.569,1.569,4.085,6.281,1.199,4.712,0.000,0.000,-5.035,9.449,0.990,1.435,1.608,1.607,5.688,4.111,4.555,1.587,5.530,5.219,1.644,0.042,1.000,-5.415,9.293,1.137,1.495,1.174,1.074,
152.498,161.015,-5.441,9.988,4.848,0.000,6.268,0.000,1.862,2.369,2.053,1.206,3.949,2.820,4.525,2.116,1.616,0.000,0.053,0.000,0.000,0.000,0.000,0.000,0.000,0.000,0.000,0.000,0.000,0.000,3.142,6.003,6.124,1.003,1.569,1.569,4.085,6.281,1.199,4.712,0.000,0.000,-5.035,9.449,0.990,1.435,1.608,1.607,5.688,4.111,4.555,1.587,5.530,5.219,1.644,0.042,1.000,-5.415,9.293,1.137,1.495,1.174,1.074,
152.600,161.117,-5.441,9.988,4.848,0.000,6.268,0.000,1.862,2.369,2.053,1.206,3.949,2.820,4.525,2.116,1.616,0.000,0.053,0.000,0.000,0.000,0.000,0.000,0.000,0.000,0.000,0.000,0.000,0.000,3.142,6.003,6.124,1.003,1.569,1.569,4.085,6.281,1.199,4.712,0.000,0.000,-5.035,9.449,0.990,1.435,1.608,1.607,5.688,4.111,4.555,1.587,5.530,5.219,1.644,0.042,1.000,-5.415,9.293,1.137,1.495,1.174,1.074,
152.693,161.209,-5.441,9.988,4.849,0.000,6.268,0.000,1.862,2.369,2.053,1.206,3.949,2.820,4.525,2.116,1.616,0.000,0.053,0.000,0.000,0.000,0.000,0.000,0.000,0.000,0.000,0.000,0.000,0.000,3.142,6.003,6.124,1.003,1.569,1.569,4.085,6.281,1.199,4.712,0.000,0.000,-5.035,9.449,0.990,1.435,1.608,1.607,5.688,4.111,4.555,1.587,5.530,5.219,1.644,0.042,1.000,-5.415,9.293,1.137,1.495,1.174,1.074,
152.800,161.317,-5.441,9.988,4.848,0.000,6.268,0.000,1.862,2.369,2.053,1.206,3.949,2.820,4.525,2.116,1.616,0.000,0.053,0.000,0.000,0.000,0.000,0.000,0.000,0.000,0.000,0.000,0.000,0.000,3.142,6.003,6.124,1.003,1.569,1.569,4.085,6.281,1.199,4.712,0.000,0.000,-5.035,9.449,0.990,1.435,1.608,1.607,5.688,4.111,4.555,1.587,5.530,5.219,1.644,0.042,1.000,-5.415,9.293,1.137,1.495,1.174,1.074,
152.898,161.414,-5.441,9.988,4.848,0.000,6.268,0.000,1.862,2.369,2.053,1.206,3.949,2.820,4.525,2.116,1.616,0.000,0.053,0.000,0.000,0.000,0.000,0.000,0.000,0.000,0.000,0.000,0.000,0.000,3.142,6.003,6.124,1.003,1.569,1.569,4.085,6.281,1.199,4.712,0.000,0.000,-5.035,9.449,0.990,1.435,1.608,1.607,5.688,4.111,4.555,1.587,5.530,5.219,1.644,0.042,1.000,-5.415,9.293,1.137,1.495,1.174,1.074,
153.000,161.517,-5.441,9.988,4.848,0.000,6.268,0.000,1.862,2.369,2.053,1.206,3.949,2.820,4.525,2.116,1.616,0.000,0.053,0.000,0.000,0.000,0.000,0.000,0.000,0.000,0.000,0.000,0.000,0.000,3.142,6.003,6.124,1.003,1.569,1.569,4.085,6.281,1.199,4.712,0.000,0.000,-5.035,9.449,0.990,1.435,1.608,1.607,5.688,4.111,4.555,1.587,5.530,5.219,1.644,0.042,1.000,-5.415,9.293,1.137,1.495,1.174,1.074,
153.100,161.617,-5.441,9.988,4.848,0.000,6.268,0.000,1.862,2.369,2.053,1.206,3.949,2.820,4.525,2.116,1.616,0.000,0.053,0.000,0.000,0.000,0.000,0.000,0.000,0.000,0.000,0.000,0.000,0.000,3.142,6.003,6.124,1.003,1.569,1.569,4.085,6.281,1.199,4.712,0.000,0.000,-5.035,9.449,0.990,1.435,1.608,1.607,5.688,4.111,4.555,1.587,5.530,5.219,1.644,0.042,1.000,-5.415,9.293,1.137,1.495,1.174,1.074,
153.200,161.717,-5.441,9.988,4.848,0.000,6.268,0.000,1.862,2.369,2.053,1.206,3.949,2.820,4.525,2.116,1.616,0.000,0.053,0.000,0.000,0.000,0.000,0.000,0.000,0.000,0.000,0.000,0.000,0.000,3.142,6.003,6.124,1.003,1.569,1.569,4.085,6.281,1.199,4.712,0.000,0.000,-5.035,9.449,0.990,1.435,1.608,1.607,5.688,4.111,4.555,1.587,5.530,5.219,1.644,0.042,1.000,-5.415,9.293,1.137,1.495,1.174,1.074,
153.300,161.817,-5.441,9.988,4.848,0.000,6.268,0.000,1.862,2.369,2.053,1.206,3.949,2.820,4.525,2.116,1.616,0.000,0.053,0.000,0.000,0.000,0.000,0.000,0.000,0.000,0.000,0.000,0.000,0.000,3.142,6.003,6.124,1.003,1.569,1.569,4.085,6.281,1.199,4.712,0.000,0.000,-5.035,9.449,0.990,1.435,1.608,1.607,5.688,4.111,4.555,1.587,5.530,5.219,1.644,0.042,1.000,-5.415,9.293,1.137,1.495,1.174,1.074,
153.400,161.917,-5.441,9.988,4.848,0.000,6.268,0.000,1.862,2.369,2.053,1.206,3.949,2.820,4.525,2.116,1.616,0.000,0.053,0.000,0.000,0.000,0.000,0.000,0.000,0.000,0.000,0.000,0.000,0.000,3.142,6.003,6.124,1.003,1.569,1.569,4.085,6.281,1.199,4.712,0.000,0.000,-5.035,9.449,0.990,1.435,1.608,1.607,5.688,4.111,4.555,1.587,5.530,5.219,1.644,0.042,1.000,-5.415,9.293,1.137,1.495,1.174,1.074,
153.500,162.017,-5.441,9.988,4.848,0.000,6.268,0.000,1.862,2.369,2.053,1.206,3.949,2.820,4.525,2.116,1.616,0.000,0.053,0.000,0.000,0.000,0.000,0.000,0.000,0.000,0.000,0.000,0.000,0.000,3.142,6.003,6.124,1.003,1.569,1.569,4.085,6.281,1.199,4.712,0.000,0.000,-5.035,9.449,0.990,1.435,1.608,1.607,5.688,4.111,4.555,1.587,5.530,5.219,1.644,0.042,1.000,-5.415,9.293,1.137,1.495,1.174,1.074,
153.600,162.117,-5.441,9.988,4.848,0.000,6.268,0.000,1.862,2.369,2.053,1.206,3.949,2.820,4.525,2.116,1.616,0.000,0.053,0.000,0.000,0.000,0.000,0.000,0.000,0.000,0.000,0.000,0.000,0.000,3.142,6.003,6.124,1.003,1.569,1.569,4.085,6.281,1.199,4.712,0.000,0.000,-5.035,9.449,0.990,1.435,1.608,1.607,5.688,4.111,4.555,1.587,5.530,5.219,1.644,0.042,1.000,-5.415,9.293,1.137,1.495,1.174,1.074,
153.700,162.217,-5.441,9.988,4.848,0.000,6.268,0.000,1.862,2.369,2.053,1.206,3.949,2.820,4.525,2.116,1.616,0.000,0.053,0.000,0.000,0.000,0.000,0.000,0.000,0.000,0.000,0.000,0.000,0.000,3.142,6.003,6.124,1.003,1.569,1.569,4.085,6.281,1.199,4.712,0.000,0.000,-5.035,9.449,0.990,1.435,1.608,1.607,5.688,4.111,4.555,1.587,5.530,5.219,1.644,0.042,1.000,-5.415,9.293,1.137,1.495,1.174,1.074,
153.783,162.300,-5.441,9.988,4.848,0.000,6.268,0.000,1.862,2.369,2.053,1.206,3.949,2.820,4.525,2.116,1.616,0.000,0.053,0.000,0.000,0.000,0.000,0.000,0.000,0.000,0.000,0.000,0.000,0.000,3.142,6.003,6.124,1.003,1.569,1.569,4.085,6.281,1.199,4.712,0.000,0.000,-5.035,9.449,0.990,1.435,1.608,1.607,5.688,4.111,4.555,1.587,5.530,5.219,1.644,0.042,1.000,-5.415,9.293,1.137,1.495,1.174,1.074,
153.900,162.417,-5.441,9.988,4.848,0.000,6.268,0.000,1.862,2.369,2.053,1.206,3.949,2.820,4.525,2.116,1.616,0.000,0.053,0.000,0.000,0.000,0.000,0.000,0.000,0.000,0.000,0.000,0.000,0.000,3.142,6.003,6.124,1.003,1.569,1.569,4.085,6.281,1.199,4.712,0.000,0.000,-5.035,9.449,0.990,1.435,1.608,1.607,5.688,4.111,4.555,1.587,5.530,5.219,1.644,0.042,1.000,-5.415,9.293,1.137,1.495,1.174,1.074,
153.986,162.502,-5.441,9.988,4.848,0.000,6.268,0.000,1.862,2.369,2.053,1.206,3.949,2.820,4.525,2.116,1.616,0.000,0.053,0.000,0.000,0.000,0.000,0.000,0.000,0.000,0.000,0.000,0.000,0.000,3.142,6.003,6.124,1.003,1.569,1.569,4.085,6.281,1.199,4.712,0.000,0.000,-5.035,9.449,0.990,1.435,1.608,1.607,5.688,4.111,4.555,1.587,5.530,5.219,1.644,0.042,1.000,-5.415,9.293,1.137,1.495,1.174,1.074,
154.100,162.617,-5.441,9.988,4.848,0.000,6.268,0.000,1.862,2.369,2.053,1.206,3.949,2.820,4.525,2.116,1.616,0.000,0.053,0.000,0.000,0.000,0.000,0.000,0.000,0.000,0.000,0.000,0.000,0.000,3.142,6.003,6.124,1.003,1.569,1.569,4.085,6.281,1.199,4.712,0.000,0.000,-5.035,9.449,0.990,1.435,1.608,1.607,5.688,4.111,4.555,1.587,5.530,5.219,1.644,0.042,1.000,-5.415,9.293,1.137,1.495,1.174,1.074,
154.198,162.715,-5.441,9.988,4.848,0.000,6.268,0.000,1.862,2.369,2.053,1.206,3.949,2.820,4.525,2.116,1.616,0.000,0.053,0.000,0.000,0.000,0.000,0.000,0.000,0.000,0.000,0.000,0.000,0.000,3.142,6.003,6.124,1.003,1.569,1.569,4.085,6.281,1.199,4.712,0.000,0.000,-5.035,9.449,0.990,1.435,1.608,1.607,5.688,4.111,4.555,1.587,5.530,5.219,1.644,0.042,1.000,-5.415,9.293,1.137,1.495,1.174,1.074,
154.300,162.817,-5.441,9.988,4.848,0.000,6.268,0.000,1.862,2.369,2.053,1.206,3.949,2.820,4.525,2.116,1.616,0.000,0.053,0.000,0.000,0.000,0.000,0.000,0.000,0.000,0.000,0.000,0.000,0.000,3.142,6.003,6.124,1.003,1.569,1.569,4.085,6.281,1.199,4.712,0.000,0.000,-5.035,9.449,0.990,1.435,1.608,1.607,5.688,4.111,4.555,1.587,5.530,5.219,1.644,0.042,1.000,-5.415,9.293,1.137,1.495,1.174,1.074,
154.400,162.917,-5.441,9.988,4.848,0.000,6.268,0.000,1.862,2.369,2.053,1.206,3.949,2.820,4.525,2.116,1.616,0.000,0.053,0.000,0.000,0.000,0.000,0.000,0.000,0.000,0.000,0.000,0.000,0.000,3.142,6.003,6.124,1.003,1.569,1.569,4.085,6.281,1.199,4.712,0.000,0.000,-5.035,9.449,0.990,1.435,1.608,1.607,5.688,4.111,4.555,1.587,5.530,5.219,1.644,0.042,1.000,-5.415,9.293,1.137,1.495,1.174,1.074,
154.500,163.017,-5.441,9.988,4.849,0.000,6.268,0.000,1.862,2.369,2.053,1.206,3.949,2.820,4.525,2.116,1.616,0.000,0.053,0.000,0.000,0.000,0.000,0.000,0.000,0.000,0.000,0.000,0.000,0.000,3.142,6.003,6.124,1.003,1.569,1.569,4.085,6.281,1.199,4.712,0.000,0.000,-5.035,9.449,0.990,1.435,1.608,1.607,5.688,4.111,4.555,1.587,5.530,5.219,1.644,0.042,1.000,-5.415,9.293,1.137,1.495,1.174,1.074,
154.600,163.117,-5.441,9.988,4.848,0.000,6.268,0.000,1.862,2.369,2.053,1.206,3.949,2.820,4.525,2.116,1.616,0.000,0.053,0.000,0.000,0.000,0.000,0.000,0.000,0.000,0.000,0.000,0.000,0.000,3.142,6.003,6.124,1.003,1.569,1.569,4.085,6.281,1.199,4.712,0.000,0.000,-5.035,9.449,0.990,1.435,1.608,1.607,5.688,4.111,4.555,1.587,5.530,5.219,1.644,0.042,1.000,-5.415,9.293,1.137,1.495,1.174,1.074,
154.700,163.217,-5.441,9.988,4.848,0.000,6.268,0.000,1.862,2.369,2.053,1.206,3.949,2.820,4.525,2.116,1.616,0.000,0.053,0.000,0.000,0.000,0.000,0.000,0.000,0.000,0.000,0.000,0.000,0.000,3.142,6.003,6.124,1.003,1.569,1.569,4.085,6.281,1.199,4.712,0.000,0.000,-5.035,9.449,0.990,1.435,1.608,1.607,5.688,4.111,4.555,1.587,5.530,5.219,1.644,0.042,1.000,-5.415,9.293,1.137,1.495,1.174,1.074,
154.800,163.317,-5.441,9.988,4.846,-0.004,6.094,0.000,1.863,2.369,2.050,1.202,3.947,2.829,4.528,2.128,1.608,0.000,0.088,0.000,0.000,0.000,0.000,0.000,0.000,0.000,0.000,0.000,0.000,0.000,3.142,6.002,6.124,1.004,1.569,1.568,4.085,6.281,1.199,4.712,0.000,0.000,-5.036,9.448,0.990,1.436,1.608,1.606,5.688,4.111,4.554,1.586,5.530,5.219,1.644,0.042,1.000,-5.416,9.293,1.137,1.497,1.172,1.072,
154.884,163.400,-5.439,9.973,4.816,0.446,5.955,0.000,1.870,2.380,2.019,1.207,3.949,2.922,4.555,2.227,1.526,0.000,0.088,0.000,0.000,0.000,0.000,0.000,0.000,0.000,0.000,0.000,0.000,0.000,3.142,5.997,6.123,1.008,1.566,1.565,4.078,6.281,1.199,4.711,0.000,0.000,-5.048,9.424,0.990,1.461,1.579,1.578,5.689,4.106,4.551,1.584,5.530,5.220,1.645,0.042,1.000,-5.431,9.279,1.138,1.518,0.953,0.853,
155.000,163.517,-5.429,9.874,4.787,1.113,5.925,0.000,1.826,2.384,1.981,1.397,4.037,3.035,4.594,2.127,1.470,0.000,0.123,0.000,0.000,0.000,0.000,0.000,0.000,0.000,0.000,0.000,0.000,0.000,3.142,5.999,6.124,1.006,1.568,1.566,4.081,6.281,1.199,4.712,0.000,0.000,-5.055,9.313,0.990,1.492,1.609,1.608,5.688,4.109,4.552,1.585,5.530,5.219,1.645,0.042,1.000,-5.443,9.180,1.137,1.539,0.391,0.290,
155.094,163.611,-5.422,9.769,4.763,0.935,6.093,0.000,1.779,2.390,1.953,1.601,3.411,3.135,4.629,1.968,1.428,0.000,0.158,0.000,0.000,0.000,0.000,0.000,0.000,0.000,0.000,0.000,0.000,0.000,3.142,6.003,6.124,1.002,1.570,1.571,4.088,6.281,1.200,4.712,0.000,0.000,-5.065,9.197,0.989,1.521,1.700,1.699,5.688,4.113,4.556,1.586,5.530,5.219,1.645,0.042,1.000,-5.457,9.074,1.136,1.537,5.730,5.629,
155.200,163.717,-5.418,9.694,4.761,0.652,6.269,0.000,1.737,2.387,1.947,1.721,3.486,3.152,4.636,1.902,1.429,0.000,0.158,0.000,0.000,0.000,0.000,0.000,0.000,0.000,0.000,0.000,0.000,0.000,3.142,6.003,6.124,1.003,1.569,1.570,4.086,6.281,1.199,4.712,0.000,0.000,-5.062,9.121,0.990,1.523,1.686,1.685,5.688,4.112,4.555,1.586,5.530,5.219,1.644,0.042,1.000,-5.454,8.999,1.137,1.537,5.700,5.599,
155.295,163.812,-5.415,9.628,4.761,0.751,6.271,0.000,1.699,1.662,1.943,1.822,3.552,3.157,4.640,1.905,1.435,0.000,0.158,0.000,0.000,0.000,0.000,0.000,0.000,0.000,0.000,0.000,0.000,0.000,3.142,6.001,6.124,1.005,1.569,1.568,4.083,6.281,1.199,4.712,0.000,0.000,-5.057,9.056,0.990,1.521,1.648,1.647,5.688,4.110,4.554,1.586,5.530,5.219,1.644,0.042,1.000,-5.449,8.934,1.137,1.537,5.770,5.669,
155.400,163.917,-5.413,9.581,4.761,0.279,6.265,0.000,1.672,1.636,1.941,1.893,3.599,3.159,4.642,1.908,1.439,0.000,0.158,0.000,0.000,0.000,0.000,0.000,0.000,0.000,0.000,0.000,0.000,0.000,3.142,6.004,6.124,1.002,1.570,1.571,4.088,6.281,1.200,4.712,0.000,0.000,-5.057,9.008,0.989,1.523,1.711,1.710,5.688,4.113,4.556,1.587,5.530,5.219,1.644,0.042,1.000,-5.449,8.886,1.136,1.536,5.660,5.558,
155.500,164.017,-5.412,9.567,4.761,0.066,6.265,0.000,1.663,1.628,1.941,1.914,3.613,3.158,4.642,1.909,1.442,0.000,0.158,0.000,0.000,0.000,0.000,0.000,0.000,0.000,0.000,0.000,0.000,0.000,3.142,6.003,6.124,1.003,1.570,1.570,4.087,6.281,1.199,4.712,0.000,0.000,-5.055,8.994,0.990,1.522,1.687,1.686,5.688,4.112,4.555,1.586,5.530,5.219,1.644,0.042,1.000,-5.447,8.872,1.137,1.537,5.719,5.618,
155.600,164.117,-5.412,9.566,4.762,-0.001,6.271,0.000,1.663,1.627,1.941,1.915,3.615,3.157,4.642,1.909,1.442,0.000,0.158,0.000,0.000,0.000,0.000,0.000,0.000,0.000,0.000,0.000,0.000,0.000,3.142,6.003,6.124,1.003,1.569,1.569,4.086,6.281,1.199,4.712,0.000,0.000,-5.055,8.993,0.990,1.521,1.675,1.674,5.688,4.111,4.555,1.587,5.530,5.219,1.644,0.042,1.000,-5.447,8.871,1.137,1.537,5.745,5.644,
155.700,164.217,-5.410,9.524,4.762,0.797,0.070,0.000,1.638,1.604,1.939,1.979,3.657,3.159,4.643,1.912,1.447,0.000,0.509,0.000,0.000,0.000,0.000,0.000,0.000,0.000,0.000,0.000,0.000,0.000,3.142,5.998,6.123,1.008,1.567,1.566,4.077,6.281,1.199,4.712,0.000,0.000,-5.050,8.955,0.991,1.517,1.579,1.578,5.689,4.107,4.552,1.586,5.530,5.219,1.645,0.042,1.000,-5.440,8.831,1.138,1.538,5.924,5.824,
155.800,164.317,-5.406,9.441,4.763,1.203,6.267,0.000,1.590,1.558,1.936,2.103,3.739,3.163,2.279,1.217,1.587,0.000,0.509,0.000,0.000,0.000,0.000,0.000,0.000,0.000,0.000,0.000,0.000,0.000,3.142,6.001,6.124,1.005,1.568,1.568,4.082,6.281,1.199,4.712,0.000,0.000,-5.047,8.871,0.990,1.518,1.633,1.632,5.688,4.109,4.553,1.586,5.530,5.219,1.644,0.042,1.000,-5.438,8.747,1.138,1.538,5.857,5.756,
155.892,164.409,-5.399,9.316,4.763,0.813,6.267,0.000,1.528,1.487,2.261,2.294,3.865,3.172,3.811,0.930,1.439,0.000,0.544,0.000,0.000,0.000,0.000,0.000,0.000,0.000,0.000,0.000,0.000,0.000,3.142,6.005,6.124,1.002,1.570,1.571,4.089,6.281,1.200,4.712,0.000,0.000,-5.042,8.743,0.989,1.522,1.715,1.714,5.688,4.114,4.556,1.587,5.530,5.219,1.644,0.042,1.000,-5.435,8.621,1.136,1.537,5.702,5.600,
156.000,164.517,-5.396,9.251,4.763,0.612,6.269,0.000,1.523,1.450,2.429,2.392,3.930,3.176,3.814,0.934,1.361,0.000,0.579,0.000,0.000,0.000,0.000,0.000,0.000,0.000,0.000,0.000,0.000,0.000,3.142,6.003,6.124,1.004,1.569,1.569,4.085,6.281,1.199,4.712,0.000,0.000,-5.038,8.679,0.990,1.519,1.668,1.666,5.688,4.111,4.554,1.586,5.530,5.219,1.644,0.042,1.000,-5.429,8.556,1.137,1.538,5.797,5.696,
156.092,164.609,-5.393,9.198,4.764,0.768,6.267,0.000,1.518,1.420,2.483,3.160,3.983,3.179,3.284,0.937,1.299,0.000,0.544,0.000,0.000,0.000,0.000,0.000,0.000,0.000,0.000,0.000,0.000,0.000,3.142,6.001,6.124,1.005,1.569,1.568,4.083,6.281,1.199,4.712,0.000,0.000,-5.034,8.627,0.990,1.518,1.640,1.639,5.688,4.110,4.553,1.586,5.530,5.219,1.644,0.042,1.000,-5.425,8.504,1.137,1.538,5.860,5.759,
156.200,164.717,-5.388,9.096,4.764,0.914,6.268,0.000,0.000,1.362,2.478,3.279,4.086,3.186,3.821,0.901,1.177,0.000,0.649,0.000,0.000,0.000,0.000,0.000,0.000,0.000,0.000,0.000,0.000,0.000,3.142,6.002,6.124,1.004,1.569,1.569,4.085,6.281,1.199,4.712,0.000,0.000,-5.029,8.524,0.990,1.518,1.662,1.661,5.688,4.111,4.554,1.586,5.530,5.219,1.644,0.042,1.000,-5.421,8.401,1.137,1.538,5.824,5.722,
156.295,164.812,-5.384,9.011,4.764,0.806,6.269,0.000,0.000,1.314,2.473,3.378,4.171,3.212,3.826,0.861,1.077,0.000,0.684,0.000,0.000,0.000,0.000,0.000,0.000,0.000,0.000,0.000,0.000,0.000,3.142,6.003,6.124,1.003,1.570,1.570,4.086,6.281,1.199,4.712,0.000,0.000,-5.025,8.439,0.990,1.519,1.675,1.674,5.688,4.112,4.555,1.587,5.530,5.219,1.644,0.042,1.000,-5.417,8.316,1.137,1.538,5.802,5.701,
156.400,164.917,-5.380,8.936,4.765,0.759,6.268,0.000,0.000,1.271,2.469,3.465,4.246,3.310,3.829,0.865,0.987,0.000,0.720,0.000,0.000,0.000,0.000,0.000,0.000,0.000,0.000,0.000,0.000,0.000,3.142,6.002,6.124,1.004,1.569,1.569,4.085,6.281,1.199,4.712,0.000,0.000,-5.020,8.364,0.990,1.518,1.662,1.661,5.688,4.111,4.554,1.586,5.530,5.219,1.644,0.042,1.000,-5.412,8.241,1.137,1.539,5.837,5.736,
156.500,165.017,-5.376,8.859,4.765,0.815,6.268,0.000,0.000,1.228,2.465,3.395,4.323,3.410,3.833,0.870,0.897,0.000,0.755,0.000,0.000,0.000,0.000,0.000,0.000,0.000,0.000,0.000,0.000,0.000,3.142,6.002,6.124,1.004,1.569,1.569,4.084,6.281,1.199,4.712,0.000,0.000,-5.016,8.288,0.990,1.517,1.655,1.654,5.688,4.111,4.554,1.586,5.530,5.219,1.644,0.042,1.000,-5.407,8.164,1.137,1.539,5.859,5.758,
156.600,165.117,-5.372,8.794,4.765,0.840,6.268,0.000,0.000,1.191,2.462,3.390,4.388,3.494,3.837,0.874,0.820,0.000,0.790,0.000,0.000,0.000,0.000,0.000,0.000,0.000,0.000,0.000,0.000,0.000,3.142,6.002,6.124,1.004,1.569,1.569,4.085,6.281,1.199,4.712,0.000,0.000,-5.013,8.223,0.990,1.517,1.660,1.659,5.688,4.111,4.554,1.586,5.530,5.219,1.644,0.042,1.000,-5.404,8.099,1.137,1.539,5.856,5.755,
156.700,165.217,-5.367,8.697,4.766,0.809,6.268,0.000,0.000,1.136,2.457,3.382,4.486,3.621,0.928,0.879,0.646,0.000,0.825,0.000,0.000,0.000,0.000,0.000,0.000,0.000,0.000,0.000,0.000,0.000,3.142,6.003,6.124,1.004,1.569,1.569,4.085,6.281,1.199,4.712,0.000,0.000,-5.007,8.126,0.990,1.517,1.664,1.663,5.688,4.111,4.554,1.586,5.530,5.219,1.644,0.042,1.000,-5.399,8.002,1.137,1.539,5.854,5.753,
156.780,165.297,-5.364,8.634,4.766,0.797,6.267,0.000,4.096,1.100,2.453,3.376,4.549,3.702,0.931,0.883,0.572,0.000,0.860,0.000,0.000,0.000,0.000,0.000,0.000,0.000,0.000,0.000,0.000,0.000,3.142,6.002,6.124,1.004,1.569,1.569,4.085,6.281,1.199,4.712,0.000,0.000,-5.004,8.063,0.990,1.517,1.661,1.660,5.688,4.111,4.554,1.586,5.530,5.219,1.644,0.042,1.000,-5.395,7.939,1.137,1.539,5.866,5.765,
156.900,165.417,-5.359,8.540,4.766,0.813,6.267,0.000,0.000,1.046,1.655,3.369,4.643,3.825,0.853,1.190,0.462,0.000,0.930,0.000,0.000,0.000,0.000,0.000,0.000,0.000,0.000,0.000,0.000,0.000,3.142,6.002,6.124,1.004,1.569,1.569,4.085,6.281,1.199,4.712,0.000,0.000,-4.999,7.969,0.990,1.516,1.658,1.657,5.688,4.111,4.554,1.586,5.530,5.219,1.644,0.042,1.000,-5.390,7.845,1.137,1.539,5.881,5.780,
156.997,165.514,-5.354,8.460,4.766,0.819,6.268,0.000,0.000,1.001,1.584,3.362,4.723,3.929,0.857,0.973,0.471,0.000,1.000,0.000,0.000,0.000,0.000,0.000,0.000,0.000,0.000,0.000,0.000,0.000,3.142,6.002,6.124,1.004,1.569,1.569,4.085,6.281,1.199,4.712,0.000,0.000,-4.994,7.889,0.990,1.516,1.659,1.658,5.688,4.111,4.554,1.586,5.530,5.219,1.644,0.042,1.000,-5.385,7.765,1.137,1.539,5.886,5.785,
157.100,165.617,-5.350,8.380,4.767,0.810,6.268,0.000,0.000,0.967,1.512,3.355,4.803,4.033,0.862,0.757,0.479,0.000,1.071,0.000,0.000,0.000,0.000,0.000,0.000,0.000,0.000,0.000,0.000,0.000,3.142,6.002,6.124,1.004,1.569,1.569,4.085,6.281,1.199,4.712,0.000,0.000,-4.990,7.810,0.990,1.516,1.660,1.659,5.688,4.111,4.554,1.586,5.530,5.219,1.644,0.042,1.000,-5.381,7.685,1.137,1.539,5.892,5.791,
157.200,165.717,-5.346,8.301,4.767,0.807,6.268,0.000,3.456,0.957,1.442,3.348,4.882,4.136,0.866,0.408,2.538,0.000,1.141,0.000,0.000,0.000,0.000,0.000,0.000,0.000,0.000,0.000,0.000,0.000,3.142,6.002,6.124,1.004,1.569,1.569,4.085,6.281,1.199,4.712,0.000,0.000,-4.985,7.731,0.990,1.516,1.658,1.657,5.688,4.111,4.554,1.586,5.530,5.219,1.644,0.042,1.000,-5.376,7.606,1.137,1.540,5.903,5.802,
157.300,165.817,-5.341,8.225,4.754,0.697,5.905,0.000,3.320,0.956,1.350,3.270,4.956,4.191,0.873,0.282,2.469,0.000,1.211,0.000,0.000,0.000,0.000,0.000,0.000,0.000,0.000,0.000,0.000,0.000,3.142,6.001,6.123,1.005,1.568,1.566,4.083,6.280,1.198,4.711,0.000,0.000,-4.987,7.651,0.990,1.526,1.639,1.638,5.679,4.098,4.552,1.584,5.531,5.219,1.642,0.043,1.000,-5.372,7.533,1.132,1.549,5.738,5.640,
157.392,165.908,-5.335,8.185,4.645,0.431,4.530,0.000,3.214,0.000,1.155,2.786,3.723,3.923,0.912,0.278,3.459,0.000,1.387,0.000,0.000,0.000,0.000,0.000,0.000,0.000,0.000,0.000,0.000,0.000,3.142,6.000,6.121,1.008,1.562,1.562,4.075,6.275,1.197,4.709,0.000,0.000,-5.042,7.579,0.992,1.508,4.764,4.760,5.664,4.011,4.554,1.594,5.520,5.219,1.640,0.042,1.000,-5.400,7.518,1.138,1.507,4.867,4.818,
157.500,166.017,-5.326,8.134,4.455,0.414,4.573,2.411,2.795,0.000,0.941,2.952,3.130,0.000,1.016,0.279,1.161,0.000,1.597,0.000,0.000,0.000,0.000,0.000,0.000,0.000,0.000,0.000,0.000,0.000,3.142,6.000,6.120,1.007,1.565,1.565,4.076,6.279,1.198,4.710,0.000,0.000,-5.155,7.483,0.992,1.317,4.722,4.720,5.679,4.059,4.550,1.593,5.527,5.218,1.639,0.043,1.000,-5.539,7.487,1.141,1.286,4.802,4.721,
157.600,166.117,-5.319,8.084,4.297,0.409,4.602,2.098,0.000,0.000,0.907,1.578,4.172,0.000,1.261,0.286,0.959,0.000,1.808,0.000,0.000,0.000,0.000,0.000,0.000,0.000,0.000,0.000,0.000,0.000,3.142,5.999,6.123,1.005,1.566,1.566,4.082,6.279,1.198,4.711,0.000,0.000,-5.254,7.412,0.990,1.158,4.705,4.705,5.686,4.108,4.554,1.588,5.526,5.220,1.644,0.042,1.000,-5.661,7.479,1.137,1.087,4.776,4.669,
157.700,166.217,-5.315,8.035,4.156,0.330,4.642,2.196,0.000,3.164,0.000,1.212,3.214,0.000,4.559,0.297,1.016,0.000,2.018,0.000,0.000,0.000,0.000,0.000,0.000,0.000,0.000,0.000,0.000,0.000,3.142,5.999,6.123,1.005,1.566,1.567,4.083,6.279,1.199,4.711,0.000,0.000,-5.345,7.361,0.990,1.017,4.706,4.706,5.688,4.108,4.554,1.587,5.528,5.220,1.644,0.042,1.000,-5.738,7.484,1.138,0.948,4.764,4.654,
157.799,166.315,-5.315,8.005,4.051,0.318,4.973,3.133,0.000,3.076,0.000,1.041,2.761,3.897,4.241,0.307,1.106,0.000,2.159,0.000,0.000,0.000,0.000,0.000,0.000,0.000,0.000,0.000,0.000,0.000,3.142,5.998,6.123,1.006,1.566,1.567,4.080,6.280,1.199,4.712,0.000,0.000,-5.415,7.338,0.990,0.911,4.709,4.709,5.689,4.109,4.553,1.586,5.528,5.220,1.646,0.042,1.000,-5.793,7.501,1.138,0.843,4.759,4.647,
157.900,166.417,-5.317,7.955,3.881,0.288,5.037,3.576,2.445,2.725,0.000,0.912,2.999,3.215,4.977,0.329,1.350,0.000,2.369,0.000,0.000,0.000,0.000,0.000,0.000,0.000,0.000,0.000,0.000,0.000,3.142,5.997,6.124,1.008,1.564,1.563,4.080,6.279,1.198,4.711,0.000,0.000,-5.527,7.313,0.990,0.746,4.709,4.708,5.688,4.106,4.551,1.583,5.527,5.221,1.645,0.042,1.000,-5.871,7.537,1.137,0.677,4.751,4.634,
158.000,166.517,-5.319,7.918,3.756,0.273,4.733,1.188,1.922,4.556,4.938,4.676,1.569,3.552,0.000,0.354,3.487,0.000,2.510,0.000,0.000,0.000,0.000,0.000,0.000,0.000,0.000,0.000,0.000,0.000,3.142,5.996,6.124,1.008,1.565,1.564,4.078,6.280,1.199,4.711,0.000,0.000,-5.606,7.308,0.990,0.621,4.710,4.710,5.688,4.107,4.551,1.583,5.529,5.220,1.646,0.042,1.000,-5.921,7.573,1.138,0.553,4.748,4.630,
158.100,166.617,-5.326,7.877,3.608,0.321,4.459,0.993,1.922,0.000,0.000,0.000,1.173,3.752,4.759,1.207,0.836,0.000,2.685,0.000,0.000,0.000,0.000,0.000,0.000,0.000,0.000,0.000,0.000,0.000,3.142,5.996,6.124,1.009,1.564,1.563,4.078,6.280,1.198,4.711,0.000,0.000,-5.700,7.315,0.990,0.474,4.711,4.710,5.688,4.106,4.551,1.583,5.529,5.220,1.645,0.042,1.000,-5.972,7.623,1.138,0.406,4.745,4.624,
158.189,166.706,-5.339,7.840,3.475,0.335,4.344,0.874,2.032,0.000,2.998,0.000,0.975,3.021,4.101,4.625,0.395,0.000,2.826,0.000,0.000,0.000,0.000,0.000,0.000,0.000,0.000,0.000,0.000,0.000,3.142,5.996,6.123,1.009,1.564,1.563,4.077,6.280,1.198,4.711,0.000,0.000,-5.784,7.334,0.990,0.339,4.711,4.711,5.688,4.106,4.551,1.585,5.528,5.220,1.645,0.042,1.000,-6.012,7.676,1.138,0.271,4.744,4.619,
158.300,166.817,-5.342,7.828,3.424,-0.201,0.007,0.841,2.090,0.000,2.870,0.000,0.966,2.972,4.073,4.472,0.375,0.000,2.861,0.000,0.000,0.000,0.000,0.000,0.000,0.000,0.000,0.000,0.000,0.000,3.142,6.006,6.124,1.001,1.570,1.571,4.090,6.280,1.200,4.712,0.000,0.000,-5.818,7.349,0.989,0.280,4.705,4.709,5.688,4.113,4.556,1.587,5.530,5.219,1.643,0.043,1.000,-6.026,7.703,1.136,0.213,4.741,4.617,
158.400,166.917,-5.286,7.844,3.423,-0.970,6.207,0.900,2.112,0.000,2.889,0.000,0.907,2.953,4.057,4.450,0.337,0.000,2.861,0.000,0.000,0.000,0.000,0.000,0.000,0.000,0.000,0.000,0.000,0.000,3.142,6.007,6.125,0.999,1.571,1.572,4.093,6.280,1.200,4.712,0.000,0.000,-5.764,7.366,0.989,0.278,4.703,4.709,5.688,4.115,4.557,1.588,5.530,5.219,1.643,0.043,1.000,-5.972,7.721,1.136,0.210,4.741,4.616,
158.496,167.012,-5.200,7.869,3.424,-1.201,6.274,0.991,2.143,0.000,2.920,0.000,0.817,2.921,4.032,4.420,0.428,0.000,2.861,0.000,0.000,0.000,0.000,0.000,0.000,0.000,0.000,0.000,0.000,0.000,3.142,6.004,6.124,1.003,1.570,1.570,4.087,6.281,1.199,4.712,0.000,0.000,-5.675,7.390,0.990,0.281,4.707,4.710,5.688,4.112,4.555,1.588,5.530,5.219,1.644,0.042,1.000,-5.884,7.744,1.137,0.214,4.742,4.618,
158.584,167.101,-5.088,7.902,3.424,-0.722,6.279,1.108,2.183,0.000,2.960,0.000,0.702,2.880,3.436,4.382,0.546,0.000,2.861,0.000,0.000,0.000,0.000,0.000,0.000,0.000,0.000,0.000,0.000,0.000,3.142,6.001,6.123,1.005,1.569,1.568,4.082,6.281,1.199,4.712,0.000,0.000,-5.562,7.421,0.990,0.284,4.709,4.710,5.688,4.109,4.553,1.587,5.530,5.219,1.644,0.042,1.000,-5.771,7.774,1.138,0.218,4.743,4.619,
158.700,167.217,-5.029,7.919,3.424,-0.636,6.275,1.171,2.204,0.000,2.982,0.000,0.640,2.857,3.269,4.361,0.609,0.000,2.861,0.000,0.000,0.000,0.000,0.000,0.000,0.000,0.000,0.000,0.000,0.000,3.142,6.004,6.124,1.003,1.570,1.570,4.087,6.281,1.199,4.712,0.000,0.000,-5.504,7.440,0.990,0.281,4.707,4.710,5.688,4.112,4.555,1.588,5.530,5.219,1.643,0.042,1.000,-5.713,7.793,1.137,0.215,4.742,4.618,
158.800,167.317,-4.959,7.939,3.424,-0.861,6.275,1.245,2.229,0.000,2.822,0.000,0.567,2.831,3.093,4.337,1.296,0.000,2.861,0.000,0.000,0.000,0.000,0.000,0.000,0.000,0.000,0.000,0.000,0.000,3.142,6.004,6.124,1.002,1.570,1.571,4.088,6.281,1.200,4.712,0.000,0.000,-5.434,7.460,0.990,0.281,4.706,4.710,5.688,4.113,4.556,1.588,5.530,5.219,1.643,0.042,1.000,-5.643,7.814,1.137,0.214,4.742,4.618,
158.887,167.404,-4.891,7.959,3.424,-0.914,6.275,1.317,2.253,0.000,2.827,0.000,0.496,2.806,3.097,4.396,1.368,0.000,2.826,0.000,0.000,0.000,0.000,0.000,0.000,0.000,0.000,0.000,0.000,0.000,3.142,6.003,6.124,1.003,1.570,1.570,4.086,6.281,1.199,4.712,0.000,0.000,-5.365,7.479,0.990,0.282,4.707,4.710,5.688,4.111,4.555,1.588,5.530,5.219,1.644,0.042,1.000,-5.574,7.832,1.137,0.216,4.742,4.618,
159.000,167.517,-4.794,7.987,3.425,-0.784,6.279,1.419,2.288,0.000,2.862,0.000,0.396,2.770,3.104,4.563,1.470,0.000,2.755,0.000,0.000,0.000,0.000,0.000,0.000,0.000,0.000,0.000,0.000,0.000,3.142,6.003,6.124,1.004,1.569,1.569,4.085,6.281,1.199,4.712,0.000,0.000,-5.268,7.507,0.990,0.283,4.707,4.710,5.688,4.111,4.554,1.587,5.530,5.219,1.644,0.042,1.000,-5.478,7.860,1.137,0.217,4.743,4.618,
