deveshdatwani/Gopher/Assets/Data/07-21 11-12-07/Obstacle Handling_robot_value.csv
game_time,true_time,x,y,az,vx,vaz,dis_to_obs_0,dis_to_obs_36,dis_to_obs_72,dis_to_obs_108,dis_to_obs_144,dis_to_obs_180,dis_to_obs_-144,dis_to_obs_-108,dis_to_obs_-72,dis_to_obs_-36,dis_to_min_obs,direction_to_min_obs,dis_to_human_0,dis_to_human_36,dis_to_human_72,dis_to_human_108,dis_to_human_144,dis_to_human_180,dis_to_human_-144,dis_to_human_-108,dis_to_human_-72,dis_to_human_-36,dis_to_min_human,direction_to_min_human,main_cam_yaw,main_cam_pitch,left_joint_1,left_joint_2,left_joint_3,left_joint_4,left_joint_5,left_joint_6,left_joint_7,left_joint_gripper,left_is_grasping,left_end_x,left_end_y,left_end_z,left_end_ax,left_end_ay,left_end_az,right_joint_1,right_joint_2,right_joint_3,right_joint_4,right_joint_5,right_joint_6,right_joint_7,right_joint_gripper,right_is_grasping,right_end_x,right_end_y,right_end_z,right_end_ax,right_end_ay,right_end_az,
89.060,94.907,1.067,-9.906,1.448,1.007,6.264,3.425,3.594,1.768,1.287,1.899,0.000,3.181,2.126,1.566,0.000,0.000,3.142,0.000,0.000,0.000,0.000,0.000,0.000,0.000,0.000,0.000,2.853,0.000,3.142,6.283,0.000,1.003,1.569,1.569,4.085,6.281,1.199,4.712,0.000,0.000,0.814,-9.281,0.990,4.836,1.611,1.530,5.281,4.711,4.711,2.198,6.282,5.083,1.570,0.000,0.000,1.465,-9.361,0.990,4.835,1.608,1.534,
89.149,94.997,1.082,-9.789,1.448,1.000,6.263,3.307,3.460,1.722,1.397,1.923,0.000,3.316,2.110,1.552,0.000,0.000,3.142,0.000,0.000,0.000,0.000,0.000,0.000,0.000,0.000,0.000,2.613,0.000,3.142,6.282,0.000,1.004,1.569,1.569,4.085,6.281,1.199,4.712,0.000,0.000,0.827,-9.164,0.990,4.835,1.610,1.531,5.281,4.711,4.711,2.198,6.282,5.083,1.570,0.000,0.000,1.479,-9.244,0.990,4.834,1.608,1.533,
89.260,95.108,1.092,-9.710,1.449,1.015,6.264,3.228,3.370,1.690,1.470,1.938,0.000,3.407,2.099,1.542,0.000,0.000,3.142,0.000,0.000,0.000,0.000,0.000,0.000,0.000,0.000,0.000,2.488,0.000,3.142,6.282,0.000,1.004,1.569,1.569,4.085,6.281,1.199,4.712,0.000,0.000,0.837,-9.086,0.990,4.834,1.610,1.531,5.281,4.711,4.711,2.198,6.282,5.083,1.570,0.000,0.000,1.488,-9.165,0.990,4.834,1.608,1.533,
89.345,95.192,1.106,-9.591,1.449,1.018,6.264,3.108,3.071,2.146,1.582,1.962,0.000,3.545,2.082,1.527,0.000,0.000,3.142,0.000,0.000,0.000,0.000,0.000,0.000,0.000,0.000,0.000,2.272,0.000,3.142,6.282,0.000,1.004,1.569,1.569,4.085,6.281,1.199,4.712,0.000,0.000,0.851,-8.966,0.990,4.834,1.611,1.530,5.281,4.711,4.711,2.198,6.282,5.083,1.570,0.000,0.000,1.502,-9.046,0.990,4.833,1.608,1.533,
89.460,95.308,1.116,-9.512,1.450,1.010,6.264,3.028,3.395,0.000,1.656,1.977,0.000,3.637,2.071,1.518,0.000,0.000,3.142,0.000,0.000,0.000,0.000,0.000,0.000,0.000,0.000,0.000,2.153,0.000,3.142,6.282,0.000,1.004,1.569,1.569,4.085,6.281,1.199,4.712,0.000,0.000,0.860,-8.887,0.990,4.833,1.611,1.530,5.281,4.711,4.711,2.198,6.282,5.083,1.570,0.000,0.000,1.512,-8.966,0.990,4.833,1.608,1.533,
89.541,95.389,1.130,-9.394,1.425,1.009,5.543,2.918,3.304,0.000,1.795,1.945,0.000,3.722,2.079,1.900,0.000,0.000,3.142,0.000,0.000,0.000,0.000,0.000,0.000,0.000,0.000,0.000,1.981,0.000,3.142,6.280,0.001,1.005,1.568,1.565,4.084,6.282,1.199,4.711,0.000,0.000,0.888,-8.763,0.990,4.853,1.602,1.538,5.281,4.710,4.708,2.197,6.282,5.083,1.570,0.000,0.000,1.537,-8.857,0.990,4.854,1.608,1.533,
89.660,95.507,1.142,-9.315,1.348,1.013,4.934,2.875,3.092,0.000,1.980,1.816,0.000,3.672,2.153,1.467,4.204,0.000,3.142,0.000,0.000,0.000,0.000,0.000,0.000,0.000,0.000,0.000,0.000,0.000,3.142,6.280,0.001,1.005,1.568,1.566,4.085,6.281,1.199,4.712,0.000,0.000,0.950,-8.667,0.990,4.931,1.593,1.547,5.282,4.710,4.709,2.197,6.282,5.083,1.570,0.000,0.000,1.590,-8.812,0.991,4.932,1.591,1.550,
89.760,95.608,1.173,-9.199,1.206,1.009,5.100,2.871,2.812,0.000,1.705,1.687,3.805,3.910,2.334,1.430,4.151,0.000,1.667,0.000,0.000,0.000,0.000,0.000,0.000,0.000,0.000,0.000,0.000,0.000,3.142,6.280,0.001,1.004,1.569,1.568,4.085,6.281,1.199,4.712,0.000,0.000,1.076,-8.531,0.990,5.076,1.585,1.556,5.282,4.711,4.710,2.198,6.282,5.083,1.570,0.000,0.000,1.689,-8.765,0.991,5.076,1.581,1.560,
89.860,95.708,1.211,-9.107,1.118,1.013,5.404,2.875,2.659,0.000,1.774,1.815,3.191,0.000,2.468,1.403,0.000,0.000,1.773,0.000,0.000,0.000,0.000,0.000,0.000,0.000,0.000,0.000,0.000,0.000,3.142,6.281,0.001,1.004,1.569,1.568,4.085,6.281,1.199,4.712,0.000,0.000,1.172,-8.434,0.990,5.164,1.582,1.560,5.282,4.711,4.710,2.197,6.282,5.083,1.570,0.000,0.000,1.762,-8.720,0.991,5.164,1.581,1.561,
89.960,95.808,1.256,-9.018,1.042,1.018,5.362,0.000,2.536,3.040,4.586,1.960,2.854,0.000,2.602,1.374,0.000,0.000,1.878,1.286,0.000,0.000,0.000,0.000,0.000,0.000,0.000,0.000,0.000,0.000,3.142,6.281,0.001,1.004,1.569,1.567,4.085,6.281,1.199,4.712,0.000,0.000,1.268,-8.343,0.990,5.239,1.580,1.561,5.282,4.711,4.710,2.197,6.282,5.083,1.570,0.000,0.000,1.835,-8.674,0.990,5.240,1.580,1.562,
90.060,95.907,1.308,-8.933,0.955,1.011,5.238,0.000,1.992,3.084,0.000,2.137,2.584,0.000,2.804,1.351,0.000,0.000,1.983,1.230,0.000,0.000,0.000,0.000,0.000,0.000,0.000,0.000,0.000,0.000,3.142,6.280,0.001,1.004,1.568,1.567,4.085,6.281,1.199,4.712,0.000,0.000,1.379,-8.261,0.990,5.326,1.579,1.562,5.282,4.711,4.710,2.197,6.282,5.083,1.570,0.000,0.000,1.915,-8.640,0.991,5.327,1.578,1.563,
90.160,96.007,1.367,-8.853,0.863,1.010,5.254,2.478,2.357,2.801,0.000,2.117,2.388,0.000,3.093,1.331,0.000,0.000,2.089,0.000,0.000,0.000,0.000,0.000,0.000,0.000,0.000,0.000,0.000,0.000,3.142,6.280,0.001,1.004,1.568,1.567,4.085,6.281,1.199,4.712,0.000,0.000,1.499,-8.191,0.990,5.418,1.578,1.564,5.282,4.711,4.710,2.197,6.282,5.083,1.570,0.000,0.000,1.999,-8.617,0.991,5.418,1.577,1.565,
90.251,96.098,1.420,-8.793,0.793,1.014,5.294,3.165,0.000,2.617,0.000,2.001,2.285,0.000,3.387,1.315,0.000,0.000,2.194,0.000,0.906,0.000,0.000,0.000,0.000,0.000,0.000,0.000,0.000,0.000,3.142,6.280,0.001,1.004,1.568,1.567,4.085,6.281,1.199,4.712,0.000,0.000,1.598,-8.142,0.990,5.489,1.578,1.565,5.282,4.711,4.710,2.197,6.282,5.083,1.570,0.000,0.000,2.066,-8.602,0.991,5.489,1.577,1.565,
90.360,96.208,1.506,-8.710,0.689,1.015,5.297,3.403,2.271,2.399,0.000,2.085,2.253,0.000,4.007,1.291,0.000,0.000,2.299,0.000,0.000,0.000,0.000,0.000,0.000,0.000,0.000,0.000,0.000,0.000,3.142,6.281,0.001,1.004,1.568,1.567,4.085,6.281,1.199,4.712,0.000,0.000,1.751,-8.080,0.990,5.592,1.577,1.565,5.282,4.711,4.710,2.197,6.282,5.083,1.570,0.000,0.000,2.169,-8.587,0.991,5.593,1.577,1.566,
90.444,96.291,1.568,-8.659,0.619,1.012,5.281,3.632,2.262,0.000,0.000,2.463,2.354,0.000,4.229,1.276,0.000,0.000,2.404,0.000,0.000,0.808,0.000,0.000,0.000,0.000,0.000,0.000,0.000,0.000,3.142,6.281,0.001,1.004,1.568,1.567,4.085,6.281,1.199,4.712,0.000,0.000,1.857,-8.049,0.990,5.662,1.577,1.566,5.282,4.711,4.710,2.197,6.282,5.083,1.570,0.000,0.000,2.238,-8.583,0.991,5.662,1.576,1.567,
90.560,96.407,1.651,-8.603,0.531,1.012,5.269,4.034,2.274,0.000,2.932,4.911,2.500,4.626,4.185,1.260,4.767,0.000,2.475,0.000,0.000,0.831,0.000,0.000,0.000,0.000,0.000,0.000,0.000,0.000,3.142,6.281,0.001,1.004,1.569,1.567,4.085,6.281,1.199,4.712,0.000,0.000,1.992,-8.021,0.990,5.750,1.576,1.566,5.282,4.711,4.710,2.197,6.282,5.083,1.570,0.000,0.000,2.324,-8.586,0.991,5.751,1.576,1.567,
90.643,96.490,1.738,-8.554,0.443,1.014,5.285,4.623,2.314,2.079,0.000,0.000,2.671,4.040,4.250,1.244,2.528,0.000,2.615,0.000,0.000,0.000,0.942,0.000,0.000,0.000,0.000,0.000,0.000,0.000,3.142,6.281,0.001,1.004,1.568,1.567,4.085,6.281,1.199,4.712,0.000,0.000,2.128,-8.004,0.990,5.838,1.576,1.567,5.282,4.711,4.710,2.197,6.282,5.083,1.570,0.000,0.000,2.410,-8.597,0.991,5.839,1.576,1.568,
90.758,96.606,1.829,-8.513,0.366,1.014,5.712,0.000,2.370,2.019,0.000,0.000,2.857,3.713,0.000,1.214,1.979,0.000,2.791,0.000,0.000,0.000,0.969,0.000,0.000,0.000,0.000,0.000,0.000,0.000,3.142,6.281,0.000,1.004,1.570,1.570,4.085,6.281,1.199,4.712,0.000,0.000,2.261,-7.996,0.990,5.918,1.576,1.568,5.282,4.712,4.712,2.198,6.281,5.083,1.570,0.000,0.000,2.496,-8.609,0.991,5.918,1.575,1.569,
90.860,96.708,1.941,-8.472,0.353,1.009,6.264,0.000,1.818,1.976,2.568,0.000,2.993,3.846,0.000,1.054,2.050,0.000,2.791,0.000,0.000,0.000,0.000,0.000,0.000,0.000,0.000,0.000,0.000,0.000,3.142,6.283,0.000,1.003,1.569,1.569,4.085,6.281,1.199,4.712,0.000,0.000,2.380,-7.959,0.990,5.929,1.576,1.568,5.281,4.711,4.711,2.198,6.282,5.083,1.570,0.000,0.000,2.607,-8.574,0.990,5.929,1.575,1.569,
90.953,96.800,2.015,-8.444,0.354,1.009,6.262,0.000,1.782,1.948,2.534,0.000,3.071,3.984,4.326,0.934,2.161,0.000,2.826,0.000,0.000,0.000,0.000,0.000,0.000,0.000,0.000,0.000,0.000,0.000,3.142,6.283,0.000,1.004,1.569,1.569,4.085,6.281,1.199,4.712,0.000,0.000,2.454,-7.931,0.990,5.929,1.576,1.568,5.281,4.711,4.711,2.198,6.282,5.083,1.570,0.000,0.000,2.681,-8.547,0.990,5.929,1.576,1.569,
91.059,96.907,2.127,-8.403,0.333,1.014,5.607,0.000,2.287,1.905,2.438,0.000,2.937,4.061,4.364,0.920,2.155,0.000,2.861,0.000,0.000,0.000,0.000,0.000,0.000,0.000,0.000,0.000,0.000,0.000,3.142,6.281,0.001,1.004,1.568,1.566,4.084,6.281,1.199,4.711,0.000,0.000,2.575,-7.897,0.990,5.945,1.575,1.568,5.281,4.710,4.708,2.197,6.282,5.083,1.570,0.000,0.000,2.791,-8.517,0.990,5.946,1.576,1.568,
91.160,97.007,2.222,-8.371,0.269,1.015,5.724,0.000,2.355,1.872,1.746,0.000,2.835,3.877,0.000,0.916,1.858,0.000,2.931,0.000,0.000,0.000,0.000,1.718,0.000,0.000,0.000,0.000,0.000,0.000,3.142,6.281,0.000,1.004,1.569,1.569,4.085,6.281,1.199,4.712,0.000,0.000,2.703,-7.898,0.990,6.014,1.576,1.568,5.282,4.712,4.712,2.198,6.282,5.083,1.570,0.000,0.000,2.877,-8.531,0.991,6.014,1.575,1.569,
91.260,97.108,2.299,-8.351,0.255,1.009,6.250,0.000,2.355,1.852,1.758,0.000,2.873,3.929,0.000,0.932,1.845,0.000,2.931,0.000,0.000,0.000,0.000,1.844,0.000,0.000,0.000,0.000,0.000,0.000,3.142,6.282,0.000,1.004,1.570,1.570,4.085,6.281,1.199,4.712,0.000,0.000,2.787,-7.885,0.990,6.030,1.576,1.569,5.281,4.711,4.712,2.198,6.282,5.083,1.570,0.000,0.000,2.952,-8.519,0.990,6.029,1.575,1.569,
91.360,97.208,2.414,-8.321,0.255,1.009,6.263,0.000,2.316,1.822,2.202,0.000,2.994,4.115,0.000,0.968,1.934,0.000,2.931,0.000,0.000,0.000,0.000,2.098,0.000,0.000,0.000,0.000,0.000,0.000,3.142,6.282,0.000,1.004,1.569,1.569,4.085,6.281,1.199,4.712,0.000,0.000,2.901,-7.854,0.990,6.028,1.576,1.569,5.281,4.711,4.711,2.198,6.282,5.083,1.570,0.000,0.000,3.067,-8.488,0.990,6.027,1.575,1.569,
91.443,97.290,2.491,-8.301,0.256,1.013,6.264,0.000,2.289,1.802,2.179,0.000,3.075,4.239,4.470,0.928,1.855,0.000,2.931,0.000,0.000,0.000,0.000,2.284,0.000,0.000,0.000,0.000,0.000,0.000,3.142,6.282,0.000,1.004,1.569,1.569,4.085,6.281,1.199,4.712,0.000,0.000,2.978,-7.833,0.990,6.027,1.576,1.569,5.281,4.711,4.711,2.198,6.282,5.083,1.570,0.000,0.000,3.144,-8.468,0.990,6.027,1.575,1.569,
91.552,97.400,2.588,-8.275,0.256,1.014,6.265,0.000,2.256,1.776,2.149,0.000,3.176,4.394,4.495,0.867,1.926,0.000,2.966,0.000,0.000,0.000,0.000,2.630,0.000,0.000,0.000,0.000,0.000,0.000,3.142,6.282,0.000,1.004,1.569,1.569,4.085,6.281,1.199,4.712,0.000,0.000,3.074,-7.808,0.990,6.027,1.576,1.569,5.281,4.711,4.711,2.198,6.282,5.083,1.570,0.000,0.000,3.241,-8.442,0.990,6.027,1.575,1.569,
91.659,97.506,2.703,-8.245,0.257,1.011,6.265,0.000,2.217,1.746,2.113,0.000,3.297,4.581,0.886,0.904,3.716,0.000,2.966,0.000,0.000,0.000,0.000,0.000,0.000,0.000,0.000,0.000,0.000,0.000,3.142,6.282,0.000,1.004,1.569,1.569,4.085,6.281,1.199,4.712,0.000,0.000,3.189,-7.777,0.990,6.026,1.576,1.569,5.281,4.711,4.711,2.198,6.282,5.083,1.570,0.000,0.000,3.356,-8.412,0.990,6.026,1.575,1.569,
91.760,97.608,2.799,-8.220,0.257,1.011,6.265,0.000,2.184,1.721,2.083,0.000,3.398,4.736,0.912,0.934,3.613,0.000,2.966,0.000,0.000,0.000,0.000,0.000,0.000,0.000,0.000,0.000,0.000,0.000,3.142,6.282,0.000,1.004,1.569,1.569,4.085,6.281,1.199,4.712,0.000,0.000,3.285,-7.752,0.990,6.026,1.576,1.569,5.281,4.711,4.711,2.198,6.282,5.083,1.570,0.000,0.000,3.453,-8.386,0.990,6.025,1.575,1.569,
91.847,97.695,2.876,-8.199,0.258,1.012,6.265,0.000,2.157,1.262,2.059,0.000,3.479,4.860,0.932,0.959,3.530,0.000,2.966,0.000,0.000,0.000,0.000,0.000,0.000,0.000,0.000,0.000,0.000,0.000,3.142,6.282,0.000,1.004,1.569,1.569,4.085,6.281,1.199,4.712,0.000,0.000,3.362,-7.731,0.990,6.025,1.576,1.569,5.281,4.711,4.711,2.198,6.282,5.083,1.570,0.000,0.000,3.530,-8.366,0.990,6.025,1.575,1.569,
91.959,97.807,2.973,-8.174,0.258,1.012,6.265,0.000,2.124,1.675,2.029,4.142,3.580,0.000,0.957,0.989,3.427,0.000,2.966,0.000,0.000,0.000,0.000,0.000,0.000,0.000,0.000,0.000,0.000,0.000,3.142,6.282,0.000,1.004,1.569,1.569,4.085,6.281,1.199,4.712,0.000,0.000,3.458,-7.706,0.990,6.025,1.576,1.569,5.281,4.711,4.711,2.198,6.282,5.083,1.570,0.000,0.000,3.626,-8.340,0.990,6.025,1.575,1.569,
92.060,97.907,3.088,-8.144,0.259,1.011,6.265,0.000,2.085,1.644,1.993,3.729,3.701,0.000,0.858,1.026,2.684,0.000,2.966,0.000,0.000,0.000,0.000,0.000,0.000,0.000,0.000,0.000,0.000,0.000,3.142,6.282,0.000,1.004,1.569,1.569,4.085,6.281,1.199,4.712,0.000,0.000,3.573,-7.675,0.990,6.024,1.576,1.569,5.281,4.711,4.711,2.198,6.282,5.083,1.570,0.000,0.000,3.741,-8.309,0.990,6.024,1.576,1.569,
92.146,97.994,3.165,-8.123,0.259,1.011,6.265,0.000,2.059,1.624,1.968,3.998,3.782,0.000,0.878,1.051,2.602,0.000,2.966,0.000,0.000,0.000,0.000,0.000,0.000,0.000,0.000,0.000,0.000,0.000,3.142,6.282,0.000,1.004,1.569,1.569,4.085,6.281,1.199,4.712,0.000,0.000,3.650,-7.654,0.990,6.024,1.576,1.569,5.281,4.711,4.711,2.198,6.282,5.083,1.570,0.000,0.000,3.818,-8.288,0.990,6.024,1.576,1.569,
92.247,98.095,3.261,-8.098,0.259,1.012,6.265,0.000,2.026,1.598,1.938,4.088,3.883,0.000,0.903,1.082,2.499,0.000,2.966,0.000,0.000,0.000,0.000,0.000,0.000,0.000,0.000,0.000,0.000,0.000,3.142,6.282,0.000,1.004,1.569,1.569,4.085,6.281,1.199,4.712,0.000,0.000,3.746,-7.629,0.990,6.023,1.576,1.569,5.281,4.711,4.711,2.198,6.282,5.083,1.570,0.000,0.000,3.915,-8.263,0.990,6.023,1.576,1.569,
92.355,98.203,3.357,-8.072,0.257,1.012,6.098,0.000,1.996,1.573,1.904,4.193,3.974,0.000,0.929,1.111,2.512,0.000,2.966,0.000,0.000,0.000,0.000,0.000,0.000,0.000,0.000,0.000,0.000,0.000,3.142,6.281,0.001,1.004,1.568,1.568,4.084,6.281,1.199,4.712,0.000,0.000,3.843,-7.603,0.990,6.024,1.575,1.568,5.281,4.710,4.710,2.197,6.282,5.083,1.570,0.000,0.000,4.011,-8.238,0.990,6.024,1.576,1.569,
92.455,98.303,3.454,-8.047,0.200,1.013,5.147,0.000,2.061,1.554,1.806,4.002,4.158,0.000,0.958,1.100,2.349,0.000,3.036,0.000,0.000,0.000,0.000,0.000,0.000,0.000,0.000,0.000,0.000,0.000,3.142,6.280,0.001,1.005,1.568,1.565,4.084,6.282,1.199,4.711,0.000,0.000,3.965,-7.606,0.990,6.078,1.576,1.568,5.281,4.710,4.708,2.197,6.282,5.083,1.570,0.000,0.000,4.096,-8.249,0.990,6.079,1.576,1.568,
92.560,98.407,3.552,-8.030,0.115,1.013,5.759,0.000,1.572,1.553,1.224,3.305,0.000,0.000,0.988,1.072,2.337,0.000,3.142,0.000,0.000,0.000,0.000,0.000,0.000,0.000,0.000,0.000,0.000,0.000,3.142,6.281,0.000,1.004,1.570,1.570,4.085,6.280,1.199,4.712,0.000,0.000,4.100,-7.636,0.990,6.169,1.576,1.570,5.282,4.712,4.712,2.198,6.281,5.083,1.571,0.000,0.000,4.175,-8.288,0.991,6.169,1.575,1.570,
92.660,98.507,3.671,-8.017,0.107,1.011,6.265,0.000,2.209,1.542,1.684,3.226,0.000,0.000,1.003,1.083,2.212,0.000,3.142,0.000,0.000,0.000,0.000,0.000,0.000,0.000,0.000,0.000,0.000,0.000,3.142,6.283,0.000,1.003,1.569,1.569,4.085,6.281,1.199,4.712,0.000,0.000,4.222,-7.627,0.990,6.176,1.576,1.569,5.281,4.711,4.711,2.198,6.282,5.083,1.570,0.000,0.000,4.292,-8.279,0.990,6.176,1.575,1.570,
92.760,98.608,3.770,-8.006,0.107,1.010,6.198,0.000,2.195,1.532,1.672,3.202,0.000,0.000,1.014,1.094,2.099,0.000,3.142,0.000,0.000,0.000,0.000,0.000,0.000,0.000,0.000,0.000,0.000,0.000,3.142,6.282,0.000,1.004,1.569,1.568,4.084,6.281,1.199,4.712,0.000,0.000,4.320,-7.616,0.990,6.175,1.575,1.569,5.281,4.711,4.710,2.197,6.282,5.083,1.570,0.000,0.000,4.391,-8.268,0.990,6.175,1.576,1.570,
92.842,98.690,3.849,-7.998,0.078,1.012,5.459,0.000,2.253,1.532,1.640,3.020,0.000,0.000,1.029,1.035,2.042,0.000,3.142,0.000,0.000,0.000,0.000,0.000,0.000,0.000,0.000,0.000,0.000,0.000,3.142,6.280,0.001,1.005,1.567,1.565,4.084,6.282,1.199,4.711,0.000,0.000,4.410,-7.621,0.990,6.201,1.575,1.569,5.281,4.710,4.708,2.197,6.282,5.083,1.570,0.000,0.000,4.462,-8.276,0.990,6.201,1.576,1.569,
92.947,98.794,3.949,-7.992,6.265,1.012,5.309,0.000,2.528,1.566,1.574,2.586,0.000,0.000,1.064,1.005,2.772,0.000,3.142,0.000,0.000,0.000,0.000,0.000,0.000,0.000,0.000,0.000,0.000,0.000,3.142,6.281,0.001,1.004,1.569,1.568,4.085,6.281,1.199,4.712,0.000,0.000,4.544,-7.674,0.990,0.017,1.576,1.570,5.282,4.711,4.711,2.198,6.281,5.083,1.570,0.000,0.000,4.532,-8.330,0.991,0.018,1.575,1.570,
93.046,98.893,4.048,-7.995,6.229,1.014,6.200,4.955,2.666,1.588,1.560,2.468,0.000,0.000,1.074,0.991,2.721,0.000,3.142,0.000,0.000,0.000,0.000,0.000,0.000,0.000,0.000,0.000,0.000,0.000,3.142,6.282,0.000,1.004,1.570,1.570,4.085,6.281,1.199,4.712,0.000,0.000,4.654,-7.699,0.990,0.055,1.575,1.570,5.281,4.711,4.712,2.197,6.282,5.083,1.570,0.000,0.000,4.619,-8.354,0.990,0.055,1.575,1.571,
93.147,98.995,4.148,-8.001,6.201,1.010,5.535,4.862,3.578,1.611,1.553,2.390,0.000,0.000,1.080,0.978,2.654,0.000,3.142,0.000,0.000,0.000,0.000,0.000,0.000,0.000,0.000,0.000,0.000,0.000,3.142,6.281,0.001,1.004,1.568,1.566,4.084,6.281,1.199,4.711,0.000,0.000,4.762,-7.719,0.990,0.078,1.575,1.570,5.281,4.710,4.708,2.197,6.282,5.083,1.570,0.000,0.000,4.709,-8.373,0.990,0.078,1.576,1.570,
93.247,99.095,4.247,-8.011,6.105,1.010,5.155,3.600,2.381,1.693,1.531,2.159,0.000,4.944,1.118,0.949,0.000,0.000,3.142,0.000,0.000,0.000,0.000,0.000,0.000,0.000,0.000,0.000,0.000,0.000,3.142,6.280,0.001,1.004,1.569,1.567,4.085,6.281,1.199,4.712,0.000,0.000,4.885,-7.791,0.990,0.176,1.576,1.570,5.282,4.711,4.710,2.197,6.282,5.083,1.570,0.000,0.000,4.769,-8.437,0.991,0.177,1.575,1.570,
93.360,99.208,4.364,-8.035,6.057,1.014,0.023,3.512,0.000,1.764,1.545,2.094,4.919,0.000,1.121,4.059,0.000,0.000,3.106,0.000,0.000,0.000,0.000,0.000,0.000,0.000,0.000,0.000,0.000,0.000,3.142,6.283,0.000,1.003,1.570,1.570,4.085,6.281,1.199,4.712,0.000,0.000,5.012,-7.847,0.990,0.228,1.576,1.571,5.281,4.712,4.712,2.198,6.282,5.083,1.570,0.000,0.000,4.865,-8.487,0.990,0.227,1.575,1.571,
93.458,99.306,4.461,-8.057,6.058,1.011,6.268,3.412,4.981,1.789,1.568,2.126,0.000,0.000,1.094,4.002,0.000,0.000,3.142,0.000,0.000,0.000,0.000,0.000,0.000,0.000,0.000,0.000,0.000,0.000,3.142,6.283,0.000,1.003,1.569,1.569,4.085,6.281,1.199,4.712,0.000,0.000,5.109,-7.868,0.990,0.225,1.576,1.571,5.281,4.711,4.711,2.198,6.282,5.083,1.570,0.000,0.000,4.963,-8.508,0.990,0.225,1.575,1.571,
93.560,99.407,4.558,-8.079,6.059,1.010,6.263,3.312,4.877,1.813,1.590,2.159,0.000,0.000,1.068,4.225,2.552,0.000,3.142,0.000,0.000,0.000,0.000,0.000,0.000,0.000,0.000,0.000,0.000,0.000,3.142,6.283,0.000,1.003,1.569,1.569,4.085,6.281,1.199,4.712,0.000,0.000,5.205,-7.890,0.990,0.224,1.576,1.571,5.281,4.711,4.711,2.198,6.282,5.083,1.570,0.000,0.000,5.060,-8.529,0.990,0.224,1.575,1.571,
93.660,99.507,4.655,-8.101,6.060,1.012,6.261,3.213,4.772,1.837,1.613,2.190,0.000,0.000,1.042,4.824,2.405,0.000,3.142,0.000,0.000,0.000,0.000,0.000,0.000,0.000,0.000,0.000,0.000,0.000,3.142,6.283,0.000,1.003,1.569,1.569,4.085,6.281,1.199,4.712,0.000,0.000,5.302,-7.911,0.990,0.223,1.576,1.571,5.281,4.711,4.711,2.198,6.282,5.083,1.570,0.000,0.000,5.157,-8.551,0.990,0.223,1.575,1.571,
93.753,99.601,4.733,-8.119,6.061,1.013,6.261,3.133,4.688,1.857,1.631,2.216,0.000,0.000,0.963,4.806,1.301,0.000,3.142,0.000,0.000,0.000,0.000,0.000,0.000,0.000,0.000,0.000,0.000,0.000,3.142,6.283,0.000,1.004,1.569,1.569,4.085,6.281,1.199,4.712,0.000,0.000,5.380,-7.928,0.990,0.222,1.576,1.571,5.281,4.711,4.711,2.198,6.282,5.083,1.570,0.000,0.000,5.235,-8.568,0.990,0.222,1.575,1.571,
93.860,99.708,4.849,-8.145,6.062,1.012,6.263,3.013,4.562,1.886,1.212,2.254,0.000,0.000,0.932,4.780,1.126,0.000,3.142,0.000,0.000,0.000,0.000,0.000,0.000,0.000,0.000,0.000,0.000,0.000,3.142,6.283,0.000,1.004,1.569,1.569,4.085,6.281,1.199,4.712,0.000,0.000,5.496,-7.954,0.990,0.221,1.576,1.571,5.281,4.711,4.711,2.198,6.282,5.083,1.570,0.000,0.000,5.352,-8.594,0.990,0.221,1.575,1.571,
93.960,99.808,4.946,-8.167,6.062,1.011,6.263,2.914,4.401,1.911,1.679,2.285,0.000,2.086,1.055,4.797,1.056,0.000,3.142,0.000,0.000,0.000,0.000,0.000,0.000,0.000,0.000,0.000,0.000,0.000,3.142,6.282,0.000,1.004,1.569,1.569,4.085,6.281,1.199,4.712,0.000,0.000,5.593,-7.975,0.990,0.221,1.576,1.571,5.281,4.711,4.711,2.198,6.282,5.083,1.570,0.000,0.000,5.450,-8.615,0.990,0.221,1.575,1.571,
94.058,99.905,5.044,-8.189,6.064,1.012,0.060,2.814,4.297,1.934,1.702,2.318,0.000,2.025,3.463,0.000,1.028,0.000,3.142,0.000,0.000,0.000,0.000,0.000,0.000,0.000,0.000,0.000,0.000,0.000,3.142,6.283,0.000,1.003,1.570,1.570,4.086,6.281,1.199,4.712,0.000,0.000,5.690,-7.997,0.990,0.220,1.576,1.571,5.281,4.712,4.712,2.199,6.282,5.083,1.570,0.000,0.000,5.547,-8.637,0.990,0.220,1.575,1.571,
94.160,100.008,5.141,-8.210,6.105,1.011,1.016,2.694,4.332,1.915,1.733,2.445,0.000,1.801,3.359,0.000,1.110,0.000,3.142,0.000,0.000,0.000,0.000,0.000,0.000,0.000,0.000,0.000,0.000,0.000,3.142,0.001,0.000,1.003,1.571,1.572,4.086,6.281,1.199,4.712,0.000,0.000,5.779,-7.993,0.990,0.181,1.576,1.571,5.282,4.713,4.714,2.199,6.281,5.083,1.571,0.000,0.000,5.662,-8.638,0.991,0.181,1.574,1.571,
94.260,100.108,5.219,-8.223,6.197,1.011,1.437,2.587,4.470,1.852,1.781,2.729,0.000,1.499,4.174,0.000,1.205,0.000,3.142,0.000,0.000,0.000,0.000,0.000,0.000,0.000,0.000,0.000,0.000,0.000,3.142,0.002,0.000,1.003,1.571,1.571,4.085,6.282,1.199,4.712,0.000,0.000,5.835,-7.948,0.990,0.088,1.575,1.570,5.282,4.713,4.713,2.198,6.282,5.083,1.571,0.000,0.000,5.778,-8.601,0.991,0.089,1.574,1.571,
94.360,100.208,5.339,-8.229,6.279,1.020,0.002,3.661,4.581,1.806,1.833,3.057,0.000,1.228,4.907,0.841,1.330,0.000,3.142,0.000,0.000,0.000,0.000,0.000,0.000,0.000,0.000,0.000,0.000,0.000,3.142,6.282,0.000,1.004,1.568,1.566,4.085,6.282,1.199,4.711,0.000,0.000,5.930,-7.900,0.990,6.283,1.576,1.569,5.281,4.710,4.708,2.198,6.283,5.083,1.570,0.000,0.000,5.927,-8.557,0.990,0.000,1.575,1.569,
94.460,100.308,5.419,-8.229,6.278,1.014,6.265,3.581,4.477,1.807,1.832,3.053,0.000,1.241,4.908,0.759,1.327,0.000,3.142,0.000,0.000,0.000,0.000,0.000,0.000,0.000,0.000,0.000,0.000,0.000,3.142,6.282,0.000,1.004,1.569,1.569,4.084,6.281,1.199,4.712,0.000,0.000,6.010,-7.904,0.990,0.005,1.575,1.570,5.281,4.711,4.711,2.197,6.282,5.083,1.570,0.000,0.000,6.007,-8.559,0.990,0.005,1.576,1.570,
94.557,100.405,5.519,-8.230,6.277,1.007,6.275,3.481,4.352,1.808,1.833,3.053,0.000,1.363,4.253,0.758,1.325,0.000,3.142,0.000,0.000,0.000,0.000,0.000,0.000,0.000,0.000,0.000,0.000,0.000,3.142,6.282,0.000,1.004,1.569,1.569,4.084,6.281,1.199,4.712,0.000,0.000,6.110,-7.904,0.990,0.005,1.575,1.570,5.281,4.711,4.711,2.197,6.282,5.083,1.570,0.000,0.000,6.106,-8.560,0.990,0.005,1.576,1.570,
94.650,100.498,5.618,-8.230,6.277,1.010,6.273,3.382,4.227,1.809,1.833,3.053,0.000,1.485,4.210,0.810,1.324,0.000,3.142,0.000,0.000,0.000,0.000,0.000,0.000,0.000,0.000,0.000,0.000,0.000,3.142,6.282,0.000,1.004,1.569,1.569,4.084,6.281,1.199,4.712,0.000,0.000,6.209,-7.905,0.990,0.005,1.575,1.570,5.281,4.711,4.711,2.197,6.282,5.083,1.570,0.000,0.000,6.205,-8.561,0.990,0.005,1.576,1.570,
94.748,100.596,5.718,-8.231,6.277,1.014,6.272,3.283,4.102,1.810,1.834,3.053,0.000,1.613,4.166,0.810,1.323,0.000,3.142,0.000,0.000,0.000,0.000,0.000,0.000,0.000,0.000,0.000,0.000,0.000,3.142,6.282,0.000,1.004,1.569,1.569,4.085,6.281,1.199,4.712,0.000,0.000,6.308,-7.906,0.990,0.005,1.575,1.570,5.281,4.711,4.711,2.197,6.282,5.083,1.570,0.000,0.000,6.305,-8.562,0.990,0.005,1.576,1.570,
94.845,100.693,5.817,-8.232,6.277,1.012,6.271,3.183,3.977,1.810,1.834,3.054,0.000,1.824,4.123,0.809,1.321,0.000,3.142,0.000,0.000,0.000,0.000,0.000,0.000,0.000,0.000,0.000,0.000,0.000,3.142,6.282,0.000,1.004,1.569,1.569,4.085,6.281,1.199,4.712,0.000,0.000,6.408,-7.906,0.990,0.006,1.575,1.570,5.281,4.711,4.711,2.197,6.282,5.083,1.570,0.000,0.000,6.405,-8.562,0.990,0.005,1.576,1.570,
94.956,100.804,5.917,-8.232,6.277,1.010,6.270,3.083,3.853,1.811,1.835,3.055,0.000,2.036,0.754,0.808,1.320,0.000,3.142,0.000,0.000,0.000,0.000,0.000,0.000,0.000,0.000,0.000,0.000,0.000,3.142,6.282,0.000,1.004,1.569,1.569,4.085,6.281,1.199,4.712,0.000,0.000,6.508,-7.907,0.990,0.006,1.575,1.570,5.281,4.711,4.711,2.198,6.282,5.083,1.570,0.000,0.000,6.504,-8.563,0.990,0.005,1.576,1.570,
95.049,100.896,6.016,-8.233,6.277,1.011,6.270,2.984,3.729,1.350,1.836,3.056,0.000,2.247,0.795,0.808,1.319,0.000,3.142,0.000,0.000,0.000,0.000,0.000,0.000,0.000,0.000,0.000,0.000,0.000,3.142,6.282,0.000,1.004,1.569,1.569,4.085,6.281,1.199,4.712,0.000,0.000,6.607,-7.908,0.990,0.006,1.575,1.570,5.281,4.711,4.711,2.198,6.282,5.083,1.570,0.000,0.000,6.604,-8.564,0.990,0.005,1.575,1.570,
95.160,101.008,6.109,-8.233,0.004,0.853,0.473,2.892,3.640,0.000,1.843,3.101,0.000,2.499,0.803,0.810,1.337,0.000,3.142,0.000,0.000,0.000,0.000,0.000,0.000,0.000,0.000,0.000,0.000,0.000,3.142,0.002,0.000,1.002,1.571,1.572,4.088,6.281,1.200,4.712,0.000,0.000,6.698,-7.905,0.990,0.000,1.577,1.570,5.281,4.712,4.714,2.199,6.281,5.083,1.570,0.000,0.000,6.699,-8.561,0.991,6.283,1.574,1.571,
95.260,101.108,6.202,-8.231,0.112,0.777,1.420,2.822,3.865,1.310,1.926,3.712,0.000,4.214,0.784,0.849,1.597,0.000,3.142,0.000,0.000,0.000,0.000,0.000,0.000,0.000,0.000,0.000,0.000,0.000,3.142,0.001,0.000,1.003,1.571,1.571,4.085,6.281,1.199,4.712,0.000,0.000,6.751,-7.840,0.990,6.173,1.575,1.569,5.282,4.713,4.713,2.198,6.282,5.083,1.571,0.000,0.000,6.824,-8.492,0.991,6.173,1.574,1.570,
95.352,101.199,6.266,-8.222,0.205,0.898,1.025,2.752,4.163,1.285,2.017,3.522,0.000,0.980,0.782,0.901,1.954,0.000,3.142,0.000,0.000,0.000,0.000,0.000,0.000,0.000,0.000,0.000,0.000,0.000,3.142,6.283,0.000,1.005,1.569,1.567,4.083,6.282,1.199,4.712,0.000,0.000,6.775,-7.779,0.990,6.075,1.574,1.569,5.282,4.711,4.710,2.198,6.283,5.083,1.570,0.000,0.000,6.909,-8.422,0.991,6.076,1.574,1.569,
95.459,101.306,6.386,-8.195,0.234,1.128,6.259,2.648,4.119,1.256,2.021,3.610,3.474,0.991,0.807,0.949,1.523,0.000,3.106,0.000,0.000,0.000,0.000,0.000,0.000,0.000,0.000,0.000,0.000,0.000,3.142,6.281,0.000,1.005,1.569,1.568,4.084,6.281,1.199,4.712,0.000,0.000,6.882,-7.738,0.990,6.048,1.575,1.569,5.281,4.711,4.710,2.197,6.282,5.083,1.570,0.000,0.000,7.035,-8.376,0.990,6.048,1.576,1.569,
95.560,101.408,6.491,-8.170,0.233,1.038,6.277,2.539,3.952,1.865,1.991,4.699,0.000,1.090,0.832,0.978,1.410,0.000,3.142,0.000,0.000,0.000,0.000,0.000,0.000,0.000,0.000,0.000,0.000,0.000,3.142,6.282,0.001,1.003,1.569,1.569,4.086,6.281,1.199,4.712,0.000,0.000,6.988,-7.714,0.990,6.049,1.576,1.569,5.281,4.711,4.711,2.197,6.282,5.083,1.570,0.000,0.000,7.140,-8.352,0.990,6.049,1.576,1.569,
95.642,101.489,6.567,-8.152,0.233,0.956,6.274,2.460,3.831,0.000,1.969,4.647,0.000,1.114,0.850,0.999,1.329,0.000,3.142,0.000,0.000,0.000,0.000,0.000,0.000,0.000,0.000,0.000,0.000,0.000,3.142,6.282,0.001,1.004,1.569,1.569,4.085,6.281,1.199,4.712,0.000,0.000,7.064,-7.696,0.990,6.049,1.576,1.569,5.281,4.711,4.711,2.197,6.282,5.083,1.570,0.000,0.000,7.216,-8.334,0.990,6.049,1.576,1.569,
95.746,101.594,6.658,-8.130,0.233,0.985,6.273,2.365,3.686,0.000,1.943,4.583,0.000,1.143,0.872,1.025,1.230,0.000,3.142,0.000,0.000,0.000,0.000,0.000,0.000,0.000,0.000,0.000,0.000,0.000,3.142,6.282,0.000,1.004,1.569,1.568,4.084,6.281,1.199,4.712,0.000,0.000,7.155,-7.674,0.990,6.049,1.575,1.569,5.281,4.711,4.711,2.197,6.282,5.083,1.570,0.000,0.000,7.307,-8.312,0.990,6.049,1.576,1.569,
95.844,101.691,6.756,-8.107,0.233,1.041,6.271,2.265,3.532,0.000,1.915,4.517,0.000,1.173,0.895,1.052,1.125,0.000,3.142,0.000,0.000,0.000,0.000,0.000,0.000,0.000,0.000,0.000,0.000,0.000,3.142,6.282,0.000,1.004,1.569,1.569,4.084,6.281,1.199,4.712,0.000,0.000,7.253,-7.651,0.990,6.049,1.575,1.569,5.281,4.711,4.711,2.197,6.282,5.083,1.570,0.000,0.000,7.405,-8.289,0.990,6.049,1.576,1.569,
95.960,101.808,6.875,-8.079,0.233,1.017,6.271,2.142,3.345,0.000,1.882,4.437,0.000,1.210,0.924,1.085,0.997,0.000,3.142,0.000,0.000,0.000,0.000,0.000,0.000,0.000,0.000,0.000,0.000,0.000,3.142,6.282,0.000,1.004,1.569,1.569,4.085,6.281,1.199,4.712,0.000,0.000,7.372,-7.623,0.990,6.050,1.576,1.569,5.281,4.711,4.711,2.198,6.282,5.083,1.570,0.000,0.000,7.524,-8.261,0.990,6.050,1.576,1.569,
96.057,101.905,6.971,-8.056,0.233,0.995,6.269,2.043,3.194,0.000,1.855,4.373,0.000,1.240,0.946,1.112,0.894,0.000,3.142,0.000,0.000,0.000,0.000,0.000,0.000,0.000,0.000,0.000,0.000,0.000,3.142,6.282,0.000,1.004,1.569,1.569,4.085,6.281,1.199,4.712,0.000,0.000,7.468,-7.600,0.990,6.050,1.576,1.569,5.281,4.711,4.711,2.198,6.282,5.083,1.570,0.000,0.000,7.620,-8.238,0.990,6.050,1.576,1.569,
96.160,102.008,7.062,-8.035,0.242,0.907,0.462,1.953,3.085,0.000,1.840,4.421,4.024,1.259,0.968,1.145,0.868,0.000,3.106,0.000,0.000,0.000,0.000,0.000,0.000,0.000,0.000,0.000,0.000,0.000,3.142,0.001,0.000,1.002,1.571,1.572,4.087,6.281,1.200,4.712,0.000,0.000,7.556,-7.576,0.990,6.044,1.577,1.569,5.281,4.712,4.714,2.199,6.281,5.083,1.570,0.000,0.000,7.713,-8.213,0.991,6.044,1.575,1.570,
96.260,102.108,7.145,-8.013,0.325,0.862,1.353,0.000,3.302,0.000,1.925,0.000,2.937,1.208,0.988,1.240,1.183,0.000,3.036,0.000,0.000,0.000,0.000,0.000,0.000,0.000,0.000,0.000,0.000,0.000,3.142,0.002,0.000,1.003,1.571,1.572,4.086,6.281,1.199,4.712,0.000,0.000,7.599,-7.514,0.990,5.961,1.576,1.568,5.282,4.713,4.714,2.198,6.282,5.083,1.571,0.000,0.000,7.809,-8.136,0.991,5.961,1.574,1.569,
96.360,102.208,7.227,-7.982,0.447,0.917,1.249,0.000,3.883,0.000,2.105,0.000,3.264,1.155,1.028,0.821,1.798,0.000,2.896,0.000,0.000,0.000,0.000,0.000,0.000,0.000,0.000,0.000,0.000,0.000,3.142,0.001,0.000,1.004,1.570,1.569,4.085,6.282,1.199,4.712,0.000,0.000,7.616,-7.431,0.990,5.835,1.575,1.568,5.282,4.712,4.711,2.198,6.283,5.083,1.570,0.000,0.000,7.900,-8.022,0.991,5.836,1.574,1.568,
96.460,102.308,7.293,-7.949,0.520,0.942,0.886,0.000,4.370,3.471,2.227,0.000,3.743,1.150,1.075,0.678,1.715,0.000,2.861,0.000,0.000,0.000,0.000,0.000,0.000,0.000,0.000,0.000,0.000,0.000,3.142,0.001,0.000,1.004,1.570,1.569,4.085,6.282,1.199,4.712,0.000,0.000,7.640,-7.371,0.990,5.762,1.576,1.567,5.282,4.712,4.711,2.198,6.282,5.083,1.570,0.000,0.000,7.967,-7.940,0.991,5.763,1.575,1.568,
96.546,102.394,7.371,-7.902,0.591,0.913,0.867,4.202,0.000,2.933,2.356,0.000,1.927,1.168,1.144,0.735,1.629,0.000,2.791,0.000,0.000,0.000,0.000,0.000,0.000,0.000,0.000,0.000,0.000,0.000,3.142,0.001,0.000,1.003,1.570,1.570,4.086,6.281,1.199,4.712,0.000,0.000,7.678,-7.301,0.990,5.693,1.577,1.566,5.282,4.712,4.712,2.198,6.282,5.083,1.570,0.000,0.000,8.043,-7.846,0.991,5.693,1.575,1.568,
96.660,102.508,7.444,-7.851,0.675,0.892,1.066,2.152,0.000,2.508,2.571,0.000,1.838,1.190,0.990,0.923,1.559,0.000,2.685,0.000,0.000,0.000,0.000,0.000,0.000,0.000,0.000,0.000,0.000,0.000,3.142,0.001,0.000,1.003,1.570,1.570,4.086,6.281,1.199,4.712,0.000,0.000,7.699,-7.227,0.990,5.609,1.577,1.566,5.282,4.712,4.713,2.198,6.282,5.083,1.570,0.000,0.000,8.109,-7.739,0.991,5.609,1.575,1.568,
96.760,102.608,7.524,-7.782,0.787,0.913,1.047,2.128,0.000,1.914,2.999,0.000,1.720,1.232,0.640,1.646,1.447,0.000,2.615,0.000,0.000,0.000,0.000,0.000,0.000,0.000,0.000,0.000,0.000,0.000,3.142,0.001,0.000,1.003,1.570,1.569,4.085,6.281,1.199,4.712,0.000,0.000,7.707,-7.133,0.990,5.496,1.577,1.565,5.282,4.712,4.712,2.198,6.282,5.083,1.570,0.000,0.000,8.172,-7.596,0.991,5.497,1.575,1.567,
96.841,102.688,7.586,-7.717,0.874,0.919,0.983,2.249,0.000,1.726,3.501,4.694,1.674,1.286,0.751,1.518,0.000,0.000,2.510,0.000,0.000,0.000,0.000,0.000,0.000,0.000,0.000,0.000,0.000,0.000,3.142,0.001,0.000,1.003,1.570,1.570,4.085,6.281,1.199,4.712,0.000,0.000,7.713,-7.054,0.990,5.410,1.578,1.564,5.282,4.712,4.712,2.198,6.282,5.083,1.570,0.000,0.000,8.216,-7.475,0.991,5.410,1.576,1.566,
96.960,102.808,7.642,-7.646,0.959,0.909,1.009,2.425,0.000,1.674,4.305,3.819,1.654,1.354,0.885,1.416,0.000,0.000,2.440,0.000,0.000,0.000,0.000,0.000,0.000,0.000,0.000,0.000,0.000,0.000,3.142,0.001,0.000,1.003,1.570,1.570,4.086,6.281,1.199,4.712,0.000,0.000,7.712,-6.975,0.990,5.324,1.579,1.563,5.282,4.712,4.712,2.198,6.282,5.083,1.570,0.000,0.000,8.249,-7.352,0.991,5.325,1.577,1.565,
97.057,102.904,7.682,-7.587,1.029,0.906,1.029,2.632,0.000,1.755,0.000,3.599,1.649,1.418,1.016,1.349,0.000,0.000,2.404,0.000,0.000,0.000,0.000,0.000,0.000,0.000,0.000,0.000,0.000,0.000,3.142,0.001,0.000,1.003,1.570,1.570,4.086,6.281,1.199,4.712,0.000,0.000,7.705,-6.913,0.990,5.254,1.580,1.562,5.282,4.712,4.712,2.198,6.282,5.083,1.570,0.000,0.000,8.267,-7.252,0.991,5.255,1.577,1.565,
97.158,103.006,7.727,-7.510,1.118,0.910,1.019,3.017,0.000,1.665,0.000,4.058,1.658,0.854,1.758,1.234,4.169,0.000,2.299,0.000,0.000,0.000,0.000,0.000,0.000,0.000,0.000,0.000,0.000,0.000,3.142,0.001,0.000,1.003,1.570,1.570,4.085,6.281,1.199,4.712,0.000,0.000,7.689,-6.836,0.990,5.166,1.581,1.560,5.282,4.712,4.712,2.198,6.282,5.083,1.570,0.000,0.000,8.279,-7.124,0.991,5.166,1.578,1.563,
97.260,103.108,7.770,-7.412,1.223,0.913,1.015,3.792,4.628,1.581,0.000,2.625,1.690,0.978,1.550,0.000,1.635,0.000,2.229,0.000,0.000,0.000,0.000,0.000,0.000,0.000,0.000,0.000,0.000,0.000,3.142,0.001,0.000,1.003,1.570,1.570,4.085,6.281,1.199,4.712,0.000,0.000,7.663,-6.746,0.990,5.060,1.585,1.557,5.282,4.712,4.712,2.198,6.282,5.083,1.570,0.000,0.000,8.280,-6.969,0.991,5.061,1.581,1.561,
97.343,103.191,7.799,-7.327,1.310,0.910,1.021,4.788,3.414,1.582,0.000,2.556,1.732,1.098,1.424,0.000,1.500,0.000,2.159,0.000,0.000,0.000,0.000,0.000,0.000,0.000,0.000,0.000,0.000,0.000,3.142,0.001,0.000,1.003,1.570,1.570,4.086,6.281,1.199,4.712,0.000,0.000,7.633,-6.673,0.990,4.973,1.589,1.552,5.282,4.712,4.712,2.198,6.282,5.083,1.570,0.000,0.000,8.268,-6.842,0.991,4.973,1.584,1.558,
97.460,103.308,7.816,-7.257,1.380,0.909,1.018,4.454,2.971,1.640,0.000,2.469,1.775,1.208,1.347,0.000,1.643,0.000,2.404,0.000,0.000,0.000,0.000,0.000,0.000,0.000,0.000,0.000,0.000,0.000,3.142,0.001,0.000,1.003,1.570,1.570,4.086,6.281,1.199,4.712,0.000,0.000,7.605,-6.617,0.990,4.903,1.596,1.545,5.282,4.712,4.712,2.198,6.282,5.083,1.570,0.000,0.000,8.250,-6.741,0.991,4.903,1.588,1.553,
97.560,103.408,7.831,-7.169,1.468,0.911,1.013,0.000,1.251,1.749,0.000,2.393,1.841,1.368,1.220,0.000,1.778,0.000,2.334,0.000,0.000,0.000,0.000,0.000,0.000,0.000,0.000,0.000,0.000,0.000,3.142,0.001,0.000,1.003,1.570,1.570,4.085,6.281,1.199,4.712,0.000,0.000,7.565,-6.549,0.990,4.816,1.617,1.524,5.282,4.712,4.712,2.198,6.282,5.083,1.570,0.000,0.000,8.218,-6.617,0.991,4.816,1.603,1.538,
97.660,103.508,7.840,-7.055,1.523,1.034,0.017,0.000,1.158,1.676,0.000,2.433,1.947,2.106,1.298,0.000,1.886,0.000,2.299,0.000,0.000,0.000,0.000,0.000,0.000,0.000,0.000,0.000,0.000,0.000,3.142,6.282,0.000,1.004,1.568,1.566,4.084,6.282,1.199,4.711,0.000,0.000,7.538,-6.452,0.990,4.757,1.670,1.471,5.281,4.710,4.709,2.198,6.282,5.083,1.570,0.000,0.000,8.194,-6.483,0.990,4.758,1.664,1.476,
97.760,103.608,7.844,-6.972,1.523,1.063,6.270,0.000,1.130,1.425,0.000,2.537,2.030,2.098,4.392,0.000,1.880,0.000,2.334,0.000,0.000,0.000,0.000,0.000,0.000,0.000,0.000,0.000,0.000,0.000,3.142,6.282,0.000,1.004,1.569,1.569,4.085,6.281,1.199,4.712,0.000,0.000,7.544,-6.368,0.990,4.761,1.668,1.473,5.281,4.711,4.711,2.198,6.282,5.083,1.570,0.000,0.000,8.199,-6.400,0.990,4.760,1.669,1.472,
97.860,103.708,7.850,-6.851,1.523,0.999,6.269,0.000,2.386,1.431,0.000,2.689,2.152,2.087,0.000,0.000,1.870,0.000,2.369,0.000,0.000,0.000,0.000,0.000,0.000,0.000,0.000,0.000,0.000,0.000,3.142,6.282,0.000,1.004,1.569,1.569,4.085,6.281,1.199,4.712,0.000,0.000,7.550,-6.246,0.990,4.760,1.674,1.466,5.281,4.711,4.711,2.198,6.282,5.083,1.570,0.000,0.000,8.205,-6.278,0.990,4.760,1.669,1.472,
97.960,103.808,7.854,-6.754,1.523,0.989,6.268,0.000,2.393,1.293,0.000,2.810,2.249,2.078,0.000,1.139,1.863,0.000,2.369,0.000,0.000,0.000,0.000,0.000,0.000,0.000,0.000,0.000,0.000,0.000,3.142,6.282,0.000,1.004,1.569,1.569,4.085,6.281,1.199,4.712,0.000,0.000,7.554,-6.150,0.990,4.760,1.669,1.472,5.281,4.711,4.711,2.198,6.282,5.083,1.570,0.000,0.000,8.209,-6.181,0.990,4.760,1.669,1.472,
98.060,103.908,7.859,-6.655,1.523,1.019,6.267,0.000,2.401,1.440,0.000,2.933,2.348,2.069,0.000,1.134,1.856,0.000,2.404,0.000,0.000,0.000,0.000,0.000,0.000,0.000,0.000,0.000,0.000,0.000,3.142,6.282,0.000,1.004,1.569,1.569,4.085,6.281,1.199,4.712,0.000,0.000,7.559,-6.051,0.990,4.760,1.668,1.473,5.281,4.711,4.711,2.198,6.282,5.083,1.570,0.000,0.000,8.214,-6.082,0.990,4.760,1.669,1.472,
98.160,104.008,7.864,-6.554,1.523,1.023,6.267,0.000,2.409,0.699,0.000,3.058,2.448,2.059,0.000,1.181,1.849,0.000,2.404,0.000,0.000,0.000,0.000,0.000,0.000,0.000,0.000,0.000,0.000,0.000,3.142,6.282,0.000,1.004,1.569,1.569,4.085,6.281,1.199,4.712,0.000,0.000,7.563,-5.951,0.990,4.760,1.672,1.469,5.281,4.711,4.711,2.198,6.282,5.083,1.570,0.000,0.000,8.219,-5.981,0.990,4.759,1.669,1.472,
98.243,104.090,7.869,-6.455,1.524,1.008,6.267,0.000,2.416,1.450,1.471,3.183,2.548,2.050,0.000,1.176,1.842,0.000,2.440,0.000,0.000,0.000,0.000,0.000,0.000,0.000,0.000,0.000,0.000,0.000,3.142,6.282,0.000,1.004,1.569,1.569,4.085,6.281,1.199,4.712,0.000,0.000,7.568,-5.851,0.990,4.759,1.673,1.468,5.281,4.711,4.711,2.198,6.282,5.083,1.570,0.000,0.000,8.223,-5.881,0.990,4.759,1.670,1.471,
98.347,104.194,7.873,-6.356,1.524,1.006,6.267,0.000,2.423,1.455,0.000,3.305,2.647,2.041,0.000,1.172,1.835,0.000,2.440,0.000,0.000,0.000,0.000,0.000,0.000,0.000,0.000,0.000,0.000,0.000,3.142,6.282,0.000,1.004,1.569,1.569,4.085,6.281,1.199,4.712,0.000,0.000,7.572,-5.752,0.990,4.759,1.672,1.469,5.281,4.711,4.711,2.198,6.282,5.083,1.570,0.000,0.000,8.228,-5.783,0.990,4.759,1.670,1.471,
98.460,104.308,7.877,-6.277,1.524,1.012,6.266,0.000,2.429,0.712,0.000,3.404,2.726,2.033,0.000,1.168,1.830,0.000,2.475,0.000,0.000,0.000,0.000,0.000,0.000,0.000,0.000,0.000,0.000,0.000,3.142,6.282,0.000,1.004,1.569,1.569,4.085,6.281,1.199,4.712,0.000,0.000,7.576,-5.673,0.990,4.759,1.672,1.468,5.281,4.711,4.711,2.198,6.282,5.083,1.570,0.000,0.000,8.231,-5.703,0.990,4.759,1.671,1.471,
98.560,104.408,7.882,-6.177,1.524,1.015,6.267,0.000,2.436,1.463,0.000,3.520,2.826,2.024,0.000,1.163,1.823,0.000,2.475,0.000,0.000,0.000,0.000,0.000,0.000,0.000,0.000,0.000,0.000,0.000,3.142,6.282,0.000,1.004,1.569,1.569,4.085,6.281,1.199,4.712,0.000,0.000,7.580,-5.573,0.990,4.759,1.674,1.467,5.281,4.711,4.711,2.198,6.282,5.083,1.570,0.000,0.000,8.236,-5.603,0.990,4.758,1.671,1.470,
98.660,104.508,7.886,-6.077,1.525,1.011,6.266,0.000,2.355,1.468,0.713,3.589,2.926,2.015,1.134,1.159,1.816,0.000,2.510,0.000,0.000,0.000,0.000,0.000,0.000,0.000,0.000,0.000,0.000,0.000,3.142,6.282,0.000,1.004,1.569,1.569,4.085,6.281,1.199,4.712,0.000,0.000,7.585,-5.474,0.990,4.758,1.675,1.466,5.281,4.711,4.711,2.198,6.282,5.083,1.570,0.000,0.000,8.240,-5.504,0.990,4.758,1.672,1.470,
98.760,104.608,7.891,-5.978,1.536,1.009,0.512,0.000,2.324,1.467,1.459,3.681,2.373,1.884,1.124,1.158,1.836,0.000,2.510,0.000,0.000,0.000,0.000,0.000,0.000,0.000,0.000,0.000,0.000,0.000,3.142,0.001,0.000,1.003,1.570,1.572,4.086,6.281,1.199,4.712,0.000,0.000,7.584,-5.378,0.990,4.750,1.706,1.435,5.281,4.712,4.714,2.199,6.281,5.083,1.571,0.000,0.000,8.240,-5.401,0.991,4.750,1.666,1.476,
98.855,104.702,7.892,-5.859,1.648,1.012,1.436,0.000,2.095,1.424,1.524,3.618,2.499,2.386,1.138,1.204,2.166,0.000,2.404,0.000,0.000,0.000,0.000,0.000,0.000,0.000,0.000,0.000,0.000,0.000,3.142,0.002,0.000,1.003,1.571,1.571,4.086,6.281,1.199,4.712,0.000,0.000,7.520,-5.297,0.990,4.788,4.651,4.773,5.282,4.713,4.713,2.198,6.282,5.083,1.571,0.000,0.000,8.174,-5.246,0.991,4.788,4.673,4.751,
98.960,104.808,7.884,-5.779,1.735,1.015,0.807,0.000,1.905,1.395,0.000,3.548,2.606,4.362,1.127,1.264,2.563,0.000,2.334,0.000,0.000,0.000,0.000,0.000,0.000,0.000,0.000,0.000,0.000,0.000,3.142,0.000,0.000,1.004,1.569,1.567,4.085,6.282,1.199,4.712,0.000,0.000,7.462,-5.252,0.990,4.880,4.687,4.736,5.282,4.712,4.710,2.198,6.283,5.083,1.570,0.000,0.000,8.110,-5.144,0.991,4.879,4.690,4.734,
99.060,104.908,7.863,-5.661,1.750,1.015,6.267,0.000,1.849,1.372,0.760,3.652,2.733,4.325,1.146,1.298,2.699,0.000,2.334,0.000,0.000,0.000,0.000,0.000,0.000,0.000,0.000,0.000,0.000,0.000,3.142,6.282,0.000,1.004,1.569,1.569,4.084,6.281,1.199,4.712,0.000,0.000,7.435,-5.140,0.990,4.893,4.687,4.737,5.281,4.711,4.711,2.197,6.282,5.083,1.570,0.000,0.000,8.080,-5.022,0.990,4.893,4.685,4.739,
99.160,105.008,7.846,-5.563,1.750,1.008,6.274,0.000,1.826,1.354,1.402,3.760,2.832,4.351,1.164,1.318,2.739,0.000,2.369,0.000,0.000,0.000,0.000,0.000,0.000,0.000,0.000,0.000,0.000,0.000,3.142,6.282,0.000,1.004,1.569,1.569,4.084,6.281,1.199,4.712,0.000,0.000,7.417,-5.042,0.990,4.893,4.687,4.737,5.281,4.711,4.711,2.197,6.282,5.083,1.570,0.000,0.000,8.062,-4.925,0.990,4.893,4.685,4.739,
99.260,105.108,7.828,-5.466,1.750,1.010,6.273,0.000,1.802,1.336,1.531,3.867,2.931,4.406,1.182,1.338,2.779,0.000,2.369,0.000,0.000,0.000,0.000,0.000,0.000,0.000,0.000,0.000,0.000,0.000,3.142,6.282,0.000,1.004,1.569,1.569,4.084,6.281,1.199,4.712,0.000,0.000,7.399,-4.945,0.990,4.892,4.687,4.737,5.281,4.711,4.711,2.197,6.282,5.083,1.570,0.000,0.000,8.045,-4.827,0.990,4.892,4.685,4.738,
99.360,105.208,7.810,-5.368,1.750,1.013,6.271,0.000,1.774,1.318,1.356,3.974,3.031,1.573,1.200,1.358,2.820,0.000,2.404,0.000,0.000,0.000,0.000,0.000,0.000,0.000,0.000,0.000,0.000,0.000,3.142,6.282,0.000,1.004,1.569,1.569,4.085,6.281,1.199,4.712,0.000,0.000,7.382,-4.847,0.990,4.892,4.687,4.737,5.281,4.711,4.711,2.197,6.282,5.083,1.570,0.000,0.000,8.027,-4.729,0.990,4.892,4.686,4.738,
99.460,105.308,7.793,-5.270,1.750,1.012,6.271,0.000,1.687,1.301,1.490,4.082,3.130,1.597,1.217,1.378,2.847,0.000,2.369,0.000,0.000,0.000,0.000,0.000,0.000,0.000,0.000,0.000,0.000,0.000,3.142,6.282,0.000,1.004,1.569,1.569,4.085,6.281,1.199,4.712,0.000,0.000,7.364,-4.749,0.990,4.892,4.686,4.737,5.281,4.711,4.711,2.197,6.282,5.083,1.570,0.000,0.000,8.010,-4.631,0.990,4.892,4.686,4.738,
99.560,105.408,7.775,-5.172,1.750,1.011,6.270,0.000,1.663,1.283,1.470,4.189,3.230,1.684,1.235,1.399,2.785,0.000,2.440,0.000,0.000,0.000,0.000,0.000,0.000,0.000,0.000,0.000,0.000,0.000,3.142,6.282,0.000,1.004,1.569,1.569,4.085,6.281,1.199,4.712,0.000,0.000,7.346,-4.651,0.990,4.892,4.686,4.737,5.281,4.711,4.711,2.198,6.282,5.083,1.570,0.000,0.000,7.992,-4.534,0.990,4.892,4.686,4.738,
99.642,105.490,7.757,-5.074,1.729,1.012,5.615,0.000,4.302,1.268,1.433,1.312,3.318,1.749,1.257,1.403,2.708,0.000,2.404,0.000,0.000,0.000,0.000,0.000,0.000,0.000,0.000,0.000,0.000,0.000,3.142,6.281,0.001,1.004,1.568,1.566,4.084,6.281,1.199,4.711,0.000,0.000,7.337,-4.545,0.990,4.875,4.685,4.737,5.281,4.710,4.708,2.197,6.282,5.083,1.570,0.000,0.000,7.985,-4.440,0.990,4.875,4.680,4.743,
99.741,105.588,7.743,-4.975,1.652,1.014,5.536,0.000,3.258,1.271,1.364,0.000,3.386,1.844,1.289,0.921,2.475,0.000,2.545,0.000,0.000,0.000,0.000,0.000,0.000,0.000,0.000,0.000,0.000,0.000,3.142,6.281,0.000,1.004,1.569,1.569,4.085,6.281,1.199,4.712,0.000,0.000,7.367,-4.415,0.990,4.795,4.652,4.771,5.282,4.711,4.711,2.198,6.282,5.083,1.570,0.000,0.000,8.022,-4.361,0.991,4.794,4.661,4.763,
99.860,105.708,7.737,-4.895,1.629,1.013,0.006,0.000,2.840,1.271,1.343,0.000,3.460,1.906,1.303,0.885,2.390,0.000,2.580,0.000,0.000,0.000,0.000,0.000,0.000,0.000,0.000,0.000,0.000,0.000,3.142,6.282,0.000,1.004,1.570,1.571,4.085,6.281,1.199,4.712,0.000,0.000,7.376,-4.326,0.990,4.768,4.627,4.797,5.282,4.712,4.713,2.198,6.281,5.083,1.571,0.000,0.000,8.031,-4.288,0.991,4.769,4.636,4.789,
99.960,105.808,7.732,-4.796,1.629,1.009,6.262,0.000,2.596,1.265,1.337,2.478,3.560,1.992,1.309,1.368,2.404,0.000,2.580,0.000,0.000,0.000,0.000,0.000,0.000,0.000,0.000,0.000,0.000,0.000,3.142,6.283,0.000,1.004,1.569,1.569,4.085,6.281,1.199,4.712,0.000,0.000,7.369,-4.227,0.990,4.771,4.630,4.794,5.281,4.711,4.711,2.198,6.282,5.083,1.570,0.000,0.000,8.024,-4.189,0.990,4.771,4.637,4.787,
100.060,105.908,7.726,-4.697,1.630,1.011,6.262,0.000,2.351,1.259,1.332,2.527,3.659,2.000,1.315,1.374,2.364,0.000,2.615,0.000,0.000,0.000,0.000,0.000,0.000,0.000,0.000,0.000,0.000,0.000,3.142,6.282,0.000,1.004,1.569,1.569,4.085,6.281,1.199,4.712,0.000,0.000,7.363,-4.129,0.990,4.772,4.632,4.792,5.281,4.711,4.711,2.198,6.282,5.083,1.570,0.000,0.000,8.018,-4.090,0.990,4.772,4.638,4.786,
100.160,106.008,7.720,-4.598,1.631,1.013,6.263,0.000,2.129,1.253,1.325,0.000,3.759,2.007,1.320,1.381,2.337,0.000,2.615,0.000,0.000,0.000,0.000,0.000,0.000,0.000,0.000,0.000,0.000,0.000,3.142,6.282,0.000,1.004,1.569,1.569,4.085,6.281,1.199,4.712,0.000,0.000,7.356,-4.029,0.990,4.773,4.632,4.791,5.281,4.711,4.711,2.198,6.282,5.083,1.570,0.000,0.000,8.011,-3.990,0.990,4.773,4.638,4.786,
100.260,106.108,7.714,-4.498,1.631,1.012,6.263,0.000,1.985,1.246,1.319,2.112,3.859,2.015,1.326,1.388,0.000,0.000,2.615,0.000,0.000,0.000,0.000,0.000,0.000,0.000,0.000,0.000,0.000,0.000,3.142,6.282,0.000,1.004,1.569,1.569,4.085,6.281,1.199,4.712,0.000,0.000,7.350,-3.930,0.990,4.773,4.633,4.790,5.281,4.711,4.711,2.198,6.282,5.083,1.570,0.000,0.000,8.005,-3.890,0.990,4.773,4.639,4.785,
100.360,106.208,7.708,-4.399,1.632,1.011,6.264,0.000,1.855,1.189,1.313,2.166,3.958,2.023,1.332,1.395,0.000,0.000,2.650,0.000,0.000,0.000,0.000,0.000,0.000,0.000,0.000,0.000,0.000,0.000,3.142,6.282,0.000,1.004,1.569,1.569,4.085,6.281,1.199,4.712,0.000,0.000,7.344,-3.831,0.990,4.774,4.634,4.789,5.281,4.711,4.711,2.198,6.282,5.083,1.570,0.000,0.000,7.998,-3.791,0.990,4.774,4.639,4.785,
100.460,106.308,7.700,-4.280,1.632,1.012,6.264,0.000,1.763,0.000,1.305,2.090,4.078,2.033,1.340,1.403,1.657,0.000,2.720,0.000,0.000,0.000,0.000,0.000,0.000,0.000,0.000,0.000,0.000,0.000,3.142,6.282,0.000,1.004,1.569,1.569,4.085,6.281,1.199,4.712,0.000,0.000,7.336,-3.712,0.990,4.774,4.635,4.788,5.281,4.711,4.711,2.198,6.282,5.083,1.570,0.000,0.000,7.991,-3.672,0.990,4.775,4.640,4.784,
100.560,106.408,7.695,-4.200,1.633,1.012,6.264,0.000,1.755,0.000,1.300,2.124,4.157,2.040,1.345,1.408,1.652,0.000,2.791,0.000,0.000,0.000,0.000,0.000,0.000,0.000,0.000,0.000,0.000,0.000,3.142,6.282,0.000,1.004,1.569,1.569,4.085,6.281,1.199,4.712,0.000,0.000,7.331,-3.633,0.990,4.775,4.636,4.788,5.281,4.711,4.711,2.198,6.282,5.083,1.570,0.000,0.000,7.986,-3.592,0.990,4.775,4.640,4.784,
100.660,106.508,7.689,-4.101,1.633,1.012,6.264,0.000,1.821,0.000,1.294,2.336,4.257,2.048,1.351,1.415,0.000,0.000,2.791,0.000,0.000,0.000,0.000,0.000,0.000,0.000,0.000,0.000,0.000,0.000,3.142,6.282,0.000,1.004,1.569,1.569,4.085,6.281,1.199,4.712,0.000,0.000,7.324,-3.534,0.990,4.775,4.636,4.787,5.281,4.711,4.711,2.198,6.282,5.083,1.570,0.000,0.000,7.979,-3.493,0.990,4.775,4.640,4.784,
100.760,106.608,7.683,-4.002,1.634,1.012,6.265,0.000,1.810,4.071,1.287,2.325,4.357,2.057,1.357,1.422,0.000,0.000,3.036,0.000,0.000,0.000,0.000,0.000,0.000,0.000,0.000,0.000,0.000,0.000,3.142,6.282,0.000,1.004,1.569,1.569,4.085,6.281,1.199,4.712,0.000,0.000,7.318,-3.435,0.990,4.776,4.637,4.787,5.281,4.711,4.711,2.198,6.282,5.083,1.570,0.000,0.000,7.973,-3.393,0.990,4.776,4.641,4.783,
100.856,106.704,7.677,-3.903,1.634,1.012,6.265,0.000,1.800,3.636,1.281,2.315,4.456,2.066,1.364,1.430,0.000,0.000,3.071,0.000,0.000,0.000,0.000,0.000,0.000,0.000,0.000,0.000,0.000,0.000,3.142,6.282,0.000,1.004,1.569,1.569,4.085,6.281,1.199,4.712,0.000,0.000,7.311,-3.336,0.990,4.776,4.638,4.786,5.281,4.711,4.711,2.198,6.282,5.083,1.570,0.000,0.000,7.966,-3.294,0.990,4.776,4.641,4.783,
100.960,106.808,7.670,-3.803,1.635,1.012,6.265,0.000,1.789,3.259,1.274,2.304,4.556,2.075,1.370,1.437,2.707,0.000,3.071,0.000,0.000,0.000,0.000,0.000,0.000,0.000,0.000,0.000,0.000,0.000,3.142,6.282,0.000,1.004,1.569,1.569,4.085,6.281,1.199,4.712,0.000,0.000,7.305,-3.236,0.990,4.777,4.638,4.785,5.281,4.711,4.711,2.198,6.282,5.083,1.570,0.000,0.000,7.959,-3.194,0.990,4.777,4.642,4.782,
101.060,106.908,7.664,-3.704,1.635,1.012,6.265,0.000,1.778,3.252,1.267,2.293,4.656,2.083,1.376,1.444,2.589,0.000,3.071,0.000,0.000,0.000,0.000,0.000,0.000,0.000,0.000,0.000,0.000,0.000,3.142,6.282,0.000,1.004,1.569,1.569,4.085,6.281,1.199,4.712,0.000,0.000,7.298,-3.137,0.990,4.777,4.639,4.785,5.281,4.711,4.711,2.198,6.282,5.083,1.570,0.000,0.000,7.953,-3.095,0.990,4.777,4.642,4.782,
101.160,107.008,7.658,-3.605,1.636,1.012,6.264,0.000,1.768,3.245,1.206,2.282,4.755,2.092,1.383,1.451,2.474,0.000,3.071,0.000,0.000,0.000,0.000,0.000,0.000,0.000,0.000,0.000,0.000,0.000,3.142,6.282,0.000,1.004,1.569,1.569,4.085,6.281,1.199,4.712,0.000,0.000,7.291,-3.038,0.990,4.778,4.639,4.784,5.281,4.711,4.711,2.198,6.282,5.083,1.570,0.000,0.000,7.946,-2.995,0.990,4.778,4.643,4.781,
101.260,107.108,7.650,-3.486,1.636,1.012,6.266,0.000,1.755,3.237,1.357,2.269,4.875,1.415,1.391,1.460,2.491,0.000,3.071,0.000,0.000,0.000,0.000,0.000,0.000,0.000,0.000,0.000,0.000,0.000,3.142,6.282,0.000,1.004,1.569,1.569,4.085,6.281,1.199,4.712,0.000,0.000,7.283,-2.919,0.990,4.778,4.640,4.784,5.281,4.711,4.711,2.198,6.282,5.083,1.570,0.000,0.000,7.938,-2.876,0.990,4.778,4.643,4.781,
101.360,107.208,7.645,-3.406,1.636,1.012,6.265,0.000,1.746,3.231,0.000,2.260,4.955,1.451,1.396,1.466,2.598,0.000,3.106,0.000,0.000,0.000,3.406,0.000,0.000,0.000,0.000,0.000,0.000,0.000,3.142,6.282,0.000,1.004,1.569,1.569,4.085,6.281,1.199,4.712,0.000,0.000,7.278,-2.840,0.990,4.778,4.640,4.783,5.281,4.711,4.711,2.198,6.282,5.083,1.570,0.000,0.000,7.933,-2.797,0.990,4.779,4.643,4.781,
101.460,107.308,7.637,-3.287,1.637,1.012,6.266,0.000,1.932,3.223,0.000,2.246,0.000,2.121,1.404,1.474,2.616,0.000,3.142,0.000,0.000,0.000,4.330,0.000,0.000,0.000,0.000,0.000,0.000,0.000,3.142,6.282,0.000,1.004,1.569,1.569,4.085,6.281,1.199,4.712,0.000,0.000,7.270,-2.721,0.990,4.779,4.641,4.783,5.281,4.711,4.711,2.198,6.282,5.083,1.570,0.000,0.000,7.924,-2.677,0.990,4.779,4.644,4.780,
101.560,107.408,7.630,-3.188,1.637,1.012,6.266,0.000,1.921,1.108,0.000,2.235,0.000,2.131,1.410,1.008,2.630,0.000,3.142,0.000,0.000,0.000,4.384,0.000,0.000,0.000,0.000,0.000,0.000,0.000,3.142,6.282,0.000,1.004,1.569,1.569,4.085,6.281,1.199,4.712,0.000,0.000,7.263,-2.622,0.990,4.779,4.641,4.782,5.281,4.711,4.711,2.198,6.282,5.083,1.570,0.000,0.000,7.918,-2.578,0.990,4.779,4.644,4.780,
101.660,107.508,7.624,-3.088,1.623,1.012,5.726,0.000,1.943,1.156,3.230,2.168,0.000,2.179,1.422,1.426,2.581,0.000,3.142,0.000,0.000,0.000,0.000,0.000,0.000,0.000,0.000,0.000,0.000,0.000,3.142,6.281,0.001,1.004,1.568,1.566,4.084,6.281,1.199,4.712,0.000,0.000,7.262,-2.518,0.990,4.769,4.634,4.789,5.281,4.710,4.708,2.197,6.282,5.083,1.570,0.000,0.000,7.918,-2.483,0.990,4.768,4.618,4.805,
101.760,107.608,7.620,-2.989,1.566,1.014,5.756,0.000,4.178,1.170,3.257,1.980,0.000,2.351,1.450,1.401,2.380,0.000,3.142,0.000,0.000,0.000,0.000,0.000,0.000,0.000,0.000,0.000,0.000,0.000,3.142,6.281,0.000,1.004,1.569,1.569,4.085,6.281,1.199,4.712,0.000,0.000,7.294,-2.398,0.990,4.719,2.416,0.725,5.282,4.711,4.711,2.198,6.282,5.083,1.570,0.000,0.000,7.950,-2.401,0.991,4.719,2.347,0.794,
101.840,107.688,7.621,-2.889,1.551,1.010,6.262,0.000,4.008,1.177,3.293,1.939,0.000,2.400,1.456,4.596,2.328,0.000,3.142,0.000,0.000,0.000,0.000,0.000,0.000,0.000,0.000,0.000,0.000,0.000,3.142,6.282,0.000,1.004,1.569,1.570,4.085,6.281,1.199,4.712,0.000,0.000,7.304,-2.294,0.990,4.733,1.804,1.336,5.281,4.711,4.712,2.198,6.282,5.083,1.570,0.000,0.000,7.960,-2.306,0.990,4.733,1.799,1.342,
101.960,107.808,7.623,-2.790,1.552,1.010,6.265,0.000,3.887,1.179,3.329,1.944,0.000,2.395,1.454,4.595,2.327,0.000,3.142,0.000,0.000,0.000,0.000,0.000,0.000,0.000,0.000,0.000,0.000,0.000,3.142,6.282,0.000,1.004,1.569,1.569,4.085,6.281,1.199,4.712,0.000,0.000,7.305,-2.195,0.990,4.732,1.819,1.322,5.281,4.711,4.711,2.198,6.282,5.083,1.570,0.000,0.000,7.961,-2.207,0.990,4.732,1.810,1.331,
102.050,107.898,7.625,-2.691,1.552,1.013,6.265,0.000,3.765,1.180,3.365,1.948,0.000,2.390,1.452,0.000,2.325,0.000,3.142,0.000,0.000,0.000,0.000,0.000,0.000,0.000,0.000,0.000,0.000,0.000,3.142,6.282,0.000,1.004,1.569,1.569,4.085,6.281,1.199,4.712,0.000,0.000,7.307,-2.095,0.990,4.731,1.824,1.316,5.281,4.711,4.711,2.198,6.282,5.083,1.570,0.000,0.000,7.963,-2.107,0.990,4.731,1.815,1.326,
102.153,108.000,7.626,-2.611,1.552,1.013,6.265,0.000,3.667,1.182,1.135,1.865,0.000,2.386,1.450,0.000,2.323,0.000,3.142,0.000,0.000,0.000,0.000,0.000,0.000,0.000,0.000,0.000,0.000,0.000,3.142,6.282,0.000,1.004,1.569,1.569,4.085,6.281,1.199,4.712,0.000,0.000,7.308,-2.016,0.990,4.731,1.829,1.311,5.281,4.711,4.711,2.198,6.282,5.083,1.570,0.000,0.000,7.964,-2.028,0.990,4.731,1.820,1.321,
102.260,108.107,7.628,-2.511,1.553,1.011,6.265,0.000,3.545,1.183,1.137,1.869,0.000,2.382,0.986,0.000,2.322,0.000,3.142,0.000,0.000,0.000,0.000,0.000,0.000,0.000,0.000,0.000,0.000,0.000,3.142,6.282,0.000,1.004,1.569,1.569,4.085,6.281,1.199,4.712,0.000,0.000,7.310,-1.916,0.990,4.731,1.835,1.305,5.281,4.711,4.711,2.198,6.282,5.083,1.570,0.000,0.000,7.966,-1.928,0.990,4.730,1.826,1.315,
102.360,108.208,7.630,-2.412,1.553,1.011,6.265,0.000,3.423,1.185,1.192,1.972,0.000,2.377,1.446,0.000,2.320,0.000,3.142,0.000,0.000,0.000,0.000,0.000,0.000,0.000,0.000,0.000,0.000,0.000,3.142,6.282,0.000,1.004,1.569,1.569,4.085,6.281,1.199,4.712,0.000,0.000,7.311,-1.817,0.990,4.730,1.841,1.299,5.281,4.711,4.711,2.198,6.282,5.083,1.570,0.000,0.000,7.967,-1.828,0.990,4.730,1.832,1.309,
102.457,108.304,7.631,-2.312,1.554,1.012,6.265,0.000,3.300,1.372,1.194,2.093,0.000,2.373,1.444,0.000,2.319,0.000,3.142,0.000,0.000,0.000,0.000,0.000,0.000,0.000,0.000,0.000,0.000,0.000,3.142,6.282,0.000,1.004,1.569,1.569,4.085,6.281,1.199,4.712,0.000,0.000,7.313,-1.718,0.990,4.730,1.848,1.293,5.281,4.711,4.711,2.198,6.282,5.083,1.570,0.000,0.000,7.969,-1.729,0.990,4.730,1.838,1.303,
102.560,108.408,7.633,-2.213,1.554,1.012,6.265,0.000,3.178,1.325,1.196,2.214,0.000,2.369,1.389,0.000,2.317,0.000,3.142,0.000,0.000,0.000,0.000,0.000,0.000,0.000,0.000,0.000,0.000,0.000,3.142,6.282,0.000,1.004,1.569,1.569,4.085,6.281,1.199,4.712,0.000,0.000,7.314,-1.618,0.990,4.729,1.854,1.286,5.281,4.711,4.711,2.198,6.282,5.083,1.570,0.000,0.000,7.970,-1.629,0.990,4.729,1.845,1.296,
102.653,108.500,7.635,-2.113,1.554,1.011,6.265,0.000,3.101,1.327,1.198,3.737,0.000,2.365,1.387,0.000,2.315,0.000,3.142,0.000,0.000,0.000,0.000,0.000,0.000,0.000,0.000,0.000,0.000,0.000,3.142,6.282,0.000,1.004,1.569,1.569,4.085,6.281,1.199,4.712,0.000,0.000,7.316,-1.519,0.990,4.729,1.861,1.280,5.281,4.711,4.711,2.198,6.282,5.083,1.570,0.000,0.000,7.971,-1.529,0.990,4.729,1.852,1.289,
102.756,108.604,7.636,-2.014,1.555,1.012,6.266,0.000,3.102,1.328,1.200,3.825,0.000,2.360,1.613,0.000,2.314,0.000,3.142,0.000,0.000,0.000,0.000,0.000,0.000,0.000,0.000,0.000,0.000,0.000,3.142,6.282,0.000,1.004,1.569,1.569,4.085,6.281,1.199,4.712,0.000,0.000,7.317,-1.420,0.990,4.729,1.868,1.273,5.281,4.711,4.711,2.198,6.282,5.083,1.570,0.000,0.000,7.973,-1.430,0.990,4.728,1.858,1.283,
102.857,108.705,7.638,-1.914,1.555,1.012,6.265,0.000,3.103,1.330,1.201,3.912,0.000,2.356,1.929,1.377,1.956,0.000,3.142,0.000,0.000,0.000,0.000,0.000,0.000,0.000,0.000,0.000,0.000,0.000,3.142,6.282,0.000,1.004,1.569,1.569,4.085,6.281,1.199,4.712,0.000,0.000,7.318,-1.320,0.990,4.728,1.875,1.265,5.281,4.711,4.711,2.198,6.282,5.083,1.570,0.000,0.000,7.974,-1.330,0.990,4.728,1.866,1.275,
102.946,108.794,7.640,-1.795,1.556,1.012,6.265,0.000,3.104,0.000,1.204,4.016,0.000,2.352,2.309,1.376,2.311,0.000,3.142,0.000,0.000,0.000,0.000,0.000,0.000,0.000,0.000,0.000,0.000,0.000,3.142,6.282,0.000,1.004,1.569,1.569,4.085,6.281,1.199,4.712,0.000,0.000,7.320,-1.201,0.990,4.728,1.885,1.256,5.281,4.711,4.711,2.198,6.282,5.083,1.570,0.000,0.000,7.976,-1.211,0.990,4.728,1.875,1.266,
103.043,108.890,7.641,-1.696,1.556,1.012,6.266,0.000,3.105,0.000,1.205,4.103,0.000,2.348,2.626,1.427,1.973,0.000,3.142,0.000,0.000,0.000,0.000,0.000,0.000,0.000,0.000,0.000,0.000,0.000,3.142,6.282,0.000,1.004,1.569,1.569,4.085,6.281,1.199,4.712,0.000,0.000,7.321,-1.102,0.990,4.727,1.893,1.248,5.281,4.711,4.711,2.198,6.282,5.083,1.570,0.000,0.000,7.977,-1.111,0.990,4.727,1.883,1.258,
103.142,108.989,7.643,-1.596,1.557,1.012,6.265,0.000,3.225,0.000,1.254,4.190,0.000,2.344,4.128,1.426,1.910,0.000,3.142,0.000,0.000,0.000,0.000,0.000,0.000,0.000,0.000,0.000,0.000,0.000,3.142,6.282,0.000,1.004,1.569,1.569,4.085,6.281,1.199,4.712,0.000,0.000,7.322,-1.002,0.990,4.727,1.901,1.239,5.281,4.711,4.711,2.198,6.282,5.083,1.570,0.000,0.000,7.978,-1.011,0.990,4.727,1.892,1.249,
103.244,109.091,7.644,-1.497,1.557,1.012,6.266,0.000,3.102,0.000,1.561,0.000,0.000,1.586,4.448,1.424,2.308,0.000,3.142,0.000,0.000,0.000,0.000,0.000,0.000,0.000,0.000,0.000,0.000,0.000,3.142,6.282,0.000,1.004,1.569,1.569,4.085,6.281,1.199,4.712,0.000,0.000,7.323,-0.903,0.990,4.727,1.910,1.230,5.281,4.711,4.711,2.198,6.282,5.083,1.570,0.000,0.000,7.979,-0.912,0.990,4.726,1.900,1.241,
103.360,109.208,7.645,-1.397,1.557,1.012,6.266,0.000,2.979,0.000,1.348,1.912,0.000,2.337,4.769,1.423,2.306,0.000,3.142,0.000,0.000,0.000,0.000,0.000,0.000,0.000,0.000,0.000,0.000,0.000,3.142,6.282,0.000,1.004,1.569,1.569,4.085,6.281,1.199,4.712,0.000,0.000,7.324,-0.804,0.990,4.726,1.920,1.221,5.281,4.711,4.711,2.198,6.282,5.083,1.570,0.000,0.000,7.980,-0.812,0.990,4.726,1.909,1.232,
103.441,109.288,7.647,-1.298,1.558,1.012,6.266,0.000,2.857,0.000,1.349,1.915,0.000,2.333,0.000,1.422,2.305,0.000,3.142,0.000,0.000,0.000,0.000,0.000,0.000,0.000,0.000,0.000,0.000,0.000,3.142,6.282,0.000,1.004,1.569,1.569,4.085,6.281,1.199,4.712,0.000,0.000,7.326,-0.704,0.990,4.726,1.929,1.211,5.281,4.711,4.711,2.198,6.282,5.083,1.570,0.000,0.000,7.981,-0.713,0.990,4.726,1.919,1.222,
103.560,109.408,7.648,-1.198,1.558,1.012,6.266,0.000,2.734,3.827,1.351,1.992,0.000,2.330,0.000,1.421,2.305,0.000,3.142,0.000,0.000,0.000,0.000,0.000,0.000,0.000,0.000,0.000,0.000,0.000,3.142,6.282,0.000,1.004,1.569,1.569,4.085,6.281,1.199,4.712,0.000,0.000,7.327,-0.605,0.990,4.726,1.939,1.201,5.281,4.711,4.711,2.198,6.282,5.083,1.570,0.000,0.000,7.983,-0.613,0.990,4.725,1.929,1.212,
103.641,109.488,7.649,-1.099,1.558,1.012,6.266,0.000,2.403,3.749,1.352,2.009,0.000,2.326,4.981,1.420,0.944,0.000,3.142,0.000,0.000,0.000,0.000,0.000,0.000,0.000,0.000,0.000,0.000,0.000,3.142,6.282,0.000,1.004,1.569,1.569,4.085,6.281,1.199,4.712,0.000,0.000,7.328,-0.506,0.990,4.725,1.951,1.190,5.281,4.711,4.711,2.198,6.282,5.083,1.570,0.000,0.000,7.984,-0.513,0.990,4.725,1.940,1.201,
103.760,109.608,7.650,-0.999,1.559,1.012,6.266,0.000,2.280,3.671,1.550,2.012,0.000,2.323,1.369,1.418,2.303,0.000,3.142,0.000,0.000,0.000,0.000,0.000,0.000,0.000,0.000,0.000,0.000,0.000,3.142,6.282,0.000,1.004,1.569,1.569,4.085,6.281,1.199,4.712,0.000,0.000,7.329,-0.406,0.990,4.725,1.962,1.179,5.281,4.711,4.711,2.198,6.282,5.083,1.570,0.000,0.000,7.985,-0.414,0.990,4.725,1.951,1.190,
103.860,109.708,7.652,-0.900,1.559,1.012,6.266,0.000,2.157,3.593,1.855,2.015,0.000,2.320,1.420,1.417,0.986,0.000,3.142,0.000,0.000,0.000,0.000,0.000,0.000,0.000,0.000,0.000,0.000,0.000,3.142,6.282,0.000,1.004,1.569,1.569,4.085,6.281,1.199,4.712,0.000,0.000,7.329,-0.307,0.990,4.725,1.974,1.166,5.281,4.711,4.711,2.198,6.282,5.083,1.570,0.000,0.000,7.985,-0.314,0.990,4.724,1.964,1.177,
103.960,109.808,7.653,-0.800,1.560,1.012,6.265,0.000,2.089,3.516,2.159,2.018,0.000,2.231,1.419,1.416,0.927,0.000,3.142,0.000,0.000,0.000,0.000,0.000,0.000,0.000,0.000,0.000,0.000,0.000,3.142,6.282,0.000,1.004,1.569,1.569,4.085,6.281,1.199,4.712,0.000,0.000,7.330,-0.207,0.990,4.724,1.987,1.154,5.281,4.711,4.711,2.198,6.282,5.083,1.570,0.000,0.000,7.986,-0.214,0.990,4.724,1.976,1.165,
104.041,109.888,7.654,-0.701,1.560,1.012,6.266,0.000,2.118,3.438,2.462,2.021,0.000,2.246,1.417,1.188,2.301,0.000,3.142,0.000,0.000,0.000,0.000,0.000,0.000,0.000,0.000,0.000,0.000,0.000,3.142,6.282,0.000,1.004,1.569,1.569,4.085,6.281,1.199,4.712,0.000,0.000,7.331,-0.108,0.990,4.724,2.000,1.140,5.281,4.711,4.711,2.198,6.282,5.083,1.570,0.000,0.000,7.987,-0.115,0.990,4.724,1.989,1.152,
104.160,110.008,7.655,-0.601,1.560,1.012,6.265,0.000,1.995,3.360,3.656,2.024,0.000,2.369,1.416,1.415,2.300,0.000,3.142,0.000,0.000,0.000,0.000,0.000,0.000,0.000,0.000,0.000,0.000,0.000,3.142,6.282,0.000,1.004,1.569,1.569,4.085,6.281,1.199,4.712,0.000,0.000,7.332,-0.009,0.990,4.723,2.015,1.126,5.281,4.711,4.711,2.198,6.282,5.083,1.570,0.000,0.000,7.988,-0.015,0.990,4.723,2.004,1.137,
104.260,110.108,7.656,-0.502,1.561,1.012,6.266,0.000,1.937,3.281,3.658,2.027,0.000,2.492,1.415,0.568,2.259,0.000,3.142,0.000,0.000,0.000,0.000,0.000,0.000,0.000,0.000,0.000,0.000,0.000,3.142,6.282,0.000,1.004,1.569,1.569,4.085,6.281,1.199,4.712,0.000,0.000,7.333,0.091,0.990,4.723,2.030,1.110,5.281,4.711,4.711,2.198,6.282,5.083,1.570,0.000,0.000,7.989,0.085,0.990,4.723,2.019,1.122,
104.360,110.208,7.657,-0.402,1.561,1.012,6.266,0.000,1.938,2.551,3.659,2.030,0.000,2.614,1.414,1.166,2.214,0.000,3.142,0.000,0.000,0.000,0.000,0.000,0.000,0.000,0.000,0.000,0.000,0.000,3.142,6.282,0.000,1.004,1.569,1.569,4.085,6.281,1.199,4.712,0.000,0.000,7.334,0.190,0.990,4.723,2.046,1.094,5.281,4.711,4.711,2.198,6.282,5.083,1.570,0.000,0.000,7.990,0.184,0.990,4.723,2.035,1.106,
104.460,110.308,7.658,-0.303,1.562,1.012,6.265,0.000,1.938,2.216,3.661,2.065,0.000,2.737,1.412,1.412,0.000,0.000,3.142,0.000,0.000,0.000,0.000,0.000,0.000,0.000,0.000,0.000,0.000,0.000,3.142,6.282,0.000,1.004,1.569,1.569,4.085,6.281,1.199,4.712,0.000,0.000,7.334,0.290,0.990,4.722,2.064,1.077,5.281,4.711,4.711,2.198,6.282,5.083,1.570,0.000,0.000,7.990,0.284,0.990,4.722,2.053,1.088,
104.560,110.408,7.659,-0.203,1.562,1.012,6.266,0.000,1.939,1.945,3.662,2.186,0.000,2.860,1.411,1.411,4.831,0.000,3.142,0.000,0.000,0.000,0.000,0.000,0.000,0.000,0.000,0.000,0.000,0.000,3.142,6.282,0.000,1.004,1.569,1.569,4.085,6.281,1.199,4.712,0.000,0.000,7.335,0.389,0.990,4.722,2.083,1.058,5.281,4.711,4.711,2.198,6.282,5.083,1.570,0.000,0.000,7.991,0.383,0.990,4.722,2.071,1.070,
104.660,110.508,7.659,-0.103,1.562,1.012,6.266,0.000,1.939,1.945,3.945,2.306,0.000,2.984,0.564,1.410,4.994,0.000,3.142,0.000,0.000,0.000,0.000,0.000,0.000,0.000,0.000,0.000,0.000,0.000,3.142,6.282,0.000,1.004,1.569,1.569,4.085,6.281,1.199,4.712,0.000,0.000,7.336,0.488,0.990,4.722,2.103,1.038,5.281,4.711,4.711,2.198,6.282,5.083,1.570,0.000,0.000,7.992,0.483,0.990,4.722,2.091,1.050,
104.760,110.608,7.660,-0.024,1.563,1.012,6.265,0.000,1.939,1.946,4.185,2.269,0.000,3.082,1.409,1.410,4.895,0.000,3.142,0.000,0.000,0.000,0.000,0.000,0.000,0.000,0.000,0.000,0.000,0.000,3.142,6.282,0.000,1.004,1.569,1.569,4.085,6.281,1.199,4.712,0.000,0.000,7.336,0.568,0.990,4.722,2.120,1.021,5.281,4.711,4.711,2.198,6.282,5.083,1.570,0.000,0.000,7.992,0.563,0.990,4.721,2.108,1.033,
104.860,110.708,7.661,0.096,1.563,1.012,6.266,0.000,1.940,1.946,4.513,2.272,0.000,3.231,0.562,1.409,4.747,0.000,3.142,0.000,0.000,0.000,0.000,0.000,0.000,0.000,0.000,0.000,0.000,0.000,3.142,6.282,0.000,1.004,1.569,1.569,4.085,6.281,1.199,4.712,0.000,0.000,7.337,0.687,0.990,4.721,2.147,0.994,5.281,4.711,4.711,2.198,6.282,5.083,1.570,0.000,0.000,7.993,0.682,0.990,4.721,2.136,1.005,
104.960,110.808,7.662,0.175,1.563,1.012,6.266,0.000,1.940,1.947,4.514,2.274,0.000,3.329,1.407,1.409,4.648,0.000,3.142,0.000,0.000,0.000,0.000,0.000,0.000,0.000,0.000,0.000,0.000,0.000,3.142,6.282,0.000,1.004,1.569,1.569,4.085,6.281,1.199,4.712,0.000,0.000,7.337,0.767,0.990,4.721,2.167,0.974,5.281,4.711,4.711,2.198,6.282,5.083,1.570,0.000,0.000,7.993,0.762,0.990,4.721,2.156,0.985,
105.059,110.906,7.662,0.275,1.564,1.012,6.266,0.000,1.940,1.947,4.774,2.277,0.000,3.453,1.160,1.408,4.524,0.000,3.142,0.000,0.000,0.000,0.000,0.000,0.000,0.000,0.000,0.000,0.000,0.000,3.142,6.282,0.000,1.004,1.569,1.569,4.085,6.281,1.199,4.712,0.000,0.000,7.338,0.866,0.990,4.721,2.193,0.948,5.281,4.711,4.711,2.198,6.282,5.083,1.570,0.000,0.000,7.994,0.862,0.990,4.720,2.182,0.959,
105.160,111.008,7.663,0.374,1.564,1.012,6.266,0.000,1.940,2.144,0.000,2.279,0.000,2.199,1.406,1.408,4.400,0.000,3.142,0.000,0.000,0.000,0.000,0.000,0.000,0.000,0.000,0.000,0.000,0.000,3.142,6.282,0.000,1.004,1.569,1.569,4.085,6.281,1.199,4.712,0.000,0.000,7.338,0.965,0.990,4.720,2.221,0.920,5.281,4.711,4.711,2.198,6.282,5.083,1.570,0.000,0.000,7.994,0.961,0.990,4.720,2.211,0.930,
105.260,111.108,7.664,0.474,1.565,1.012,6.266,0.000,1.940,1.313,0.000,2.398,0.000,0.908,1.405,1.407,2.520,0.000,3.142,0.000,0.000,0.000,0.000,0.000,0.000,0.000,0.000,0.000,0.000,0.000,3.142,6.282,0.000,1.004,1.569,1.569,4.085,6.281,1.199,4.712,0.000,0.000,7.338,1.065,0.990,4.720,2.252,0.889,5.281,4.711,4.711,2.198,6.282,5.083,1.570,0.000,0.000,7.994,1.061,0.990,4.720,2.242,0.899,
105.353,111.200,7.664,0.573,1.565,1.012,6.266,0.000,1.940,1.313,0.000,2.519,0.000,2.280,1.404,1.407,2.397,0.000,3.142,0.000,0.000,0.000,0.000,0.000,0.000,0.000,0.000,0.000,0.000,0.000,3.142,6.282,0.000,1.004,1.569,1.569,4.085,6.281,1.199,4.712,0.000,0.000,7.339,1.164,0.990,4.720,2.285,0.855,5.281,4.711,4.711,2.198,6.282,5.083,1.570,0.000,0.000,7.995,1.161,0.990,4.719,2.275,0.866,
105.460,111.308,7.665,0.693,1.565,1.012,6.266,0.000,1.940,1.218,0.000,2.663,0.000,0.905,1.403,1.406,2.249,0.000,3.142,0.000,0.000,0.000,0.000,0.000,0.000,0.000,0.000,0.000,0.000,0.000,3.142,6.282,0.000,1.004,1.569,1.569,4.085,6.281,1.199,4.712,0.000,0.000,7.339,1.283,0.990,4.719,2.328,0.813,5.281,4.711,4.711,2.198,6.282,5.083,1.570,0.000,0.000,7.995,1.280,0.990,4.719,2.319,0.822,
105.560,111.408,7.665,0.792,1.566,1.012,6.266,0.000,1.940,1.218,0.000,2.783,0.000,2.275,1.402,1.406,2.213,0.000,3.142,0.000,0.000,0.000,0.000,0.000,0.000,0.000,0.000,0.000,0.000,0.000,3.142,6.282,0.000,1.004,1.569,1.569,4.085,6.281,1.199,4.712,0.000,0.000,7.340,1.383,0.990,4.719,2.368,0.773,5.281,4.711,4.711,2.198,6.282,5.083,1.570,0.000,0.000,7.996,1.380,0.990,4.719,2.360,0.781,
105.660,111.508,7.666,0.892,1.566,1.012,6.266,0.000,1.940,1.218,0.000,2.903,0.000,2.273,1.402,1.398,2.300,0.000,3.142,0.000,0.000,0.000,0.000,0.000,0.000,0.000,0.000,0.000,0.000,0.000,3.142,6.282,0.000,1.004,1.569,1.569,4.085,6.281,1.199,4.712,0.000,0.000,7.340,1.482,0.990,4.719,2.410,0.731,5.281,4.711,4.711,2.198,6.282,5.083,1.570,0.000,0.000,7.996,1.479,0.990,4.719,2.404,0.737,
105.760,111.608,7.666,0.971,1.566,1.012,6.265,0.000,1.940,1.219,0.000,2.999,0.000,2.272,1.401,1.353,2.300,0.000,3.142,0.000,0.000,0.000,0.000,0.000,0.000,0.000,0.000,0.000,0.000,0.000,3.142,6.282,0.000,1.004,1.569,1.569,4.085,6.281,1.199,4.712,0.000,0.000,7.340,1.562,0.990,4.719,2.447,0.694,5.281,4.711,4.711,2.198,6.282,5.083,1.570,0.000,0.000,7.996,1.559,0.990,4.718,2.441,0.700,
105.860,111.708,7.667,1.091,1.567,1.012,6.266,0.000,1.939,1.219,1.979,3.142,0.000,2.269,1.400,0.000,2.301,0.000,3.142,0.000,0.000,0.000,0.000,0.000,0.000,0.000,0.000,0.000,0.000,0.000,3.142,6.282,0.000,1.004,1.569,1.569,4.085,6.281,1.199,4.712,0.000,0.000,7.340,1.681,0.990,4.718,2.507,0.633,5.281,4.711,4.711,2.198,6.282,5.083,1.570,0.000,0.000,7.996,1.679,0.990,4.718,2.504,0.637,
105.960,111.808,7.667,1.170,1.567,1.012,6.266,0.000,1.939,1.219,1.979,3.238,0.000,2.268,1.400,0.000,2.301,0.000,3.142,0.000,0.000,0.000,0.000,0.000,0.000,0.000,0.000,0.000,0.000,0.000,3.142,6.282,0.000,1.004,1.569,1.569,4.085,6.281,1.199,4.712,0.000,0.000,7.340,1.760,0.990,4.718,2.550,0.590,5.281,4.711,4.711,2.198,6.282,5.083,1.570,0.000,0.000,7.996,1.758,0.990,4.718,2.549,0.592,
106.060,111.908,7.667,1.290,1.568,1.012,6.266,0.000,1.939,1.219,1.336,3.539,0.000,1.918,1.399,0.000,2.302,0.000,3.142,0.000,0.000,0.000,0.000,0.000,0.000,0.000,0.000,0.000,0.000,0.000,3.142,6.282,0.000,1.004,1.569,1.569,4.085,6.281,1.199,4.712,0.000,0.000,7.340,1.880,0.990,4.718,2.621,0.520,5.281,4.711,4.711,2.198,6.282,5.083,1.570,0.000,0.000,7.996,1.878,0.990,4.718,2.623,0.518,
106.160,112.008,7.668,1.369,1.568,1.012,6.266,0.000,1.938,1.219,1.336,3.541,0.000,2.265,1.399,0.000,1.618,0.000,3.142,0.000,0.000,0.000,0.000,0.000,0.000,0.000,0.000,0.000,0.000,0.000,3.142,6.282,0.000,1.004,1.569,1.569,4.085,6.281,1.199,4.712,0.000,0.000,7.340,1.959,0.990,4.718,2.671,0.470,5.281,4.711,4.711,2.198,6.282,5.083,1.570,0.000,0.000,7.996,1.958,0.990,4.717,2.674,0.467,
106.255,112.103,7.668,1.469,1.568,1.012,6.265,0.000,1.938,1.220,1.239,3.597,0.000,1.864,1.399,0.000,1.540,0.000,3.142,0.000,0.000,0.000,0.000,0.000,0.000,0.000,0.000,0.000,0.000,0.000,3.142,6.282,0.000,1.004,1.569,1.569,4.085,6.281,1.199,4.712,0.000,0.000,7.340,2.059,0.990,4.718,2.738,0.403,5.281,4.711,4.711,2.198,6.282,5.083,1.570,0.000,0.000,7.996,2.057,0.990,4.717,2.744,0.397,
106.360,112.207,7.668,1.568,1.569,1.012,6.266,0.000,1.937,1.220,1.239,3.717,0.000,2.261,1.398,0.000,2.304,0.000,3.142,0.000,0.000,0.000,0.000,0.000,0.000,0.000,0.000,0.000,0.000,0.000,3.142,6.282,0.000,1.004,1.569,1.569,4.085,6.281,1.199,4.712,0.000,0.000,7.340,2.158,0.990,4.717,2.808,0.332,5.281,4.711,4.711,2.198,6.282,5.083,1.570,0.000,0.000,7.996,2.157,0.990,4.717,2.818,0.323,
106.443,112.291,7.668,1.688,1.569,1.012,6.266,0.000,1.936,1.220,1.240,3.860,0.000,2.260,1.398,0.000,2.305,0.000,3.142,0.000,0.000,0.000,0.000,0.000,0.000,0.000,0.000,0.000,0.000,0.000,3.142,6.282,0.000,1.004,1.569,1.569,4.085,6.281,1.199,4.712,0.000,0.000,7.340,2.277,0.990,4.717,2.896,0.245,5.281,4.711,4.711,2.198,6.282,5.083,1.570,0.000,0.000,7.996,2.277,0.990,4.717,2.910,0.231,
106.560,112.408,7.668,1.787,1.570,1.012,6.266,0.000,1.935,1.220,1.240,3.980,0.000,2.258,1.345,0.000,2.306,0.000,3.142,0.000,0.000,0.000,0.000,0.000,0.000,0.000,0.000,0.000,0.000,0.000,3.142,6.282,0.000,1.004,1.569,1.569,4.085,6.281,1.199,4.712,0.000,0.000,7.340,2.377,0.990,4.717,2.974,0.166,5.281,4.711,4.711,2.198,6.282,5.083,1.570,0.000,0.000,7.996,2.376,0.990,4.717,2.992,0.149,
106.660,112.508,7.669,1.887,1.570,1.012,6.266,0.000,1.852,1.220,1.240,4.099,0.000,2.257,1.345,0.000,2.307,0.000,3.142,0.000,0.000,0.000,0.000,0.000,0.000,0.000,0.000,0.000,0.000,0.000,3.142,6.282,0.000,1.004,1.569,1.569,4.085,6.281,1.199,4.712,0.000,0.000,7.340,2.476,0.990,4.717,3.054,0.087,5.281,4.711,4.711,2.198,6.282,5.083,1.570,0.000,0.000,7.996,2.476,0.990,4.717,3.076,0.065,
106.760,112.608,7.669,1.986,1.570,1.012,6.266,0.000,1.851,1.220,1.240,4.218,0.000,2.256,1.626,0.000,2.309,0.000,3.142,0.000,0.000,0.000,0.000,0.000,0.000,0.000,0.000,0.000,0.000,0.000,3.142,6.282,0.000,1.004,1.569,1.569,4.085,6.281,1.199,4.712,0.000,0.000,7.340,2.576,0.990,4.717,3.133,0.007,5.281,4.711,4.711,2.198,6.282,5.083,1.570,0.000,0.000,7.996,2.576,0.990,4.717,3.159,6.266,
106.860,112.708,7.669,2.086,1.571,1.012,6.266,0.000,3.693,1.219,1.241,4.337,0.000,2.254,1.958,1.372,2.310,0.000,3.142,0.000,0.000,0.000,0.000,0.000,0.000,0.000,0.000,0.000,0.000,0.000,3.142,6.282,0.000,1.004,1.569,1.569,4.085,6.281,1.199,4.712,0.000,0.000,7.340,2.675,0.990,4.717,3.215,6.209,5.281,4.711,4.711,2.198,6.282,5.083,1.570,0.000,0.000,7.996,2.675,0.990,4.717,3.243,6.181,
106.960,112.808,7.669,2.165,1.571,1.012,6.265,0.000,3.517,1.219,1.241,4.433,0.000,2.253,2.223,1.352,2.311,0.000,3.142,0.000,0.000,0.000,0.000,0.000,0.000,0.000,0.000,0.000,0.000,0.000,3.142,6.282,0.000,1.004,1.569,1.569,4.085,6.281,1.199,4.712,0.000,0.000,7.340,2.754,0.990,4.717,3.279,6.145,5.281,4.711,4.711,2.198,6.282,5.083,1.570,0.000,0.000,7.996,2.755,0.990,4.717,3.309,6.115,
107.060,112.908,7.669,2.265,1.571,1.012,6.266,0.000,3.298,1.219,1.241,0.000,0.000,2.252,2.556,1.405,2.312,0.000,3.142,0.000,0.000,0.000,0.000,0.000,0.000,0.000,0.000,0.000,0.000,0.000,3.142,6.282,0.000,1.004,1.569,1.569,4.085,6.281,1.199,4.712,0.000,0.000,7.339,2.854,0.990,4.717,3.356,6.068,5.281,4.711,4.711,2.198,6.282,5.083,1.570,0.000,0.000,7.995,2.855,0.990,4.717,3.389,6.035,
107.156,113.003,7.668,2.365,1.572,1.012,6.266,0.000,3.078,1.219,1.241,0.000,0.000,2.251,3.633,1.014,2.314,0.000,3.142,0.000,0.000,0.000,0.000,0.000,0.000,0.000,0.000,0.000,0.000,0.000,3.142,6.282,0.000,1.004,1.569,1.569,4.085,6.281,1.199,4.712,0.000,0.000,7.339,2.953,0.990,4.717,3.432,5.992,5.281,4.711,4.711,2.198,6.282,5.083,1.570,0.000,0.000,7.995,2.954,0.990,4.717,3.466,5.958,
107.252,113.099,7.668,2.464,1.572,1.012,6.266,0.000,2.858,1.219,1.241,0.000,0.000,2.250,3.633,0.940,2.315,0.000,3.142,0.000,0.000,0.000,0.000,0.000,0.000,0.000,0.000,0.000,0.000,0.000,3.142,6.282,0.000,1.004,1.569,1.569,4.085,6.281,1.199,4.712,0.000,0.000,7.339,3.053,0.990,4.717,3.504,5.920,5.281,4.711,4.711,2.198,6.282,5.083,1.570,0.000,0.000,7.995,3.054,0.990,4.717,3.540,5.884,
107.360,113.208,7.668,2.584,1.573,1.012,6.266,0.000,2.593,1.218,1.241,0.000,0.000,2.249,3.632,1.406,2.317,0.000,3.142,0.000,0.000,0.000,0.000,0.000,0.000,0.000,0.000,0.000,0.000,0.000,3.142,6.282,0.000,1.004,1.569,1.569,4.085,6.281,1.199,4.712,0.000,0.000,7.338,3.172,0.990,4.718,3.585,5.839,5.281,4.711,4.711,2.198,6.282,5.083,1.570,0.000,0.000,7.994,3.173,0.990,4.718,3.621,5.803,
107.460,113.308,7.668,2.683,1.573,1.012,6.266,0.000,2.372,1.218,1.241,0.000,0.000,2.248,3.632,1.407,2.319,0.000,3.142,0.000,0.000,0.000,0.000,0.000,0.000,0.000,0.000,0.000,0.000,0.000,3.142,6.282,0.000,1.004,1.569,1.569,4.085,6.281,1.199,4.712,0.000,0.000,7.338,3.271,0.990,4.718,3.649,5.775,5.281,4.711,4.711,2.198,6.282,5.083,1.570,0.000,0.000,7.994,3.273,0.990,4.718,3.685,5.739,
107.560,113.408,7.668,2.783,1.573,1.012,6.266,0.000,2.170,1.217,1.241,2.086,0.000,2.248,3.632,1.407,2.320,0.000,3.142,0.000,0.000,0.000,0.000,0.000,0.000,0.000,0.000,0.000,0.000,0.000,3.142,6.282,0.000,1.004,1.569,1.569,4.085,6.281,1.199,4.712,0.000,0.000,7.337,3.371,0.990,4.718,3.709,5.715,5.281,4.711,4.711,2.198,6.282,5.083,1.570,0.000,0.000,7.993,3.373,0.990,4.718,3.745,5.679,
107.660,113.508,7.667,2.882,1.574,1.012,6.266,0.000,2.045,1.217,1.241,2.087,0.000,2.247,3.632,1.408,2.322,0.000,3.142,0.000,0.000,0.000,0.000,0.000,0.000,0.000,0.000,0.000,0.000,0.000,3.142,6.282,0.000,1.004,1.569,1.569,4.085,6.281,1.199,4.712,0.000,0.000,7.337,3.470,0.990,4.718,3.764,5.660,5.281,4.711,4.711,2.198,6.282,5.083,1.570,0.000,0.000,7.993,3.472,0.990,4.718,3.800,5.624,
107.760,113.608,7.667,2.962,1.574,1.012,6.266,0.000,1.945,1.217,1.240,2.087,0.000,2.247,1.344,1.408,2.324,0.000,3.142,0.000,0.000,0.000,0.000,0.000,0.000,0.000,0.000,0.000,0.000,0.000,3.142,6.282,0.000,1.004,1.569,1.569,4.085,6.281,1.199,4.712,0.000,0.000,7.336,3.550,0.990,4.718,3.805,5.619,5.281,4.711,4.711,2.198,6.282,5.083,1.570,0.000,0.000,7.992,3.552,0.990,4.718,3.840,5.584,
107.857,113.705,7.667,3.061,1.575,1.012,6.266,0.000,1.838,1.164,1.240,2.088,0.000,2.246,0.937,1.409,1.621,0.000,3.142,0.000,0.000,0.000,0.000,0.000,0.000,0.000,0.000,0.000,0.000,0.000,3.142,6.282,0.000,1.004,1.569,1.569,4.085,6.281,1.199,4.712,0.000,0.000,7.336,3.649,0.990,4.719,3.853,5.570,5.281,4.711,4.711,2.198,6.282,5.083,1.570,0.000,0.000,7.992,3.652,0.990,4.719,3.888,5.536,
107.958,113.805,7.666,3.161,1.575,1.012,6.266,0.000,1.836,4.417,1.240,2.088,0.000,2.161,1.397,1.409,1.557,0.000,3.142,0.000,0.000,0.000,0.000,0.000,0.000,0.000,0.000,0.000,0.000,0.000,3.142,6.282,0.000,1.004,1.569,1.569,4.085,6.281,1.199,4.712,0.000,0.000,7.335,3.748,0.990,4.719,3.898,5.526,5.281,4.711,4.711,2.198,6.282,5.083,1.570,0.000,0.000,7.991,3.751,0.990,4.719,3.932,5.492,
108.060,113.908,7.666,3.280,1.575,1.012,6.266,0.000,1.916,4.029,1.240,2.089,0.000,2.222,1.398,1.410,2.330,0.000,3.142,0.000,0.000,0.000,0.000,0.000,0.000,0.000,0.000,0.000,0.000,0.000,3.142,6.282,0.000,1.004,1.569,1.569,4.085,6.281,1.199,4.712,0.000,0.000,7.334,3.868,0.990,4.719,3.948,5.476,5.281,4.711,4.711,2.198,6.282,5.083,1.570,0.000,0.000,7.990,3.871,0.990,4.719,3.980,5.444,
108.160,114.008,7.665,3.380,1.576,1.012,6.266,0.000,1.915,3.679,1.239,2.089,0.000,2.347,1.398,1.411,2.332,0.000,3.142,0.000,0.000,0.000,0.000,0.000,0.000,0.000,0.000,0.000,0.000,0.000,3.142,6.282,0.000,1.004,1.569,1.569,4.085,6.281,1.199,4.712,0.000,0.000,7.334,3.967,0.990,4.720,3.985,5.439,5.281,4.711,4.711,2.198,6.282,5.083,1.570,0.000,0.000,7.990,3.971,0.990,4.719,4.016,5.408,
108.260,114.108,7.665,3.479,1.576,1.012,6.266,0.000,1.913,3.329,1.239,2.089,0.000,2.471,1.398,1.411,2.334,0.000,3.142,0.000,0.000,0.000,0.000,0.000,0.000,0.000,0.000,0.000,0.000,0.000,3.142,6.282,0.000,1.004,1.569,1.569,4.085,6.281,1.199,4.712,0.000,0.000,7.333,4.067,0.990,4.720,4.018,5.405,5.281,4.711,4.711,2.198,6.282,5.083,1.570,0.000,0.000,7.989,4.070,0.990,4.720,4.049,5.376,
108.360,114.208,7.664,3.579,1.577,1.012,6.266,0.000,1.911,3.302,1.238,2.089,0.000,2.594,1.399,1.412,2.336,0.000,3.142,0.000,0.000,0.000,0.000,0.000,0.000,0.000,0.000,0.000,0.000,0.000,3.142,6.282,0.000,1.004,1.569,1.569,4.085,6.281,1.199,4.712,0.000,0.000,7.332,4.166,0.990,4.720,4.049,5.374,5.281,4.711,4.711,2.198,6.282,5.083,1.570,0.000,0.000,7.988,4.170,0.990,4.720,4.079,5.345,
108.460,114.308,7.664,3.678,1.577,1.012,6.266,0.000,1.909,3.301,1.238,2.090,0.000,2.719,1.399,1.413,2.339,0.000,3.142,0.000,0.000,0.000,0.000,0.000,0.000,0.000,0.000,0.000,0.000,0.000,3.142,6.282,0.000,1.004,1.569,1.569,4.085,6.281,1.199,4.712,0.000,0.000,7.331,4.265,0.990,4.720,4.079,5.345,5.281,4.711,4.711,2.198,6.282,5.083,1.570,0.000,0.000,7.987,4.270,0.990,4.720,4.107,5.317,
108.560,114.408,7.663,3.778,1.577,1.012,6.266,0.000,1.907,3.300,1.184,2.090,0.000,2.844,1.400,1.414,2.341,0.000,3.142,0.000,0.000,0.000,0.000,0.000,0.000,0.000,0.000,0.000,0.000,0.000,3.142,6.282,0.000,1.004,1.569,1.569,4.085,6.281,1.199,4.712,0.000,0.000,7.330,4.365,0.990,4.721,4.106,5.318,5.281,4.711,4.711,2.198,6.282,5.083,1.570,0.000,0.000,7.986,4.369,0.990,4.721,4.133,5.291,
108.660,114.508,7.663,3.857,1.577,1.012,6.221,0.000,1.907,3.300,1.184,2.088,0.000,2.942,1.400,1.414,2.341,0.000,3.142,0.000,0.000,0.000,0.000,0.000,0.000,0.000,0.000,0.000,0.000,0.000,3.142,6.282,0.000,1.004,1.569,1.568,4.084,6.281,1.199,4.712,0.000,0.000,7.330,4.444,0.990,4.721,4.157,5.266,5.281,4.711,4.711,2.197,6.282,5.083,1.570,0.000,0.000,7.986,4.449,0.990,4.721,4.122,5.303,
108.760,114.608,7.662,3.957,1.540,1.013,5.554,0.000,0.000,3.338,0.000,1.978,0.000,2.986,1.418,1.397,2.224,0.000,3.142,0.000,0.000,0.000,0.000,0.000,0.000,0.000,0.000,0.000,0.000,0.000,3.142,6.281,0.001,1.004,1.568,1.566,4.084,6.281,1.199,4.712,0.000,0.000,7.350,4.556,0.990,4.741,1.735,1.405,5.281,4.710,4.709,2.197,6.282,5.083,1.570,0.000,0.000,8.006,4.536,0.990,4.741,1.742,1.398,
108.857,114.704,7.667,4.057,1.493,1.013,6.039,4.952,0.000,1.253,3.157,1.868,0.000,3.013,1.439,1.375,2.089,0.000,3.142,0.000,0.000,0.000,0.000,0.000,0.000,0.000,0.000,0.000,0.000,0.000,3.142,6.282,0.000,1.004,1.570,1.570,4.085,6.281,1.199,4.712,0.000,0.000,7.386,4.670,0.990,4.792,1.631,1.510,5.282,4.711,4.712,2.198,6.281,5.083,1.570,0.000,0.000,8.040,4.619,0.991,4.791,1.625,1.516,
108.960,114.808,7.676,4.176,1.491,1.009,6.265,4.834,0.000,1.208,3.207,1.878,0.000,1.683,1.430,0.909,2.068,0.000,3.142,0.000,0.000,0.000,0.000,0.000,0.000,0.000,0.000,0.000,0.000,0.000,3.142,6.282,0.000,1.004,1.569,1.569,4.085,6.281,1.199,4.712,0.000,0.000,7.396,4.789,0.990,4.792,1.631,1.510,5.281,4.711,4.711,2.198,6.282,5.083,1.570,0.000,0.000,8.050,4.737,0.990,4.792,1.628,1.513,
109.060,114.908,7.684,4.275,1.491,1.012,6.265,4.735,0.000,1.270,3.249,1.892,0.000,1.754,1.421,0.905,2.057,0.000,3.142,0.000,0.000,0.000,0.000,0.000,0.000,0.000,0.000,0.000,0.000,0.000,3.142,6.282,0.000,1.004,1.569,1.569,4.085,6.281,1.199,4.712,0.000,0.000,7.403,4.888,0.990,4.792,1.631,1.510,5.281,4.711,4.711,2.198,6.282,5.083,1.570,0.000,0.000,8.057,4.836,0.990,4.792,1.628,1.513,
109.160,115.008,7.692,4.374,1.492,1.013,0.038,4.635,0.000,1.278,3.290,1.907,0.000,3.385,1.412,1.349,2.048,0.000,3.142,0.000,0.000,0.000,0.000,0.000,0.000,0.000,0.000,0.000,0.000,0.000,3.142,6.283,0.000,1.003,1.570,1.570,4.086,6.281,1.199,4.712,0.000,0.000,7.411,4.987,0.990,4.792,1.634,1.507,5.281,4.711,4.712,2.199,6.282,5.083,1.570,0.000,0.000,8.065,4.936,0.990,4.791,1.623,1.518,
109.260,115.108,7.698,4.453,1.515,1.011,0.766,4.550,0.000,1.273,3.317,1.974,0.000,2.297,1.392,1.350,2.097,0.000,3.142,0.000,0.000,0.000,0.000,0.000,0.000,0.000,0.000,0.000,0.000,0.000,3.142,0.001,0.000,1.003,1.571,1.572,4.086,6.281,1.199,4.712,0.000,0.000,7.405,5.060,0.990,4.772,1.657,1.484,5.281,4.712,4.714,2.199,6.281,5.083,1.571,0.000,0.000,8.060,5.023,0.991,4.771,1.627,1.514,
109.360,115.207,7.702,4.553,1.585,1.014,0.613,4.449,4.947,1.249,3.348,2.185,0.000,2.156,1.356,1.377,2.211,0.000,3.142,0.000,0.000,0.000,0.000,0.000,0.000,0.000,0.000,0.000,0.000,0.000,3.142,0.000,0.000,1.004,1.569,1.568,4.085,6.282,1.199,4.712,0.000,0.000,7.364,5.137,0.990,4.729,4.425,4.999,5.281,4.711,4.711,2.198,6.282,5.083,1.570,0.000,0.000,8.020,5.147,0.991,4.728,4.476,4.948,
109.460,115.308,7.699,4.673,1.601,1.011,6.270,4.332,4.855,1.241,3.387,2.233,0.000,2.117,0.894,1.387,4.842,0.000,3.142,0.000,0.000,0.000,0.000,0.000,0.000,0.000,0.000,0.000,0.000,0.000,3.142,6.282,0.000,1.004,1.569,1.569,4.085,6.281,1.199,4.712,0.000,0.000,7.353,5.252,0.990,4.743,4.557,4.866,5.281,4.711,4.711,2.198,6.282,5.083,1.570,0.000,0.000,8.008,5.272,0.990,4.743,4.561,4.863,
109.560,115.408,7.696,4.772,1.601,1.010,6.268,4.233,4.767,1.237,3.419,2.228,0.000,2.121,0.956,1.391,1.628,0.000,3.142,0.000,0.000,0.000,0.000,0.000,0.000,0.000,0.000,0.000,0.000,0.000,3.142,6.282,0.000,1.004,1.569,1.569,4.085,6.281,1.199,4.712,0.000,0.000,7.349,5.351,0.990,4.743,4.560,4.864,5.281,4.711,4.711,2.198,6.282,5.083,1.570,0.000,0.000,8.005,5.371,0.990,4.744,4.563,4.861,
109.660,115.508,7.694,4.851,1.601,1.012,6.268,4.153,4.762,1.235,3.444,2.224,0.000,2.125,1.358,1.393,1.575,0.000,3.142,0.000,0.000,0.000,0.000,0.000,0.000,0.000,0.000,0.000,0.000,0.000,3.142,6.282,0.000,1.004,1.569,1.569,4.085,6.281,1.199,4.712,0.000,0.000,7.347,5.430,0.990,4.744,4.561,4.863,5.281,4.711,4.711,2.198,6.282,5.083,1.570,0.000,0.000,8.003,5.450,0.990,4.744,4.564,4.860,
109.749,115.596,7.691,4.951,1.601,1.013,6.268,4.054,4.756,1.232,3.475,2.220,0.000,2.129,1.361,1.397,4.473,0.000,3.142,0.000,0.000,0.000,0.000,0.000,0.000,0.000,0.000,0.000,0.000,0.000,3.142,6.282,0.000,1.004,1.569,1.569,4.085,6.281,1.199,4.712,0.000,0.000,7.344,5.530,0.990,4.744,4.562,4.862,5.281,4.711,4.711,2.198,6.282,5.083,1.570,0.000,0.000,7.999,5.550,0.990,4.744,4.565,4.859,
109.841,115.688,7.687,5.070,1.602,1.012,6.268,3.934,4.748,1.228,1.221,2.214,0.000,2.134,1.365,1.401,4.329,0.000,3.142,0.000,0.000,0.000,0.000,0.000,0.000,0.000,0.000,0.000,0.000,0.000,3.142,6.282,0.000,1.004,1.569,1.569,4.085,6.281,1.199,4.712,0.000,0.000,7.340,5.649,0.990,4.744,4.562,4.861,5.281,4.711,4.711,2.198,6.282,5.083,1.570,0.000,0.000,7.996,5.670,0.990,4.744,4.567,4.857,
109.960,115.808,7.684,5.170,1.602,1.011,6.267,3.835,4.742,1.224,1.271,2.116,0.000,2.138,1.368,1.404,4.209,0.000,3.142,0.000,0.000,0.000,0.000,0.000,0.000,0.000,0.000,0.000,0.000,0.000,3.142,6.282,0.000,1.004,1.569,1.569,4.085,6.281,1.199,4.712,0.000,0.000,7.337,5.748,0.990,4.744,4.564,4.860,5.281,4.711,4.711,2.198,6.282,5.083,1.570,0.000,0.000,7.992,5.769,0.990,4.745,4.569,4.855,
110.060,115.908,7.681,5.269,1.602,1.012,6.267,3.735,4.735,0.000,1.268,2.123,0.000,2.143,1.371,1.408,4.089,0.000,3.142,0.000,0.000,0.000,0.000,0.000,0.000,0.000,0.000,0.000,0.000,0.000,3.142,6.282,0.000,1.004,1.569,1.569,4.085,6.281,1.199,4.712,0.000,0.000,7.333,5.848,0.990,4.745,4.565,4.859,5.281,4.711,4.711,2.198,6.282,5.083,1.570,0.000,0.000,7.989,5.869,0.990,4.745,4.570,4.854,
110.151,115.998,7.678,5.349,1.603,1.012,6.267,3.655,4.700,0.000,1.266,2.217,0.000,2.146,1.374,1.411,2.604,0.000,3.142,0.000,0.000,0.000,0.000,0.000,0.000,0.000,0.000,0.000,0.000,0.000,3.142,6.282,0.000,1.004,1.569,1.569,4.085,6.281,1.199,4.712,0.000,0.000,7.331,5.927,0.990,4.745,4.566,4.858,5.281,4.711,4.711,2.198,6.282,5.083,1.570,0.000,0.000,7.986,5.948,0.990,4.745,4.571,4.853,
110.252,116.099,7.675,5.448,1.603,1.012,6.266,3.556,4.573,0.000,1.262,2.334,0.000,2.150,1.377,1.414,2.484,0.000,3.142,0.000,0.000,0.000,0.000,0.000,0.000,0.000,0.000,0.000,0.000,0.000,3.142,6.282,0.000,1.004,1.569,1.569,4.085,6.281,1.199,4.712,0.000,0.000,7.327,6.027,0.990,4.745,4.568,4.856,5.281,4.711,4.711,2.198,6.282,5.083,1.570,0.000,0.000,7.983,6.048,0.990,4.745,4.573,4.851,
110.360,116.208,7.671,5.568,1.603,1.012,6.266,3.437,4.421,0.000,1.258,4.547,0.000,1.439,1.381,1.418,2.341,0.000,3.142,0.000,0.000,0.000,0.000,0.000,0.000,0.000,0.000,0.000,0.000,0.000,3.142,6.282,0.000,1.004,1.569,1.569,4.085,6.281,1.199,4.712,0.000,0.000,7.323,6.146,0.990,4.746,4.569,4.855,5.281,4.711,4.711,2.198,6.282,5.083,1.570,0.000,0.000,7.979,6.167,0.990,4.746,4.575,4.850,
110.460,116.308,7.668,5.667,1.604,1.012,0.027,3.337,4.296,0.000,1.255,4.662,0.000,1.470,1.384,1.422,2.337,0.000,3.142,0.000,0.000,0.000,0.000,0.000,0.000,0.000,0.000,0.000,0.000,0.000,3.142,6.283,0.000,1.003,1.570,1.570,4.086,6.281,1.199,4.712,0.000,0.000,7.320,6.245,0.990,4.746,4.563,4.861,5.281,4.711,4.712,2.198,6.282,5.083,1.570,0.000,0.000,7.975,6.267,0.990,4.746,4.588,4.836,
110.560,116.408,7.665,5.747,1.626,1.011,0.738,3.262,4.270,0.000,1.264,4.693,0.000,2.105,1.378,1.034,2.517,0.000,3.142,0.000,0.000,0.000,0.000,0.000,0.000,0.000,0.000,0.000,0.000,0.000,3.142,0.001,0.000,1.003,1.571,1.572,4.086,6.281,1.199,4.712,0.000,0.000,7.306,6.317,0.990,4.764,4.614,4.811,5.281,4.712,4.714,2.199,6.281,5.083,1.571,0.000,0.000,7.961,6.353,0.991,4.765,4.649,4.776,
110.657,116.504,7.657,5.846,1.728,1.012,1.435,3.203,4.095,0.000,1.319,2.618,0.000,1.891,1.358,0.000,3.044,0.000,3.142,0.000,0.000,0.000,0.000,0.000,0.000,0.000,0.000,0.000,0.000,0.000,3.142,0.002,0.000,1.003,1.571,1.571,4.086,6.281,1.199,4.712,0.000,0.000,7.242,6.377,0.990,4.868,4.683,4.741,5.282,4.713,4.713,2.198,6.282,5.083,1.571,0.000,0.000,7.890,6.480,0.991,4.868,4.694,4.731,
110.753,116.600,7.639,5.944,1.835,1.017,0.696,3.181,4.102,4.840,1.386,3.490,0.000,1.743,1.363,4.930,3.253,0.000,3.142,0.000,0.000,0.000,0.000,0.000,0.000,0.000,0.000,0.000,0.000,0.000,3.142,0.000,0.000,1.004,1.569,1.567,4.085,6.282,1.199,4.712,0.000,0.000,7.166,6.426,0.990,4.980,4.696,4.726,5.282,4.711,4.710,2.198,6.283,5.083,1.570,0.000,0.000,7.800,6.599,0.991,4.980,4.698,4.725,
110.860,116.708,7.612,6.041,1.847,1.017,6.269,3.092,4.007,4.812,1.365,3.531,3.469,1.761,1.389,4.672,3.136,0.000,3.106,0.000,0.000,0.000,0.000,0.000,0.000,0.000,0.000,0.000,0.000,0.000,3.142,6.282,0.000,1.004,1.569,1.569,4.084,6.281,1.199,4.712,0.000,0.000,7.135,6.518,0.990,4.990,4.696,4.728,5.281,4.711,4.711,2.197,6.282,5.083,1.570,0.000,0.000,7.765,6.697,0.990,4.990,4.694,4.729,
110.960,116.807,7.585,6.137,1.847,1.008,6.275,2.991,3.845,0.000,1.331,3.440,3.574,1.796,1.416,4.506,3.035,0.000,3.106,0.000,0.000,0.000,0.000,0.000,0.000,0.000,0.000,0.000,0.000,0.000,3.142,6.282,0.000,1.004,1.569,1.569,4.084,6.281,1.199,4.712,0.000,0.000,7.108,6.614,0.990,4.989,4.696,4.728,5.281,4.711,4.711,2.197,6.282,5.083,1.570,0.000,0.000,7.739,6.793,0.990,4.989,4.695,4.729,
111.042,116.889,7.552,6.251,1.846,1.010,6.274,2.871,3.653,1.719,1.297,3.334,3.697,1.837,1.448,4.355,2.914,0.000,3.106,0.000,0.000,0.000,0.000,0.000,0.000,0.000,0.000,0.000,0.000,0.000,3.142,6.282,0.000,1.004,1.569,1.569,4.084,6.281,1.199,4.712,0.000,0.000,7.075,6.728,0.990,4.989,4.696,4.728,5.281,4.711,4.711,2.197,6.282,5.083,1.570,0.000,0.000,7.706,6.907,0.990,4.989,4.695,4.729,
111.160,117.008,7.525,6.347,1.847,1.014,6.272,2.771,3.537,0.000,1.462,3.093,3.793,1.871,1.475,4.184,2.812,0.000,3.106,0.000,0.000,0.000,0.000,0.000,0.000,0.000,0.000,0.000,0.000,0.000,3.142,6.283,0.000,1.003,1.569,1.569,4.085,6.281,1.199,4.712,0.000,0.000,7.048,6.824,0.990,4.988,4.694,4.729,5.281,4.711,4.711,2.198,6.282,5.083,1.570,0.000,0.000,7.680,7.003,0.990,4.989,4.696,4.727,
111.260,117.108,7.498,6.443,1.872,1.011,0.799,2.644,3.455,0.000,1.571,3.431,0.000,1.869,1.452,1.843,2.687,0.000,3.142,0.000,0.000,0.000,0.000,0.000,0.000,0.000,0.000,0.000,0.000,0.000,3.142,0.001,0.000,1.003,1.571,1.572,4.086,6.281,1.199,4.712,0.000,0.000,7.011,6.909,0.990,5.010,4.695,4.729,5.281,4.712,4.714,2.199,6.281,5.083,1.571,0.000,0.000,7.637,7.103,0.991,5.011,4.701,4.723,
111.360,117.208,7.466,6.537,1.978,1.010,1.436,0.000,3.890,4.699,1.522,0.000,3.871,1.779,0.000,2.062,2.516,0.000,3.071,0.000,0.000,0.000,0.000,0.000,0.000,0.000,0.000,0.000,0.000,0.000,3.142,0.002,0.000,1.003,1.571,1.571,4.085,6.282,1.199,4.712,0.000,0.000,6.932,6.949,0.990,5.118,4.701,4.722,5.282,4.713,4.713,2.198,6.282,5.083,1.571,0.000,0.000,7.535,7.209,0.991,5.118,4.705,4.719,
111.460,117.308,7.424,6.628,2.094,1.018,1.091,0.000,4.151,4.880,1.482,0.000,3.156,1.723,0.000,2.382,2.382,0.000,2.966,0.000,0.000,0.000,0.000,0.000,0.000,0.000,0.000,0.000,0.000,0.000,3.142,0.001,0.000,1.003,1.570,1.569,4.085,6.282,1.199,4.712,0.000,0.000,6.844,6.974,0.990,5.237,4.704,4.719,5.282,4.712,4.711,2.198,6.283,5.083,1.570,0.000,0.000,7.413,7.302,0.991,5.236,4.706,4.717,
111.560,117.408,7.372,6.714,2.171,1.021,0.805,0.000,4.168,3.973,1.501,0.000,2.884,1.727,0.000,2.619,2.286,0.000,2.896,0.000,0.000,0.000,0.000,0.000,0.000,0.000,0.000,0.000,0.000,0.000,3.142,0.001,0.000,1.003,1.570,1.569,4.085,6.281,1.199,4.712,0.000,0.000,6.768,7.015,0.990,5.313,4.704,4.719,5.282,4.712,4.712,2.198,6.282,5.083,1.570,0.000,0.000,7.309,7.385,0.991,5.312,4.706,4.717,
111.660,117.508,7.314,6.796,2.245,1.010,0.974,2.879,4.929,3.450,1.546,0.000,2.700,1.695,0.000,2.621,2.208,0.000,2.826,0.000,0.000,0.000,0.000,0.000,0.000,0.000,0.000,0.000,0.000,0.000,3.142,0.001,0.000,1.003,1.570,1.570,4.086,6.281,1.199,4.712,0.000,0.000,6.689,7.051,0.990,5.386,4.704,4.718,5.282,4.712,4.713,2.198,6.282,5.083,1.570,0.000,0.000,7.202,7.461,0.991,5.386,4.707,4.716,
111.760,117.608,7.263,6.857,2.318,1.009,1.089,2.970,0.000,3.071,1.648,0.000,2.556,1.910,1.865,2.441,2.162,0.000,2.755,0.000,0.000,0.000,0.000,0.000,0.000,0.000,0.000,0.000,0.000,0.000,3.142,0.001,0.000,1.003,1.570,1.570,4.085,6.282,1.199,4.712,0.000,0.000,6.622,7.066,0.990,5.459,4.706,4.717,5.282,4.712,4.713,2.198,6.282,5.083,1.571,0.000,0.000,7.103,7.512,0.991,5.459,4.708,4.715,
111.860,117.708,7.179,6.942,2.429,1.015,1.022,3.215,0.000,2.677,1.877,0.000,2.406,0.000,2.138,2.223,2.112,0.000,2.650,0.000,0.000,0.000,0.000,0.000,0.000,0.000,0.000,0.000,0.000,0.000,3.142,0.001,0.000,1.003,1.570,1.570,4.085,6.282,1.199,4.712,0.000,0.000,6.518,7.078,0.990,5.571,4.706,4.715,5.282,4.712,4.712,2.198,6.282,5.083,1.570,0.000,0.000,6.947,7.575,0.991,5.570,4.708,4.715,
111.960,117.808,7.102,7.005,2.515,1.016,0.987,2.928,0.000,2.472,2.145,4.493,2.343,0.000,2.362,2.089,0.000,0.000,2.580,0.000,0.000,0.000,0.000,0.000,0.000,0.000,0.000,0.000,0.000,0.000,3.142,0.001,0.000,1.003,1.570,1.570,4.085,6.281,1.199,4.712,0.000,0.000,6.432,7.085,0.990,5.656,4.707,4.715,5.282,4.712,4.712,2.198,6.282,5.083,1.570,0.000,0.000,6.817,7.617,0.991,5.656,4.708,4.714,
112.047,117.894,7.019,7.062,2.601,1.014,1.003,2.777,0.000,1.968,2.442,4.719,1.800,0.000,2.641,1.984,0.000,0.000,2.510,0.000,0.000,0.000,0.000,0.000,0.000,0.000,0.000,0.000,0.000,0.000,3.142,0.001,0.000,1.003,1.570,1.570,4.086,6.281,1.199,4.712,0.000,0.000,6.345,7.084,0.990,5.742,4.707,4.714,5.282,4.712,4.712,2.198,6.282,5.083,1.570,0.000,0.000,6.683,7.647,0.991,5.741,4.708,4.714,
112.160,118.008,6.950,7.102,2.671,1.013,1.020,3.077,0.000,2.212,3.656,4.250,2.300,0.000,2.664,1.918,4.974,0.000,2.440,0.000,0.000,0.000,0.000,0.000,0.000,0.000,0.000,0.000,0.000,0.000,3.142,0.001,0.000,1.003,1.570,1.570,4.085,6.281,1.199,4.712,0.000,0.000,6.276,7.077,0.990,5.812,4.707,4.714,5.282,4.712,4.712,2.198,6.282,5.083,1.570,0.000,0.000,6.574,7.662,0.991,5.812,4.709,4.713,
112.260,118.108,6.842,7.153,2.777,1.014,1.014,3.450,4.211,2.084,0.000,3.772,2.257,2.237,2.360,1.848,0.000,0.000,2.369,0.000,0.000,0.000,0.000,0.000,0.000,0.000,0.000,0.000,0.000,0.000,3.142,0.001,0.000,1.003,1.570,1.570,4.085,6.282,1.199,4.712,0.000,0.000,6.174,7.057,0.990,5.918,4.707,4.713,5.282,4.712,4.712,2.198,6.282,5.083,1.570,0.000,0.000,6.409,7.670,0.991,5.918,4.709,4.713,
112.344,118.191,6.748,7.187,2.864,1.014,1.016,3.281,4.643,1.722,0.000,3.510,4.789,2.401,2.175,1.765,2.330,0.000,2.299,0.000,0.000,0.000,0.000,0.000,0.000,0.000,0.000,0.000,0.000,0.000,3.142,0.001,0.000,1.003,1.570,1.570,4.085,6.281,1.199,4.712,0.000,0.000,6.091,7.032,0.990,6.005,4.707,4.713,5.282,4.712,4.712,2.198,6.282,5.083,1.570,0.000,0.000,6.271,7.664,0.991,6.005,4.709,4.713,
112.460,118.308,6.671,7.207,2.934,1.014,1.017,4.191,3.995,1.943,0.000,3.359,0.000,2.556,2.060,0.000,2.447,0.000,3.142,0.000,0.000,0.000,0.000,0.000,0.000,0.000,0.000,0.000,0.000,0.000,3.142,0.001,0.000,1.003,1.570,1.570,4.085,6.281,1.199,4.712,0.000,0.000,6.026,7.008,0.990,6.075,4.708,4.712,5.282,4.712,4.712,2.198,6.282,5.083,1.570,0.000,0.000,6.162,7.650,0.991,6.075,4.709,4.712,
112.560,118.408,6.553,7.228,3.039,1.013,1.020,0.000,3.326,1.871,0.000,3.198,0.000,2.835,1.932,0.000,2.458,0.000,3.142,0.000,0.000,0.000,0.000,0.000,0.000,0.000,0.000,0.000,0.000,0.000,3.142,0.001,0.000,1.003,1.570,1.570,4.085,6.281,1.199,4.712,0.000,0.000,5.933,6.962,0.990,6.180,4.708,4.712,5.282,4.712,4.712,2.198,6.282,5.083,1.570,0.000,0.000,6.000,7.615,0.991,6.180,4.709,4.712,
112.660,118.508,6.473,7.235,3.109,1.014,1.020,0.000,3.001,1.830,0.000,3.126,0.000,2.859,1.872,0.000,2.222,0.000,3.142,0.000,0.000,0.000,0.000,0.000,0.000,0.000,0.000,0.000,0.000,0.000,3.142,0.001,0.000,1.003,1.570,1.570,4.085,6.281,1.199,4.712,0.000,0.000,5.874,6.927,0.990,6.250,4.708,4.711,5.282,4.712,4.712,2.198,6.282,5.083,1.570,0.000,0.000,5.895,7.583,0.991,6.250,4.709,4.712,
112.748,118.596,6.353,7.236,3.214,1.014,1.019,0.000,2.627,1.777,0.000,3.058,0.000,2.726,1.814,4.625,2.354,0.000,3.142,0.000,0.000,0.000,0.000,0.000,0.000,0.000,0.000,0.000,0.000,0.000,3.142,0.001,0.000,1.003,1.570,1.570,4.085,6.281,1.199,4.712,0.000,0.000,5.789,6.866,0.990,0.072,4.708,4.711,5.282,4.712,4.712,2.198,6.282,5.083,1.570,0.000,0.000,5.742,7.520,0.991,0.072,4.709,4.711,
112.860,118.708,6.254,7.226,3.281,1.015,0.391,0.000,2.433,1.746,0.000,3.060,2.722,2.545,1.748,1.928,3.425,0.000,3.071,0.000,0.000,0.000,0.000,0.000,0.000,0.000,0.000,0.000,0.000,0.000,3.142,6.283,0.000,1.004,1.569,1.567,4.085,6.282,1.199,4.712,0.000,0.000,5.717,6.817,0.990,0.142,4.708,4.710,5.281,4.711,4.710,2.198,6.283,5.083,1.570,0.000,0.000,5.625,7.467,0.991,0.142,4.708,4.711,
112.960,118.808,6.155,7.212,3.286,1.010,6.268,0.000,2.402,1.730,0.000,3.163,2.824,2.552,0.000,2.004,2.868,0.000,3.071,0.000,0.000,0.000,0.000,0.000,0.000,0.000,0.000,0.000,0.000,0.000,3.142,6.282,0.000,1.004,1.569,1.569,4.085,6.281,1.199,4.712,0.000,0.000,5.620,6.802,0.990,0.145,4.708,4.711,5.281,4.711,4.711,2.198,6.282,5.083,1.570,0.000,0.000,5.525,7.451,0.990,0.145,4.708,4.711,
113.060,118.908,6.057,7.198,3.286,1.010,6.269,0.000,2.381,1.716,0.000,3.272,2.923,2.572,0.000,2.020,2.758,0.000,3.071,0.000,0.000,0.000,0.000,0.000,0.000,0.000,0.000,0.000,0.000,0.000,3.142,6.282,0.000,1.004,1.569,1.569,4.085,6.281,1.199,4.712,0.000,0.000,5.522,6.788,0.990,0.145,4.708,4.711,5.281,4.711,4.711,2.198,6.282,5.083,1.570,0.000,0.000,5.427,7.437,0.990,0.145,4.708,4.711,
113.160,119.008,5.978,7.186,3.286,1.012,6.268,0.000,2.365,1.467,0.000,3.359,3.003,2.588,0.000,2.033,2.669,0.000,3.071,0.000,0.000,0.000,0.000,0.000,0.000,0.000,0.000,0.000,0.000,0.000,3.142,6.282,0.000,1.004,1.569,1.569,4.085,6.281,1.199,4.712,0.000,0.000,5.443,6.776,0.990,0.145,4.708,4.711,5.281,4.711,4.711,2.198,6.282,5.083,1.570,0.000,0.000,5.348,7.425,0.990,0.145,4.708,4.711,
113.260,119.108,5.860,7.169,3.286,1.013,6.268,0.000,2.340,1.687,0.000,3.490,3.122,2.612,0.000,2.053,2.537,0.000,3.071,0.000,0.000,0.000,0.000,0.000,0.000,0.000,0.000,0.000,0.000,0.000,3.142,6.282,0.000,1.004,1.569,1.569,4.085,6.281,1.199,4.712,0.000,0.000,5.325,6.759,0.990,0.145,4.708,4.711,5.281,4.711,4.711,2.198,6.282,5.083,1.570,0.000,0.000,5.230,7.408,0.990,0.145,4.708,4.711,
113.360,119.208,5.762,7.155,3.287,1.011,6.267,0.000,2.320,1.435,0.000,3.599,3.222,2.632,0.000,2.069,2.426,0.000,3.071,0.000,0.000,0.000,0.000,0.000,0.000,0.000,0.000,0.000,0.000,0.000,3.142,6.282,0.000,1.004,1.569,1.569,4.085,6.281,1.199,4.712,0.000,0.000,5.226,6.744,0.990,0.145,4.708,4.711,5.281,4.711,4.711,2.198,6.282,5.083,1.570,0.000,0.000,5.131,7.393,0.990,0.146,4.708,4.711,
113.460,119.308,5.663,7.140,3.287,1.011,6.267,0.000,2.299,0.845,0.000,3.708,3.322,2.652,0.000,2.086,2.315,0.000,3.071,0.000,0.000,0.000,0.000,0.000,0.000,0.000,0.000,0.000,0.000,0.000,3.142,6.282,0.000,1.004,1.569,1.569,4.085,6.281,1.199,4.712,0.000,0.000,5.128,6.730,0.990,0.146,4.708,4.711,5.281,4.711,4.711,2.198,6.282,5.083,1.570,0.000,0.000,5.033,7.379,0.990,0.146,4.708,4.711,
113.549,119.397,5.565,7.126,3.287,1.012,6.267,0.000,2.278,1.643,1.841,3.817,3.421,2.672,0.000,1.909,2.205,0.000,3.106,0.000,0.000,0.000,0.000,0.000,0.000,0.000,0.000,0.000,0.000,0.000,3.142,6.282,0.000,1.004,1.569,1.569,4.085,6.281,1.199,4.712,0.000,0.000,5.030,6.715,0.990,0.146,4.708,4.711,5.281,4.711,4.711,2.198,6.282,5.083,1.570,0.000,0.000,4.934,7.364,0.990,0.146,4.708,4.711,
113.660,119.508,5.486,7.114,3.287,1.012,6.267,0.000,2.261,1.631,1.828,3.904,3.501,2.688,0.000,1.734,2.116,0.000,3.106,0.000,0.000,0.000,0.000,0.000,0.000,0.000,0.000,0.000,0.000,0.000,3.142,6.282,0.000,1.004,1.569,1.569,4.085,6.281,1.199,4.712,0.000,0.000,4.951,6.704,0.990,0.146,4.708,4.711,5.281,4.711,4.711,2.198,6.282,5.083,1.570,0.000,0.000,4.855,7.353,0.990,0.146,4.708,4.711,
113.760,119.608,5.368,7.097,3.288,1.012,0.019,0.000,2.235,1.614,0.898,4.034,3.621,2.710,0.000,1.518,2.070,0.000,3.106,0.000,0.000,0.000,0.000,0.000,0.000,0.000,0.000,0.000,0.000,0.000,3.142,6.283,0.000,1.003,1.569,1.569,4.086,6.281,1.199,4.712,0.000,0.000,4.833,6.686,0.990,0.146,4.707,4.711,5.281,4.711,4.712,2.198,6.282,5.083,1.570,0.000,0.000,4.737,7.335,0.990,0.146,4.708,4.711,
113.851,119.698,5.270,7.082,3.313,1.011,0.504,0.000,2.163,1.593,1.816,4.096,3.786,2.666,0.000,1.555,2.211,0.000,3.071,0.000,0.000,0.000,0.000,0.000,0.000,0.000,0.000,0.000,0.000,0.000,3.142,0.000,0.000,1.003,1.570,1.570,4.086,6.281,1.199,4.712,0.000,0.000,4.745,6.659,0.990,0.170,4.707,4.711,5.281,4.712,4.712,2.198,6.282,5.083,1.570,0.000,0.000,4.633,7.305,0.991,0.170,4.709,4.711,
113.960,119.808,5.191,7.068,3.338,1.012,0.269,0.000,2.095,1.575,1.827,4.136,3.883,2.622,1.893,1.593,2.288,0.000,3.036,0.000,0.000,0.000,0.000,0.000,0.000,0.000,0.000,0.000,0.000,0.000,3.142,6.283,0.000,1.004,1.569,1.568,4.085,6.281,1.199,4.712,0.000,0.000,4.678,6.630,0.990,0.198,4.707,4.710,5.281,4.711,4.711,2.198,6.282,5.083,1.570,0.000,0.000,4.550,7.274,0.991,0.198,4.708,4.711,
114.060,119.908,5.074,7.045,3.343,1.012,6.263,0.000,2.055,1.551,0.878,4.254,4.007,2.642,1.966,1.625,2.381,0.000,3.036,0.000,0.000,0.000,0.000,0.000,0.000,0.000,0.000,0.000,0.000,0.000,3.142,6.283,0.000,1.004,1.569,1.569,4.085,6.281,1.199,4.712,0.000,0.000,4.563,6.605,0.990,0.201,4.707,4.710,5.281,4.711,4.711,2.198,6.282,5.083,1.570,0.000,0.000,4.431,7.248,0.990,0.202,4.708,4.711,
114.160,120.008,4.977,7.025,3.344,1.012,6.262,0.000,2.027,1.531,1.516,4.358,4.107,2.667,1.986,1.649,2.435,0.000,3.036,0.000,0.000,0.000,0.000,0.000,0.000,0.000,0.000,0.000,0.000,0.000,3.142,6.282,0.000,1.004,1.569,1.569,4.085,6.281,1.199,4.712,0.000,0.000,4.466,6.584,0.990,0.202,4.707,4.710,5.281,4.711,4.711,2.198,6.282,5.083,1.570,0.000,0.000,4.334,7.227,0.990,0.202,4.708,4.711,
114.260,120.108,4.899,7.009,3.344,1.012,6.263,0.000,2.005,1.514,1.764,4.442,4.187,2.620,2.002,1.668,2.477,0.000,3.036,0.000,0.000,0.000,0.000,0.000,0.000,0.000,0.000,0.000,0.000,0.000,3.142,6.282,0.000,1.004,1.569,1.569,4.085,6.281,1.199,4.712,0.000,0.000,4.388,6.568,0.990,0.203,4.707,4.710,5.281,4.711,4.711,2.198,6.282,5.083,1.570,0.000,0.000,4.256,7.211,0.990,0.203,4.708,4.711,
114.360,120.208,4.782,6.985,3.345,1.012,6.263,0.000,1.972,1.490,1.462,4.567,4.307,2.651,2.026,1.696,2.542,0.000,3.036,0.000,0.000,0.000,0.000,0.000,0.000,0.000,0.000,0.000,0.000,0.000,3.142,6.282,0.000,1.004,1.569,1.569,4.085,6.281,1.199,4.712,0.000,0.000,4.271,6.544,0.990,0.204,4.707,4.710,5.281,4.711,4.711,2.198,6.282,5.083,1.570,0.000,0.000,4.139,7.186,0.990,0.204,4.708,4.711,
114.460,120.308,4.684,6.965,3.345,1.012,6.264,0.000,1.944,1.470,1.714,4.672,4.407,2.718,2.046,2.357,2.595,0.000,3.036,0.000,0.000,0.000,0.000,0.000,0.000,0.000,0.000,0.000,0.000,0.000,3.142,6.282,0.000,1.004,1.569,1.569,4.085,6.281,1.199,4.712,0.000,0.000,4.174,6.523,0.990,0.204,4.707,4.710,5.281,4.711,4.711,2.198,6.282,5.083,1.570,0.000,0.000,4.041,7.166,0.990,0.204,4.708,4.711,
114.560,120.408,4.606,6.948,3.346,1.012,6.264,0.000,1.922,1.454,1.695,4.755,4.487,2.836,2.062,2.376,2.638,0.000,3.036,0.000,0.000,0.000,0.000,0.000,0.000,0.000,0.000,0.000,0.000,0.000,3.142,6.282,0.000,1.004,1.569,1.569,4.085,6.281,1.199,4.712,0.000,0.000,4.096,6.507,0.990,0.205,4.708,4.710,5.281,4.711,4.711,2.198,6.282,5.083,1.570,0.000,0.000,3.963,7.149,0.990,0.205,4.708,4.711,
114.660,120.508,4.489,6.924,3.347,1.012,6.264,0.000,1.889,1.429,1.668,4.880,4.607,3.023,1.534,1.764,2.703,0.000,3.036,0.000,0.000,0.000,0.000,0.000,0.000,0.000,0.000,0.000,0.000,0.000,3.142,6.282,0.000,1.004,1.569,1.569,4.085,6.281,1.199,4.712,0.000,0.000,3.980,6.482,0.990,0.205,4.708,4.710,5.281,4.711,4.711,2.198,6.282,5.083,1.570,0.000,0.000,3.846,7.125,0.990,0.205,4.708,4.711,
114.760,120.608,4.392,6.904,3.347,1.012,6.264,0.000,1.861,1.409,1.644,4.985,4.707,3.368,1.554,1.570,2.757,0.000,3.036,0.000,0.000,0.000,0.000,0.000,0.000,0.000,0.000,0.000,0.000,0.000,3.142,6.282,0.000,1.004,1.569,1.569,4.085,6.281,1.199,4.712,0.000,0.000,3.882,6.462,0.990,0.206,4.708,4.710,5.281,4.711,4.711,2.198,6.282,5.083,1.570,0.000,0.000,3.748,7.104,0.990,0.206,4.708,4.711,
