deveshdatwani/Gopher/Assets/Data/07-14 10-53-59/Obstacle Handling_robot_value.csv
game_time,true_time,x,y,az,vx,vaz,dis_to_obs_0,dis_to_obs_36,dis_to_obs_72,dis_to_obs_108,dis_to_obs_144,dis_to_obs_180,dis_to_obs_-144,dis_to_obs_-108,dis_to_obs_-72,dis_to_obs_-36,dis_to_min_obs,direction_to_min_obs,dis_to_human_0,dis_to_human_36,dis_to_human_72,dis_to_human_108,dis_to_human_144,dis_to_human_180,dis_to_human_-144,dis_to_human_-108,dis_to_human_-72,dis_to_human_-36,dis_to_min_human,direction_to_min_human,main_cam_yaw,main_cam_pitch,left_joint_1,left_joint_2,left_joint_3,left_joint_4,left_joint_5,left_joint_6,left_joint_7,left_joint_gripper,left_is_grasping,left_end_x,left_end_y,left_end_z,left_end_ax,left_end_ay,left_end_az,right_joint_1,right_joint_2,right_joint_3,right_joint_4,right_joint_5,right_joint_6,right_joint_7,right_joint_gripper,right_is_grasping,right_end_x,right_end_y,right_end_z,right_end_ax,right_end_ay,right_end_az,
28.493,38.610,0.562,-9.996,1.983,1.001,6.277,3.517,1.364,0.844,1.024,4.989,4.597,2.821,2.452,0.000,3.128,0.000,3.106,0.000,0.000,0.000,0.000,0.000,0.000,0.000,0.000,0.000,0.000,0.000,3.142,6.283,0.000,1.801,1.897,1.798,4.286,0.398,1.000,4.711,0.000,0.000,0.257,-9.711,0.550,5.538,3.513,5.790,4.482,4.384,4.484,1.997,5.883,5.283,1.571,0.000,0.000,0.558,-9.579,0.550,5.567,3.575,5.639,
28.600,38.717,0.522,-9.906,1.983,0.994,6.277,3.418,1.285,0.889,0.970,0.000,4.695,2.866,2.251,0.000,3.476,0.000,3.106,0.000,0.000,0.000,0.000,0.000,0.000,0.000,0.000,0.000,0.000,0.000,3.142,6.282,0.000,1.839,1.897,1.798,4.285,0.398,0.999,4.711,0.000,0.000,0.225,-9.638,0.535,5.569,3.488,5.806,4.445,4.383,4.484,1.997,5.882,5.283,1.571,0.000,0.000,0.527,-9.507,0.535,5.598,3.548,5.657,
28.682,38.799,0.491,-9.834,1.983,1.003,6.278,3.339,1.221,0.926,0.927,3.678,4.775,2.903,2.123,4.961,3.403,0.000,3.106,0.000,0.000,0.000,0.000,0.000,0.000,0.000,0.000,0.000,0.000,0.000,3.142,6.282,0.000,1.861,1.897,1.798,4.286,0.398,0.999,4.711,0.000,0.000,0.199,-9.577,0.526,5.589,3.473,5.815,4.422,4.384,4.484,1.997,5.883,5.283,1.571,0.000,0.000,0.500,-9.445,0.526,5.617,3.533,5.667,
28.795,38.912,0.443,-9.724,1.983,1.019,6.279,3.218,1.125,0.981,0.861,3.415,4.896,2.959,2.171,4.798,3.291,0.000,3.106,0.000,0.000,0.000,0.000,0.000,0.000,0.000,0.000,0.000,0.000,0.000,3.142,6.282,0.000,1.899,1.897,1.798,4.285,0.398,0.999,4.711,0.000,0.000,0.159,-9.485,0.512,5.621,3.449,5.829,4.385,4.383,4.484,1.997,5.882,5.283,1.571,0.000,0.000,0.460,-9.354,0.513,5.648,3.508,5.683,
28.900,39.017,0.403,-9.632,1.983,1.006,6.280,3.117,1.044,1.028,0.810,3.196,4.997,3.005,2.211,4.662,3.197,0.000,3.106,0.000,0.000,0.000,0.000,0.000,0.000,0.000,0.000,0.000,0.000,0.000,3.142,6.282,0.000,1.938,1.897,1.798,4.285,0.398,0.999,4.711,0.000,0.000,0.128,-9.414,0.498,5.656,3.425,5.843,4.345,4.383,4.484,1.997,5.882,5.283,1.571,0.000,0.000,0.429,-9.282,0.499,5.683,3.483,5.699,
28.984,39.101,0.363,-9.541,1.983,1.002,6.280,3.017,0.965,1.073,0.846,2.979,0.000,3.051,2.251,4.528,3.105,0.000,3.142,0.000,0.000,0.000,0.000,0.000,0.000,0.000,0.000,0.000,0.000,0.000,3.142,6.282,0.000,1.961,1.897,1.798,4.286,0.398,0.999,4.711,0.000,0.000,0.093,-9.335,0.491,5.676,3.412,5.850,4.323,4.384,4.484,1.997,5.882,5.283,1.571,0.000,0.000,0.394,-9.204,0.491,5.702,3.469,5.707,
29.100,39.217,0.323,-9.450,1.983,1.010,6.281,2.917,0.884,1.120,0.883,2.761,0.000,3.097,2.291,4.392,3.012,0.000,3.142,0.000,0.000,0.000,0.000,0.000,0.000,0.000,0.000,0.000,0.000,0.000,3.142,6.282,0.000,1.998,1.897,1.798,4.285,0.398,0.999,4.711,0.000,0.000,0.062,-9.264,0.479,5.709,3.391,5.860,4.285,4.384,4.484,1.997,5.882,5.283,1.571,0.000,0.000,0.363,-9.132,0.479,5.735,3.448,5.720,
29.186,39.303,0.284,-9.360,1.982,0.979,6.283,2.817,0.000,1.165,0.919,2.545,0.000,3.143,2.731,3.600,2.919,0.000,3.142,0.000,0.000,0.000,0.000,0.000,0.000,0.000,0.000,0.000,0.000,0.000,3.142,6.283,0.000,2.020,1.897,1.798,4.286,0.398,1.000,4.711,0.000,0.000,0.028,-9.185,0.472,5.729,3.379,5.867,4.263,4.384,4.484,1.997,5.882,5.283,1.571,0.000,0.000,0.329,-9.053,0.473,5.754,3.435,5.727,
29.300,39.417,0.249,-9.279,1.983,0.765,6.283,2.729,0.000,0.919,0.951,2.355,0.000,3.184,0.000,3.565,0.000,0.000,3.142,0.000,0.000,0.000,0.000,0.000,0.000,0.000,0.000,0.000,0.000,0.000,3.142,0.001,0.000,2.056,1.897,1.799,4.286,0.397,1.000,4.712,0.000,0.000,0.001,-9.124,0.462,5.761,3.359,5.877,4.226,4.383,4.485,1.998,5.882,5.284,1.571,0.000,0.000,0.303,-8.993,0.462,5.786,3.415,5.739,
29.400,39.517,0.228,-9.233,1.983,0.549,6.283,2.677,0.000,0.868,0.969,2.245,0.000,3.207,0.000,4.068,0.000,0.000,3.142,0.000,0.000,0.000,0.000,0.000,0.000,0.000,0.000,0.000,0.000,0.000,3.142,0.000,0.000,2.079,1.897,1.799,4.286,0.397,1.000,4.712,0.000,0.000,-0.014,-9.090,0.456,5.781,3.348,5.881,4.203,4.383,4.485,1.997,5.882,5.284,1.571,0.000,0.000,0.288,-8.959,0.456,5.806,3.402,5.745,
29.500,39.617,0.206,-9.182,1.983,0.434,6.283,2.622,0.000,0.813,0.989,2.127,0.000,3.232,0.000,3.993,0.000,0.000,3.142,0.000,0.000,0.000,0.000,0.000,0.000,0.000,0.000,0.000,0.000,0.000,3.142,6.283,0.000,2.100,1.897,1.798,4.285,0.398,1.000,4.711,0.000,0.000,-0.031,-9.052,0.451,5.800,3.338,5.884,4.183,4.384,4.484,1.998,5.882,5.283,1.570,0.000,0.000,0.271,-8.920,0.451,5.824,3.392,5.749,
29.600,39.717,0.193,-9.151,1.983,0.436,6.283,2.588,0.000,0.779,1.002,2.052,0.000,3.248,0.000,3.947,0.000,0.000,3.142,0.000,0.000,0.000,0.000,0.000,0.000,0.000,0.000,0.000,0.000,0.000,3.142,6.282,0.000,2.100,1.897,1.798,4.285,0.398,1.000,4.711,0.000,0.000,-0.044,-9.021,0.451,5.800,3.338,5.884,4.183,4.384,4.484,1.998,5.882,5.283,1.570,0.000,0.000,0.257,-8.889,0.451,5.824,3.392,5.749,
29.700,39.817,0.174,-9.109,1.983,0.344,0.000,2.542,0.000,0.732,1.019,1.951,0.000,3.270,0.000,3.885,0.000,0.000,3.142,0.000,0.000,0.000,0.000,0.000,0.000,0.000,0.000,0.000,0.000,0.000,3.142,6.283,0.000,2.100,1.897,1.799,4.285,0.398,1.000,4.711,0.000,0.000,-0.063,-8.978,0.451,5.800,3.338,5.885,4.183,4.383,4.484,1.998,5.882,5.283,1.571,0.000,0.000,0.239,-8.846,0.451,5.824,3.392,5.750,
29.785,39.902,0.163,-9.084,1.982,0.238,0.011,2.514,0.000,0.705,1.028,1.891,0.000,3.283,0.000,3.848,0.000,0.000,3.142,0.000,0.000,0.000,0.000,0.000,0.000,0.000,0.000,0.000,0.000,0.000,3.142,6.283,0.000,2.100,1.897,1.799,4.285,0.398,1.000,4.711,0.000,0.000,-0.074,-8.953,0.451,5.800,3.338,5.885,4.183,4.384,4.484,1.998,5.882,5.283,1.570,0.000,0.000,0.228,-8.822,0.451,5.824,3.392,5.750,
29.900,40.017,0.155,-9.066,1.982,0.204,0.001,2.494,0.000,0.685,1.036,1.847,0.000,3.292,0.000,3.821,0.000,0.000,3.142,0.000,0.000,0.000,0.000,0.000,0.000,0.000,0.000,0.000,0.000,0.000,3.142,6.283,0.000,2.100,1.897,1.798,4.285,0.398,1.000,4.711,0.000,0.000,-0.082,-8.935,0.451,5.800,3.338,5.885,4.183,4.384,4.484,1.998,5.882,5.283,1.570,0.000,0.000,0.220,-8.804,0.451,5.824,3.392,5.749,
29.988,40.106,0.149,-9.051,1.982,0.111,6.282,2.477,0.000,0.668,1.042,1.812,0.000,3.299,0.000,3.798,0.000,0.000,3.142,0.000,0.000,0.000,0.000,0.000,0.000,0.000,0.000,0.000,0.000,0.000,3.142,0.000,0.000,2.099,1.897,1.799,4.285,0.398,1.000,4.712,0.000,0.000,-0.088,-8.919,0.451,5.799,3.338,5.886,4.183,4.383,4.485,1.998,5.882,5.284,1.571,0.000,0.000,0.213,-8.788,0.451,5.823,3.392,5.750,
30.100,40.217,0.148,-9.049,1.985,-0.022,0.123,2.479,0.000,0.668,1.042,1.833,0.000,3.295,0.000,3.786,0.000,0.000,3.142,0.000,0.000,0.000,0.000,0.000,0.000,0.000,0.000,0.000,0.000,0.000,3.142,0.001,0.000,2.099,1.897,1.799,4.286,0.398,1.001,4.712,0.000,0.000,-0.089,-8.919,0.451,5.800,3.339,5.884,4.182,4.383,4.485,1.998,5.882,5.284,1.571,0.000,0.000,0.213,-8.787,0.451,5.824,3.393,5.749,
30.180,40.297,0.149,-9.051,1.995,-0.024,0.299,2.492,0.000,0.675,1.042,1.945,0.000,3.275,0.000,3.745,0.000,0.000,3.142,0.000,0.000,0.000,0.000,0.000,0.000,0.000,0.000,0.000,0.000,0.000,3.142,0.001,0.000,2.100,1.897,1.799,4.285,0.398,1.000,4.712,0.000,0.000,-0.090,-8.923,0.451,5.802,3.344,5.872,4.182,4.383,4.485,1.998,5.882,5.284,1.571,0.000,0.000,0.210,-8.787,0.451,5.827,3.398,5.737,
30.298,40.415,0.149,-9.052,2.023,-0.022,0.308,2.528,0.000,0.691,1.041,2.316,0.000,3.225,0.000,3.641,0.000,0.000,3.142,0.000,0.000,0.000,0.000,0.000,0.000,0.000,0.000,0.000,0.000,0.000,3.142,0.001,0.000,2.100,1.897,1.799,4.285,0.398,1.000,4.712,0.000,0.000,-0.092,-8.931,0.451,5.808,3.358,5.842,4.182,4.383,4.485,1.998,5.882,5.284,1.571,0.000,0.000,0.203,-8.787,0.451,5.834,3.411,5.707,
30.400,40.517,0.150,-9.053,2.038,-0.013,0.198,0.000,0.000,0.701,1.041,2.587,4.564,3.200,0.000,3.588,0.000,0.000,3.106,0.000,0.000,0.000,0.000,0.000,0.000,0.000,0.000,0.000,0.000,0.000,3.142,0.001,0.000,2.100,1.897,1.799,4.285,0.398,1.000,4.712,0.000,0.000,-0.094,-8.936,0.451,5.811,3.366,5.825,4.182,4.383,4.485,1.998,5.882,5.284,1.571,0.000,0.000,0.200,-8.787,0.451,5.838,3.418,5.691,
30.491,40.608,0.150,-9.054,2.048,-0.004,0.202,0.000,0.000,0.708,1.041,2.798,4.477,3.184,0.000,3.555,0.000,0.000,3.106,0.000,0.000,0.000,0.000,0.000,0.000,0.000,0.000,0.000,0.000,0.000,3.142,0.001,0.000,2.100,1.897,1.799,4.285,0.398,1.000,4.712,0.000,0.000,-0.095,-8.938,0.451,5.813,3.370,5.814,4.182,4.383,4.485,1.998,5.882,5.284,1.571,0.000,0.000,0.198,-8.787,0.451,5.841,3.422,5.681,
30.600,40.717,0.150,-9.054,2.060,0.003,0.218,0.000,0.000,0.715,1.042,3.126,4.370,3.164,0.000,3.512,0.000,0.000,3.106,0.000,0.000,0.000,0.000,0.000,0.000,0.000,0.000,0.000,0.000,0.000,3.142,0.001,0.000,2.100,1.897,1.799,4.285,0.398,1.000,4.712,0.000,0.000,-0.096,-8.941,0.451,5.816,3.377,5.801,4.182,4.383,4.485,1.998,5.882,5.284,1.571,0.000,0.000,0.194,-8.787,0.451,5.844,3.428,5.667,
30.684,40.801,0.150,-9.053,2.069,0.002,0.169,0.000,0.000,0.721,1.042,3.394,4.302,3.152,0.000,3.484,0.000,0.000,3.071,0.000,0.000,0.000,0.000,0.000,0.000,0.000,0.000,0.000,0.000,0.000,3.142,0.001,0.000,2.100,1.897,1.799,4.285,0.398,1.000,4.712,0.000,0.000,-0.097,-8.943,0.451,5.818,3.381,5.791,4.182,4.383,4.485,1.998,5.882,5.284,1.571,0.000,0.000,0.192,-8.786,0.451,5.847,3.432,5.658,
30.800,40.917,0.150,-9.053,2.076,-0.003,0.110,0.000,0.000,0.725,1.043,3.642,4.249,3.142,0.000,3.462,0.000,0.000,3.071,0.000,0.000,0.000,0.000,0.000,0.000,0.000,0.000,0.000,0.000,0.000,3.142,0.001,0.000,2.100,1.897,1.799,4.285,0.398,1.000,4.712,0.000,0.000,-0.098,-8.945,0.451,5.820,3.384,5.784,4.182,4.383,4.485,1.998,5.882,5.284,1.571,0.000,0.000,0.190,-8.786,0.451,5.849,3.435,5.651,
30.900,41.017,0.150,-9.053,2.079,-0.006,0.120,4.980,0.000,0.727,1.043,3.795,4.249,3.136,0.000,3.450,0.000,0.000,3.071,0.000,0.000,0.000,0.000,0.000,0.000,0.000,0.000,0.000,0.000,0.000,3.142,0.001,0.000,2.100,1.897,1.799,4.285,0.398,1.000,4.712,0.000,0.000,-0.098,-8.946,0.451,5.821,3.386,5.780,4.182,4.383,4.485,1.998,5.882,5.284,1.571,0.000,0.000,0.189,-8.786,0.451,5.850,3.436,5.647,
31.000,41.117,0.150,-9.053,2.085,-0.004,0.115,4.928,0.000,0.732,1.043,4.075,4.263,3.127,0.000,3.432,0.000,0.000,3.071,0.000,0.000,0.000,0.000,0.000,0.000,0.000,0.000,0.000,0.000,0.000,3.142,0.001,0.000,2.100,1.897,1.799,4.285,0.398,1.000,4.712,0.000,0.000,-0.099,-8.947,0.451,5.822,3.389,5.773,4.182,4.383,4.485,1.998,5.882,5.284,1.571,0.000,0.000,0.188,-8.786,0.451,5.852,3.439,5.641,
31.100,41.907,0.150,-9.053,2.089,0.000,0.099,4.902,0.000,0.734,1.043,4.241,4.271,3.123,0.000,3.422,0.000,0.000,3.071,0.000,0.000,0.000,0.000,0.000,0.000,0.000,0.000,0.000,0.000,0.000,3.142,0.001,0.000,2.100,1.897,1.799,4.285,0.398,1.000,4.712,0.000,0.000,-0.099,-8.948,0.451,5.823,3.390,5.770,4.182,4.383,4.485,1.998,5.882,5.284,1.571,0.000,0.000,0.187,-8.786,0.451,5.853,3.441,5.638,
31.200,42.007,0.139,-9.035,2.102,0.542,0.074,4.845,0.000,0.717,1.050,0.000,4.325,3.117,0.000,0.000,0.000,0.000,3.036,0.000,0.000,0.000,0.000,0.000,0.000,0.000,0.000,1.745,0.000,0.000,3.142,6.280,6.283,2.105,1.898,1.797,4.285,0.399,0.997,4.709,0.000,0.000,-0.111,-8.936,0.450,5.830,3.398,5.752,4.182,4.385,4.482,1.997,5.883,5.283,1.570,0.000,0.000,0.172,-8.768,0.451,5.859,3.447,5.620,
31.300,42.107,0.101,-8.970,2.102,0.861,6.282,4.771,0.000,0.627,1.069,4.394,4.403,3.157,0.000,0.000,0.000,0.000,3.036,0.000,0.000,0.000,0.000,0.000,0.000,0.000,0.000,1.839,0.000,0.000,3.142,6.283,0.000,2.100,1.897,1.798,4.285,0.398,1.000,4.711,0.000,0.000,-0.150,-8.868,0.451,5.827,3.397,5.754,4.183,4.384,4.484,1.998,5.882,5.284,1.571,0.000,0.000,0.134,-8.701,0.451,5.857,3.447,5.622,
31.400,42.207,0.069,-8.915,2.103,0.379,6.281,4.708,0.000,0.550,1.085,3.925,4.468,3.192,0.000,3.195,0.000,0.000,3.036,0.000,0.000,0.000,0.000,0.000,0.000,0.000,0.000,0.000,0.000,0.000,3.142,0.002,0.001,2.096,1.897,1.800,4.285,0.397,1.002,4.713,0.000,0.000,-0.183,-8.811,0.452,5.824,3.397,5.756,4.184,4.382,4.486,1.999,5.881,5.284,1.571,0.000,0.000,0.101,-8.645,0.452,5.855,3.447,5.624,
31.500,42.315,0.062,-8.903,2.103,0.052,6.282,4.695,0.000,0.533,1.089,3.838,4.483,3.199,0.000,3.178,0.000,0.000,3.036,0.000,0.000,0.000,0.000,0.000,0.000,0.000,0.000,0.000,0.000,0.000,3.142,0.001,0.001,2.098,1.897,1.799,4.285,0.397,1.001,4.712,0.000,0.000,-0.190,-8.800,0.451,5.826,3.398,5.754,4.183,4.383,4.485,1.998,5.882,5.284,1.571,0.000,0.000,0.094,-8.634,0.452,5.856,3.447,5.622,
31.600,42.415,0.057,-8.895,2.104,0.221,6.281,4.687,0.000,0.522,1.091,3.782,4.493,3.204,0.000,0.000,0.000,0.000,3.036,0.000,0.000,0.000,0.000,0.000,0.000,0.000,0.000,1.364,0.000,0.000,3.142,6.281,0.000,2.102,1.897,1.798,4.285,0.398,0.999,4.711,0.000,0.000,-0.194,-8.794,0.451,5.828,3.398,5.751,4.182,4.384,4.483,1.997,5.882,5.283,1.570,0.000,0.000,0.089,-8.627,0.451,5.858,3.448,5.620,
31.700,42.515,0.041,-8.868,2.104,0.371,6.282,4.656,0.000,0.485,1.099,3.544,4.524,3.221,0.000,0.000,0.000,0.000,3.036,0.000,0.000,0.000,0.000,0.000,0.000,0.000,0.000,1.354,0.000,0.000,3.142,6.282,0.000,2.101,1.897,1.798,4.285,0.398,1.000,4.711,0.000,0.000,-0.210,-8.767,0.451,5.827,3.398,5.752,4.183,4.384,4.484,1.998,5.882,5.283,1.571,0.000,0.000,0.074,-8.600,0.451,5.858,3.448,5.620,
31.800,42.615,0.028,-8.845,2.104,0.116,6.281,4.630,0.000,0.501,1.106,3.354,4.552,3.235,0.000,0.000,0.000,0.000,3.036,0.000,0.000,0.000,0.000,0.000,0.000,0.000,0.000,1.348,0.000,0.000,3.142,0.001,0.001,2.098,1.897,1.800,4.285,0.397,1.001,4.712,0.000,0.000,-0.223,-8.743,0.451,5.826,3.398,5.754,4.183,4.383,4.485,1.998,5.881,5.284,1.571,0.000,0.000,0.060,-8.576,0.452,5.856,3.448,5.622,
31.900,42.715,0.029,-8.847,2.112,-0.095,0.220,4.656,0.000,0.495,1.106,3.870,4.572,3.222,0.000,3.080,0.000,0.000,3.036,0.000,0.000,0.000,0.000,0.000,0.000,0.000,0.000,0.000,0.000,0.000,3.142,0.002,0.000,2.099,1.897,1.800,4.286,0.397,1.001,4.712,0.000,0.000,-0.223,-8.747,0.451,5.828,3.401,5.745,4.182,4.383,4.486,1.998,5.881,5.284,1.571,0.000,0.000,0.059,-8.578,0.451,5.859,3.450,5.614,
32.000,42.815,0.033,-8.854,2.124,-0.067,0.181,4.697,0.000,0.484,1.105,0.000,4.576,3.203,0.000,3.060,0.000,0.000,3.036,0.000,0.000,0.000,0.000,0.000,0.000,0.000,0.000,0.000,0.000,0.000,3.142,0.001,6.283,2.100,1.897,1.799,4.285,0.398,1.000,4.711,0.000,0.000,-0.220,-8.758,0.451,5.832,3.407,5.732,4.182,4.383,4.485,1.998,5.882,5.284,1.571,0.000,0.000,0.060,-8.585,0.451,5.863,3.455,5.601,
32.100,42.915,0.034,-8.855,2.132,-0.004,0.176,4.724,0.000,0.480,1.106,0.000,4.523,3.191,0.000,3.041,0.000,0.000,3.036,0.000,0.000,0.000,0.000,0.000,0.000,0.000,0.000,0.000,0.000,0.000,3.142,0.001,0.000,2.100,1.897,1.799,4.285,0.398,1.000,4.711,0.000,0.000,-0.220,-8.761,0.451,5.834,3.411,5.723,4.182,4.383,4.485,1.998,5.882,5.284,1.571,0.000,0.000,0.059,-8.586,0.451,5.866,3.459,5.592,
32.200,43.015,0.033,-8.854,2.145,0.016,0.214,4.763,0.000,0.485,1.108,0.000,4.561,3.176,0.000,3.009,0.000,0.000,3.001,0.000,0.000,0.000,0.000,0.000,0.000,0.000,0.000,0.000,0.000,0.000,3.142,0.001,0.000,2.100,1.897,1.799,4.285,0.398,1.000,4.712,0.000,0.000,-0.222,-8.763,0.451,5.838,3.417,5.710,4.182,4.383,4.485,1.998,5.882,5.284,1.571,0.000,0.000,0.055,-8.585,0.451,5.870,3.465,5.579,
32.300,43.115,0.033,-8.854,2.155,0.005,0.207,4.796,0.000,0.490,1.110,0.000,4.592,3.164,0.000,2.984,0.000,0.000,3.001,0.000,0.000,0.000,0.000,0.000,0.000,0.000,0.000,0.000,0.000,0.000,3.142,0.001,0.000,2.100,1.897,1.799,4.285,0.398,1.000,4.712,0.000,0.000,-0.223,-8.765,0.451,5.840,3.422,5.699,4.182,4.383,4.485,1.998,5.882,5.284,1.571,0.000,0.000,0.051,-8.584,0.451,5.873,3.469,5.568,
32.400,43.215,0.033,-8.854,2.165,-0.009,0.148,4.831,0.000,0.495,1.111,0.000,4.624,3.152,0.000,2.960,0.000,0.000,3.001,0.000,0.000,0.000,0.000,0.000,0.000,0.000,0.000,0.000,0.000,0.000,3.142,0.001,0.000,2.100,1.897,1.799,4.285,0.398,1.000,4.712,0.000,0.000,-0.224,-8.768,0.451,5.843,3.426,5.688,4.182,4.383,4.485,1.998,5.882,5.284,1.571,0.000,0.000,0.049,-8.584,0.451,5.876,3.473,5.558,
32.489,43.304,0.033,-8.854,2.170,-0.009,0.132,4.848,0.000,0.498,1.112,0.000,4.639,3.147,0.000,2.950,0.000,0.000,3.001,0.000,0.000,0.000,0.000,0.000,0.000,0.000,0.000,0.000,0.000,0.000,3.142,0.001,0.000,2.100,1.897,1.799,4.285,0.398,1.000,4.712,0.000,0.000,-0.224,-8.770,0.451,5.845,3.428,5.683,4.182,4.383,4.485,1.998,5.882,5.284,1.571,0.000,0.000,0.048,-8.584,0.451,5.878,3.475,5.553,
32.600,43.415,0.033,-8.854,2.177,-0.002,0.134,4.872,0.000,0.503,1.113,0.000,4.660,3.139,0.000,2.935,0.000,0.000,2.966,0.000,0.000,0.000,0.000,0.000,0.000,0.000,0.000,0.000,0.000,0.000,3.142,0.001,0.000,2.100,1.897,1.799,4.285,0.398,1.000,4.712,0.000,0.000,-0.224,-8.772,0.451,5.847,3.431,5.675,4.182,4.383,4.485,1.998,5.882,5.284,1.571,0.000,0.000,0.046,-8.584,0.451,5.880,3.478,5.546,
32.688,43.503,0.033,-8.854,2.182,0.003,0.121,4.889,0.000,0.505,1.114,0.000,4.677,3.134,0.000,2.924,0.000,0.000,2.966,0.000,0.000,0.000,0.000,0.000,0.000,0.000,0.000,0.000,0.000,0.000,3.142,0.001,0.000,2.100,1.897,1.799,4.285,0.398,1.000,4.712,0.000,0.000,-0.225,-8.773,0.451,5.848,3.434,5.670,4.182,4.383,4.485,1.998,5.882,5.284,1.571,0.000,0.000,0.045,-8.584,0.451,5.882,3.480,5.540,
32.800,43.615,0.033,-8.854,2.186,-0.001,0.107,0.000,0.000,0.507,1.115,0.000,4.691,3.129,0.000,2.915,0.000,0.000,2.966,0.000,0.000,0.000,0.000,0.000,0.000,0.000,0.000,0.000,0.000,0.000,3.142,0.001,0.000,2.100,1.897,1.799,4.285,0.398,1.000,4.712,0.000,0.000,-0.225,-8.774,0.451,5.849,3.436,5.666,4.182,4.383,4.485,1.998,5.882,5.284,1.571,0.000,0.000,0.043,-8.584,0.451,5.883,3.481,5.536,
32.900,43.715,0.032,-8.853,2.191,0.101,0.195,0.000,0.000,0.508,1.116,0.000,4.708,3.125,0.000,2.903,0.000,0.000,2.966,1.315,0.000,0.000,0.000,0.000,0.000,0.000,0.000,0.000,0.000,0.000,3.142,6.282,6.283,2.101,1.897,1.798,4.285,0.398,0.999,4.711,0.000,0.000,-0.226,-8.774,0.451,5.852,3.438,5.659,4.182,4.384,4.484,1.998,5.882,5.283,1.571,0.000,0.000,0.041,-8.583,0.451,5.886,3.484,5.530,
33.000,43.815,0.004,-8.814,2.202,0.697,0.033,0.000,0.000,0.477,1.126,0.000,4.795,2.726,0.000,2.832,0.000,0.000,2.966,1.261,0.000,0.000,0.000,0.000,0.000,0.000,0.000,0.000,0.000,0.000,3.142,6.281,6.283,2.103,1.897,1.797,4.285,0.399,0.998,4.710,0.000,0.000,-0.255,-8.739,0.450,5.856,3.443,5.646,4.182,4.384,4.483,1.997,5.882,5.283,1.570,0.000,0.000,0.010,-8.544,0.451,5.890,3.488,5.518,
33.100,43.915,-0.030,-8.768,2.203,0.701,6.282,0.000,0.000,0.507,1.135,0.000,4.854,2.761,0.000,2.235,0.000,0.000,2.966,1.235,0.000,0.000,0.000,0.000,0.000,0.000,0.000,0.000,0.000,0.000,3.142,0.000,0.000,2.099,1.897,1.799,4.285,0.398,1.000,4.712,0.000,0.000,-0.290,-8.691,0.451,5.854,3.443,5.648,4.183,4.383,4.485,1.998,5.882,5.284,1.571,0.000,0.000,-0.024,-8.497,0.451,5.889,3.488,5.519,
33.193,44.008,-0.067,-8.716,2.203,0.411,6.282,0.000,0.000,0.541,1.146,0.000,4.920,2.800,0.000,2.183,0.000,0.000,2.966,1.297,0.000,0.000,0.000,0.000,0.000,0.000,0.000,0.000,0.000,0.000,3.142,0.000,0.000,2.099,1.897,1.799,4.285,0.398,1.000,4.712,0.000,0.000,-0.327,-8.640,0.451,5.854,3.443,5.647,4.183,4.383,4.485,1.998,5.882,5.284,1.571,0.000,0.000,-0.062,-8.446,0.451,5.889,3.489,5.518,
33.300,44.115,-0.091,-8.685,2.204,0.457,6.281,0.000,0.000,0.561,1.152,0.000,4.960,2.824,0.000,2.672,0.000,0.000,2.966,1.462,0.000,0.000,0.000,0.000,0.000,0.000,0.000,0.000,0.000,0.000,3.142,6.282,0.000,2.101,1.897,1.798,4.285,0.398,0.999,4.711,0.000,0.000,-0.350,-8.609,0.451,5.855,3.444,5.646,4.183,4.384,4.484,1.998,5.882,5.283,1.571,0.000,0.000,-0.085,-8.415,0.451,5.890,3.489,5.517,
33.400,44.215,-0.115,-8.651,2.204,0.604,6.282,4.764,0.000,0.583,1.158,0.000,0.000,2.849,0.000,2.631,0.000,0.000,3.142,0.000,0.000,0.000,0.000,0.000,0.000,0.000,0.000,0.000,0.000,0.000,3.142,6.282,0.000,2.101,1.897,1.798,4.285,0.398,0.999,4.711,0.000,0.000,-0.375,-8.576,0.451,5.856,3.444,5.645,4.182,4.384,4.484,1.998,5.882,5.283,1.570,0.000,0.000,-0.110,-8.381,0.451,5.890,3.489,5.517,
33.500,44.315,-0.152,-8.601,2.204,0.658,6.282,4.702,0.000,0.616,0.665,0.000,0.000,2.888,0.000,2.568,0.000,0.000,3.142,0.000,0.000,0.000,0.000,0.000,0.000,0.000,0.000,0.000,0.000,0.000,3.142,6.283,0.000,2.100,1.897,1.798,4.285,0.398,1.000,4.711,0.000,0.000,-0.412,-8.525,0.451,5.855,3.444,5.646,4.183,4.384,4.484,1.998,5.882,5.283,1.571,0.000,0.000,-0.147,-8.330,0.451,5.890,3.489,5.517,
33.592,44.407,-0.196,-8.541,2.204,0.626,6.282,4.628,0.000,0.655,0.501,0.000,0.000,2.934,0.000,2.495,0.000,0.000,3.142,0.000,0.000,0.000,0.000,0.000,0.000,0.000,0.000,0.000,0.000,0.000,3.142,6.283,0.000,2.100,1.897,1.798,4.285,0.398,1.000,4.711,0.000,0.000,-0.456,-8.465,0.451,5.855,3.444,5.646,4.183,4.384,4.484,1.998,5.882,5.283,1.571,0.000,0.000,-0.191,-8.271,0.451,5.890,3.489,5.517,
33.700,44.515,-0.238,-8.483,2.204,0.922,6.282,4.558,0.000,0.693,0.530,1.717,0.000,2.978,0.000,2.425,0.000,0.000,3.142,0.000,0.000,0.000,0.000,0.000,0.000,0.000,0.000,0.000,0.000,0.000,3.142,6.280,6.283,2.103,1.898,1.797,4.285,0.399,0.998,4.710,0.000,0.000,-0.498,-8.409,0.450,5.857,3.444,5.644,4.182,4.385,4.483,1.997,5.883,5.283,1.570,0.000,0.000,-0.233,-8.214,0.451,5.891,3.489,5.515,
33.800,44.615,-0.289,-8.415,2.204,1.193,6.283,4.475,0.000,0.737,0.564,1.736,0.000,3.031,0.000,2.341,0.000,0.000,3.142,0.000,0.000,0.000,0.000,0.000,0.000,0.000,0.000,0.000,0.000,0.000,3.142,6.281,0.000,2.102,1.898,1.798,4.285,0.398,0.999,4.710,0.000,0.000,-0.548,-8.340,0.451,5.856,3.444,5.644,4.182,4.384,4.483,1.997,5.882,5.283,1.570,0.000,0.000,-0.283,-8.145,0.451,5.891,3.489,5.516,
33.900,44.715,-0.370,-8.304,2.204,1.052,6.283,4.340,0.000,2.794,0.619,1.767,0.000,3.116,0.000,2.205,0.000,0.000,3.142,0.000,0.000,0.000,0.000,0.000,0.000,0.000,0.000,0.000,0.000,0.000,3.142,0.000,0.000,2.099,1.897,1.799,4.285,0.398,1.000,4.712,0.000,0.000,-0.630,-8.228,0.451,5.854,3.444,5.646,4.183,4.383,4.485,1.998,5.882,5.284,1.571,0.000,0.000,-0.365,-8.033,0.452,5.889,3.489,5.517,
34.000,44.815,-0.415,-8.243,2.204,0.915,6.283,4.265,0.000,2.746,0.650,1.784,0.000,3.163,0.000,2.130,0.000,0.000,3.142,0.000,0.000,0.000,0.000,0.000,0.000,0.000,0.000,0.000,0.000,0.000,3.142,6.283,0.000,2.100,1.897,1.799,4.285,0.398,1.000,4.711,0.000,0.000,-0.675,-8.167,0.451,5.854,3.444,5.646,4.183,4.383,4.484,1.998,5.882,5.283,1.571,0.000,0.000,-0.410,-7.972,0.451,5.889,3.489,5.517,
34.100,44.915,-0.481,-8.154,2.204,0.992,6.282,4.157,0.000,2.676,0.694,0.818,0.000,3.248,0.000,2.021,0.000,0.000,3.142,0.000,0.000,0.000,0.000,0.000,0.000,0.000,0.000,0.000,0.000,0.000,3.142,6.282,0.000,2.101,1.897,1.798,4.285,0.398,0.999,4.711,0.000,0.000,-0.740,-8.079,0.451,5.856,3.444,5.645,4.183,4.384,4.484,1.998,5.882,5.283,1.570,0.000,0.000,-0.475,-7.884,0.451,5.890,3.489,5.516,
34.200,45.015,-0.529,-8.088,2.204,1.061,6.283,4.078,0.000,2.704,0.727,0.856,0.000,3.465,3.609,1.941,0.000,0.000,3.142,0.000,0.000,0.000,0.000,0.000,0.000,0.000,0.000,0.000,0.000,0.000,3.142,6.282,0.000,2.101,1.897,1.798,4.285,0.398,0.999,4.711,0.000,0.000,-0.788,-8.013,0.451,5.855,3.444,5.645,4.183,4.384,4.484,1.998,5.882,5.283,1.570,0.000,0.000,-0.524,-7.818,0.451,5.890,3.489,5.516,
34.289,45.104,-0.602,-7.988,2.204,1.019,6.283,3.957,0.000,3.001,0.777,0.915,0.000,3.777,4.642,1.819,0.000,0.000,3.142,0.000,0.000,0.000,0.000,0.000,0.000,0.000,0.000,0.000,0.000,0.000,3.142,6.283,0.000,2.100,1.897,1.799,4.285,0.398,1.000,4.711,0.000,0.000,-0.862,-7.913,0.451,5.855,3.444,5.645,4.183,4.384,4.484,1.998,5.882,5.283,1.571,0.000,0.000,-0.597,-7.718,0.451,5.890,3.489,5.517,
34.400,45.215,-0.660,-7.909,2.204,0.983,6.283,3.862,0.000,2.751,0.817,0.962,0.000,3.838,4.397,1.723,0.000,0.000,3.142,0.000,0.000,0.000,0.000,0.000,0.000,0.000,0.000,0.000,0.000,0.000,3.142,6.283,0.000,2.100,1.897,1.798,4.285,0.398,1.000,4.711,0.000,0.000,-0.920,-7.834,0.451,5.855,3.444,5.645,4.183,4.384,4.484,1.998,5.882,5.283,1.571,0.000,0.000,-0.655,-7.639,0.451,5.890,3.489,5.517,
34.500,45.315,-0.706,-7.847,2.204,1.001,6.283,3.786,0.000,2.702,1.583,0.998,0.000,3.886,4.202,1.646,0.000,0.000,3.142,0.000,0.000,0.000,0.000,0.000,0.000,0.000,0.000,0.000,0.000,0.000,3.142,6.282,0.000,2.101,1.897,1.798,4.285,0.398,1.000,4.711,0.000,0.000,-0.966,-7.771,0.451,5.855,3.444,5.645,4.183,4.384,4.484,1.998,5.882,5.283,1.570,0.000,0.000,-0.701,-7.576,0.451,5.890,3.489,5.517,
34.600,45.415,-0.765,-7.766,2.204,1.025,6.283,3.689,0.000,2.639,1.680,1.046,0.000,4.100,3.952,1.548,0.000,0.000,3.142,0.000,0.000,0.000,0.000,0.000,0.000,0.000,0.000,0.000,0.000,0.000,3.142,6.282,0.000,2.100,1.897,1.798,4.285,0.398,1.000,4.711,0.000,0.000,-1.025,-7.691,0.451,5.855,3.444,5.645,4.183,4.384,4.484,1.998,5.882,5.283,1.571,0.000,0.000,-0.760,-7.496,0.451,5.890,3.489,5.517,
34.700,45.515,-0.837,-7.669,2.204,1.012,6.283,3.571,0.000,2.563,1.798,1.103,0.000,4.421,3.650,1.429,0.000,0.000,3.142,0.000,0.000,0.000,0.000,0.000,0.000,0.000,0.000,0.000,0.000,0.000,3.142,6.283,0.000,2.100,1.897,1.798,4.285,0.398,1.000,4.711,0.000,0.000,-1.097,-7.593,0.451,5.855,3.444,5.646,4.183,4.384,4.484,1.998,5.882,5.283,1.571,0.000,0.000,-0.831,-7.399,0.451,5.890,3.489,5.517,
34.800,45.615,-0.884,-7.605,2.204,1.004,6.283,3.494,0.000,2.513,1.875,1.140,0.000,4.632,2.188,1.351,0.000,0.000,3.142,0.000,0.000,0.000,0.000,0.000,0.000,0.000,0.000,0.000,0.000,0.000,3.142,6.282,0.000,2.100,1.897,1.798,4.285,0.398,1.000,4.711,0.000,0.000,-1.143,-7.529,0.451,5.855,3.444,5.646,4.183,4.384,4.484,1.998,5.882,5.283,1.571,0.000,0.000,-0.878,-7.335,0.451,5.890,3.489,5.517,
34.894,45.709,-0.954,-7.509,2.204,1.010,6.283,3.379,0.000,2.439,3.647,1.197,0.000,4.948,3.153,0.770,0.000,0.000,3.142,0.000,0.000,0.000,0.000,0.000,0.000,0.000,0.000,0.000,0.000,0.000,3.142,6.282,0.000,2.100,1.897,1.798,4.285,0.398,1.000,4.711,0.000,0.000,-1.214,-7.434,0.451,5.855,3.444,5.646,4.183,4.384,4.484,1.998,5.882,5.283,1.570,0.000,0.000,-0.949,-7.239,0.451,5.890,3.489,5.517,
35.000,45.815,-1.013,-7.429,2.204,1.015,6.283,0.000,0.000,2.376,3.542,1.244,0.000,0.000,2.903,1.136,0.000,0.000,3.142,0.630,0.000,0.000,0.000,0.000,0.000,0.000,0.000,0.000,0.000,0.000,3.142,6.282,0.000,2.100,1.897,1.798,4.285,0.398,1.000,4.711,0.000,0.000,-1.273,-7.353,0.451,5.855,3.444,5.646,4.183,4.384,4.484,1.998,5.882,5.283,1.571,0.000,0.000,-1.008,-7.159,0.451,5.890,3.489,5.517,
35.100,45.915,-1.054,-7.373,2.204,0.594,0.001,0.000,0.000,2.332,3.468,1.277,0.000,0.000,2.728,0.703,0.000,0.000,3.142,0.504,0.000,0.000,0.000,0.000,0.000,0.000,0.000,0.000,0.000,0.000,3.142,0.003,0.001,2.095,1.896,1.800,4.286,0.397,1.003,4.713,0.000,0.000,-1.314,-7.295,0.452,5.852,3.443,5.649,4.184,4.382,4.486,1.999,5.881,5.284,1.571,0.000,0.000,-1.049,-7.101,0.452,5.887,3.489,5.520,
35.200,46.015,-1.062,-7.362,2.204,-0.197,0.004,0.000,0.000,2.324,3.454,1.284,0.000,0.000,2.693,0.689,0.000,0.000,3.142,0.495,0.000,0.000,0.000,0.000,0.000,0.000,0.000,0.000,0.000,0.000,3.142,0.003,0.001,2.096,1.896,1.800,4.286,0.397,1.002,4.713,0.000,0.000,-1.322,-7.284,0.452,5.852,3.443,5.649,4.183,4.382,4.486,1.999,5.881,5.284,1.571,0.000,0.000,-1.057,-7.091,0.452,5.887,3.488,5.520,
35.283,46.098,-1.050,-7.378,2.204,-0.006,0.010,0.000,0.000,2.337,3.476,1.274,0.000,0.000,2.745,0.710,0.000,0.000,3.142,0.590,0.000,0.000,0.000,0.000,0.000,0.000,0.000,0.000,0.000,0.000,3.142,6.281,6.283,2.103,1.897,1.798,4.285,0.399,0.998,4.710,0.000,0.000,-1.309,-7.304,0.450,5.856,3.443,5.645,4.182,4.385,4.483,1.997,5.882,5.283,1.571,0.000,0.000,-1.044,-7.109,0.451,5.891,3.488,5.516,
35.387,46.202,-1.058,-7.367,2.204,0.292,0.001,0.000,0.000,2.328,3.462,1.280,0.000,0.000,2.710,0.696,0.000,0.000,3.142,0.718,0.000,0.000,0.000,0.000,0.000,0.000,0.000,0.000,0.000,0.000,3.142,6.281,0.000,2.102,1.898,1.798,4.285,0.399,0.999,4.710,0.000,0.000,-1.318,-7.293,0.451,5.856,3.444,5.645,4.182,4.384,4.483,1.997,5.882,5.283,1.570,0.000,0.000,-1.053,-7.098,0.451,5.891,3.489,5.516,
35.500,46.315,-1.077,-7.342,2.204,0.323,6.283,3.176,0.000,2.308,3.428,1.295,0.000,0.000,2.631,0.665,0.000,0.000,3.142,0.000,0.000,0.000,0.000,0.000,0.000,0.000,0.000,0.000,0.000,0.000,3.142,6.283,0.000,2.100,1.897,1.798,4.285,0.398,1.000,4.711,0.000,0.000,-1.336,-7.266,0.451,5.855,3.444,5.646,4.183,4.384,4.484,1.998,5.882,5.283,1.570,0.000,0.000,-1.071,-7.072,0.451,5.889,3.489,5.517,
35.600,46.415,-1.092,-7.321,2.204,0.238,0.001,3.151,0.000,2.314,3.401,1.307,0.000,0.000,2.567,0.640,0.000,0.000,3.142,0.000,0.000,0.000,0.000,0.000,0.000,0.000,0.000,0.000,0.000,0.000,3.142,6.283,0.000,2.100,1.897,1.798,4.285,0.398,1.000,4.711,0.000,0.000,-1.352,-7.245,0.451,5.855,3.444,5.646,4.183,4.384,4.484,1.998,5.882,5.283,1.570,0.000,0.000,-1.087,-7.051,0.451,5.889,3.489,5.517,
35.694,46.509,-1.106,-7.302,2.204,0.310,0.010,3.128,0.000,2.373,3.374,1.319,0.000,0.000,2.506,0.616,0.000,0.000,3.142,0.000,0.000,0.000,0.000,0.000,0.000,0.000,0.000,0.000,0.000,0.000,3.142,6.282,0.000,2.101,1.897,1.798,4.285,0.398,0.999,4.711,0.000,0.000,-1.366,-7.226,0.451,5.855,3.444,5.645,4.183,4.384,4.484,1.998,5.882,5.283,1.570,0.000,0.000,-1.101,-7.032,0.451,5.890,3.489,5.517,
35.800,46.615,-1.136,-7.261,2.203,0.866,0.010,3.079,0.000,2.496,3.320,1.343,0.000,0.000,2.378,0.565,0.000,0.000,3.142,0.000,0.000,0.000,0.000,0.000,0.000,0.000,0.000,0.000,0.000,0.000,3.142,6.279,6.283,2.105,1.898,1.796,4.285,0.400,0.997,4.709,0.000,0.000,-1.396,-7.187,0.450,5.858,3.444,5.643,4.182,4.386,4.482,1.997,5.883,5.283,1.570,0.000,0.000,-1.131,-6.992,0.451,5.892,3.489,5.514,
35.900,46.715,-1.203,-7.170,2.203,1.234,0.001,2.970,0.000,0.000,3.202,1.464,0.000,0.000,0.730,0.455,0.000,0.000,3.142,0.000,0.000,0.000,0.000,0.000,0.000,0.000,0.000,0.000,0.000,0.000,3.142,6.282,0.000,2.101,1.897,1.798,4.285,0.398,0.999,4.711,0.000,0.000,-1.462,-7.095,0.451,5.855,3.444,5.646,4.183,4.384,4.484,1.998,5.882,5.283,1.570,0.000,0.000,-1.197,-6.900,0.451,5.890,3.489,5.517,
36.000,46.815,-1.260,-7.093,2.203,0.635,6.283,2.876,0.000,0.000,3.100,1.630,0.000,0.000,1.854,0.456,0.000,0.000,3.142,0.000,0.000,0.000,0.000,0.000,0.000,0.000,0.000,0.000,0.000,0.000,3.142,0.003,0.001,2.096,1.896,1.800,4.285,0.397,1.002,4.713,0.000,0.000,-1.520,-7.015,0.452,5.852,3.443,5.649,4.184,4.382,4.486,1.999,5.881,5.284,1.571,0.000,0.000,-1.254,-6.821,0.452,5.887,3.489,5.520,
36.083,46.898,-1.277,-7.069,2.203,0.199,6.283,2.846,0.000,0.000,3.070,1.681,0.000,0.000,1.779,0.487,0.000,0.000,3.142,0.000,0.000,0.000,0.000,0.000,0.000,0.000,0.000,0.000,0.000,0.000,3.142,0.001,0.001,2.098,1.897,1.799,4.285,0.397,1.001,4.712,0.000,0.000,-1.537,-6.992,0.451,5.853,3.444,5.648,4.184,4.383,4.485,1.998,5.882,5.284,1.571,0.000,0.000,-1.272,-6.798,0.452,5.888,3.489,5.519,
36.200,47.015,-1.291,-7.049,2.203,0.350,0.001,2.823,0.000,0.000,3.044,1.723,0.000,0.000,1.718,0.511,0.000,0.000,3.142,0.000,0.000,0.000,0.000,0.000,0.000,0.000,0.000,0.000,0.000,0.000,3.142,6.281,0.000,2.102,1.898,1.798,4.285,0.399,0.999,4.710,0.000,0.000,-1.551,-6.975,0.451,5.856,3.444,5.645,4.182,4.385,4.483,1.997,5.882,5.283,1.570,0.000,0.000,-1.286,-6.780,0.451,5.891,3.489,5.516,
36.300,47.115,-1.312,-7.021,2.203,0.518,0.000,2.789,0.000,0.000,3.007,1.783,0.000,0.000,0.698,0.547,0.000,0.000,3.142,0.000,0.000,0.000,0.000,0.000,0.000,0.000,0.000,0.000,0.000,0.000,3.142,6.282,0.000,2.101,1.897,1.798,4.285,0.398,0.999,4.711,0.000,0.000,-1.572,-6.946,0.451,5.855,3.444,5.646,4.183,4.384,4.484,1.998,5.882,5.283,1.570,0.000,0.000,-1.306,-6.751,0.451,5.890,3.489,5.517,
36.400,47.215,-1.342,-6.980,2.203,0.301,0.000,2.739,0.000,0.000,2.953,1.871,0.000,0.000,0.568,0.600,0.000,0.000,3.142,0.000,0.000,0.000,0.000,0.000,0.000,0.000,0.000,0.000,0.000,0.000,3.142,0.001,0.001,2.099,1.897,1.799,4.285,0.398,1.001,4.712,0.000,0.000,-1.602,-6.903,0.451,5.854,3.444,5.647,4.183,4.383,4.485,1.998,5.882,5.283,1.571,0.000,0.000,-1.337,-6.709,0.452,5.889,3.489,5.519,
36.500,47.315,-1.351,-6.968,2.203,0.120,0.000,2.724,0.000,0.000,2.938,1.897,0.000,0.000,0.531,0.615,0.000,0.000,3.142,0.000,0.000,0.000,0.000,0.000,0.000,0.000,0.000,0.000,0.000,0.000,3.142,0.000,0.000,2.099,1.897,1.799,4.285,0.398,1.000,4.712,0.000,0.000,-1.611,-6.892,0.451,5.854,3.444,5.647,4.183,4.383,4.484,1.998,5.882,5.283,1.571,0.000,0.000,-1.346,-6.697,0.451,5.889,3.489,5.518,
36.588,47.403,-1.354,-6.964,2.188,-0.003,5.617,2.776,0.000,0.000,2.868,1.953,0.000,0.000,0.543,0.607,0.000,0.000,3.142,0.000,0.000,0.000,0.000,0.000,0.000,0.000,0.000,0.000,0.000,0.000,3.142,6.281,0.001,2.101,1.897,1.797,4.285,0.398,0.999,4.711,0.000,0.000,-1.613,-6.885,0.451,5.851,3.437,5.661,4.183,4.384,4.483,1.998,5.882,5.283,1.570,0.000,0.000,-1.345,-6.694,0.451,5.885,3.483,5.532,
36.700,47.515,-1.353,-6.966,2.081,-0.047,4.630,2.391,0.000,0.000,2.702,2.199,0.000,4.889,2.314,0.530,0.000,0.000,3.142,0.000,0.000,0.000,0.000,0.000,0.000,0.000,0.000,0.000,0.000,0.000,3.142,6.280,0.001,2.101,1.897,1.798,4.285,0.398,0.999,4.711,0.000,0.000,-1.601,-6.860,0.451,5.822,3.387,5.776,4.182,4.384,4.484,1.999,5.882,5.283,1.570,0.000,0.000,-1.314,-6.699,0.452,5.850,3.438,5.644,
36.800,47.615,-1.352,-6.968,1.977,-0.010,5.032,2.429,0.000,0.000,2.589,2.229,2.145,4.591,0.846,0.477,0.000,0.000,1.562,0.000,0.000,0.000,0.000,0.000,0.000,0.000,0.000,0.000,0.000,0.000,3.142,6.280,0.000,2.101,1.897,1.799,4.285,0.398,0.999,4.711,0.000,0.000,-1.588,-6.836,0.451,5.798,3.335,5.891,4.182,4.384,4.484,1.998,5.882,5.283,1.570,0.000,0.000,-1.285,-6.706,0.451,5.823,3.388,5.756,
36.899,47.714,-1.352,-6.969,1.902,-0.006,5.799,2.917,0.000,0.000,2.429,2.268,1.956,0.000,2.542,0.448,0.000,0.000,1.632,0.000,0.000,0.000,0.000,0.000,0.000,0.000,0.000,0.000,0.000,0.000,3.142,6.281,0.000,2.100,1.897,1.798,4.285,0.398,0.999,4.711,0.000,0.000,-1.578,-6.819,0.451,5.786,3.296,5.974,4.183,4.384,4.484,1.998,5.882,5.283,1.570,0.000,0.000,-1.267,-6.712,0.451,5.806,3.353,5.837,
37.000,47.815,-1.352,-6.969,1.873,-0.010,5.840,0.000,0.000,4.848,2.374,4.108,1.892,0.000,0.000,0.438,0.000,0.000,1.667,0.000,0.000,0.000,0.000,0.000,0.000,0.000,0.000,0.000,0.000,0.000,3.142,6.281,0.000,2.101,1.897,1.798,4.285,0.398,0.999,4.711,0.000,0.000,-1.573,-6.813,0.451,5.782,3.281,6.006,4.183,4.384,4.483,1.998,5.882,5.283,1.570,0.000,0.000,-1.259,-6.715,0.451,5.800,3.338,5.869,
37.087,47.902,-1.352,-6.969,1.844,0.007,5.735,0.000,0.000,4.849,2.325,4.146,1.835,0.000,0.000,0.430,0.000,0.000,1.702,0.000,0.000,0.000,0.000,0.000,0.000,0.000,0.000,0.000,0.000,0.000,3.142,6.281,0.000,2.101,1.897,1.798,4.285,0.398,0.999,4.711,0.000,0.000,-1.569,-6.807,0.451,5.778,3.265,6.039,4.183,4.384,4.483,1.998,5.882,5.283,1.570,0.000,0.000,-1.252,-6.718,0.451,5.795,3.323,5.901,
37.192,48.007,-1.352,-6.969,1.795,0.014,5.798,4.971,0.000,4.858,2.249,4.221,1.749,0.000,0.000,0.416,0.000,0.000,1.738,0.000,0.000,0.000,0.000,0.000,0.000,0.000,0.000,0.000,0.000,0.000,3.142,6.281,0.000,2.101,1.897,1.798,4.285,0.398,0.999,4.711,0.000,0.000,-1.560,-6.797,0.451,5.772,3.237,6.095,4.183,4.384,4.484,1.998,5.882,5.283,1.570,0.000,0.000,-1.240,-6.724,0.451,5.787,3.297,5.956,
37.300,48.115,-1.352,-6.969,1.767,0.002,5.963,4.940,0.000,0.000,2.211,4.230,1.706,0.000,0.000,0.409,0.000,0.000,1.773,0.000,0.000,0.000,0.000,0.000,0.000,0.000,0.000,0.000,0.000,0.000,3.142,6.281,0.000,2.101,1.897,1.798,4.285,0.398,0.999,4.711,0.000,0.000,-1.556,-6.791,0.451,5.770,3.222,6.127,4.183,4.384,4.484,1.997,5.882,5.283,1.570,0.000,0.000,-1.233,-6.727,0.451,5.783,3.282,5.987,
37.400,48.215,-1.352,-6.970,1.750,0.002,6.013,4.922,0.000,4.279,2.270,4.060,1.680,0.000,0.000,0.405,0.000,0.000,1.808,0.000,0.000,0.000,0.000,0.000,0.000,0.000,0.000,0.000,0.000,0.000,3.142,6.281,0.000,2.101,1.898,1.798,4.285,0.398,0.999,4.711,0.000,0.000,-1.552,-6.788,0.451,5.769,3.212,6.147,4.183,4.384,4.484,1.998,5.882,5.283,1.570,0.000,0.000,-1.229,-6.730,0.451,5.780,3.273,6.007,
37.500,48.315,-1.352,-6.970,1.732,0.012,6.008,4.239,0.000,4.288,2.342,3.906,1.655,0.000,0.000,0.401,0.000,0.000,1.808,0.000,0.000,0.000,0.000,0.000,0.000,0.000,0.000,0.000,0.000,0.000,3.142,6.281,0.000,2.101,1.898,1.798,4.285,0.398,0.999,4.711,0.000,0.000,-1.549,-6.785,0.451,5.768,3.202,6.167,4.183,4.384,4.483,1.997,5.882,5.283,1.570,0.000,0.000,-1.224,-6.732,0.451,5.778,3.263,6.027,
37.600,48.415,-1.352,-6.970,1.719,0.002,6.023,4.095,0.000,2.987,2.398,3.802,1.638,0.000,0.000,0.399,0.000,0.000,1.808,0.000,0.000,0.000,0.000,0.000,0.000,0.000,0.000,0.000,0.000,0.000,3.142,6.281,0.000,2.101,1.898,1.798,4.285,0.398,0.999,4.711,0.000,0.000,-1.547,-6.783,0.451,5.767,3.195,6.182,4.183,4.384,4.483,1.998,5.882,5.283,1.570,0.000,0.000,-1.221,-6.734,0.451,5.777,3.256,6.041,
37.689,48.504,-1.352,-6.970,1.705,0.005,6.079,3.943,0.000,1.965,2.465,3.692,1.646,0.000,0.000,0.396,0.000,0.000,1.843,0.000,0.000,0.000,0.000,0.000,0.000,0.000,0.000,0.000,0.000,0.000,3.142,6.281,0.000,2.101,1.898,1.798,4.285,0.398,0.999,4.711,0.000,0.000,-1.544,-6.780,0.451,5.766,3.187,6.198,4.183,4.384,4.484,1.998,5.882,5.283,1.570,0.000,0.000,-1.218,-6.736,0.451,5.775,3.248,6.057,
37.800,48.615,-1.352,-6.971,1.695,-0.007,6.106,3.844,0.000,1.849,2.513,3.619,1.668,0.000,0.000,0.398,0.000,0.000,1.843,0.000,0.000,0.000,0.000,0.000,0.000,0.000,0.000,0.000,0.000,0.000,3.142,6.281,0.000,2.101,1.898,1.798,4.285,0.398,0.999,4.711,0.000,0.000,-1.542,-6.778,0.451,5.766,3.181,6.210,4.183,4.384,4.483,1.997,5.882,5.283,1.570,0.000,0.000,-1.216,-6.737,0.451,5.774,3.243,6.069,
37.900,48.715,-1.352,-6.971,1.689,0.006,6.131,3.790,0.000,1.788,2.542,3.579,1.680,0.000,0.000,0.403,0.000,0.000,1.843,0.000,0.000,0.000,0.000,0.000,0.000,0.000,0.000,0.000,0.000,0.000,3.142,6.281,0.000,2.101,1.898,1.798,4.285,0.398,0.999,4.711,0.000,0.000,-1.541,-6.777,0.451,5.766,3.178,6.216,4.183,4.384,4.483,1.997,5.882,5.283,1.570,0.000,0.000,-1.214,-6.738,0.451,5.773,3.239,6.075,
37.991,48.806,-1.352,-6.971,1.681,-0.002,6.134,3.718,0.000,1.782,2.583,3.525,1.699,0.000,0.000,0.410,0.000,0.000,1.878,0.000,0.000,0.000,0.000,0.000,0.000,0.000,0.000,0.000,0.000,0.000,3.142,6.281,0.000,2.101,1.898,1.798,4.285,0.398,0.999,4.711,0.000,0.000,-1.539,-6.776,0.451,5.765,3.173,6.225,4.183,4.384,4.483,1.998,5.882,5.283,1.570,0.000,0.000,-1.212,-6.739,0.451,5.773,3.235,6.084,
38.100,48.915,-1.352,-6.971,1.675,-0.003,6.165,3.664,0.000,1.784,2.616,3.484,1.713,0.000,0.000,0.416,0.000,0.000,1.878,0.000,0.000,0.000,0.000,0.000,0.000,0.000,0.000,0.000,0.000,0.000,3.142,6.281,0.000,2.101,1.898,1.798,4.285,0.398,0.999,4.711,0.000,0.000,-1.538,-6.775,0.451,5.765,3.170,6.232,4.183,4.384,4.483,1.997,5.882,5.283,1.570,0.000,0.000,-1.211,-6.741,0.451,5.772,3.232,6.091,
38.200,49.015,-1.352,-6.971,1.671,0.014,6.174,3.636,0.000,1.785,2.634,3.463,1.721,0.000,0.000,0.419,0.000,0.000,1.878,0.000,0.000,0.000,0.000,0.000,0.000,0.000,0.000,0.000,0.000,0.000,3.142,6.281,0.000,2.101,1.898,1.798,4.285,0.398,0.999,4.711,0.000,0.000,-1.537,-6.774,0.451,5.765,3.168,6.236,4.183,4.384,4.484,1.998,5.882,5.283,1.570,0.000,0.000,-1.210,-6.741,0.451,5.772,3.230,6.095,
38.286,49.101,-1.352,-6.966,1.667,0.250,0.104,3.595,0.000,1.786,4.676,3.435,1.736,0.000,0.000,0.411,0.000,0.000,1.878,0.000,0.000,0.000,0.000,0.000,0.000,0.000,0.000,0.000,0.000,0.000,3.142,6.278,6.283,2.105,1.898,1.796,4.284,0.399,0.997,4.709,0.000,0.000,-1.538,-6.770,0.450,5.766,3.167,6.238,4.182,4.386,4.482,1.997,5.883,5.282,1.570,0.000,0.000,-1.210,-6.738,0.451,5.773,3.229,6.097,
38.400,49.215,-1.358,-6.901,1.672,1.069,0.116,3.568,0.000,1.778,4.774,3.454,1.789,0.000,0.000,0.397,0.000,0.000,1.878,0.000,0.000,0.000,0.000,0.000,0.000,0.000,0.000,0.000,0.000,0.000,3.142,6.278,6.283,2.106,1.899,1.796,4.285,0.400,0.996,4.709,0.000,0.000,-1.545,-6.706,0.450,5.768,3.171,6.231,4.182,4.387,4.481,1.997,5.884,5.283,1.570,0.000,0.000,-1.217,-6.672,0.451,5.774,3.232,6.091,
38.500,49.315,-1.369,-6.798,1.674,1.441,0.002,3.473,0.000,1.660,0.000,3.443,1.888,0.000,0.000,0.409,0.000,0.000,1.913,0.000,0.000,0.000,0.000,0.000,0.000,0.000,0.000,0.000,0.000,0.000,3.142,6.281,0.000,2.102,1.898,1.798,4.285,0.399,0.999,4.710,0.000,0.000,-1.555,-6.602,0.451,5.766,3.170,6.233,4.182,4.384,4.483,1.997,5.882,5.283,1.570,0.000,0.000,-1.228,-6.567,0.451,5.772,3.231,6.092,
38.592,49.407,-1.384,-6.650,1.674,0.973,0.000,3.319,0.000,1.644,0.000,3.410,2.036,0.000,0.395,0.426,0.000,0.000,1.948,0.000,0.000,0.000,0.000,0.000,0.000,0.000,0.000,0.000,0.000,0.000,3.142,0.001,0.001,2.097,1.897,1.800,4.285,0.397,1.001,4.712,0.000,0.000,-1.570,-6.452,0.452,5.763,3.167,6.237,4.184,4.383,4.485,1.998,5.881,5.284,1.571,0.000,0.000,-1.243,-6.419,0.452,5.770,3.229,6.096,
38.700,49.515,-1.393,-6.568,1.674,0.802,6.283,3.233,0.000,1.636,0.000,3.393,2.118,0.000,0.404,0.435,0.000,0.000,1.948,0.000,0.000,0.000,0.000,0.000,0.000,0.000,0.000,0.000,0.000,0.000,3.142,6.282,0.000,2.100,1.897,1.798,4.285,0.398,1.000,4.711,0.000,0.000,-1.579,-6.372,0.451,5.765,3.169,6.234,4.183,4.384,4.484,1.998,5.882,5.283,1.570,0.000,0.000,-1.251,-6.338,0.451,5.771,3.231,6.093,
38.800,49.615,-1.400,-6.499,1.674,0.986,0.000,3.160,0.000,1.629,0.000,3.377,2.188,0.000,0.411,0.443,0.000,0.000,2.053,0.000,0.000,0.000,0.000,0.000,0.000,0.000,0.000,0.000,0.000,0.000,3.142,6.281,0.000,2.102,1.898,1.798,4.285,0.399,0.999,4.710,0.000,0.000,-1.586,-6.303,0.451,5.766,3.170,6.233,4.182,4.384,4.483,1.997,5.882,5.283,1.570,0.000,0.000,-1.259,-6.269,0.451,5.772,3.231,6.092,
38.900,49.715,-1.413,-6.371,1.674,1.118,0.000,3.025,0.000,1.615,0.000,3.084,2.317,0.000,0.425,0.457,0.000,0.000,2.089,0.000,0.000,0.000,0.000,0.000,0.000,0.000,0.000,0.000,0.000,0.000,3.142,6.282,0.000,2.100,1.897,1.798,4.285,0.398,1.000,4.711,0.000,0.000,-1.599,-6.175,0.451,5.765,3.169,6.235,4.183,4.384,4.484,1.998,5.882,5.283,1.570,0.000,0.000,-1.272,-6.141,0.451,5.771,3.230,6.094,
39.000,49.815,-1.422,-6.287,1.674,1.021,0.000,2.937,0.000,1.606,0.000,3.170,2.402,0.634,0.434,1.013,0.000,0.000,2.124,0.000,0.000,0.000,0.000,0.000,0.000,0.000,0.000,0.000,0.000,0.000,3.142,6.283,0.000,2.100,1.897,1.799,4.285,0.398,1.000,4.711,0.000,0.000,-1.607,-6.090,0.451,5.765,3.168,6.236,4.183,4.383,4.484,1.998,5.882,5.283,1.571,0.000,0.000,-1.280,-6.057,0.451,5.771,3.230,6.094,
39.082,49.897,-1.433,-6.173,1.674,0.956,6.283,2.817,0.000,1.594,0.000,3.304,2.517,0.651,0.446,1.026,0.000,0.000,2.720,0.000,0.000,0.000,0.000,0.000,0.000,0.000,0.000,0.000,0.000,0.000,3.142,6.282,0.000,2.100,1.897,1.798,4.285,0.398,1.000,4.711,0.000,0.000,-1.619,-5.977,0.451,5.765,3.169,6.235,4.183,4.384,4.484,1.998,5.882,5.283,1.570,0.000,0.000,-1.292,-5.943,0.451,5.771,3.230,6.094,
39.200,50.015,-1.443,-6.077,1.673,1.020,6.283,2.715,0.000,1.584,0.000,3.320,2.614,0.666,0.456,0.986,0.000,0.000,2.755,0.000,0.000,0.000,0.000,0.000,0.000,0.000,0.000,0.000,0.000,0.000,3.142,6.282,0.000,2.101,1.897,1.798,4.285,0.398,0.999,4.711,0.000,0.000,-1.629,-5.880,0.451,5.765,3.169,6.235,4.183,4.384,4.484,1.998,5.882,5.283,1.570,0.000,0.000,-1.302,-5.846,0.451,5.772,3.230,6.094,
39.300,50.115,-1.452,-5.996,1.673,1.041,6.283,2.630,0.000,1.576,0.000,3.413,2.696,0.679,0.797,0.991,0.000,0.000,2.861,0.000,0.000,0.000,0.000,0.000,0.000,0.000,0.000,0.000,0.000,0.000,3.142,6.282,0.000,2.100,1.897,1.798,4.285,0.398,1.000,4.711,0.000,0.000,-1.638,-5.799,0.451,5.765,3.169,6.235,4.183,4.384,4.484,1.998,5.882,5.283,1.570,0.000,0.000,-1.310,-5.765,0.451,5.771,3.230,6.094,
39.400,50.215,-1.464,-5.875,1.673,1.006,6.283,2.503,0.000,1.563,1.818,3.550,2.818,0.697,0.985,4.548,0.000,0.000,2.861,0.000,0.000,0.000,0.000,0.000,0.000,0.000,0.000,0.000,0.000,0.000,3.142,6.283,0.000,2.100,1.897,1.798,4.285,0.398,1.000,4.711,0.000,0.000,-1.650,-5.678,0.451,5.765,3.168,6.236,4.183,4.384,4.484,1.998,5.882,5.283,1.571,0.000,0.000,-1.323,-5.645,0.451,5.771,3.230,6.095,
39.500,50.315,-1.472,-5.797,1.673,0.995,6.283,2.420,0.000,1.555,1.809,3.639,2.897,0.709,0.993,4.361,0.000,0.000,2.861,0.000,0.000,0.000,0.000,0.000,0.000,0.000,0.000,0.000,0.000,0.000,3.142,6.282,0.000,2.100,1.897,1.798,4.285,0.398,1.000,4.711,0.000,0.000,-1.658,-5.600,0.451,5.765,3.168,6.236,4.183,4.384,4.484,1.998,5.882,5.283,1.570,0.000,0.000,-1.331,-5.567,0.451,5.771,3.230,6.095,
39.600,50.415,-1.482,-5.699,1.673,1.011,6.283,2.317,0.000,1.545,1.681,3.750,2.996,0.724,1.003,4.125,0.000,0.000,2.861,0.000,0.000,0.000,0.000,0.000,0.000,0.000,0.000,0.000,0.000,0.000,3.142,6.282,0.000,2.101,1.897,1.798,4.285,0.398,1.000,4.711,0.000,0.000,-1.668,-5.502,0.451,5.765,3.168,6.236,4.183,4.384,4.484,1.998,5.882,5.283,1.570,0.000,0.000,-1.341,-5.469,0.451,5.771,3.230,6.095,
39.698,50.513,-1.494,-5.580,1.673,1.018,6.283,2.191,0.000,1.533,1.667,3.697,3.117,0.779,1.016,4.033,0.000,0.000,2.861,0.000,0.000,0.000,0.000,0.000,0.000,0.000,0.000,0.000,0.000,0.000,3.142,6.282,0.000,2.100,1.897,1.798,4.285,0.398,1.000,4.711,0.000,0.000,-1.680,-5.383,0.451,5.765,3.168,6.236,4.183,4.384,4.484,1.998,5.882,5.283,1.570,0.000,0.000,-1.353,-5.349,0.451,5.771,3.230,6.095,
39.800,50.615,-1.504,-5.481,1.673,0.982,6.283,2.088,0.000,1.522,1.656,3.675,3.216,0.911,1.026,4.044,0.000,0.000,2.896,0.000,0.000,0.000,0.000,0.000,0.000,0.000,0.000,0.000,0.000,0.000,3.142,6.283,0.000,2.100,1.897,1.798,4.285,0.398,1.000,4.711,0.000,0.000,-1.690,-5.284,0.451,5.765,3.168,6.236,4.183,4.384,4.484,1.998,5.882,5.283,1.571,0.000,0.000,-1.363,-5.251,0.451,5.771,3.230,6.095,
39.900,50.715,-1.512,-5.407,1.673,0.927,0.000,2.010,0.000,1.515,1.648,3.659,3.291,1.012,0.983,4.052,0.000,0.000,2.896,0.000,0.000,0.000,0.000,0.000,0.000,0.000,0.000,0.000,0.000,0.000,3.142,6.283,0.000,2.100,1.897,1.799,4.285,0.398,1.000,4.711,0.000,0.000,-1.698,-5.209,0.451,5.765,3.168,6.236,4.183,4.384,4.484,1.998,5.882,5.283,1.571,0.000,0.000,-1.371,-5.176,0.451,5.771,3.230,6.095,
39.995,50.810,-1.523,-5.302,1.673,0.857,6.283,1.900,0.000,1.504,1.636,3.636,3.396,1.152,1.003,4.064,0.000,0.000,2.896,0.000,0.000,0.000,0.000,0.000,0.000,0.000,0.000,0.000,0.000,0.000,3.142,6.283,0.000,2.100,1.897,1.798,4.285,0.398,1.000,4.711,0.000,0.000,-1.708,-5.106,0.451,5.765,3.168,6.236,4.183,4.384,4.484,1.998,5.882,5.283,1.571,0.000,0.000,-1.381,-5.072,0.451,5.771,3.230,6.095,
40.100,50.915,-1.531,-5.220,1.672,0.833,6.283,1.813,0.000,1.495,1.626,3.618,3.480,1.263,0.000,4.073,0.000,0.000,2.896,0.000,0.000,0.000,0.000,0.000,0.000,0.000,0.000,0.000,0.000,0.000,3.142,6.283,0.000,2.100,1.897,1.798,4.285,0.398,1.000,4.711,0.000,0.000,-1.717,-5.023,0.451,5.765,3.168,6.236,4.183,4.384,4.484,1.998,5.882,5.283,1.571,0.000,0.000,-1.390,-4.989,0.451,5.771,3.230,6.095,
40.200,51.015,-1.536,-5.176,1.672,0.222,0.026,1.767,0.000,1.491,1.621,3.608,3.525,1.322,0.000,4.078,0.000,0.000,2.896,0.000,0.000,0.000,0.000,0.000,0.000,0.000,0.000,0.000,0.000,0.000,3.142,0.004,0.001,2.094,1.896,1.801,4.286,0.396,1.003,4.714,0.000,0.000,-1.720,-4.976,0.452,5.762,3.165,6.241,4.184,4.381,4.487,1.999,5.881,5.284,1.571,0.000,0.000,-1.393,-4.944,0.452,5.768,3.228,6.100,
40.300,51.115,-1.534,-5.196,1.672,-0.372,0.006,1.788,0.000,1.493,1.624,3.611,3.505,1.294,0.000,4.075,0.000,0.000,2.896,0.000,0.000,0.000,0.000,0.000,0.000,0.000,0.000,0.000,0.000,0.000,3.142,0.001,0.000,2.099,1.897,1.799,4.285,0.398,1.000,4.712,0.000,0.000,-1.719,-4.999,0.451,5.765,3.167,6.238,4.183,4.383,4.485,1.998,5.882,5.284,1.571,0.000,0.000,-1.392,-4.966,0.451,5.771,3.229,6.097,
40.400,51.215,-1.531,-5.216,1.672,-0.114,0.013,1.807,0.000,1.495,1.626,3.613,3.486,1.267,0.000,4.072,0.000,0.000,2.896,0.000,0.000,0.000,0.000,0.000,0.000,0.000,0.000,0.000,0.000,0.000,3.142,6.281,6.283,2.103,1.897,1.798,4.285,0.399,0.998,4.710,0.000,0.000,-1.717,-5.021,0.450,5.767,3.169,6.235,4.182,4.385,4.483,1.997,5.882,5.283,1.571,0.000,0.000,-1.390,-4.987,0.451,5.773,3.230,6.095,
40.493,51.308,-1.532,-5.212,1.671,0.119,0.014,1.800,0.000,1.495,1.625,3.607,3.494,1.272,0.000,4.071,0.000,0.000,2.896,0.000,0.000,0.000,0.000,0.000,0.000,0.000,0.000,0.000,0.000,0.000,3.142,6.282,0.000,2.101,1.898,1.798,4.285,0.398,0.999,4.711,0.000,0.000,-1.718,-5.015,0.451,5.765,3.168,6.237,4.183,4.384,4.484,1.998,5.882,5.283,1.570,0.000,0.000,-1.390,-4.981,0.451,5.771,3.229,6.096,
40.600,51.415,-1.533,-5.204,1.670,0.030,6.283,1.789,0.000,1.494,1.623,3.601,3.505,1.281,0.000,4.071,0.000,0.000,2.896,0.000,0.000,0.000,0.000,0.000,0.000,0.000,0.000,0.000,0.000,0.000,3.142,6.282,0.001,2.100,1.897,1.798,4.285,0.398,1.000,4.711,0.000,0.000,-1.718,-5.007,0.451,5.765,3.167,6.239,4.183,4.384,4.484,1.998,5.882,5.283,1.570,0.000,0.000,-1.391,-4.974,0.451,5.771,3.229,6.097,
40.700,51.515,-1.533,-5.204,1.670,0.000,6.281,1.786,0.000,1.494,1.623,3.597,3.509,1.281,0.000,4.070,0.000,0.000,2.896,0.000,0.000,0.000,0.000,0.000,0.000,0.000,0.000,0.000,0.000,0.000,3.142,6.282,0.000,2.100,1.898,1.798,4.286,0.398,1.000,4.711,0.000,0.000,-1.718,-5.007,0.451,5.765,3.166,6.239,4.183,4.384,4.484,1.998,5.882,5.283,1.570,0.000,0.000,-1.390,-4.974,0.451,5.771,3.228,6.098,
40.800,51.615,-1.533,-5.204,1.668,-0.006,6.227,1.779,0.000,1.495,1.621,3.585,3.517,1.278,0.000,4.066,0.000,0.000,2.896,0.000,0.000,0.000,0.000,0.000,0.000,0.000,0.000,0.000,0.000,0.000,3.142,6.282,0.000,2.100,1.898,1.798,4.286,0.398,0.999,4.711,0.000,0.000,-1.717,-5.007,0.451,5.765,3.165,6.241,4.183,4.384,4.484,1.998,5.882,5.283,1.570,0.000,0.000,-1.390,-4.975,0.451,5.771,3.227,6.100,
40.900,51.715,-1.533,-5.205,1.665,-0.009,6.168,1.767,0.000,1.496,1.619,3.566,3.531,1.275,0.000,4.061,0.000,0.000,2.896,0.000,0.000,0.000,0.000,0.000,0.000,0.000,0.000,0.000,0.000,0.000,3.142,6.282,0.000,2.101,1.897,1.798,4.285,0.398,0.999,4.711,0.000,0.000,-1.717,-5.006,0.451,5.765,3.164,6.244,4.183,4.384,4.484,1.998,5.882,5.283,1.570,0.000,0.000,-1.389,-4.975,0.451,5.771,3.226,6.103,
41.000,51.815,-1.533,-5.205,1.659,-0.010,6.159,1.745,0.000,1.498,1.615,3.529,3.559,1.268,0.000,4.051,0.000,0.000,2.931,0.000,0.000,0.000,0.000,0.000,0.000,0.000,0.000,0.000,0.000,0.000,3.142,6.282,0.000,2.101,1.897,1.798,4.285,0.398,0.999,4.711,0.000,0.000,-1.716,-5.006,0.451,5.765,3.161,6.251,4.183,4.384,4.484,1.998,5.882,5.283,1.570,0.000,0.000,-1.388,-4.977,0.451,5.771,3.222,6.110,
41.100,51.915,-1.533,-5.205,1.654,-0.008,6.196,1.748,0.000,1.499,1.611,3.495,3.587,1.261,0.000,4.041,0.000,0.000,2.931,0.000,0.000,0.000,0.000,0.000,0.000,0.000,0.000,0.000,0.000,0.000,3.142,6.282,0.000,2.101,1.897,1.798,4.285,0.398,0.999,4.711,0.000,0.000,-1.715,-5.005,0.451,5.765,3.158,6.257,4.183,4.384,4.484,1.998,5.882,5.283,1.570,0.000,0.000,-1.387,-4.978,0.451,5.770,3.219,6.116,
41.200,52.015,-1.534,-5.190,1.651,0.475,0.067,1.735,0.000,1.499,1.607,3.474,3.618,1.278,0.000,4.037,0.000,0.000,2.931,0.000,0.000,0.000,0.000,0.000,0.000,0.000,0.000,0.000,0.000,0.000,3.142,6.278,6.283,2.106,1.898,1.796,4.285,0.400,0.996,4.709,0.000,0.000,-1.716,-4.992,0.450,5.767,3.158,6.256,4.182,4.386,4.482,1.997,5.883,5.283,1.570,0.000,0.000,-1.388,-4.964,0.450,5.772,3.220,6.116,
41.296,52.111,-1.542,-5.085,1.652,1.159,0.000,1.630,0.000,0.892,1.598,3.466,3.720,1.418,0.000,4.048,0.000,0.000,2.931,0.000,0.000,0.000,0.000,0.000,0.000,0.000,0.000,0.000,0.000,0.000,3.142,6.281,0.000,2.102,1.898,1.798,4.285,0.399,0.999,4.710,0.000,0.000,-1.724,-4.885,0.451,5.766,3.157,6.259,4.182,4.385,4.483,1.997,5.882,5.283,1.570,0.000,0.000,-1.396,-4.858,0.451,5.770,3.219,6.118,
41.400,52.215,-1.551,-4.984,1.651,0.809,0.001,1.529,0.000,0.817,1.589,3.583,3.823,1.607,0.000,1.286,0.000,0.000,2.931,0.000,0.000,0.000,0.000,0.000,0.000,0.000,0.000,0.000,0.000,0.000,3.142,0.001,0.001,2.097,1.897,1.800,4.285,0.397,1.001,4.712,0.000,0.000,-1.732,-4.781,0.452,5.763,3.155,6.263,4.184,4.383,4.485,1.998,5.881,5.284,1.571,0.000,0.000,-1.404,-4.755,0.452,5.768,3.217,6.122,
41.500,52.315,-1.555,-4.935,1.651,0.484,0.000,1.480,0.000,0.813,1.585,3.639,3.872,1.613,0.000,1.163,0.000,0.000,2.931,0.000,0.000,0.000,0.000,0.000,0.000,0.000,0.000,0.000,0.000,0.000,3.142,0.001,0.001,2.098,1.897,1.799,4.285,0.398,1.001,4.712,0.000,0.000,-1.736,-4.733,0.451,5.763,3.155,6.262,4.183,4.383,4.485,1.998,5.882,5.283,1.571,0.000,0.000,-1.408,-4.707,0.452,5.769,3.217,6.121,
41.598,52.413,-1.559,-4.879,1.651,0.579,0.000,1.425,0.000,0.809,1.580,3.704,3.929,1.621,0.000,1.098,0.000,0.000,2.931,0.000,0.000,0.000,0.000,0.000,0.000,0.000,0.000,0.000,0.000,0.000,3.142,6.281,0.000,2.102,1.898,1.798,4.285,0.399,0.999,4.711,0.000,0.000,-1.741,-4.679,0.451,5.765,3.157,6.259,4.183,4.384,4.483,1.997,5.882,5.283,1.570,0.000,0.000,-1.413,-4.652,0.451,5.770,3.218,6.118,
41.700,52.515,-1.564,-4.813,1.651,0.724,0.000,1.360,0.000,0.803,1.574,3.780,3.996,1.629,0.000,1.104,0.000,0.000,2.931,0.000,0.000,0.000,0.000,0.000,0.000,0.000,0.000,0.000,0.000,0.000,3.142,6.282,0.000,2.101,1.897,1.798,4.285,0.398,0.999,4.711,0.000,0.000,-1.746,-4.613,0.451,5.765,3.156,6.260,4.183,4.384,4.484,1.998,5.882,5.283,1.570,0.000,0.000,-1.418,-4.586,0.451,5.770,3.218,6.119,
41.791,52.606,-1.570,-4.747,1.651,0.610,0.001,1.294,0.000,0.798,1.568,3.857,4.063,1.637,0.000,1.164,0.000,0.000,2.931,0.000,0.000,0.000,0.000,0.000,0.000,0.000,0.000,0.000,0.000,0.000,3.142,6.283,0.000,2.099,1.897,1.799,4.285,0.398,1.000,4.712,0.000,0.000,-1.751,-4.546,0.451,5.764,3.155,6.262,4.183,4.383,4.484,1.998,5.882,5.283,1.571,0.000,0.000,-1.423,-4.519,0.451,5.769,3.217,6.121,
41.900,52.715,-1.574,-4.695,1.651,0.488,0.000,1.242,0.000,0.793,1.563,3.917,4.116,1.644,0.000,1.168,0.000,0.000,2.931,0.000,0.000,0.000,0.000,0.000,0.000,0.000,0.000,0.000,0.000,0.000,3.142,6.283,0.000,2.100,1.897,1.798,4.285,0.398,1.000,4.711,0.000,0.000,-1.755,-4.494,0.451,5.764,3.156,6.261,4.183,4.384,4.484,1.998,5.882,5.283,1.570,0.000,0.000,-1.427,-4.467,0.451,5.769,3.217,6.120,
42.000,52.815,-1.578,-4.647,1.651,0.504,6.283,1.195,0.000,0.790,1.559,3.971,4.164,1.650,0.000,1.172,0.000,0.000,2.931,0.000,0.000,0.000,0.000,0.000,0.000,0.000,0.000,0.000,0.000,0.000,3.142,6.282,0.000,2.101,1.897,1.798,4.285,0.398,0.999,4.711,0.000,0.000,-1.759,-4.447,0.451,5.765,3.156,6.261,4.183,4.384,4.484,1.998,5.882,5.283,1.570,0.000,0.000,-1.431,-4.420,0.451,5.770,3.218,6.120,
42.100,52.915,-1.582,-4.597,1.651,0.528,0.000,1.145,0.000,0.786,1.555,4.030,4.216,1.656,0.000,1.177,0.000,0.000,2.966,0.000,0.000,0.000,0.000,0.000,0.000,0.000,0.000,0.000,0.000,0.000,3.142,6.282,0.000,2.100,1.897,1.798,4.285,0.398,1.000,4.711,0.000,0.000,-1.763,-4.396,0.451,5.765,3.156,6.261,4.183,4.384,4.484,1.998,5.882,5.283,1.570,0.000,0.000,-1.435,-4.370,0.451,5.770,3.217,6.120,
42.200,53.015,-1.586,-4.548,1.650,0.482,6.283,1.096,0.000,0.782,0.838,4.087,4.266,1.663,0.000,1.181,0.000,0.000,2.966,0.000,0.000,0.000,0.000,0.000,0.000,0.000,0.000,0.000,0.000,0.000,3.142,6.283,0.000,2.100,1.897,1.798,4.285,0.398,1.000,4.711,0.000,0.000,-1.767,-4.347,0.451,5.764,3.155,6.262,4.183,4.384,4.484,1.998,5.882,5.283,1.570,0.000,0.000,-1.439,-4.320,0.451,5.769,3.217,6.121,
42.300,53.115,-1.589,-4.504,1.650,0.433,6.283,1.052,0.000,0.778,0.834,4.137,4.310,1.668,0.000,1.185,0.000,0.000,2.966,0.000,0.000,0.000,0.000,0.000,0.000,0.000,0.000,0.000,0.000,0.000,3.142,6.283,0.000,2.100,1.897,1.798,4.285,0.398,1.000,4.711,0.000,0.000,-1.770,-4.303,0.451,5.764,3.155,6.262,4.183,4.384,4.484,1.998,5.882,5.283,1.570,0.000,0.000,-1.443,-4.277,0.451,5.769,3.217,6.121,
42.400,53.215,-1.592,-4.463,1.650,0.422,6.283,1.012,0.000,0.775,0.830,4.185,4.352,1.674,0.000,1.188,0.000,0.000,2.966,0.000,0.000,0.000,0.000,0.000,0.000,0.000,0.000,0.000,0.000,0.000,3.142,6.282,0.000,2.100,1.897,1.798,4.285,0.398,1.000,4.711,0.000,0.000,-1.774,-4.262,0.451,5.765,3.155,6.262,4.183,4.384,4.484,1.998,5.882,5.283,1.570,0.000,0.000,-1.446,-4.236,0.451,5.769,3.217,6.121,
42.500,53.315,-1.596,-4.423,1.650,0.415,6.283,0.971,0.000,0.771,0.827,4.231,4.394,1.602,0.000,1.191,0.000,0.000,2.966,0.000,0.000,0.000,0.000,0.000,0.000,0.000,0.000,0.000,0.000,0.000,3.142,6.282,0.000,2.100,1.897,1.798,4.285,0.398,1.000,4.711,0.000,0.000,-1.777,-4.222,0.451,5.765,3.155,6.262,4.183,4.384,4.484,1.998,5.882,5.283,1.570,0.000,0.000,-1.449,-4.196,0.451,5.769,3.217,6.121,
42.600,53.415,-1.598,-4.392,1.650,0.396,6.283,0.940,0.000,0.769,0.824,4.268,4.426,1.606,0.000,1.194,0.000,0.000,2.966,0.000,0.000,0.000,0.000,0.000,0.000,0.000,0.000,0.000,0.000,0.000,3.142,6.283,0.000,2.100,1.897,1.798,4.285,0.398,1.000,4.711,0.000,0.000,-1.779,-4.190,0.451,5.765,3.155,6.262,4.183,4.384,4.484,1.998,5.882,5.283,1.570,0.000,0.000,-1.451,-4.164,0.451,5.769,3.217,6.121,
42.697,53.512,-1.601,-4.348,1.650,0.361,6.283,0.898,0.000,0.765,0.820,4.318,4.470,1.612,0.000,1.198,0.000,0.000,2.966,0.000,0.000,0.000,0.000,0.000,0.000,0.000,0.000,0.000,0.000,0.000,3.142,6.283,0.000,2.100,1.897,1.798,4.285,0.398,1.000,4.711,0.000,0.000,-1.783,-4.147,0.451,5.765,3.155,6.262,4.183,4.384,4.484,1.998,5.882,5.283,1.570,0.000,0.000,-1.455,-4.121,0.451,5.769,3.217,6.121,
42.800,53.615,-1.604,-4.315,1.650,0.346,6.283,0.864,0.000,0.763,0.817,0.000,4.505,1.616,0.000,1.201,0.000,0.000,2.966,0.000,0.000,0.000,0.000,0.000,0.000,0.000,0.000,0.000,0.000,0.000,3.142,6.283,0.000,2.100,1.897,1.798,4.285,0.398,1.000,4.711,0.000,0.000,-1.785,-4.114,0.451,5.765,3.155,6.263,4.183,4.384,4.484,1.998,5.882,5.283,1.570,0.000,0.000,-1.457,-4.088,0.451,5.769,3.217,6.121,
42.884,53.699,-1.606,-4.289,1.650,0.334,6.283,0.838,0.000,0.761,0.815,0.000,4.531,1.619,0.000,1.203,0.000,0.000,2.966,0.000,0.000,0.000,0.000,0.000,0.000,0.000,0.000,0.000,0.000,0.000,3.142,6.283,0.000,2.100,1.897,1.798,4.285,0.398,1.000,4.711,0.000,0.000,-1.787,-4.088,0.451,5.765,3.155,6.263,4.183,4.384,4.484,1.998,5.882,5.283,1.570,0.000,0.000,-1.459,-4.062,0.451,5.769,3.217,6.121,
43.000,53.815,-1.609,-4.252,1.649,0.313,6.283,0.802,0.000,1.422,0.812,0.000,4.569,1.656,0.000,0.862,0.000,0.000,2.966,0.000,0.000,0.000,0.000,0.000,0.000,0.000,0.000,0.000,0.000,0.000,3.142,6.283,0.000,2.100,1.897,1.798,4.285,0.398,1.000,4.711,0.000,0.000,-1.790,-4.051,0.451,5.765,3.155,6.263,4.183,4.384,4.484,1.998,5.882,5.283,1.570,0.000,0.000,-1.462,-4.025,0.451,5.769,3.217,6.122,
43.100,53.915,-1.611,-4.229,1.649,0.303,0.001,0.779,0.000,1.041,0.810,0.000,4.593,1.686,1.089,0.864,0.000,0.000,2.966,0.000,0.000,0.000,0.000,0.000,0.000,0.000,0.000,0.000,0.000,0.000,3.142,6.283,0.000,2.100,1.897,1.798,4.285,0.398,1.000,4.711,0.000,0.000,-1.792,-4.028,0.451,5.765,3.155,6.263,4.183,4.384,4.484,1.998,5.882,5.283,1.570,0.000,0.000,-1.464,-4.002,0.451,5.769,3.217,6.122,
43.194,54.009,-1.614,-4.195,1.649,0.285,0.001,0.746,0.000,0.970,0.807,0.000,4.628,1.730,1.092,1.211,0.000,0.000,2.966,0.000,0.000,0.000,0.000,0.000,0.000,0.000,0.000,0.000,0.000,0.000,3.142,6.283,0.000,2.100,1.897,1.798,4.285,0.398,1.000,4.711,0.000,0.000,-1.795,-3.994,0.451,5.765,3.155,6.263,4.183,4.384,4.484,1.998,5.882,5.283,1.570,0.000,0.000,-1.467,-3.968,0.451,5.769,3.217,6.122,
43.300,54.115,-1.616,-4.169,1.649,0.273,0.010,0.720,0.000,0.968,0.804,0.000,4.656,1.764,1.094,1.213,0.000,0.000,2.966,0.000,0.000,0.000,0.000,0.000,0.000,0.000,0.000,0.000,0.000,0.000,3.142,6.282,0.000,2.100,1.897,1.798,4.285,0.398,1.000,4.711,0.000,0.000,-1.797,-3.968,0.451,5.765,3.155,6.263,4.183,4.384,4.484,1.998,5.882,5.283,1.570,0.000,0.000,-1.469,-3.942,0.451,5.769,3.216,6.122,
43.392,54.207,-1.618,-4.144,1.649,0.259,0.001,0.695,0.000,0.966,0.802,0.000,4.682,1.797,1.096,1.215,0.000,0.000,3.106,0.000,0.000,0.000,0.000,0.000,0.000,0.000,0.000,0.000,0.000,0.000,3.142,6.283,0.000,2.100,1.897,1.798,4.285,0.398,1.000,4.711,0.000,0.000,-1.799,-3.943,0.451,5.765,3.155,6.264,4.183,4.384,4.484,1.998,5.882,5.283,1.570,0.000,0.000,-1.471,-3.917,0.451,5.769,3.216,6.122,
43.500,54.315,-1.619,-4.121,1.649,0.246,0.010,0.671,0.000,1.412,0.800,0.000,4.706,1.828,1.098,1.079,0.000,0.000,3.106,0.000,0.000,0.000,0.000,0.000,0.000,0.000,0.000,0.000,0.000,0.000,3.142,6.282,0.000,2.100,1.897,1.798,4.285,0.398,1.000,4.711,0.000,0.000,-1.800,-3.919,0.451,5.765,3.154,6.264,4.183,4.384,4.484,1.998,5.882,5.283,1.570,0.000,0.000,-1.472,-3.894,0.451,5.769,3.216,6.122,
43.600,54.415,-1.621,-4.098,1.648,0.235,0.001,0.649,0.000,1.410,0.798,0.000,4.730,1.857,1.100,1.022,0.000,0.000,3.106,0.000,0.000,0.000,0.000,0.000,0.000,0.000,0.000,0.000,0.000,0.000,3.142,6.283,0.000,2.100,1.897,1.798,4.285,0.398,1.000,4.711,0.000,0.000,-1.802,-3.897,0.451,5.765,3.154,6.264,4.183,4.384,4.484,1.998,5.882,5.283,1.570,0.000,0.000,-1.474,-3.871,0.451,5.769,3.216,6.123,
43.700,54.515,-1.623,-4.077,1.648,0.223,0.010,0.628,0.000,1.409,0.796,2.775,4.752,1.885,1.121,0.967,0.000,0.000,3.106,0.000,0.000,0.000,0.000,0.000,0.000,0.000,0.000,0.000,0.000,0.000,3.142,6.282,0.000,2.100,1.897,1.798,4.285,0.398,1.000,4.711,0.000,0.000,-1.804,-3.876,0.451,5.765,3.154,6.264,4.183,4.384,4.484,1.998,5.882,5.283,1.570,0.000,0.000,-1.476,-3.850,0.451,5.769,3.216,6.123,
43.800,54.615,-1.624,-4.061,1.648,0.213,0.010,0.612,0.000,1.407,0.795,2.772,4.769,1.906,1.154,0.927,0.000,0.000,3.106,0.000,0.000,0.000,0.000,0.000,0.000,0.000,0.000,0.000,0.000,0.000,3.142,6.282,0.000,2.100,1.897,1.798,4.285,0.398,1.000,4.711,0.000,0.000,-1.805,-3.859,0.451,5.765,3.154,6.264,4.183,4.384,4.484,1.998,5.882,5.283,1.570,0.000,0.000,-1.477,-3.834,0.451,5.769,3.216,6.123,
43.900,54.715,-1.626,-4.038,1.648,0.201,0.010,0.589,0.000,1.406,0.793,2.768,4.793,1.936,1.156,0.869,0.000,0.000,3.106,0.000,0.000,0.000,0.000,0.000,0.000,0.000,0.000,0.000,0.000,0.000,3.142,6.282,0.000,2.100,1.897,1.798,4.285,0.398,1.000,4.711,0.000,0.000,-1.807,-3.837,0.451,5.765,3.154,6.264,4.183,4.384,4.484,1.998,5.882,5.283,1.570,0.000,0.000,-1.479,-3.811,0.451,5.769,3.216,6.123,
44.000,54.815,-1.627,-4.023,1.648,0.196,0.010,0.575,0.000,1.405,0.792,2.765,4.809,1.955,1.157,0.832,0.000,0.000,3.106,0.000,0.000,0.000,0.000,0.000,0.000,0.000,0.000,0.000,0.000,0.000,3.142,6.282,0.000,2.100,1.897,1.798,4.285,0.398,1.000,4.711,0.000,0.000,-1.808,-3.822,0.451,5.765,3.154,6.264,4.183,4.384,4.484,1.998,5.882,5.283,1.570,0.000,0.000,-1.480,-3.797,0.451,5.769,3.216,6.123,
44.098,54.913,-1.629,-4.003,1.648,0.184,0.010,0.554,0.000,1.403,0.790,2.761,4.831,1.992,1.159,0.779,0.000,0.000,3.106,0.000,0.000,0.000,0.000,0.000,0.000,0.000,0.000,0.000,0.000,0.000,3.142,6.282,0.000,2.100,1.897,1.798,4.285,0.398,1.000,4.711,0.000,0.000,-1.809,-3.801,0.451,5.765,3.154,6.265,4.183,4.384,4.484,1.998,5.882,5.283,1.570,0.000,0.000,-1.481,-3.776,0.451,5.769,3.216,6.124,
44.200,55.015,-1.630,-3.986,1.648,0.176,0.001,0.538,0.000,1.402,0.788,2.757,4.849,2.018,1.161,0.737,0.000,0.000,3.106,0.000,0.000,0.000,0.000,0.000,0.000,0.000,0.000,0.000,0.000,0.000,3.142,6.283,0.000,2.100,1.897,1.798,4.285,0.398,1.000,4.711,0.000,0.000,-1.811,-3.785,0.451,5.765,3.154,6.265,4.183,4.384,4.484,1.998,5.882,5.283,1.570,0.000,0.000,-1.483,-3.759,0.451,5.769,3.216,6.124,
44.295,55.110,-1.631,-3.971,1.647,0.168,0.010,0.522,0.000,1.401,0.787,2.754,4.865,2.056,1.162,0.697,0.000,0.000,3.106,0.000,0.000,0.000,0.000,0.000,0.000,0.000,0.000,0.000,0.000,0.000,3.142,6.282,0.000,2.100,1.897,1.798,4.285,0.398,1.000,4.711,0.000,0.000,-1.812,-3.769,0.451,5.765,3.154,6.265,4.183,4.384,4.484,1.998,5.882,5.283,1.570,0.000,0.000,-1.484,-3.744,0.451,5.769,3.216,6.124,
44.400,55.215,-1.632,-3.956,1.647,0.159,0.010,0.508,0.000,1.399,0.786,2.751,4.881,2.092,1.163,0.690,0.000,0.000,3.106,0.000,0.000,0.000,0.000,0.000,0.000,0.000,0.000,0.000,0.000,0.000,3.142,6.282,0.000,2.100,1.897,1.798,4.285,0.398,1.000,4.711,0.000,0.000,-1.813,-3.754,0.451,5.765,3.154,6.265,4.183,4.384,4.484,1.998,5.882,5.283,1.570,0.000,0.000,-1.485,-3.729,0.451,5.769,3.216,6.124,
44.485,55.300,-1.633,-3.945,1.647,0.152,0.001,0.497,0.000,1.399,0.785,2.749,4.893,2.119,1.164,0.691,0.000,0.000,3.106,0.000,0.000,0.000,0.000,0.000,0.000,0.000,0.000,0.000,0.000,0.000,3.142,6.283,0.000,2.100,1.897,1.798,4.285,0.398,1.000,4.711,0.000,0.000,-1.814,-3.743,0.451,5.765,3.154,6.265,4.183,4.384,4.484,1.998,5.882,5.283,1.570,0.000,0.000,-1.486,-3.718,0.451,5.769,3.215,6.124,
44.600,55.415,-1.634,-3.929,1.647,0.145,0.000,0.481,0.000,1.397,0.783,2.746,4.910,2.157,1.165,0.692,0.000,0.000,3.106,0.000,0.000,0.000,0.000,0.000,0.000,0.000,0.000,0.000,0.000,0.000,3.142,6.282,0.000,2.100,1.897,1.798,4.285,0.398,1.000,4.711,0.000,0.000,-1.815,-3.727,0.451,5.765,3.154,6.266,4.183,4.384,4.484,1.998,5.882,5.283,1.570,0.000,0.000,-1.487,-3.702,0.451,5.769,3.215,6.124,
44.680,55.495,-1.635,-3.916,1.647,0.144,0.010,0.468,0.000,1.396,0.782,2.743,4.924,2.188,1.166,0.693,0.000,0.000,3.106,0.000,0.000,0.000,0.000,0.000,0.000,0.000,0.000,0.000,0.000,0.000,3.142,6.282,0.000,2.100,1.897,1.798,4.285,0.398,1.000,4.711,0.000,0.000,-1.816,-3.714,0.451,5.765,3.153,6.266,4.183,4.384,4.484,1.998,5.882,5.283,1.570,0.000,0.000,-1.488,-3.689,0.451,5.769,3.215,6.124,
44.799,55.614,-1.636,-3.903,1.647,0.136,6.283,0.456,0.000,1.396,0.781,2.741,4.938,2.219,1.167,0.694,0.000,0.000,3.106,0.000,0.000,0.000,0.000,0.000,0.000,0.000,0.000,0.000,0.000,0.000,3.142,6.283,0.000,2.100,1.897,1.798,4.285,0.398,1.000,4.711,0.000,0.000,-1.817,-3.702,0.451,5.765,3.153,6.266,4.183,4.384,4.484,1.998,5.882,5.283,1.570,0.000,0.000,-1.489,-3.677,0.451,5.769,3.215,6.125,
44.900,55.715,-1.637,-3.892,1.647,0.127,0.001,0.444,0.000,1.395,0.780,2.738,4.950,2.247,1.168,0.695,0.000,0.000,3.106,0.000,0.000,0.000,0.000,0.000,0.000,0.000,0.000,0.000,0.000,0.000,3.142,6.283,0.000,2.100,1.897,1.798,4.285,0.398,1.000,4.711,0.000,0.000,-1.818,-3.690,0.451,5.765,3.153,6.266,4.183,4.384,4.484,1.998,5.882,5.283,1.570,0.000,0.000,-1.490,-3.665,0.451,5.769,3.215,6.125,
44.995,55.810,-1.638,-3.881,1.646,0.121,0.010,0.434,0.000,1.394,0.779,2.736,4.962,2.272,1.169,0.696,0.000,0.000,3.106,0.000,0.000,0.000,0.000,0.000,0.000,0.000,0.000,0.000,0.000,0.000,3.142,6.282,0.000,2.100,1.897,1.798,4.285,0.398,1.000,4.711,0.000,0.000,-1.818,-3.680,0.451,5.765,3.153,6.266,4.183,4.384,4.484,1.998,5.882,5.283,1.570,0.000,0.000,-1.490,-3.655,0.451,5.769,3.215,6.125,
45.100,55.915,-1.639,-3.871,1.646,0.118,6.283,0.423,0.000,1.393,0.778,2.734,4.973,2.298,1.170,0.697,0.000,0.000,3.106,0.000,0.000,0.000,0.000,0.000,0.000,0.000,0.000,0.000,0.000,0.000,3.142,6.282,0.000,2.100,1.897,1.798,4.285,0.398,1.000,4.711,0.000,0.000,-1.819,-3.669,0.451,5.765,3.153,6.266,4.183,4.384,4.484,1.998,5.882,5.283,1.570,0.000,0.000,-1.491,-3.644,0.451,5.769,3.215,6.125,
45.184,55.999,-1.639,-3.861,1.646,0.103,0.001,0.414,0.000,1.392,0.777,2.732,4.984,2.321,1.171,0.698,0.000,0.000,3.106,0.000,0.000,0.000,0.000,0.000,0.000,0.000,0.000,0.000,0.000,0.000,3.142,6.283,0.000,2.100,1.897,1.798,4.285,0.398,1.000,4.711,0.000,0.000,-1.820,-3.659,0.451,5.765,3.153,6.267,4.183,4.384,4.484,1.998,5.882,5.283,1.570,0.000,0.000,-1.492,-3.634,0.451,5.769,3.215,6.125,
45.300,56.115,-1.640,-3.857,1.646,0.001,0.009,0.410,0.000,1.392,0.777,2.730,4.989,2.330,1.171,0.698,0.000,0.000,3.106,0.000,0.000,0.000,0.000,0.000,0.000,0.000,0.000,0.000,0.000,0.000,3.142,6.283,0.000,2.100,1.897,1.799,4.285,0.398,1.000,4.711,0.000,0.000,-1.820,-3.655,0.451,5.764,3.153,6.267,4.183,4.384,4.484,1.998,5.882,5.283,1.571,0.000,0.000,-1.492,-3.630,0.451,5.769,3.215,6.126,
45.385,56.200,-1.640,-3.857,1.646,0.001,0.006,0.410,0.000,1.392,0.777,2.730,4.989,2.330,1.171,0.698,0.000,0.000,3.106,0.000,0.000,0.000,0.000,0.000,0.000,0.000,0.000,0.000,0.000,0.000,3.142,6.283,0.000,2.100,1.897,1.799,4.285,0.398,1.000,4.711,0.000,0.000,-1.820,-3.655,0.451,5.765,3.153,6.267,4.183,4.384,4.484,1.998,5.882,5.283,1.571,0.000,0.000,-1.492,-3.631,0.451,5.769,3.214,6.126,
45.500,56.315,-1.640,-3.857,1.646,0.001,0.005,0.410,0.000,1.392,0.777,2.730,4.989,2.329,1.171,0.698,0.000,0.000,3.106,0.000,0.000,0.000,0.000,0.000,0.000,0.000,0.000,0.000,0.000,0.000,3.142,6.283,0.000,2.100,1.897,1.799,4.286,0.398,1.000,4.711,0.000,0.000,-1.820,-3.655,0.451,5.765,3.153,6.267,4.183,4.384,4.484,1.998,5.882,5.283,1.571,0.000,0.000,-1.492,-3.631,0.451,5.769,3.214,6.126,
45.600,56.415,-1.640,-3.857,1.645,0.000,0.001,0.410,0.000,1.392,0.777,2.727,4.994,2.325,1.171,0.698,0.000,0.000,3.106,0.000,0.000,0.000,0.000,0.000,0.000,0.000,0.000,0.000,0.000,0.000,3.142,6.283,0.000,2.100,1.897,1.799,4.286,0.398,1.000,4.711,0.000,0.000,-1.820,-3.655,0.451,5.765,3.152,6.268,4.183,4.384,4.484,1.998,5.882,5.283,1.570,0.000,0.000,-1.492,-3.631,0.451,5.769,3.214,6.126,
45.700,56.515,-1.640,-3.857,1.644,0.000,6.281,0.410,0.000,1.393,0.776,2.721,0.000,2.316,1.172,0.697,0.000,0.000,3.142,0.000,0.000,0.000,0.000,0.000,0.000,0.000,0.000,0.000,0.000,0.000,3.142,6.283,0.000,2.100,1.897,1.798,4.286,0.398,1.000,4.711,0.000,0.000,-1.820,-3.655,0.451,5.765,3.152,6.269,4.183,4.384,4.484,1.998,5.882,5.283,1.570,0.000,0.000,-1.492,-3.631,0.451,5.769,3.213,6.128,
45.800,56.615,-1.640,-3.857,1.643,0.000,6.279,0.411,0.000,1.393,0.776,2.716,0.000,2.309,1.172,0.697,0.000,0.000,3.142,0.000,0.000,0.000,0.000,0.000,0.000,0.000,0.000,0.000,0.000,0.000,3.142,6.283,0.000,2.100,1.897,1.798,4.286,0.398,1.000,4.711,0.000,0.000,-1.819,-3.655,0.451,5.765,3.151,6.270,4.183,4.384,4.484,1.998,5.882,5.283,1.570,0.000,0.000,-1.491,-3.631,0.451,5.769,3.213,6.129,
45.896,56.711,-1.640,-3.858,1.641,-0.005,6.246,0.411,0.000,1.394,0.775,2.707,0.000,2.296,1.172,0.696,0.000,0.000,3.142,0.000,0.000,0.000,0.000,0.000,0.000,0.000,0.000,0.000,0.000,0.000,3.142,6.282,0.000,2.100,1.897,1.798,4.286,0.398,0.999,4.711,0.000,0.000,-1.819,-3.655,0.451,5.765,3.150,6.272,4.183,4.384,4.484,1.998,5.882,5.283,1.570,0.000,0.000,-1.491,-3.632,0.451,5.769,3.212,6.131,
46.000,56.815,-1.640,-3.858,1.639,0.001,0.007,0.412,0.000,1.394,0.775,2.700,0.000,2.286,1.173,0.696,0.000,0.000,3.142,0.000,0.000,0.000,0.000,0.000,0.000,0.000,0.000,0.000,0.000,0.000,3.142,6.283,0.000,2.100,1.897,1.799,4.285,0.398,1.000,4.711,0.000,0.000,-1.819,-3.655,0.451,5.764,3.149,6.275,4.183,4.384,4.484,1.998,5.882,5.283,1.571,0.000,0.000,-1.491,-3.632,0.451,5.769,3.211,6.133,
46.081,56.897,-1.640,-3.858,1.639,0.001,0.006,0.412,0.000,1.394,0.775,2.700,0.000,2.286,1.173,0.696,0.000,0.000,3.142,0.000,0.000,0.000,0.000,0.000,0.000,0.000,0.000,0.000,0.000,0.000,3.142,6.283,0.000,2.100,1.897,1.799,4.285,0.398,1.000,4.711,0.000,0.000,-1.819,-3.655,0.451,5.764,3.149,6.275,4.183,4.384,4.484,1.998,5.882,5.284,1.571,0.000,0.000,-1.491,-3.632,0.451,5.769,3.211,6.133,
46.200,57.015,-1.640,-3.858,1.639,0.001,0.006,0.412,0.000,1.394,0.775,2.700,0.000,2.286,1.173,0.696,0.000,0.000,3.142,0.000,0.000,0.000,0.000,0.000,0.000,0.000,0.000,0.000,0.000,0.000,3.142,6.283,0.000,2.100,1.897,1.799,4.285,0.398,1.000,4.711,0.000,0.000,-1.819,-3.655,0.451,5.764,3.149,6.275,4.183,4.384,4.484,1.998,5.882,5.284,1.571,0.000,0.000,-1.491,-3.632,0.451,5.769,3.211,6.133,
46.300,57.115,-1.640,-3.858,1.639,0.001,0.006,0.412,0.000,1.394,0.775,2.700,0.000,2.286,1.173,0.696,0.000,0.000,3.142,0.000,0.000,0.000,0.000,0.000,0.000,0.000,0.000,0.000,0.000,0.000,3.142,6.283,0.000,2.100,1.897,1.799,4.285,0.398,1.000,4.711,0.000,0.000,-1.819,-3.655,0.451,5.764,3.149,6.275,4.183,4.384,4.484,1.998,5.882,5.284,1.571,0.000,0.000,-1.491,-3.632,0.451,5.769,3.211,6.133,
46.397,57.212,-1.640,-3.858,1.639,0.001,0.006,0.412,0.000,1.394,0.775,2.700,0.000,2.286,1.173,0.696,0.000,0.000,3.142,0.000,0.000,0.000,0.000,0.000,0.000,0.000,0.000,0.000,0.000,0.000,3.142,6.283,0.000,2.100,1.897,1.799,4.285,0.398,1.000,4.711,0.000,0.000,-1.819,-3.655,0.451,5.764,3.149,6.275,4.183,4.384,4.484,1.998,5.882,5.284,1.571,0.000,0.000,-1.491,-3.632,0.451,5.769,3.211,6.133,
46.500,57.315,-1.640,-3.858,1.639,0.001,0.006,0.412,0.000,1.394,0.775,2.700,0.000,2.286,1.173,0.696,0.000,0.000,3.142,0.000,0.000,0.000,0.000,0.000,0.000,0.000,0.000,0.000,0.000,0.000,3.142,6.283,0.000,2.100,1.897,1.799,4.285,0.398,1.000,4.711,0.000,0.000,-1.819,-3.655,0.451,5.764,3.149,6.275,4.183,4.384,4.484,1.998,5.882,5.284,1.571,0.000,0.000,-1.491,-3.632,0.451,5.769,3.211,6.133,
46.592,57.407,-1.640,-3.858,1.639,0.001,0.006,0.412,0.000,1.394,0.775,2.700,0.000,2.286,1.173,0.696,0.000,0.000,3.142,0.000,0.000,0.000,0.000,0.000,0.000,0.000,0.000,0.000,0.000,0.000,3.142,6.283,0.000,2.100,1.897,1.799,4.285,0.398,1.000,4.711,0.000,0.000,-1.819,-3.655,0.451,5.764,3.149,6.275,4.183,4.384,4.484,1.998,5.882,5.284,1.571,0.000,0.000,-1.491,-3.632,0.451,5.769,3.211,6.133,
46.700,57.515,-1.640,-3.858,1.639,0.001,0.006,0.412,0.000,1.394,0.775,2.700,0.000,2.286,1.173,0.696,0.000,0.000,3.142,0.000,0.000,0.000,0.000,0.000,0.000,0.000,0.000,0.000,0.000,0.000,3.142,6.283,0.000,2.100,1.897,1.799,4.285,0.398,1.000,4.711,0.000,0.000,-1.819,-3.655,0.451,5.764,3.149,6.275,4.183,4.384,4.484,1.998,5.882,5.284,1.571,0.000,0.000,-1.491,-3.632,0.451,5.769,3.211,6.133,
46.786,57.601,-1.640,-3.858,1.639,0.001,0.006,0.412,0.000,1.394,0.775,2.700,0.000,2.286,1.173,0.696,0.000,0.000,3.142,0.000,0.000,0.000,0.000,0.000,0.000,0.000,0.000,0.000,0.000,0.000,3.142,6.283,0.000,2.100,1.897,1.799,4.285,0.398,1.000,4.711,0.000,0.000,-1.819,-3.655,0.451,5.764,3.149,6.275,4.183,4.384,4.484,1.998,5.882,5.284,1.571,0.000,0.000,-1.491,-3.632,0.451,5.769,3.211,6.133,
46.900,57.715,-1.640,-3.858,1.639,0.001,0.006,0.412,0.000,1.394,0.775,2.700,0.000,2.286,1.173,0.696,0.000,0.000,3.142,0.000,0.000,0.000,0.000,0.000,0.000,0.000,0.000,0.000,0.000,0.000,3.142,6.283,0.000,2.100,1.897,1.799,4.285,0.398,1.000,4.711,0.000,0.000,-1.819,-3.655,0.451,5.764,3.149,6.275,4.183,4.384,4.484,1.998,5.882,5.284,1.571,0.000,0.000,-1.491,-3.632,0.451,5.769,3.211,6.133,
47.000,57.815,-1.640,-3.858,1.639,0.001,0.006,0.412,0.000,1.394,0.775,2.700,0.000,2.286,1.173,0.696,0.000,0.000,3.142,0.000,0.000,0.000,0.000,0.000,0.000,0.000,0.000,0.000,0.000,0.000,3.142,6.283,0.000,2.100,1.897,1.799,4.285,0.398,1.000,4.711,0.000,0.000,-1.819,-3.655,0.451,5.764,3.149,6.275,4.183,4.384,4.484,1.998,5.882,5.284,1.571,0.000,0.000,-1.491,-3.632,0.451,5.769,3.211,6.133,
47.100,57.915,-1.640,-3.858,1.639,0.001,0.006,0.412,0.000,1.394,0.775,2.700,0.000,2.286,1.173,0.696,0.000,0.000,3.142,0.000,0.000,0.000,0.000,0.000,0.000,0.000,0.000,0.000,0.000,0.000,3.142,6.283,0.000,2.100,1.897,1.799,4.285,0.398,1.000,4.711,0.000,0.000,-1.819,-3.655,0.451,5.764,3.149,6.275,4.183,4.384,4.484,1.998,5.882,5.284,1.571,0.000,0.000,-1.491,-3.632,0.451,5.769,3.211,6.133,
47.200,58.015,-1.640,-3.858,1.639,0.001,0.006,0.412,0.000,1.394,0.775,2.700,0.000,2.286,1.173,0.696,0.000,0.000,3.142,0.000,0.000,0.000,0.000,0.000,0.000,0.000,0.000,0.000,0.000,0.000,3.142,6.283,0.000,2.100,1.897,1.799,4.285,0.398,1.000,4.711,0.000,0.000,-1.819,-3.655,0.451,5.764,3.149,6.275,4.183,4.384,4.484,1.998,5.882,5.284,1.571,0.000,0.000,-1.491,-3.632,0.451,5.769,3.211,6.133,
47.300,58.115,-1.640,-3.858,1.639,0.001,0.006,0.412,0.000,1.394,0.775,2.700,0.000,2.286,1.173,0.696,0.000,0.000,3.142,0.000,0.000,0.000,0.000,0.000,0.000,0.000,0.000,0.000,0.000,0.000,3.142,6.283,0.000,2.100,1.897,1.799,4.285,0.398,1.000,4.711,0.000,0.000,-1.819,-3.655,0.451,5.764,3.149,6.275,4.183,4.384,4.484,1.998,5.882,5.284,1.571,0.000,0.000,-1.491,-3.632,0.451,5.769,3.211,6.133,
47.400,58.215,-1.640,-3.858,1.639,0.001,0.006,0.412,0.000,1.394,0.775,2.700,0.000,2.286,1.173,0.696,0.000,0.000,3.142,0.000,0.000,0.000,0.000,0.000,0.000,0.000,0.000,0.000,0.000,0.000,3.142,6.283,0.000,2.100,1.897,1.799,4.285,0.398,1.000,4.711,0.000,0.000,-1.819,-3.655,0.451,5.764,3.149,6.275,4.183,4.384,4.484,1.998,5.882,5.284,1.571,0.000,0.000,-1.491,-3.632,0.451,5.769,3.211,6.133,
47.497,58.312,-1.640,-3.858,1.639,0.001,0.006,0.412,0.000,1.394,0.775,2.700,0.000,2.286,1.173,0.696,0.000,0.000,3.142,0.000,0.000,0.000,0.000,0.000,0.000,0.000,0.000,0.000,0.000,0.000,3.142,6.283,0.000,2.100,1.897,1.799,4.285,0.398,1.000,4.711,0.000,0.000,-1.819,-3.655,0.451,5.764,3.149,6.275,4.183,4.384,4.484,1.998,5.882,5.284,1.571,0.000,0.000,-1.491,-3.632,0.451,5.769,3.211,6.133,
47.600,58.415,-1.640,-3.858,1.639,0.001,0.006,0.412,0.000,1.394,0.775,2.700,0.000,2.286,1.173,0.696,0.000,0.000,3.142,0.000,0.000,0.000,0.000,0.000,0.000,0.000,0.000,0.000,0.000,0.000,3.142,6.283,0.000,2.100,1.897,1.799,4.285,0.398,1.000,4.711,0.000,0.000,-1.819,-3.655,0.451,5.764,3.149,6.275,4.183,4.384,4.484,1.998,5.882,5.284,1.571,0.000,0.000,-1.491,-3.632,0.451,5.769,3.211,6.133,
47.700,58.515,-1.640,-3.858,1.639,0.001,0.006,0.412,0.000,1.394,0.775,2.700,0.000,2.286,1.173,0.696,0.000,0.000,3.142,0.000,0.000,0.000,0.000,0.000,0.000,0.000,0.000,0.000,0.000,0.000,3.142,6.283,0.000,2.100,1.897,1.799,4.285,0.398,1.000,4.711,0.000,0.000,-1.819,-3.655,0.451,5.764,3.149,6.275,4.183,4.384,4.484,1.998,5.882,5.284,1.571,0.000,0.000,-1.491,-3.632,0.451,5.769,3.211,6.133,
47.800,58.615,-1.640,-3.858,1.639,0.001,0.006,0.412,0.000,1.394,0.775,2.700,0.000,2.286,1.173,0.696,0.000,0.000,3.142,0.000,0.000,0.000,0.000,0.000,0.000,0.000,0.000,0.000,0.000,0.000,3.142,6.283,0.000,2.100,1.897,1.799,4.285,0.398,1.000,4.711,0.000,0.000,-1.819,-3.655,0.451,5.764,3.149,6.275,4.183,4.384,4.484,1.998,5.882,5.284,1.571,0.000,0.000,-1.491,-3.632,0.451,5.769,3.211,6.133,
47.900,58.715,-1.640,-3.858,1.639,0.001,0.006,0.412,0.000,1.394,0.775,2.700,0.000,2.286,1.173,0.696,0.000,0.000,3.142,0.000,0.000,0.000,0.000,0.000,0.000,0.000,0.000,0.000,0.000,0.000,3.142,6.283,0.000,2.100,1.897,1.799,4.285,0.398,1.000,4.711,0.000,0.000,-1.819,-3.655,0.451,5.764,3.149,6.275,4.183,4.384,4.484,1.998,5.882,5.284,1.571,0.000,0.000,-1.491,-3.632,0.451,5.769,3.211,6.133,
47.996,58.811,-1.640,-3.858,1.639,0.001,0.006,0.412,0.000,1.394,0.775,2.700,0.000,2.286,1.173,0.696,0.000,0.000,3.142,0.000,0.000,0.000,0.000,0.000,0.000,0.000,0.000,0.000,0.000,0.000,3.142,6.283,0.000,2.100,1.897,1.799,4.285,0.398,1.000,4.711,0.000,0.000,-1.819,-3.655,0.451,5.764,3.149,6.275,4.183,4.384,4.484,1.998,5.882,5.284,1.571,0.000,0.000,-1.491,-3.632,0.451,5.769,3.211,6.133,
48.100,58.915,-1.640,-3.858,1.639,0.001,0.006,0.412,0.000,1.394,0.775,2.700,0.000,2.286,1.173,0.696,0.000,0.000,3.142,0.000,0.000,0.000,0.000,0.000,0.000,0.000,0.000,0.000,0.000,0.000,3.142,6.283,0.000,2.100,1.897,1.799,4.285,0.398,1.000,4.711,0.000,0.000,-1.819,-3.655,0.451,5.764,3.149,6.275,4.183,4.384,4.484,1.998,5.882,5.284,1.571,0.000,0.000,-1.491,-3.632,0.451,5.769,3.211,6.133,
48.182,58.997,-1.640,-3.858,1.639,0.001,0.006,0.412,0.000,1.394,0.775,2.700,0.000,2.286,1.173,0.696,0.000,0.000,3.142,0.000,0.000,0.000,0.000,0.000,0.000,0.000,0.000,0.000,0.000,0.000,3.142,6.283,0.000,2.100,1.897,1.799,4.285,0.398,1.000,4.711,0.000,0.000,-1.819,-3.655,0.451,5.764,3.149,6.275,4.183,4.384,4.484,1.998,5.882,5.284,1.571,0.000,0.000,-1.491,-3.632,0.451,5.769,3.211,6.133,
48.300,59.115,-1.640,-3.858,1.639,0.001,0.006,0.412,0.000,1.394,0.775,2.700,0.000,2.286,1.173,0.696,0.000,0.000,3.142,0.000,0.000,0.000,0.000,0.000,0.000,0.000,0.000,0.000,0.000,0.000,3.142,6.283,0.000,2.100,1.897,1.799,4.285,0.398,1.000,4.711,0.000,0.000,-1.819,-3.655,0.451,5.764,3.149,6.275,4.183,4.384,4.484,1.998,5.882,5.284,1.571,0.000,0.000,-1.491,-3.632,0.451,5.769,3.211,6.133,
48.400,59.215,-1.640,-3.858,1.639,0.001,0.006,0.412,0.000,1.394,0.775,2.700,0.000,2.286,1.173,0.696,0.000,0.000,3.142,0.000,0.000,0.000,0.000,0.000,0.000,0.000,0.000,0.000,0.000,0.000,3.142,6.283,0.000,2.100,1.897,1.799,4.285,0.398,1.000,4.711,0.000,0.000,-1.819,-3.655,0.451,5.764,3.149,6.275,4.183,4.384,4.484,1.998,5.882,5.284,1.571,0.000,0.000,-1.491,-3.632,0.451,5.769,3.211,6.133,
48.500,59.315,-1.640,-3.858,1.639,0.001,0.006,0.412,0.000,1.394,0.775,2.700,0.000,2.286,1.173,0.696,0.000,0.000,3.142,0.000,0.000,0.000,0.000,0.000,0.000,0.000,0.000,0.000,0.000,0.000,3.142,6.283,0.000,2.100,1.897,1.799,4.285,0.398,1.000,4.711,0.000,0.000,-1.819,-3.655,0.451,5.764,3.149,6.275,4.183,4.384,4.484,1.998,5.882,5.284,1.571,0.000,0.000,-1.491,-3.632,0.451,5.769,3.211,6.133,
48.600,59.415,-1.640,-3.858,1.639,0.001,0.006,0.412,0.000,1.394,0.775,2.700,0.000,2.286,1.173,0.696,0.000,0.000,3.142,0.000,0.000,0.000,0.000,0.000,0.000,0.000,0.000,0.000,0.000,0.000,3.142,6.283,0.000,2.100,1.897,1.799,4.285,0.398,1.000,4.711,0.000,0.000,-1.819,-3.655,0.451,5.764,3.149,6.275,4.183,4.384,4.484,1.998,5.882,5.284,1.571,0.000,0.000,-1.491,-3.632,0.451,5.769,3.211,6.133,
48.700,59.515,-1.640,-3.858,1.639,0.001,0.006,0.412,0.000,1.394,0.775,2.700,0.000,2.286,1.173,0.696,0.000,0.000,3.142,0.000,0.000,0.000,0.000,0.000,0.000,0.000,0.000,0.000,0.000,0.000,3.142,6.283,0.000,2.100,1.897,1.799,4.285,0.398,1.000,4.711,0.000,0.000,-1.819,-3.655,0.451,5.764,3.149,6.275,4.183,4.384,4.484,1.998,5.882,5.284,1.571,0.000,0.000,-1.491,-3.632,0.451,5.769,3.211,6.133,
48.800,59.615,-1.640,-3.858,1.639,0.001,0.006,0.412,0.000,1.394,0.775,2.700,0.000,2.286,1.173,0.696,0.000,0.000,3.142,0.000,0.000,0.000,0.000,0.000,0.000,0.000,0.000,0.000,0.000,0.000,3.142,6.283,0.000,2.100,1.897,1.799,4.285,0.398,1.000,4.711,0.000,0.000,-1.819,-3.655,0.451,5.764,3.149,6.275,4.183,4.384,4.484,1.998,5.882,5.284,1.571,0.000,0.000,-1.491,-3.632,0.451,5.769,3.211,6.133,
48.893,59.708,-1.640,-3.858,1.639,0.001,0.006,0.412,0.000,1.394,0.775,2.700,0.000,2.286,1.173,0.696,0.000,0.000,3.142,0.000,0.000,0.000,0.000,0.000,0.000,0.000,0.000,0.000,0.000,0.000,3.142,6.283,0.000,2.100,1.897,1.799,4.285,0.398,1.000,4.711,0.000,0.000,-1.819,-3.655,0.451,5.764,3.149,6.275,4.183,4.384,4.484,1.998,5.882,5.284,1.571,0.000,0.000,-1.491,-3.632,0.451,5.769,3.211,6.133,
48.999,59.814,-1.640,-3.858,1.639,0.001,0.006,0.412,0.000,1.394,0.775,2.700,0.000,2.286,1.173,0.696,0.000,0.000,3.142,0.000,0.000,0.000,0.000,0.000,0.000,0.000,0.000,0.000,0.000,0.000,3.142,6.283,0.000,2.100,1.897,1.799,4.285,0.398,1.000,4.711,0.000,0.000,-1.819,-3.655,0.451,5.764,3.149,6.275,4.183,4.384,4.484,1.998,5.882,5.284,1.571,0.000,0.000,-1.491,-3.632,0.451,5.769,3.211,6.133,
49.083,59.898,-1.640,-3.858,1.639,0.001,0.006,0.412,0.000,1.394,0.775,2.700,0.000,2.286,1.173,0.696,0.000,0.000,3.142,0.000,0.000,0.000,0.000,0.000,0.000,0.000,0.000,0.000,0.000,0.000,3.142,6.283,0.000,2.100,1.897,1.799,4.285,0.398,1.000,4.711,0.000,0.000,-1.819,-3.655,0.451,5.764,3.149,6.275,4.183,4.384,4.484,1.998,5.882,5.284,1.571,0.000,0.000,-1.491,-3.632,0.451,5.769,3.211,6.133,
49.197,60.013,-1.640,-3.858,1.639,0.001,0.006,0.412,0.000,1.394,0.775,2.700,0.000,2.286,1.173,0.696,0.000,0.000,3.142,0.000,0.000,0.000,0.000,0.000,0.000,0.000,0.000,0.000,0.000,0.000,3.142,6.283,0.000,2.100,1.897,1.799,4.285,0.398,1.000,4.711,0.000,0.000,-1.819,-3.655,0.451,5.764,3.149,6.275,4.183,4.384,4.484,1.998,5.882,5.284,1.571,0.000,0.000,-1.491,-3.632,0.451,5.769,3.211,6.133,
49.300,60.115,-1.640,-3.858,1.639,0.001,0.006,0.412,0.000,1.394,0.775,2.700,0.000,2.286,1.173,0.696,0.000,0.000,3.142,0.000,0.000,0.000,0.000,0.000,0.000,0.000,0.000,0.000,0.000,0.000,3.142,6.283,0.000,2.100,1.897,1.799,4.285,0.398,1.000,4.711,0.000,0.000,-1.819,-3.655,0.451,5.764,3.149,6.275,4.183,4.384,4.484,1.998,5.882,5.284,1.571,0.000,0.000,-1.491,-3.632,0.451,5.769,3.211,6.133,
49.394,60.209,-1.640,-3.858,1.639,0.001,0.006,0.412,0.000,1.394,0.775,2.700,0.000,2.286,1.173,0.696,0.000,0.000,3.142,0.000,0.000,0.000,0.000,0.000,0.000,0.000,0.000,0.000,0.000,0.000,3.142,6.283,0.000,2.100,1.897,1.799,4.285,0.398,1.000,4.711,0.000,0.000,-1.819,-3.655,0.451,5.764,3.149,6.275,4.183,4.384,4.484,1.998,5.882,5.284,1.571,0.000,0.000,-1.491,-3.632,0.451,5.769,3.211,6.133,
49.500,60.315,-1.640,-3.858,1.639,0.001,0.006,0.412,0.000,1.394,0.775,2.700,0.000,2.286,1.173,0.696,0.000,0.000,3.142,0.000,0.000,0.000,0.000,0.000,0.000,0.000,0.000,0.000,0.000,0.000,3.142,6.283,0.000,2.100,1.897,1.799,4.285,0.398,1.000,4.711,0.000,0.000,-1.819,-3.655,0.451,5.764,3.149,6.275,4.183,4.384,4.484,1.998,5.882,5.284,1.571,0.000,0.000,-1.491,-3.632,0.451,5.769,3.211,6.133,
49.600,60.415,-1.640,-3.858,1.639,0.001,0.006,0.412,0.000,1.394,0.775,2.700,0.000,2.286,1.173,0.696,0.000,0.000,3.142,0.000,0.000,0.000,0.000,0.000,0.000,0.000,0.000,0.000,0.000,0.000,3.142,6.283,0.000,2.100,1.897,1.799,4.285,0.398,1.000,4.711,0.000,0.000,-1.819,-3.655,0.451,5.764,3.149,6.275,4.183,4.384,4.484,1.998,5.882,5.284,1.571,0.000,0.000,-1.491,-3.632,0.451,5.769,3.211,6.133,
49.700,60.515,-1.640,-3.858,1.639,0.001,0.006,0.412,0.000,1.394,0.775,2.700,0.000,2.286,1.173,0.696,0.000,0.000,3.142,0.000,0.000,0.000,0.000,0.000,0.000,0.000,0.000,0.000,0.000,0.000,3.142,6.283,0.000,2.100,1.897,1.799,4.285,0.398,1.000,4.711,0.000,0.000,-1.819,-3.655,0.451,5.764,3.149,6.275,4.183,4.384,4.484,1.998,5.882,5.284,1.571,0.000,0.000,-1.491,-3.632,0.451,5.769,3.211,6.133,
49.800,60.615,-1.640,-3.858,1.639,0.001,0.006,0.412,0.000,1.394,0.775,2.700,0.000,2.286,1.173,0.696,0.000,0.000,3.142,0.000,0.000,0.000,0.000,0.000,0.000,0.000,0.000,0.000,0.000,0.000,3.142,6.283,0.000,2.100,1.897,1.799,4.285,0.398,1.000,4.711,0.000,0.000,-1.819,-3.655,0.451,5.764,3.149,6.275,4.183,4.384,4.484,1.998,5.882,5.284,1.571,0.000,0.000,-1.491,-3.632,0.451,5.769,3.211,6.133,
49.900,60.715,-1.640,-3.858,1.639,0.001,0.006,0.412,0.000,1.394,0.775,2.700,0.000,2.286,1.173,0.696,0.000,0.000,3.142,0.000,0.000,0.000,0.000,0.000,0.000,0.000,0.000,0.000,0.000,0.000,3.142,6.283,0.000,2.100,1.897,1.799,4.285,0.398,1.000,4.711,0.000,0.000,-1.819,-3.655,0.451,5.764,3.149,6.275,4.183,4.384,4.484,1.998,5.882,5.284,1.571,0.000,0.000,-1.491,-3.632,0.451,5.769,3.211,6.133,
50.000,60.815,-1.640,-3.858,1.639,0.001,0.006,0.412,0.000,1.394,0.775,2.700,0.000,2.286,1.173,0.696,0.000,0.000,3.142,0.000,0.000,0.000,0.000,0.000,0.000,0.000,0.000,0.000,0.000,0.000,3.142,6.283,0.000,2.100,1.897,1.799,4.285,0.398,1.000,4.711,0.000,0.000,-1.819,-3.655,0.451,5.764,3.149,6.275,4.183,4.384,4.484,1.998,5.882,5.284,1.571,0.000,0.000,-1.491,-3.632,0.451,5.769,3.211,6.133,
50.096,60.911,-1.640,-3.858,1.639,0.001,0.006,0.412,0.000,1.394,0.775,2.700,0.000,2.286,1.173,0.696,0.000,0.000,3.142,0.000,0.000,0.000,0.000,0.000,0.000,0.000,0.000,0.000,0.000,0.000,3.142,6.283,0.000,2.100,1.897,1.799,4.285,0.398,1.000,4.711,0.000,0.000,-1.819,-3.655,0.451,5.764,3.149,6.275,4.183,4.384,4.484,1.998,5.882,5.284,1.571,0.000,0.000,-1.491,-3.632,0.451,5.769,3.211,6.133,
50.200,61.015,-1.640,-3.858,1.639,0.001,0.006,0.412,0.000,1.394,0.775,2.700,0.000,2.286,1.173,0.696,0.000,0.000,3.142,0.000,0.000,0.000,0.000,0.000,0.000,0.000,0.000,0.000,0.000,0.000,3.142,6.283,0.000,2.100,1.897,1.799,4.285,0.398,1.000,4.711,0.000,0.000,-1.819,-3.655,0.451,5.764,3.149,6.275,4.183,4.384,4.484,1.998,5.882,5.284,1.571,0.000,0.000,-1.491,-3.632,0.451,5.769,3.211,6.133,
50.285,61.100,-1.640,-3.858,1.639,0.001,0.006,0.412,0.000,1.394,0.775,2.700,0.000,2.286,1.173,0.696,0.000,0.000,3.142,0.000,0.000,0.000,0.000,0.000,0.000,0.000,0.000,0.000,0.000,0.000,3.142,6.283,0.000,2.100,1.897,1.799,4.285,0.398,1.000,4.711,0.000,0.000,-1.819,-3.655,0.451,5.764,3.149,6.275,4.183,4.384,4.484,1.998,5.882,5.284,1.571,0.000,0.000,-1.491,-3.632,0.451,5.769,3.211,6.133,
50.400,61.215,-1.640,-3.858,1.639,0.001,0.006,0.412,0.000,1.394,0.775,2.700,0.000,2.286,1.173,0.696,0.000,0.000,3.142,0.000,0.000,0.000,0.000,0.000,0.000,0.000,0.000,0.000,0.000,0.000,3.142,6.283,0.000,2.100,1.897,1.799,4.285,0.398,1.000,4.711,0.000,0.000,-1.819,-3.655,0.451,5.764,3.149,6.275,4.183,4.384,4.484,1.998,5.882,5.284,1.571,0.000,0.000,-1.491,-3.632,0.451,5.769,3.211,6.133,
50.500,61.315,-1.640,-3.858,1.639,0.001,0.006,0.412,0.000,1.394,0.775,2.700,0.000,2.286,1.173,0.696,0.000,0.000,3.142,0.000,0.000,0.000,0.000,0.000,0.000,0.000,0.000,0.000,0.000,0.000,3.142,6.283,0.000,2.100,1.897,1.799,4.285,0.398,1.000,4.711,0.000,0.000,-1.819,-3.655,0.451,5.764,3.149,6.275,4.183,4.384,4.484,1.998,5.882,5.284,1.571,0.000,0.000,-1.491,-3.632,0.451,5.769,3.211,6.133,
50.600,61.415,-1.640,-3.858,1.639,0.001,0.006,0.412,0.000,1.394,0.775,2.700,0.000,2.286,1.173,0.696,0.000,0.000,3.142,0.000,0.000,0.000,0.000,0.000,0.000,0.000,0.000,0.000,0.000,0.000,3.142,6.283,0.000,2.100,1.897,1.799,4.285,0.398,1.000,4.711,0.000,0.000,-1.819,-3.655,0.451,5.764,3.149,6.275,4.183,4.384,4.484,1.998,5.882,5.284,1.571,0.000,0.000,-1.491,-3.632,0.451,5.769,3.211,6.133,
50.700,61.515,-1.640,-3.858,1.639,0.001,0.006,0.412,0.000,1.394,0.775,2.700,0.000,2.286,1.173,0.696,0.000,0.000,3.142,0.000,0.000,0.000,0.000,0.000,0.000,0.000,0.000,0.000,0.000,0.000,3.142,6.283,0.000,2.100,1.897,1.799,4.285,0.398,1.000,4.711,0.000,0.000,-1.819,-3.655,0.451,5.764,3.149,6.275,4.183,4.384,4.484,1.998,5.882,5.284,1.571,0.000,0.000,-1.491,-3.632,0.451,5.769,3.211,6.133,
50.785,61.600,-1.640,-3.858,1.639,0.001,0.006,0.412,0.000,1.394,0.775,2.700,0.000,2.286,1.173,0.696,0.000,0.000,3.142,0.000,0.000,0.000,0.000,0.000,0.000,0.000,0.000,0.000,0.000,0.000,3.142,6.283,0.000,2.100,1.897,1.799,4.285,0.398,1.000,4.711,0.000,0.000,-1.819,-3.655,0.451,5.764,3.149,6.275,4.183,4.384,4.484,1.998,5.882,5.284,1.571,0.000,0.000,-1.491,-3.632,0.451,5.769,3.211,6.133,
50.900,61.715,-1.640,-3.858,1.639,0.001,0.006,0.412,0.000,1.394,0.775,2.700,0.000,2.286,1.173,0.696,0.000,0.000,3.142,0.000,0.000,0.000,0.000,0.000,0.000,0.000,0.000,0.000,0.000,0.000,3.142,6.283,0.000,2.100,1.897,1.799,4.285,0.398,1.000,4.711,0.000,0.000,-1.819,-3.655,0.451,5.764,3.149,6.275,4.183,4.384,4.484,1.998,5.882,5.284,1.571,0.000,0.000,-1.491,-3.632,0.451,5.769,3.211,6.133,
50.981,61.796,-1.640,-3.858,1.639,0.001,0.006,0.412,0.000,1.394,0.775,2.700,0.000,2.286,1.173,0.696,0.000,0.000,3.142,0.000,0.000,0.000,0.000,0.000,0.000,0.000,0.000,0.000,0.000,0.000,3.142,6.283,0.000,2.100,1.897,1.799,4.285,0.398,1.000,4.711,0.000,0.000,-1.819,-3.655,0.451,5.764,3.149,6.275,4.183,4.384,4.484,1.998,5.882,5.284,1.571,0.000,0.000,-1.491,-3.632,0.451,5.769,3.211,6.133,
51.100,61.915,-1.640,-3.858,1.639,0.001,0.006,0.412,0.000,1.394,0.775,2.700,0.000,2.286,1.173,0.696,0.000,0.000,3.142,0.000,0.000,0.000,0.000,0.000,0.000,0.000,0.000,0.000,0.000,0.000,3.142,6.283,0.000,2.100,1.897,1.799,4.285,0.398,1.000,4.711,0.000,0.000,-1.819,-3.655,0.451,5.764,3.149,6.275,4.183,4.384,4.484,1.998,5.882,5.284,1.571,0.000,0.000,-1.491,-3.632,0.451,5.769,3.211,6.133,
51.200,62.015,-1.640,-3.858,1.639,0.001,0.006,0.412,0.000,1.394,0.775,2.700,0.000,2.286,1.173,0.696,0.000,0.000,3.142,0.000,0.000,0.000,0.000,0.000,0.000,0.000,0.000,0.000,0.000,0.000,3.142,6.283,0.000,2.100,1.897,1.799,4.285,0.398,1.000,4.711,0.000,0.000,-1.819,-3.655,0.451,5.764,3.149,6.275,4.183,4.384,4.484,1.998,5.882,5.284,1.571,0.000,0.000,-1.491,-3.632,0.451,5.769,3.211,6.133,
51.300,62.115,-1.640,-3.858,1.639,0.001,0.006,0.412,0.000,1.394,0.775,2.700,0.000,2.286,1.173,0.696,0.000,0.000,3.142,0.000,0.000,0.000,0.000,0.000,0.000,0.000,0.000,0.000,0.000,0.000,3.142,6.283,0.000,2.100,1.897,1.799,4.285,0.398,1.000,4.711,0.000,0.000,-1.819,-3.655,0.451,5.764,3.149,6.275,4.183,4.384,4.484,1.998,5.882,5.284,1.571,0.000,0.000,-1.491,-3.632,0.451,5.769,3.211,6.133,
51.400,62.215,-1.640,-3.858,1.639,0.001,0.006,0.412,0.000,1.394,0.775,2.700,0.000,2.286,1.173,0.696,0.000,0.000,3.142,0.000,0.000,0.000,0.000,0.000,0.000,0.000,0.000,0.000,0.000,0.000,3.142,6.283,0.000,2.100,1.897,1.799,4.285,0.398,1.000,4.711,0.000,0.000,-1.819,-3.655,0.451,5.764,3.149,6.275,4.183,4.384,4.484,1.998,5.882,5.284,1.571,0.000,0.000,-1.491,-3.632,0.451,5.769,3.211,6.133,
51.494,62.309,-1.640,-3.858,1.639,0.001,0.006,0.412,0.000,1.394,0.775,2.700,0.000,2.286,1.173,0.696,0.000,0.000,3.142,0.000,0.000,0.000,0.000,0.000,0.000,0.000,0.000,0.000,0.000,0.000,3.142,6.283,0.000,2.100,1.897,1.799,4.285,0.398,1.000,4.711,0.000,0.000,-1.819,-3.655,0.451,5.764,3.149,6.275,4.183,4.384,4.484,1.998,5.882,5.284,1.571,0.000,0.000,-1.491,-3.632,0.451,5.769,3.211,6.133,
51.600,62.415,-1.640,-3.858,1.639,0.001,0.006,0.412,0.000,1.394,0.775,2.700,0.000,2.286,1.173,0.696,0.000,0.000,3.142,0.000,0.000,0.000,0.000,0.000,0.000,0.000,0.000,0.000,0.000,0.000,3.142,6.283,0.000,2.100,1.897,1.799,4.285,0.398,1.000,4.711,0.000,0.000,-1.819,-3.655,0.451,5.764,3.149,6.275,4.183,4.384,4.484,1.998,5.882,5.284,1.571,0.000,0.000,-1.491,-3.632,0.451,5.769,3.211,6.133,
51.691,62.506,-1.640,-3.858,1.639,0.001,0.006,0.412,0.000,1.394,0.775,2.700,0.000,2.286,1.173,0.696,0.000,0.000,3.142,0.000,0.000,0.000,0.000,0.000,0.000,0.000,0.000,0.000,0.000,0.000,3.142,6.283,0.000,2.100,1.897,1.799,4.285,0.398,1.000,4.711,0.000,0.000,-1.819,-3.655,0.451,5.764,3.149,6.275,4.183,4.384,4.484,1.998,5.882,5.284,1.571,0.000,0.000,-1.491,-3.632,0.451,5.769,3.211,6.133,
51.800,62.615,-1.640,-3.858,1.639,0.001,0.006,0.412,0.000,1.394,0.775,2.700,0.000,2.286,1.173,0.696,0.000,0.000,3.142,0.000,0.000,0.000,0.000,0.000,0.000,0.000,0.000,0.000,0.000,0.000,3.142,6.283,0.000,2.100,1.897,1.799,4.285,0.398,1.000,4.711,0.000,0.000,-1.819,-3.655,0.451,5.764,3.149,6.275,4.183,4.384,4.484,1.998,5.882,5.284,1.571,0.000,0.000,-1.491,-3.632,0.451,5.769,3.211,6.133,
51.900,62.715,-1.640,-3.858,1.639,0.001,0.006,0.412,0.000,1.394,0.775,2.700,0.000,2.286,1.173,0.696,0.000,0.000,3.142,0.000,0.000,0.000,0.000,0.000,0.000,0.000,0.000,0.000,0.000,0.000,3.142,6.283,0.000,2.100,1.897,1.799,4.285,0.398,1.000,4.711,0.000,0.000,-1.819,-3.655,0.451,5.764,3.149,6.275,4.183,4.384,4.484,1.998,5.882,5.284,1.571,0.000,0.000,-1.491,-3.632,0.451,5.769,3.211,6.133,
52.000,62.815,-1.640,-3.858,1.639,0.001,0.006,0.412,0.000,1.394,0.775,2.700,0.000,2.286,1.173,0.696,0.000,0.000,3.142,0.000,0.000,0.000,0.000,0.000,0.000,0.000,0.000,0.000,0.000,0.000,3.142,6.283,0.000,2.100,1.897,1.799,4.285,0.398,1.000,4.711,0.000,0.000,-1.819,-3.655,0.451,5.764,3.149,6.275,4.183,4.384,4.484,1.998,5.882,5.284,1.571,0.000,0.000,-1.491,-3.632,0.451,5.769,3.211,6.133,
52.100,62.915,-1.640,-3.858,1.639,0.001,0.006,0.412,0.000,1.394,0.775,2.700,0.000,2.286,1.173,0.696,0.000,0.000,3.142,0.000,0.000,0.000,0.000,0.000,0.000,0.000,0.000,0.000,0.000,0.000,3.142,6.283,0.000,2.100,1.897,1.799,4.285,0.398,1.000,4.711,0.000,0.000,-1.819,-3.655,0.451,5.764,3.149,6.275,4.183,4.384,4.484,1.998,5.882,5.284,1.571,0.000,0.000,-1.491,-3.632,0.451,5.769,3.211,6.133,
52.200,63.015,-1.640,-3.858,1.639,0.001,0.006,0.412,0.000,1.394,0.775,2.700,0.000,2.286,1.173,0.696,0.000,0.000,3.142,0.000,0.000,0.000,0.000,0.000,0.000,0.000,0.000,0.000,0.000,0.000,3.142,6.283,0.000,2.100,1.897,1.799,4.285,0.398,1.000,4.711,0.000,0.000,-1.819,-3.655,0.451,5.764,3.149,6.275,4.183,4.384,4.484,1.998,5.882,5.284,1.571,0.000,0.000,-1.491,-3.632,0.451,5.769,3.211,6.133,
52.300,63.115,-1.640,-3.858,1.639,0.001,0.006,0.412,0.000,1.394,0.775,2.700,0.000,2.286,1.173,0.696,0.000,0.000,3.142,0.000,0.000,0.000,0.000,0.000,0.000,0.000,0.000,0.000,0.000,0.000,3.142,6.283,0.000,2.100,1.897,1.799,4.285,0.398,1.000,4.711,0.000,0.000,-1.819,-3.655,0.451,5.764,3.149,6.275,4.183,4.384,4.484,1.998,5.882,5.284,1.571,0.000,0.000,-1.491,-3.632,0.451,5.769,3.211,6.133,
52.380,63.196,-1.640,-3.858,1.639,0.001,0.006,0.412,0.000,1.394,0.775,2.700,0.000,2.286,1.173,0.696,0.000,0.000,3.142,0.000,0.000,0.000,0.000,0.000,0.000,0.000,0.000,0.000,0.000,0.000,3.142,6.283,0.000,2.100,1.897,1.799,4.285,0.398,1.000,4.711,0.000,0.000,-1.819,-3.655,0.451,5.764,3.149,6.275,4.183,4.384,4.484,1.998,5.882,5.284,1.571,0.000,0.000,-1.491,-3.632,0.451,5.769,3.211,6.133,
52.500,63.315,-1.640,-3.858,1.639,0.001,0.006,0.412,0.000,1.394,0.775,2.700,0.000,2.286,1.173,0.696,0.000,0.000,3.142,0.000,0.000,0.000,0.000,0.000,0.000,0.000,0.000,0.000,0.000,0.000,3.142,6.283,0.000,2.100,1.897,1.799,4.285,0.398,1.000,4.711,0.000,0.000,-1.819,-3.655,0.451,5.764,3.149,6.275,4.183,4.384,4.484,1.998,5.882,5.284,1.571,0.000,0.000,-1.491,-3.632,0.451,5.769,3.211,6.133,
52.600,63.415,-1.640,-3.858,1.639,0.001,0.006,0.412,0.000,1.394,0.775,2.700,0.000,2.286,1.173,0.696,0.000,0.000,3.142,0.000,0.000,0.000,0.000,0.000,0.000,0.000,0.000,0.000,0.000,0.000,3.142,6.283,0.000,2.100,1.897,1.799,4.285,0.398,1.000,4.711,0.000,0.000,-1.819,-3.655,0.451,5.764,3.149,6.275,4.183,4.384,4.484,1.998,5.882,5.284,1.571,0.000,0.000,-1.491,-3.632,0.451,5.769,3.211,6.133,
52.700,63.515,-1.640,-3.858,1.639,0.001,0.006,0.412,0.000,1.394,0.775,2.700,0.000,2.286,1.173,0.696,0.000,0.000,3.142,0.000,0.000,0.000,0.000,0.000,0.000,0.000,0.000,0.000,0.000,0.000,3.142,6.283,0.000,2.100,1.897,1.799,4.285,0.398,1.000,4.711,0.000,0.000,-1.819,-3.655,0.451,5.764,3.149,6.275,4.183,4.384,4.484,1.998,5.882,5.284,1.571,0.000,0.000,-1.491,-3.632,0.451,5.769,3.211,6.133,
52.787,63.602,-1.640,-3.858,1.639,0.001,0.006,0.412,0.000,1.394,0.775,2.700,0.000,2.286,1.173,0.696,0.000,0.000,3.142,0.000,0.000,0.000,0.000,0.000,0.000,0.000,0.000,0.000,0.000,0.000,3.142,6.283,0.000,2.100,1.897,1.799,4.285,0.398,1.000,4.711,0.000,0.000,-1.819,-3.655,0.451,5.764,3.149,6.275,4.183,4.384,4.484,1.998,5.882,5.284,1.571,0.000,0.000,-1.491,-3.632,0.451,5.769,3.211,6.133,
52.900,63.715,-1.640,-3.858,1.639,0.001,0.006,0.412,0.000,1.394,0.775,2.700,0.000,2.286,1.173,0.696,0.000,0.000,3.142,0.000,0.000,0.000,0.000,0.000,0.000,0.000,0.000,0.000,0.000,0.000,3.142,6.283,0.000,2.100,1.897,1.799,4.285,0.398,1.000,4.711,0.000,0.000,-1.819,-3.655,0.451,5.764,3.149,6.275,4.183,4.384,4.484,1.998,5.882,5.284,1.571,0.000,0.000,-1.491,-3.632,0.451,5.769,3.211,6.133,
52.982,63.797,-1.640,-3.858,1.639,0.001,0.006,0.412,0.000,1.394,0.775,2.700,0.000,2.286,1.173,0.696,0.000,0.000,3.142,0.000,0.000,0.000,0.000,0.000,0.000,0.000,0.000,0.000,0.000,0.000,3.142,6.283,0.000,2.100,1.897,1.799,4.285,0.398,1.000,4.711,0.000,0.000,-1.819,-3.655,0.451,5.764,3.149,6.275,4.183,4.384,4.484,1.998,5.882,5.284,1.571,0.000,0.000,-1.491,-3.632,0.451,5.769,3.211,6.133,
53.100,63.915,-1.640,-3.858,1.639,0.001,0.006,0.412,0.000,1.394,0.775,2.700,0.000,2.286,1.173,0.696,0.000,0.000,3.142,0.000,0.000,0.000,0.000,0.000,0.000,0.000,0.000,0.000,0.000,0.000,3.142,6.283,0.000,2.100,1.897,1.799,4.285,0.398,1.000,4.711,0.000,0.000,-1.819,-3.655,0.451,5.764,3.149,6.275,4.183,4.384,4.484,1.998,5.882,5.284,1.571,0.000,0.000,-1.491,-3.632,0.451,5.769,3.211,6.133,
53.193,64.008,-1.640,-3.858,1.639,0.001,0.006,0.412,0.000,1.394,0.775,2.700,0.000,2.286,1.173,0.696,0.000,0.000,3.142,0.000,0.000,0.000,0.000,0.000,0.000,0.000,0.000,0.000,0.000,0.000,3.142,6.283,0.000,2.100,1.897,1.799,4.285,0.398,1.000,4.711,0.000,0.000,-1.819,-3.655,0.451,5.764,3.149,6.275,4.183,4.384,4.484,1.998,5.882,5.284,1.571,0.000,0.000,-1.491,-3.632,0.451,5.769,3.211,6.133,
53.300,64.115,-1.640,-3.858,1.639,0.001,0.006,0.412,0.000,1.394,0.775,2.700,0.000,2.286,1.173,0.696,0.000,0.000,3.142,0.000,0.000,0.000,0.000,0.000,0.000,0.000,0.000,0.000,0.000,0.000,3.142,6.283,0.000,2.100,1.897,1.799,4.285,0.398,1.000,4.711,0.000,0.000,-1.819,-3.655,0.451,5.764,3.149,6.275,4.183,4.384,4.484,1.998,5.882,5.284,1.571,0.000,0.000,-1.491,-3.632,0.451,5.769,3.211,6.133,
53.400,64.215,-1.640,-3.858,1.639,0.001,0.006,0.412,0.000,1.394,0.775,2.700,0.000,2.286,1.173,0.696,0.000,0.000,3.142,0.000,0.000,0.000,0.000,0.000,0.000,0.000,0.000,0.000,0.000,0.000,3.142,6.283,0.000,2.100,1.897,1.799,4.285,0.398,1.000,4.711,0.000,0.000,-1.819,-3.655,0.451,5.764,3.149,6.275,4.183,4.384,4.484,1.998,5.882,5.284,1.571,0.000,0.000,-1.491,-3.632,0.451,5.769,3.211,6.133,
53.500,64.315,-1.640,-3.858,1.639,0.001,0.006,0.412,0.000,1.394,0.775,2.700,0.000,2.286,1.173,0.696,0.000,0.000,3.142,0.000,0.000,0.000,0.000,0.000,0.000,0.000,0.000,0.000,0.000,0.000,3.142,6.283,0.000,2.100,1.897,1.799,4.285,0.398,1.000,4.711,0.000,0.000,-1.819,-3.655,0.451,5.764,3.149,6.275,4.183,4.384,4.484,1.998,5.882,5.284,1.571,0.000,0.000,-1.491,-3.632,0.451,5.769,3.211,6.133,
53.595,64.410,-1.640,-3.858,1.639,0.001,0.006,0.412,0.000,1.394,0.775,2.700,0.000,2.286,1.173,0.696,0.000,0.000,3.142,0.000,0.000,0.000,0.000,0.000,0.000,0.000,0.000,0.000,0.000,0.000,3.142,6.283,0.000,2.100,1.897,1.799,4.285,0.398,1.000,4.711,0.000,0.000,-1.819,-3.655,0.451,5.764,3.149,6.275,4.183,4.384,4.484,1.998,5.882,5.284,1.571,0.000,0.000,-1.491,-3.632,0.451,5.769,3.211,6.133,
53.694,64.509,-1.640,-3.858,1.639,0.001,0.006,0.412,0.000,1.394,0.775,2.700,0.000,2.286,1.173,0.696,0.000,0.000,3.142,0.000,0.000,0.000,0.000,0.000,0.000,0.000,0.000,0.000,0.000,0.000,3.142,6.283,0.000,2.100,1.897,1.799,4.285,0.398,1.000,4.711,0.000,0.000,-1.819,-3.655,0.451,5.764,3.149,6.275,4.183,4.384,4.484,1.998,5.882,5.284,1.571,0.000,0.000,-1.491,-3.632,0.451,5.769,3.211,6.133,
53.800,64.615,-1.640,-3.858,1.639,0.001,0.006,0.412,0.000,1.394,0.775,2.700,0.000,2.286,1.173,0.696,0.000,0.000,3.142,0.000,0.000,0.000,0.000,0.000,0.000,0.000,0.000,0.000,0.000,0.000,3.142,6.283,0.000,2.100,1.897,1.799,4.285,0.398,1.000,4.711,0.000,0.000,-1.819,-3.655,0.451,5.764,3.149,6.275,4.183,4.384,4.484,1.998,5.882,5.284,1.571,0.000,0.000,-1.491,-3.632,0.451,5.769,3.211,6.133,
53.886,64.701,-1.640,-3.858,1.639,0.001,0.006,0.412,0.000,1.394,0.775,2.700,0.000,2.286,1.173,0.696,0.000,0.000,3.142,0.000,0.000,0.000,0.000,0.000,0.000,0.000,0.000,0.000,0.000,0.000,3.142,6.283,0.000,2.100,1.897,1.799,4.285,0.398,1.000,4.711,0.000,0.000,-1.819,-3.655,0.451,5.764,3.149,6.275,4.183,4.384,4.484,1.998,5.882,5.284,1.571,0.000,0.000,-1.491,-3.632,0.451,5.769,3.211,6.133,
54.000,64.815,-1.640,-3.858,1.639,0.001,0.006,0.412,0.000,1.394,0.775,2.700,0.000,2.286,1.173,0.696,0.000,0.000,3.142,0.000,0.000,0.000,0.000,0.000,0.000,0.000,0.000,0.000,0.000,0.000,3.142,6.283,0.000,2.100,1.897,1.799,4.285,0.398,1.000,4.711,0.000,0.000,-1.819,-3.655,0.451,5.764,3.149,6.275,4.183,4.384,4.484,1.998,5.882,5.284,1.571,0.000,0.000,-1.491,-3.632,0.451,5.769,3.211,6.133,
