deveshdatwani/Gopher/Assets/Data/07-14 10-53-59/Reading_robot_value.csv
game_time,true_time,x,y,az,vx,vaz,dis_to_obs_0,dis_to_obs_36,dis_to_obs_72,dis_to_obs_108,dis_to_obs_144,dis_to_obs_180,dis_to_obs_-144,dis_to_obs_-108,dis_to_obs_-72,dis_to_obs_-36,dis_to_min_obs,direction_to_min_obs,dis_to_human_0,dis_to_human_36,dis_to_human_72,dis_to_human_108,dis_to_human_144,dis_to_human_180,dis_to_human_-144,dis_to_human_-108,dis_to_human_-72,dis_to_human_-36,dis_to_min_human,direction_to_min_human,main_cam_yaw,main_cam_pitch,left_joint_1,left_joint_2,left_joint_3,left_joint_4,left_joint_5,left_joint_6,left_joint_7,left_joint_gripper,left_is_grasping,left_end_x,left_end_y,left_end_z,left_end_ax,left_end_ay,left_end_az,right_joint_1,right_joint_2,right_joint_3,right_joint_4,right_joint_5,right_joint_6,right_joint_7,right_joint_gripper,right_is_grasping,right_end_x,right_end_y,right_end_z,right_end_ax,right_end_ay,right_end_az,
142.460,153.312,-5.257,9.051,5.005,1.157,6.276,3.730,0.000,1.355,2.036,2.181,4.546,0.000,4.644,1.138,0.000,0.000,0.755,0.000,0.000,0.000,0.000,0.000,0.000,0.000,0.000,0.000,0.000,0.000,3.142,6.281,6.283,2.103,1.898,1.798,4.285,0.399,0.998,4.710,0.000,0.000,-5.037,8.894,0.451,0.502,3.007,2.874,4.182,4.385,4.483,1.997,5.882,5.283,1.570,0.000,0.000,-5.352,8.799,0.451,0.484,2.950,2.736,
142.560,153.412,-5.229,8.960,5.006,1.195,6.282,3.634,0.000,1.275,2.058,2.300,4.641,0.000,1.035,1.171,0.000,0.000,0.755,0.000,0.000,0.000,0.000,0.000,0.000,0.000,0.000,0.000,0.000,0.000,3.142,6.283,0.000,2.100,1.897,1.799,4.285,0.398,1.000,4.711,0.000,0.000,-5.010,8.802,0.451,0.503,3.008,2.876,4.183,4.383,4.484,1.998,5.882,5.284,1.571,0.000,0.000,-5.325,8.707,0.451,0.485,2.950,2.738,
142.660,153.512,-5.193,8.840,5.005,0.932,6.187,3.508,0.000,1.169,2.263,2.459,4.765,0.000,1.072,1.279,0.000,0.000,3.001,0.000,0.000,0.000,0.000,0.000,0.000,0.000,0.000,0.000,0.000,0.000,3.142,6.282,0.001,2.100,1.897,1.798,4.285,0.398,1.000,4.711,0.000,0.000,-4.973,8.682,0.451,0.503,3.008,2.876,4.183,4.384,4.484,1.998,5.882,5.283,1.570,0.000,0.000,-5.288,8.587,0.451,0.486,2.950,2.738,
142.760,153.612,-5.173,8.772,4.972,0.916,5.279,3.349,0.000,1.088,2.492,2.617,4.791,0.000,1.093,1.219,0.000,0.000,3.036,0.000,0.000,0.000,0.000,0.000,0.000,0.000,0.000,0.000,0.000,0.000,3.142,6.280,0.001,2.101,1.897,1.797,4.285,0.398,0.999,4.710,0.000,0.000,-4.958,8.607,0.451,0.506,3.025,2.912,4.183,4.384,4.483,1.998,5.882,5.283,1.570,0.000,0.000,-5.276,8.522,0.452,0.491,2.966,2.774,
142.860,153.712,-5.147,8.658,4.844,1.049,5.377,0.000,0.000,0.941,2.300,3.405,0.000,3.932,1.136,1.269,0.000,0.000,3.142,0.000,0.000,0.000,0.000,0.000,0.000,0.000,0.000,0.000,0.000,0.000,3.142,6.280,0.000,2.101,1.897,1.798,4.285,0.398,0.999,4.710,0.000,0.000,-4.955,8.468,0.451,0.517,3.098,3.060,4.182,4.383,4.484,1.998,5.882,5.283,1.570,0.000,0.000,-5.281,8.424,0.451,0.509,3.037,2.920,
142.960,153.812,-5.136,8.575,4.824,1.060,0.063,0.000,0.000,0.881,1.483,3.259,0.000,3.976,1.150,1.124,0.000,0.000,3.142,0.000,0.000,0.000,0.000,0.000,0.000,0.000,0.000,0.000,0.000,0.000,3.142,6.282,0.000,2.100,1.897,1.799,4.285,0.398,1.000,4.711,0.000,0.000,-4.949,8.380,0.451,0.518,3.110,3.083,4.183,4.384,4.484,1.998,5.882,5.283,1.571,0.000,0.000,-5.276,8.344,0.451,0.511,3.048,2.942,
143.041,153.892,-5.123,8.455,4.825,0.991,6.282,0.000,0.000,0.805,1.356,3.233,0.000,4.141,1.082,0.839,0.000,0.000,3.142,0.000,0.000,0.000,0.000,0.000,0.000,0.000,0.000,0.000,0.000,0.000,3.142,6.283,0.000,2.100,1.897,1.799,4.285,0.398,1.000,4.711,0.000,0.000,-4.935,8.260,0.451,0.518,3.109,3.083,4.183,4.384,4.484,1.998,5.882,5.284,1.571,0.000,0.000,-5.262,8.223,0.451,0.511,3.048,2.942,
143.160,154.012,-5.112,8.359,4.825,0.991,6.282,0.000,0.000,0.744,1.253,3.211,0.000,4.273,1.093,0.544,0.000,0.000,3.142,0.000,0.000,0.000,0.000,0.000,0.000,0.000,0.000,0.000,0.000,0.000,3.142,6.283,0.000,2.100,1.897,1.798,4.285,0.398,1.000,4.711,0.000,0.000,-4.924,8.164,0.451,0.518,3.109,3.082,4.183,4.384,4.484,1.998,5.882,5.283,1.571,0.000,0.000,-5.251,8.127,0.451,0.511,3.047,2.941,
143.260,154.112,-5.101,8.260,4.825,1.022,6.282,0.000,0.000,0.697,1.148,3.188,0.000,4.407,1.104,0.556,0.000,0.000,3.142,0.000,0.000,0.000,0.000,0.000,0.000,0.000,0.000,0.000,0.000,0.000,3.142,6.283,0.000,2.100,1.897,1.798,4.285,0.398,1.000,4.711,0.000,0.000,-4.913,8.066,0.451,0.518,3.109,3.082,4.183,4.384,4.484,1.998,5.882,5.283,1.571,0.000,0.000,-5.240,8.028,0.451,0.511,3.047,2.941,
143.360,154.212,-5.089,8.160,4.825,1.021,6.282,0.000,0.000,0.686,1.040,3.164,0.000,4.544,1.116,1.253,0.000,0.000,3.142,0.000,0.000,0.000,0.000,0.000,0.000,0.000,0.000,0.000,0.000,0.000,3.142,6.283,0.000,2.100,1.897,1.798,4.285,0.398,1.000,4.711,0.000,0.000,-4.902,7.965,0.451,0.518,3.109,3.082,4.183,4.384,4.484,1.998,5.882,5.283,1.571,0.000,0.000,-5.228,7.928,0.451,0.511,3.047,2.941,
143.460,154.312,-5.078,8.061,4.826,1.005,6.282,0.000,0.000,0.000,0.934,3.140,0.000,4.679,1.127,1.187,0.000,0.000,3.142,0.000,0.000,0.000,0.000,0.000,0.000,0.000,0.000,0.000,0.000,0.000,3.142,6.283,0.000,2.100,1.897,1.798,4.285,0.398,1.000,4.711,0.000,0.000,-4.890,7.866,0.451,0.518,3.109,3.082,4.183,4.384,4.484,1.998,5.882,5.283,1.571,0.000,0.000,-5.217,7.829,0.451,0.511,3.047,2.941,
143.560,154.412,-5.069,7.983,4.826,1.004,6.282,0.000,0.000,0.000,0.850,3.121,0.000,4.786,0.545,1.237,0.000,0.000,3.142,0.000,0.000,0.000,0.000,0.000,0.000,0.000,0.000,0.000,0.000,0.000,3.142,6.283,0.000,2.100,1.897,1.798,4.285,0.398,1.000,4.711,0.000,0.000,-4.881,7.788,0.451,0.518,3.109,3.081,4.183,4.384,4.484,1.998,5.882,5.283,1.571,0.000,0.000,-5.208,7.751,0.451,0.511,3.047,2.941,
143.657,154.508,-5.055,7.864,4.859,1.014,0.974,0.000,0.000,0.000,0.761,3.302,0.000,0.000,0.556,1.359,0.000,0.000,3.142,0.000,0.000,0.000,0.000,0.000,0.000,0.000,0.000,0.000,0.000,0.000,3.142,0.001,0.000,2.100,1.897,1.800,4.286,0.398,1.000,4.711,0.000,0.000,-4.862,7.676,0.451,0.517,3.091,3.045,4.183,4.384,4.485,1.998,5.882,5.284,1.571,0.000,0.000,-5.187,7.628,0.451,0.508,3.030,2.904,
143.760,154.612,-5.038,7.766,4.974,1.011,1.426,2.331,0.000,0.000,0.791,4.377,0.000,1.470,1.785,4.094,0.000,0.000,3.142,0.000,0.000,0.000,0.000,0.000,0.000,0.000,0.000,0.000,0.000,0.000,3.142,0.002,0.000,2.101,1.899,1.800,4.286,0.399,0.999,4.711,0.000,0.000,-4.825,7.601,0.451,0.507,3.026,2.912,4.182,4.385,4.485,1.999,5.883,5.283,1.571,0.000,0.000,-5.142,7.516,0.451,0.492,2.967,2.773,
143.860,154.712,-5.010,7.670,5.076,1.020,0.917,2.338,0.000,4.454,0.796,3.729,0.000,0.709,1.149,3.415,0.000,0.000,3.142,0.000,0.000,0.000,0.000,0.000,0.000,0.000,0.000,0.000,0.000,0.000,3.142,0.001,0.000,2.101,1.898,1.799,4.286,0.399,0.999,4.711,0.000,0.000,-4.780,7.528,0.451,0.492,2.971,2.797,4.182,4.385,4.484,1.999,5.883,5.283,1.571,0.000,0.000,-5.087,7.410,0.451,0.471,2.914,2.660,
143.960,154.812,-4.972,7.577,5.146,1.019,0.880,2.308,0.000,2.943,0.781,3.688,0.000,0.772,1.242,2.074,0.000,0.000,3.142,0.000,0.000,0.000,0.000,0.000,0.000,0.000,0.000,0.000,0.000,0.000,3.142,0.001,0.000,2.100,1.898,1.799,4.286,0.398,1.000,4.711,0.000,0.000,-4.733,7.451,0.451,0.479,2.935,2.719,4.183,4.384,4.485,1.999,5.882,5.284,1.571,0.000,0.000,-5.031,7.312,0.451,0.454,2.881,2.585,
144.060,154.912,-4.928,7.487,5.232,1.007,1.108,2.313,0.000,2.250,0.789,3.640,4.978,1.260,1.389,1.788,0.000,0.000,3.106,0.000,0.000,0.000,0.000,0.000,0.000,0.000,0.000,0.000,0.000,0.000,3.142,0.001,0.000,2.100,1.898,1.800,4.286,0.399,1.000,4.711,0.000,0.000,-4.679,7.382,0.451,0.460,2.892,2.626,4.182,4.384,4.485,1.999,5.883,5.284,1.571,0.000,0.000,-4.965,7.219,0.451,0.431,2.842,2.494,
144.146,154.998,-4.877,7.402,5.326,1.010,1.044,2.355,0.000,1.880,0.801,3.762,0.000,1.870,4.087,1.730,0.000,0.000,3.142,0.000,0.000,0.000,0.000,0.000,0.000,0.000,0.000,0.000,0.000,0.000,3.142,0.001,0.000,2.100,1.898,1.799,4.286,0.399,1.000,4.711,0.000,0.000,-4.619,7.321,0.451,0.434,2.849,2.525,4.182,4.384,4.485,1.999,5.883,5.284,1.571,0.000,0.000,-4.888,7.131,0.451,0.401,2.802,2.396,
144.260,155.112,-4.817,7.322,5.411,1.015,1.002,2.299,0.000,1.704,0.797,4.602,0.000,1.765,4.095,2.133,0.000,0.000,3.142,0.000,0.000,0.000,0.000,0.000,0.000,0.000,0.000,0.000,0.000,0.000,3.142,0.001,0.000,2.100,1.898,1.799,4.286,0.399,1.000,4.711,0.000,0.000,-4.554,7.263,0.451,0.408,2.812,2.436,4.183,4.384,4.485,1.999,5.882,5.284,1.571,0.000,0.000,-4.805,7.051,0.451,0.371,2.770,2.310,
144.360,155.212,-4.765,7.261,5.480,1.016,1.032,2.255,0.000,1.606,0.788,0.000,1.209,1.429,3.962,1.927,0.000,0.000,3.071,0.000,0.000,0.000,0.000,0.000,0.000,0.000,0.000,0.000,0.000,0.000,3.142,0.001,0.000,2.100,1.898,1.799,4.286,0.399,1.000,4.711,0.000,0.000,-4.498,7.221,0.451,0.385,2.785,2.366,4.183,4.384,4.485,1.999,5.882,5.284,1.571,0.000,0.000,-4.734,6.992,0.451,0.346,2.746,2.241,
144.447,155.298,-4.679,7.178,5.586,1.011,1.049,0.000,0.000,1.491,0.824,0.000,1.207,1.579,1.914,0.000,0.000,0.000,2.966,0.000,0.000,0.000,0.000,0.000,0.000,0.000,0.000,0.000,0.000,0.000,3.142,0.001,0.000,2.100,1.898,1.799,4.286,0.399,1.000,4.711,0.000,0.000,-4.409,7.166,0.451,0.346,2.747,2.260,4.183,4.384,4.485,1.999,5.882,5.284,1.571,0.000,0.000,-4.620,6.913,0.451,0.303,2.713,2.139,
144.560,155.412,-4.617,7.127,5.657,1.011,1.039,4.038,0.000,1.433,0.857,0.000,1.403,0.000,1.643,0.000,0.000,0.000,2.896,0.000,0.000,0.000,0.000,0.000,0.000,0.000,0.000,0.000,0.000,0.000,3.142,0.001,0.000,2.100,1.898,1.799,4.286,0.399,1.000,4.711,0.000,0.000,-4.347,7.134,0.451,0.318,2.725,2.192,4.183,4.384,4.485,1.999,5.882,5.284,1.571,0.000,0.000,-4.540,6.868,0.451,0.273,2.694,2.072,
144.653,155.504,-4.518,7.060,5.762,1.014,1.036,0.000,0.000,1.364,0.904,0.000,1.887,0.000,1.876,0.000,0.000,0.000,2.826,2.627,0.000,0.000,0.000,0.000,0.000,0.000,0.000,0.000,0.000,0.000,3.142,0.001,0.000,2.100,1.898,1.799,4.286,0.399,1.000,4.711,0.000,0.000,-4.250,7.096,0.451,0.274,2.696,2.092,4.183,4.384,4.485,1.999,5.882,5.284,1.571,0.000,0.000,-4.414,6.810,0.451,0.226,2.670,1.975,
144.760,155.612,-4.448,7.022,5.832,1.014,1.039,0.000,0.000,1.326,0.934,0.000,2.245,4.576,2.095,0.000,0.000,0.000,2.755,2.463,0.000,0.000,0.000,0.000,0.000,0.000,0.000,0.000,0.000,0.000,3.142,0.001,0.000,2.100,1.898,1.799,4.286,0.399,1.000,4.711,0.000,0.000,-4.184,7.076,0.451,0.244,2.679,2.026,4.183,4.384,4.485,1.999,5.882,5.284,1.571,0.000,0.000,-4.327,6.779,0.451,0.194,2.657,1.911,
144.860,155.712,-4.339,6.973,5.938,1.013,1.040,0.000,0.000,1.276,0.977,0.000,3.034,4.444,2.052,1.423,0.000,0.000,2.650,2.283,0.000,0.000,0.000,0.000,0.000,0.000,0.000,0.000,0.000,0.000,3.142,0.001,0.000,2.100,1.898,1.799,4.286,0.399,1.000,4.711,0.000,0.000,-4.081,7.054,0.451,0.195,2.658,1.930,4.183,4.384,4.485,1.999,5.882,5.284,1.571,0.000,0.000,-4.192,6.745,0.451,0.144,2.641,1.817,
144.960,155.812,-4.244,6.941,6.013,1.014,0.522,0.000,0.000,1.249,1.011,0.000,2.011,2.235,0.000,1.443,0.000,0.000,2.615,2.186,0.000,0.000,0.000,0.000,0.000,0.000,0.000,0.000,0.000,0.000,3.142,0.000,0.000,2.101,1.898,1.799,4.286,0.399,1.000,4.711,0.000,0.000,-3.994,7.043,0.451,0.159,2.646,1.862,4.183,4.384,4.484,1.999,5.883,5.283,1.571,0.000,0.000,-4.081,6.725,0.452,0.107,2.632,1.750,
145.060,155.912,-4.148,6.915,6.021,1.011,0.001,0.000,0.000,1.274,1.038,0.000,2.112,2.118,0.000,1.418,0.000,0.000,2.615,1.984,0.000,0.000,0.000,0.000,0.000,0.000,0.000,0.000,0.000,0.000,3.142,6.282,0.000,2.100,1.897,1.798,4.285,0.398,1.000,4.711,0.000,0.000,-3.898,7.018,0.451,0.155,2.645,1.855,4.183,4.384,4.484,1.998,5.882,5.283,1.570,0.000,0.000,-3.983,6.701,0.451,0.103,2.632,1.743,
145.154,156.005,-4.052,6.889,6.021,1.009,0.000,0.000,0.000,1.305,1.114,0.000,2.212,2.048,0.000,1.392,0.000,0.000,2.615,1.876,0.000,0.000,0.000,0.000,0.000,0.000,0.000,0.000,0.000,0.000,3.142,6.282,0.000,2.100,1.897,1.798,4.285,0.398,1.000,4.711,0.000,0.000,-3.802,6.993,0.451,0.155,2.645,1.855,4.183,4.384,4.484,1.998,5.882,5.283,1.570,0.000,0.000,-3.887,6.675,0.451,0.103,2.632,1.743,
145.260,156.112,-3.956,6.863,6.020,1.011,0.000,0.000,0.000,1.335,1.140,0.000,2.311,2.084,0.000,1.366,0.000,0.000,2.650,1.822,0.000,0.000,0.000,0.000,0.000,0.000,0.000,0.000,0.000,0.000,3.142,6.282,0.000,2.100,1.897,1.798,4.285,0.398,1.000,4.711,0.000,0.000,-3.706,6.967,0.451,0.156,2.645,1.856,4.183,4.384,4.484,1.998,5.882,5.283,1.570,0.000,0.000,-3.791,6.649,0.451,0.103,2.632,1.743,
145.360,156.212,-3.860,6.838,6.020,1.012,0.000,0.000,0.000,1.366,1.166,0.000,2.410,2.187,0.000,1.340,0.000,0.000,2.650,0.000,0.000,0.000,0.000,0.000,0.000,0.000,0.000,0.000,0.000,0.000,3.142,6.282,0.000,2.100,1.897,1.798,4.285,0.398,1.000,4.711,0.000,0.000,-3.610,6.941,0.451,0.156,2.645,1.856,4.183,4.384,4.484,1.998,5.882,5.283,1.570,0.000,0.000,-3.695,6.623,0.451,0.103,2.632,1.744,
145.453,156.305,-3.764,6.812,6.020,1.011,0.000,0.000,0.000,1.396,1.192,0.000,2.510,2.290,0.000,1.314,0.000,0.000,2.685,0.000,0.000,0.000,0.000,0.000,0.000,0.000,0.000,0.000,0.000,0.000,3.142,6.282,0.000,2.100,1.897,1.798,4.285,0.398,1.000,4.711,0.000,0.000,-3.514,6.915,0.451,0.156,2.645,1.856,4.183,4.384,4.484,1.998,5.882,5.283,1.570,0.000,0.000,-3.599,6.597,0.451,0.103,2.632,1.744,
145.560,156.412,-3.687,6.791,6.020,1.010,6.283,0.000,0.000,1.421,1.213,0.000,2.589,2.372,0.000,1.293,0.000,0.000,2.685,0.000,0.000,0.000,0.000,0.000,0.000,0.000,0.000,0.000,0.000,0.000,3.142,6.282,0.000,2.100,1.897,1.798,4.285,0.398,1.000,4.711,0.000,0.000,-3.437,6.894,0.451,0.156,2.645,1.856,4.183,4.384,4.484,1.998,5.882,5.283,1.570,0.000,0.000,-3.522,6.577,0.451,0.103,2.632,1.744,
145.643,156.494,-3.572,6.760,6.020,1.011,0.000,0.000,0.000,1.457,1.244,0.000,2.709,2.495,1.438,1.262,0.000,0.000,2.685,0.000,0.000,0.000,0.000,0.000,0.000,0.000,0.000,0.000,0.000,0.000,3.142,6.282,0.000,2.100,1.897,1.798,4.285,0.398,1.000,4.711,0.000,0.000,-3.322,6.863,0.451,0.156,2.645,1.856,4.183,4.384,4.484,1.998,5.882,5.283,1.570,0.000,0.000,-3.407,6.546,0.451,0.103,2.632,1.744,
145.760,156.612,-3.476,6.734,6.019,1.011,6.283,0.000,0.000,1.488,1.270,0.000,2.808,2.598,1.407,1.236,0.000,0.000,2.720,0.000,0.000,0.000,0.000,0.000,0.000,0.000,0.000,0.000,0.000,0.000,3.142,6.282,0.000,2.100,1.897,1.798,4.285,0.398,1.000,4.711,0.000,0.000,-3.226,6.837,0.451,0.156,2.645,1.857,4.183,4.384,4.484,1.998,5.882,5.283,1.570,0.000,0.000,-3.311,6.520,0.451,0.104,2.632,1.744,
145.860,156.712,-3.399,6.713,6.019,1.011,6.283,4.975,0.000,1.513,1.291,0.000,2.888,2.680,1.442,1.216,0.000,0.000,2.720,0.000,0.000,0.000,0.000,0.000,0.000,0.000,0.000,0.000,0.000,0.000,3.142,6.282,0.000,2.100,1.897,1.798,4.285,0.398,1.000,4.711,0.000,0.000,-3.149,6.816,0.451,0.156,2.645,1.857,4.183,4.384,4.484,1.998,5.882,5.283,1.570,0.000,0.000,-3.234,6.499,0.451,0.104,2.632,1.744,
145.960,156.812,-3.284,6.682,6.019,1.011,6.283,4.844,0.000,1.549,1.322,1.672,3.007,2.804,1.405,1.017,0.000,0.000,2.720,0.000,0.000,0.000,0.000,0.000,0.000,0.000,0.000,0.000,0.000,0.000,3.142,6.282,0.000,2.100,1.897,1.798,4.285,0.398,1.000,4.711,0.000,0.000,-3.033,6.785,0.451,0.156,2.645,1.857,4.183,4.384,4.484,1.998,5.882,5.283,1.570,0.000,0.000,-3.119,6.468,0.451,0.104,2.632,1.745,
146.060,156.912,-3.188,6.656,6.019,1.011,6.283,4.734,0.000,1.580,1.348,1.706,3.106,3.218,1.375,0.991,0.000,0.000,2.755,0.000,0.000,0.000,0.000,0.000,0.000,0.000,0.000,0.000,0.000,0.000,3.142,6.282,0.000,2.100,1.897,1.798,4.285,0.398,1.000,4.711,0.000,0.000,-2.937,6.759,0.451,0.156,2.645,1.857,4.183,4.384,4.484,1.998,5.882,5.283,1.570,0.000,0.000,-3.023,6.442,0.451,0.104,2.632,1.745,
146.160,157.012,-3.092,6.630,6.019,1.011,6.283,4.625,0.000,1.611,1.374,1.745,3.206,3.147,1.344,1.132,0.000,0.000,2.755,0.000,0.000,0.000,0.000,0.000,0.000,0.000,0.000,0.000,0.000,0.000,3.142,6.282,0.000,2.100,1.897,1.798,4.285,0.398,1.000,4.711,0.000,0.000,-2.841,6.733,0.451,0.156,2.645,1.857,4.183,4.384,4.484,1.998,5.882,5.283,1.570,0.000,0.000,-2.927,6.416,0.451,0.104,2.632,1.745,
146.260,157.112,-3.015,6.609,6.019,1.011,6.283,4.538,0.000,1.635,1.395,1.833,3.285,2.950,1.319,3.716,0.000,0.000,2.755,0.000,0.000,0.000,0.000,0.000,0.000,0.000,0.000,0.000,0.000,0.000,3.142,6.282,0.000,2.100,1.897,1.798,4.285,0.398,1.000,4.711,0.000,0.000,-2.765,6.712,0.451,0.156,2.645,1.857,4.183,4.384,4.484,1.998,5.882,5.283,1.570,0.000,0.000,-2.850,6.395,0.451,0.104,2.632,1.745,
146.360,157.212,-2.919,6.583,6.019,1.011,6.283,4.430,0.000,1.666,1.421,1.867,3.385,2.879,1.288,3.690,0.000,0.000,2.755,0.000,0.000,0.000,0.000,0.000,0.000,0.000,0.000,0.000,0.000,0.000,3.142,6.282,0.000,2.100,1.897,1.798,4.285,0.398,1.000,4.711,0.000,0.000,-2.668,6.686,0.451,0.157,2.645,1.857,4.183,4.384,4.484,1.998,5.882,5.283,1.570,0.000,0.000,-2.754,6.369,0.451,0.104,2.632,1.745,
146.450,157.302,-2.804,6.552,6.018,1.011,6.283,4.299,0.000,1.703,1.452,1.908,3.504,2.980,1.251,3.659,0.000,0.000,2.791,0.000,0.000,0.000,0.000,0.000,0.000,0.000,0.000,0.000,0.000,0.000,3.142,6.282,0.000,2.100,1.897,1.798,4.285,0.398,1.000,4.711,0.000,0.000,-2.553,6.655,0.451,0.157,2.645,1.857,4.183,4.384,4.484,1.998,5.882,5.283,1.570,0.000,0.000,-2.639,6.338,0.451,0.104,2.632,1.745,
146.560,157.412,-2.727,6.531,6.016,1.011,6.057,4.173,0.000,1.730,1.473,1.931,3.583,3.060,1.030,3.637,0.000,0.000,2.791,0.000,0.000,0.000,0.000,0.000,0.000,0.000,0.000,0.000,0.000,0.000,3.142,6.281,0.000,2.101,1.898,1.798,4.285,0.398,0.999,4.711,0.000,0.000,-2.476,6.634,0.451,0.157,2.645,1.859,4.183,4.384,4.483,1.998,5.882,5.283,1.570,0.000,0.000,-2.563,6.317,0.451,0.105,2.632,1.747,
146.660,157.512,-2.612,6.498,5.927,1.009,4.884,3.008,0.000,1.880,1.502,1.843,4.310,3.664,1.055,3.600,0.000,0.000,2.896,0.000,0.000,0.000,0.000,0.000,0.000,0.000,0.000,0.000,0.000,0.000,3.142,6.280,0.001,2.101,1.897,1.797,4.285,0.398,0.999,4.710,0.000,0.000,-2.354,6.579,0.451,0.198,2.660,1.938,4.183,4.383,4.483,1.998,5.882,5.283,1.570,0.000,0.000,-2.468,6.270,0.452,0.148,2.642,1.825,
146.745,157.597,-2.520,6.462,5.807,1.004,5.009,2.253,0.000,2.134,1.552,1.751,3.470,3.421,1.357,3.185,0.000,0.000,3.001,0.000,0.000,0.000,0.000,0.000,0.000,0.000,0.000,0.000,0.000,0.000,3.142,6.280,0.000,2.101,1.897,1.798,4.285,0.398,0.999,4.711,0.000,0.000,-2.254,6.510,0.451,0.253,2.684,2.049,4.182,4.383,4.483,1.998,5.882,5.283,1.570,0.000,0.000,-2.404,6.218,0.451,0.204,2.661,1.933,
146.860,157.712,-2.433,6.414,5.716,1.012,5.337,2.266,0.000,2.420,1.627,1.727,4.542,4.063,1.424,2.366,0.000,0.000,3.106,0.000,0.000,0.000,0.000,0.000,0.000,0.000,0.000,0.000,0.000,0.000,3.142,6.281,0.000,2.101,1.897,1.798,4.285,0.398,0.999,4.711,0.000,0.000,-2.163,6.438,0.451,0.293,2.707,2.134,4.182,4.383,4.484,1.998,5.882,5.283,1.570,0.000,0.000,-2.340,6.161,0.451,0.245,2.680,2.016,
146.947,157.798,-2.349,6.359,5.638,1.019,5.305,2.284,0.000,0.000,1.719,1.734,0.000,0.000,1.481,2.068,0.000,0.000,3.142,0.000,0.000,1.539,0.000,0.000,0.000,0.000,0.000,0.000,0.000,0.000,3.142,6.281,0.000,2.101,1.897,1.798,4.285,0.398,0.999,4.711,0.000,0.000,-2.079,6.362,0.451,0.325,2.730,2.208,4.182,4.383,4.483,1.998,5.882,5.283,1.570,0.000,0.000,-2.276,6.099,0.451,0.280,2.699,2.088,
147.060,157.912,-2.270,6.298,5.551,1.011,5.189,2.344,0.000,0.000,1.841,1.753,2.547,0.000,1.574,1.841,0.000,0.000,1.422,0.000,0.000,1.489,0.000,0.000,0.000,0.000,0.000,0.000,0.000,0.000,3.142,6.281,0.000,2.101,1.897,1.798,4.285,0.398,0.999,4.711,0.000,0.000,-2.001,6.277,0.451,0.359,2.759,2.294,4.182,4.383,4.483,1.998,5.882,5.283,1.570,0.000,0.000,-2.220,6.032,0.451,0.316,2.723,2.172,
147.160,158.012,-2.198,6.230,5.460,1.009,5.226,2.450,0.000,0.000,1.996,1.791,2.415,0.000,1.710,1.679,0.000,0.000,1.457,0.000,0.000,1.628,0.000,0.000,0.000,0.000,0.000,0.000,0.000,0.000,3.142,6.281,0.000,2.101,1.897,1.798,4.285,0.398,0.999,4.711,0.000,0.000,-1.931,6.185,0.451,0.391,2.792,2.385,4.182,4.383,4.483,1.998,5.882,5.283,1.570,0.000,0.000,-2.172,5.961,0.451,0.352,2.752,2.260,
147.241,158.092,-2.132,6.155,5.374,1.015,5.248,2.599,0.000,4.434,2.187,1.848,2.337,4.270,1.890,1.573,0.000,0.000,1.562,0.000,0.000,0.000,0.000,0.000,0.000,0.000,0.000,0.000,0.000,0.000,3.142,6.281,0.000,2.101,1.897,1.798,4.285,0.398,0.999,4.711,0.000,0.000,-1.870,6.088,0.451,0.419,2.827,2.474,4.182,4.383,4.483,1.998,5.882,5.283,1.570,0.000,0.000,-2.129,5.885,0.451,0.383,2.783,2.346,
147.360,158.212,-2.083,6.092,5.305,1.016,5.237,2.764,0.000,0.000,2.373,1.908,2.300,4.326,2.104,1.507,0.000,0.000,1.632,0.000,0.000,0.000,0.000,0.000,0.000,0.000,0.000,0.000,0.000,0.000,3.142,6.281,0.000,2.101,1.897,1.798,4.285,0.398,0.999,4.711,0.000,0.000,-1.826,6.006,0.451,0.440,2.857,2.546,4.182,4.383,4.483,1.998,5.882,5.283,1.570,0.000,0.000,-2.099,5.822,0.451,0.407,2.810,2.417,
147.460,158.312,-2.019,5.991,5.199,1.011,5.224,3.143,0.000,0.000,2.725,2.022,2.274,4.599,3.625,1.425,0.000,0.000,1.738,0.000,0.000,0.000,0.000,0.000,0.000,0.000,0.000,0.000,0.000,0.000,3.142,6.281,0.000,2.101,1.897,1.798,4.285,0.398,0.999,4.711,0.000,0.000,-1.773,5.878,0.451,0.467,2.907,2.660,4.182,4.383,4.483,1.998,5.882,5.283,1.570,0.000,0.000,-2.063,5.724,0.451,0.439,2.856,2.527,
147.551,158.403,-1.974,5.902,5.111,1.012,5.239,4.353,0.000,0.000,3.107,2.140,2.277,4.232,4.376,1.369,0.000,0.000,1.808,0.000,0.000,0.000,0.000,0.000,0.000,0.000,0.000,0.000,0.000,0.000,3.142,6.281,0.000,2.101,1.897,1.798,4.285,0.398,0.999,4.711,0.000,0.000,-1.739,5.768,0.451,0.485,2.951,2.756,4.182,4.383,4.483,1.998,5.882,5.283,1.570,0.000,0.000,-2.042,5.640,0.451,0.462,2.897,2.621,
147.643,158.494,-1.937,5.809,5.024,1.014,5.233,4.444,0.000,3.938,0.000,2.283,2.302,0.000,3.963,1.322,0.000,0.000,1.913,0.000,0.000,0.000,2.104,0.000,0.000,0.000,0.000,0.000,0.000,0.000,3.142,6.281,0.000,2.101,1.897,1.798,4.285,0.398,0.999,4.711,0.000,0.000,-1.714,5.656,0.451,0.500,2.997,2.854,4.182,4.383,4.483,1.998,5.882,5.283,1.570,0.000,0.000,-2.027,5.555,0.451,0.481,2.940,2.717,
147.760,158.612,-1.913,5.733,4.954,1.014,5.231,0.000,0.000,4.885,0.000,2.418,2.335,0.000,3.995,1.288,0.000,0.000,1.983,0.000,0.000,0.000,2.119,0.000,0.000,0.000,0.000,0.000,0.000,0.000,3.142,6.281,0.000,2.101,1.897,1.798,4.285,0.398,0.999,4.711,0.000,0.000,-1.702,5.564,0.451,0.509,3.036,2.933,4.182,4.383,4.483,1.998,5.882,5.283,1.570,0.000,0.000,-2.021,5.485,0.451,0.494,2.976,2.794,
147.857,158.709,-1.888,5.616,4.849,1.012,5.229,0.000,0.000,1.404,0.000,2.660,2.407,3.317,0.000,1.242,0.000,0.000,2.089,3.126,0.000,0.000,2.361,0.000,0.000,0.000,0.000,0.000,0.000,0.000,3.142,6.281,0.000,2.101,1.897,1.798,4.285,0.398,0.999,4.711,0.000,0.000,-1.695,5.426,0.451,0.517,3.095,3.053,4.182,4.383,4.483,1.998,5.882,5.283,1.570,0.000,0.000,-2.021,5.381,0.451,0.508,3.034,2.913,
147.960,158.812,-1.878,5.537,4.779,1.013,5.231,0.000,0.000,1.413,4.169,2.855,2.469,3.217,0.000,1.214,0.000,0.000,2.124,2.946,0.000,0.000,0.000,0.000,0.000,0.000,0.000,0.000,0.000,0.000,3.142,6.281,0.000,2.101,1.897,1.798,4.285,0.398,0.999,4.711,0.000,0.000,-1.699,5.334,0.451,0.518,3.135,3.134,4.182,4.383,4.483,1.998,5.882,5.283,1.570,0.000,0.000,-2.027,5.312,0.451,0.514,3.073,2.993,
148.060,158.912,-1.873,5.417,4.674,1.013,5.231,0.000,0.000,1.202,0.000,3.207,2.585,3.116,0.000,1.175,0.000,0.000,2.229,0.000,0.000,0.000,0.000,0.000,0.000,0.000,0.000,0.000,0.000,0.000,3.142,6.281,0.000,2.101,1.897,1.798,4.285,0.398,0.999,4.711,0.000,0.000,-1.716,5.197,0.451,0.516,3.194,3.254,4.182,4.383,4.483,1.998,5.882,5.283,1.570,0.000,0.000,-2.045,5.209,0.451,0.519,3.132,3.113,
148.160,159.012,-1.879,5.318,4.587,1.013,5.239,3.586,0.000,0.627,0.000,3.575,2.704,3.067,4.800,1.144,0.000,0.000,2.299,0.000,0.000,0.000,0.000,0.000,0.000,0.000,0.000,0.000,0.000,0.000,3.142,6.281,0.000,2.101,1.897,1.798,4.285,0.398,0.999,4.711,0.000,0.000,-1.742,5.084,0.451,0.509,3.243,3.354,4.182,4.383,4.483,1.998,5.882,5.283,1.570,0.000,0.000,-2.068,5.125,0.451,0.517,3.182,3.214,
148.260,159.112,-1.890,5.239,4.517,1.013,5.255,2.606,0.000,1.570,1.405,3.931,2.815,3.047,4.857,1.120,0.000,0.000,2.369,0.000,0.000,0.000,0.000,0.000,0.000,0.000,0.000,0.000,0.000,0.000,3.142,6.281,0.000,2.101,1.897,1.798,4.285,0.398,0.999,4.711,0.000,0.000,-1.769,4.996,0.451,0.501,3.282,3.434,4.182,4.383,4.483,1.998,5.882,5.283,1.570,0.000,0.000,-2.092,5.060,0.451,0.513,3.221,3.294,
148.348,159.199,-1.916,5.122,4.412,1.013,5.231,2.314,0.000,1.704,1.417,4.611,3.013,3.044,0.000,1.084,0.000,0.000,2.475,0.000,0.000,0.000,0.000,0.000,0.000,0.000,0.000,0.000,0.000,0.000,3.142,6.281,0.000,2.101,1.897,1.798,4.285,0.398,0.999,4.711,0.000,0.000,-1.822,4.868,0.451,0.483,3.337,3.551,4.182,4.383,4.483,1.998,5.882,5.283,1.570,0.000,0.000,-2.136,4.965,0.451,0.502,3.279,3.413,
148.460,159.312,-1.947,5.027,4.325,1.013,5.223,2.281,0.000,1.857,1.449,0.000,3.211,3.064,4.760,1.055,0.000,0.000,2.545,0.000,0.000,0.000,0.000,3.216,0.000,0.000,0.000,0.000,0.000,0.000,3.142,6.281,0.000,2.101,1.897,1.798,4.285,0.398,0.999,4.711,0.000,0.000,-1.875,4.766,0.451,0.464,3.381,3.647,4.182,4.383,4.483,1.998,5.882,5.283,1.570,0.000,0.000,-2.180,4.890,0.451,0.488,3.326,3.511,
148.560,159.412,-1.977,4.955,4.279,0.961,6.009,2.533,0.000,1.970,1.484,0.000,3.355,3.106,0.000,1.029,0.000,0.000,2.650,0.000,0.000,0.000,0.000,3.310,0.000,0.000,0.000,0.000,0.000,0.000,3.142,6.282,0.000,2.100,1.897,1.799,4.285,0.398,1.000,4.711,0.000,0.000,-1.918,4.691,0.451,0.454,3.405,3.698,4.182,4.383,4.484,1.998,5.882,5.283,1.570,0.000,0.000,-2.217,4.829,0.451,0.478,3.350,3.563,
148.651,159.503,-2.023,4.857,4.277,0.901,6.283,2.409,0.000,2.034,0.722,0.000,3.466,3.205,0.928,0.983,0.000,0.000,2.685,0.000,0.000,0.000,0.000,3.573,0.000,0.000,0.000,0.000,0.000,0.000,3.142,6.283,0.000,2.100,1.897,1.798,4.285,0.398,1.000,4.711,0.000,0.000,-1.964,4.592,0.451,0.453,3.404,3.699,4.183,4.384,4.484,1.998,5.882,5.283,1.571,0.000,0.000,-2.263,4.731,0.451,0.478,3.351,3.565,
148.760,159.612,-2.061,4.775,4.277,0.937,6.283,2.315,0.000,2.085,1.568,0.000,3.556,3.288,4.808,0.945,0.000,0.000,2.685,0.000,0.000,0.000,0.000,3.725,0.000,0.000,0.000,0.000,0.000,0.000,3.142,6.282,0.000,2.101,1.897,1.798,4.285,0.398,0.999,4.711,0.000,0.000,-2.002,4.511,0.451,0.453,3.404,3.699,4.183,4.384,4.484,1.998,5.882,5.283,1.570,0.000,0.000,-2.300,4.649,0.451,0.478,3.351,3.564,
148.860,159.712,-2.093,4.707,4.277,0.958,6.283,2.237,0.000,2.127,1.599,0.000,3.631,3.357,1.374,0.913,0.000,0.000,2.720,0.000,0.000,0.000,0.000,3.873,0.000,0.000,0.000,0.000,0.000,0.000,3.142,6.282,0.000,2.100,1.897,1.798,4.285,0.398,1.000,4.711,0.000,0.000,-2.034,4.443,0.451,0.453,3.404,3.699,4.183,4.384,4.484,1.998,5.882,5.283,1.571,0.000,0.000,-2.332,4.582,0.451,0.478,3.351,3.565,
148.960,159.812,-2.140,4.606,4.277,0.939,6.283,2.121,0.000,2.168,1.647,0.000,3.743,3.461,1.167,0.865,0.000,0.000,2.720,0.000,0.000,0.000,0.000,4.133,0.000,0.000,0.000,0.000,0.000,0.000,3.142,6.283,0.000,2.100,1.897,1.798,4.285,0.398,1.000,4.711,0.000,0.000,-2.081,4.341,0.451,0.453,3.404,3.699,4.183,4.384,4.484,1.998,5.882,5.283,1.571,0.000,0.000,-2.379,4.480,0.451,0.478,3.351,3.565,
149.060,159.912,-2.174,4.532,4.296,0.686,0.729,2.126,0.000,2.134,1.679,0.000,3.792,3.550,1.102,0.829,0.000,0.000,2.720,0.000,0.000,0.000,0.000,4.441,0.000,0.000,0.000,0.000,0.000,0.000,3.142,0.002,0.000,2.098,1.897,1.800,4.285,0.397,1.001,4.712,0.000,0.000,-2.112,4.268,0.452,0.458,3.398,3.683,4.183,4.383,4.486,1.998,5.881,5.284,1.571,0.000,0.000,-2.412,4.402,0.451,0.482,3.344,3.547,
149.160,160.012,-2.196,4.478,4.399,0.568,1.432,1.649,0.000,2.059,1.697,0.000,3.702,3.709,0.988,0.804,0.000,0.000,2.650,0.000,0.000,0.000,0.000,0.000,0.000,0.000,0.000,0.000,0.000,0.000,3.142,0.002,0.000,2.100,1.898,1.799,4.286,0.399,1.000,4.711,0.000,0.000,-2.106,4.223,0.451,0.481,3.345,3.567,4.182,4.384,4.485,1.999,5.883,5.283,1.571,0.000,0.000,-2.419,4.324,0.451,0.500,3.288,3.430,
149.260,160.112,-2.213,4.418,4.508,0.711,1.036,1.545,0.000,1.946,1.730,0.000,3.658,1.171,0.902,0.792,0.000,0.000,2.545,0.000,0.000,0.000,0.000,0.000,0.000,0.000,0.000,0.000,0.000,0.000,3.142,0.000,0.000,2.102,1.898,1.798,4.286,0.399,0.999,4.711,0.000,0.000,-2.096,4.175,0.451,0.499,3.287,3.444,4.182,4.385,4.484,1.999,5.883,5.283,1.571,0.000,0.000,-2.418,4.242,0.451,0.512,3.227,3.305,
149.360,160.212,-2.227,4.346,4.584,0.762,0.878,1.455,0.000,1.889,1.767,4.882,3.685,4.149,0.853,0.789,0.000,0.000,2.510,0.000,0.000,0.000,0.000,0.000,0.000,0.000,0.000,0.000,0.000,0.000,3.142,0.001,0.000,2.100,1.898,1.799,4.286,0.398,1.000,4.711,0.000,0.000,-2.091,4.112,0.451,0.509,3.246,3.359,4.183,4.384,4.485,1.999,5.882,5.284,1.571,0.000,0.000,-2.417,4.154,0.451,0.518,3.185,3.219,
149.460,160.312,-2.234,4.275,4.667,0.684,1.071,2.481,0.000,1.836,1.813,4.652,3.729,1.385,0.816,0.797,0.000,0.000,2.440,0.000,0.000,0.000,0.000,0.000,0.000,0.000,0.000,0.000,0.000,0.000,3.142,0.002,0.000,2.100,1.898,1.800,4.286,0.398,1.000,4.711,0.000,0.000,-2.080,4.053,0.451,0.516,3.200,3.266,4.183,4.384,4.485,1.999,5.882,5.284,1.571,0.000,0.000,-2.409,4.068,0.451,0.519,3.138,3.124,
149.549,160.400,-2.235,4.210,4.760,0.659,1.080,0.000,0.000,1.787,1.622,4.442,3.794,1.217,0.791,0.821,0.000,0.000,2.369,0.000,0.000,0.000,0.000,0.000,0.000,0.000,0.000,0.000,0.000,0.000,3.142,0.001,0.000,2.100,1.898,1.799,4.286,0.398,1.000,4.711,0.000,0.000,-2.061,4.004,0.451,0.519,3.147,3.157,4.182,4.384,4.485,1.999,5.882,5.284,1.571,0.000,0.000,-2.389,3.988,0.451,0.516,3.085,3.016,
149.660,160.512,-2.230,4.144,4.848,0.702,1.010,0.000,0.000,1.751,1.949,4.305,3.892,1.109,0.781,0.859,0.000,0.000,2.299,0.000,0.000,0.000,0.000,0.000,0.000,0.000,0.000,0.000,0.000,0.000,3.142,0.001,0.000,2.101,1.898,1.799,4.286,0.399,0.999,4.711,0.000,0.000,-2.038,3.954,0.451,0.517,3.096,3.056,4.183,4.384,4.485,1.999,5.882,5.283,1.571,0.000,0.000,-2.364,3.909,0.451,0.509,3.035,2.915,
149.760,160.612,-2.222,4.089,4.917,0.716,1.021,0.000,0.000,1.728,1.752,4.233,3.994,1.049,0.783,0.902,0.000,0.000,2.264,0.000,0.000,0.000,0.000,0.000,0.000,0.000,0.000,0.000,0.000,0.000,3.142,0.001,0.000,2.100,1.898,1.799,4.286,0.399,1.000,4.711,0.000,0.000,-2.017,3.912,0.451,0.512,3.058,2.977,4.183,4.384,4.485,1.999,5.882,5.284,1.571,0.000,0.000,-2.339,3.845,0.451,0.501,2.997,2.838,
149.855,160.707,-2.202,4.009,5.023,0.690,1.048,0.000,0.000,1.702,2.142,4.161,1.577,0.987,0.798,0.991,0.000,0.000,2.159,0.000,0.000,0.000,0.000,0.000,0.000,0.000,0.000,0.000,0.000,0.000,3.142,0.001,0.000,2.100,1.898,1.799,4.286,0.398,1.000,4.711,0.000,0.000,-1.980,3.854,0.451,0.501,2.999,2.857,4.183,4.384,4.485,1.999,5.882,5.284,1.571,0.000,0.000,-2.293,3.754,0.451,0.483,2.942,2.720,
149.960,160.812,-2.185,3.958,5.094,0.684,1.042,0.000,0.000,1.692,1.221,4.138,4.355,0.961,0.818,1.071,0.000,0.000,2.124,0.000,0.000,0.000,0.000,0.000,0.000,0.000,0.000,0.000,0.000,0.000,3.142,0.001,0.000,2.100,1.898,1.799,4.286,0.399,1.000,4.711,0.000,0.000,-1.952,3.820,0.451,0.489,2.961,2.777,4.183,4.384,4.485,1.999,5.882,5.284,1.571,0.000,0.000,-2.258,3.697,0.451,0.467,2.906,2.642,
150.050,160.901,-2.152,3.884,5.199,0.697,1.036,0.000,0.000,1.685,1.255,4.141,1.812,0.943,0.862,1.232,0.000,0.000,1.948,0.000,0.000,0.000,0.000,0.000,0.000,0.000,0.000,0.000,0.000,0.000,3.142,0.001,0.000,2.100,1.898,1.799,4.286,0.399,1.000,4.711,0.000,0.000,-1.906,3.771,0.451,0.467,2.908,2.661,4.183,4.384,4.485,1.999,5.882,5.284,1.571,0.000,0.000,-2.197,3.617,0.451,0.440,2.856,2.528,
150.160,161.012,-2.114,3.817,5.263,0.937,0.289,3.000,0.000,1.671,1.291,4.187,1.692,0.957,0.913,1.382,0.000,0.000,1.948,0.000,0.000,0.000,0.000,0.000,0.000,0.000,0.000,0.000,0.000,0.000,3.142,6.282,6.283,2.103,1.898,1.797,4.285,0.399,0.998,4.710,0.000,0.000,-1.862,3.722,0.450,0.449,2.877,2.590,4.183,4.385,4.483,1.998,5.883,5.283,1.570,0.000,0.000,-2.142,3.549,0.451,0.420,2.827,2.458,
150.260,161.112,-2.058,3.726,5.265,1.174,0.001,2.887,0.000,1.614,0.000,4.278,1.794,1.017,0.971,1.074,0.000,0.000,2.018,0.000,0.000,0.000,0.000,0.000,0.000,0.000,0.000,0.000,0.000,0.000,3.142,6.282,0.000,2.101,1.897,1.798,4.285,0.398,0.999,4.711,0.000,0.000,-1.805,3.630,0.451,0.450,2.876,2.589,4.183,4.384,4.484,1.998,5.882,5.283,1.570,0.000,0.000,-2.085,3.457,0.451,0.419,2.827,2.458,
150.360,161.212,-2.000,3.632,5.265,1.045,0.001,2.779,0.000,1.553,0.000,4.373,1.906,1.080,1.031,0.951,0.000,0.000,1.983,0.000,0.000,0.000,0.000,0.000,0.000,0.000,0.000,0.000,0.000,0.000,3.142,6.283,0.000,2.099,1.897,1.799,4.285,0.398,1.000,4.712,0.000,0.000,-1.747,3.535,0.451,0.452,2.876,2.590,4.183,4.383,4.484,1.998,5.882,5.283,1.571,0.000,0.000,-2.027,3.362,0.451,0.420,2.827,2.459,
150.460,161.312,-1.950,3.550,5.265,0.926,0.001,2.687,0.000,1.501,1.942,4.454,2.001,1.134,1.083,0.846,0.000,0.000,2.053,0.000,0.000,0.000,0.000,0.000,0.000,0.000,0.000,0.000,0.000,0.000,3.142,6.283,0.000,2.100,1.897,1.798,4.285,0.398,1.000,4.711,0.000,0.000,-1.697,3.454,0.451,0.451,2.876,2.590,4.183,4.384,4.484,1.998,5.882,5.283,1.570,0.000,0.000,-1.977,3.281,0.451,0.420,2.827,2.458,
150.560,161.412,-1.901,3.471,5.265,0.996,0.000,2.597,0.000,1.451,2.238,4.534,2.095,1.187,1.133,0.742,0.000,0.000,3.071,0.000,0.000,0.000,0.000,0.000,0.000,0.000,0.000,0.000,0.000,0.000,3.142,6.282,0.000,2.101,1.897,1.798,4.285,0.398,0.999,4.711,0.000,0.000,-1.648,3.375,0.451,0.450,2.876,2.589,4.183,4.384,4.484,1.998,5.882,5.283,1.570,0.000,0.000,-1.928,3.202,0.451,0.419,2.827,2.458,
150.660,161.512,-1.847,3.384,5.264,1.055,0.000,2.499,0.000,1.395,1.777,4.620,2.198,1.245,1.188,0.786,0.000,0.000,3.071,0.000,0.000,0.000,0.000,0.000,0.000,0.000,0.000,0.000,0.000,0.000,3.142,6.282,0.000,2.101,1.897,1.798,4.285,0.398,0.999,4.711,0.000,0.000,-1.595,3.288,0.451,0.451,2.876,2.590,4.183,4.384,4.484,1.998,5.882,5.283,1.570,0.000,0.000,-1.874,3.115,0.451,0.420,2.827,2.459,
150.760,161.612,-1.794,3.297,5.264,1.018,6.283,2.399,0.000,1.339,2.066,4.708,2.301,1.303,1.243,0.870,0.000,0.000,3.071,0.000,0.000,0.000,0.000,0.000,0.000,0.000,0.000,0.000,0.000,0.000,3.142,6.283,0.000,2.100,1.897,1.798,4.285,0.398,1.000,4.711,0.000,0.000,-1.541,3.200,0.451,0.451,2.876,2.590,4.183,4.384,4.484,1.998,5.882,5.283,1.570,0.000,0.000,-1.821,3.028,0.451,0.420,2.827,2.459,
150.860,161.712,-1.742,3.213,5.264,0.988,6.283,2.304,0.000,1.286,1.983,4.792,2.400,1.358,1.296,0.950,0.000,0.000,3.071,0.000,0.000,0.000,0.000,0.000,0.000,0.000,0.000,0.000,0.000,0.000,3.142,6.282,0.000,2.100,1.897,1.798,4.285,0.398,1.000,4.711,0.000,0.000,-1.489,3.117,0.451,0.451,2.876,2.590,4.183,4.384,4.484,1.998,5.882,5.283,1.570,0.000,0.000,-1.769,2.944,0.451,0.420,2.827,2.459,
150.960,161.812,-1.692,3.131,5.266,0.937,0.223,2.203,0.000,1.235,1.908,4.873,2.487,1.412,0.947,1.031,0.000,0.000,3.071,0.000,0.000,0.000,0.000,0.000,0.000,0.000,0.000,0.000,0.000,0.000,3.142,0.001,0.000,2.099,1.897,1.799,4.285,0.398,1.000,4.712,0.000,0.000,-1.439,3.035,0.451,0.452,2.875,2.589,4.183,4.383,4.485,1.998,5.882,5.284,1.571,0.000,0.000,-1.719,2.862,0.451,0.420,2.827,2.458,
151.060,161.912,-1.646,3.059,5.333,0.815,1.300,1.924,0.000,1.212,2.006,4.942,2.329,1.426,0.740,1.559,0.000,0.000,3.001,0.000,0.000,0.000,0.000,0.000,0.000,0.000,0.000,0.000,0.000,0.000,3.142,0.002,0.000,2.099,1.898,1.800,4.286,0.398,1.000,4.711,0.000,0.000,-1.388,2.979,0.451,0.434,2.846,2.519,4.182,4.384,4.486,1.999,5.882,5.284,1.571,0.000,0.000,-1.656,2.788,0.451,0.399,2.800,2.390,
151.160,162.012,-1.597,2.996,5.452,0.838,1.244,1.525,0.000,1.219,2.337,0.000,2.081,1.431,0.829,1.376,0.000,0.000,2.896,0.000,0.000,0.000,0.000,0.000,0.000,0.000,0.000,0.000,0.000,0.000,3.142,0.001,0.000,2.101,1.898,1.799,4.286,0.399,0.999,4.711,0.000,0.000,-1.332,2.948,0.451,0.394,2.796,2.394,4.182,4.385,4.485,1.999,5.883,5.283,1.571,0.000,0.000,-1.574,2.726,0.451,0.356,2.755,2.269,
151.256,162.107,-1.538,2.933,5.539,0.905,0.863,1.416,0.000,1.208,2.052,0.000,1.988,1.472,0.936,1.587,0.000,0.000,2.826,0.000,0.000,0.000,0.000,0.000,0.000,0.000,0.000,0.000,0.000,0.000,3.142,0.001,0.000,2.101,1.898,1.799,4.286,0.399,0.999,4.711,0.000,0.000,-1.269,2.909,0.451,0.363,2.764,2.307,4.183,4.384,4.484,1.999,5.882,5.283,1.571,0.000,0.000,-1.491,2.667,0.451,0.322,2.727,2.184,
151.360,162.212,-1.477,2.879,5.591,0.671,0.252,1.419,0.000,1.175,2.257,0.000,1.978,1.526,1.038,1.970,0.000,0.000,2.755,0.000,0.000,0.000,0.000,0.000,0.000,0.000,0.000,0.000,0.000,0.000,3.142,0.002,0.001,2.098,1.897,1.799,4.286,0.398,1.001,4.712,0.000,0.000,-1.206,2.868,0.451,0.345,2.745,2.257,4.183,4.383,4.485,1.999,5.882,5.284,1.571,0.000,0.000,-1.416,2.615,0.452,0.301,2.711,2.135,
151.446,162.298,-1.439,2.848,5.593,0.404,6.283,1.372,0.000,1.130,2.064,0.000,2.025,1.564,1.085,2.366,0.000,0.000,2.791,0.000,0.000,0.000,0.000,0.000,0.000,0.000,0.000,0.000,0.000,0.000,3.142,6.283,0.000,2.099,1.897,1.799,4.285,0.398,1.000,4.712,0.000,0.000,-1.168,2.838,0.451,0.344,2.744,2.254,4.183,4.383,4.484,1.998,5.882,5.283,1.571,0.000,0.000,-1.378,2.584,0.451,0.300,2.711,2.132,
151.560,162.412,-1.413,2.827,5.593,0.490,6.283,1.338,0.000,1.100,2.063,0.000,2.058,0.938,1.115,2.437,0.000,0.000,2.791,0.000,0.000,0.000,0.000,0.000,0.000,0.000,0.000,0.000,0.000,0.000,3.142,6.282,0.000,2.101,1.897,1.798,4.285,0.398,0.999,4.711,0.000,0.000,-1.143,2.818,0.451,0.342,2.745,2.253,4.183,4.384,4.484,1.998,5.882,5.283,1.570,0.000,0.000,-1.352,2.564,0.451,0.299,2.711,2.131,
151.660,162.512,-1.359,2.782,5.593,0.666,0.000,1.266,0.000,1.035,2.518,0.000,2.128,0.992,1.179,4.586,0.000,0.000,2.791,0.000,0.000,0.000,0.000,0.000,0.000,0.000,0.000,0.000,0.000,0.000,3.142,6.282,0.000,2.101,1.897,1.798,4.285,0.398,0.999,4.711,0.000,0.000,-1.089,2.773,0.451,0.343,2.745,2.253,4.183,4.384,4.484,1.998,5.882,5.283,1.570,0.000,0.000,-1.298,2.519,0.451,0.299,2.711,2.132,
151.760,162.612,-1.315,2.745,5.609,0.489,0.689,1.242,0.000,0.992,2.502,0.000,2.157,1.036,1.708,4.927,0.000,0.000,2.791,0.000,0.000,0.000,0.000,0.000,0.000,0.000,0.000,0.000,0.000,0.000,3.142,0.002,0.000,2.098,1.897,1.800,4.285,0.397,1.001,4.712,0.000,0.000,-1.044,2.739,0.452,0.339,2.739,2.239,4.183,4.383,4.486,1.998,5.882,5.284,1.571,0.000,0.000,-1.250,2.482,0.451,0.294,2.707,2.118,
151.860,162.712,-1.283,2.722,5.711,0.368,1.473,2.332,0.000,1.032,2.412,0.000,2.041,1.069,1.452,4.356,0.000,0.000,2.685,0.000,0.000,0.000,0.000,0.000,0.000,0.000,0.000,0.000,0.000,0.000,3.142,0.002,0.000,2.100,1.898,1.799,4.286,0.398,1.000,4.711,0.000,0.000,-1.014,2.743,0.451,0.296,2.709,2.140,4.182,4.384,4.485,1.999,5.882,5.284,1.571,0.000,0.000,-1.192,2.467,0.451,0.249,2.681,2.022,
151.960,162.812,-1.257,2.706,5.808,0.435,1.241,2.391,0.000,1.094,0.000,0.000,1.959,1.106,1.430,0.000,0.000,0.000,2.580,0.000,0.000,0.000,0.000,0.000,0.000,0.000,0.000,0.000,0.000,0.000,3.142,0.001,0.000,2.101,1.898,1.798,4.285,0.399,0.999,4.711,0.000,0.000,-0.992,2.754,0.451,0.253,2.684,2.048,4.182,4.384,4.484,1.999,5.883,5.283,1.570,0.000,0.000,-1.142,2.461,0.451,0.204,2.661,1.932,
152.060,162.912,-1.205,2.681,5.912,0.530,0.903,4.564,0.000,1.148,0.000,3.167,1.926,1.185,1.560,0.000,0.000,0.000,2.475,0.000,0.000,0.000,0.000,0.000,0.000,0.000,0.000,0.000,0.000,0.000,3.142,0.001,0.000,2.101,1.898,1.799,4.286,0.398,1.000,4.711,0.000,0.000,-0.945,2.757,0.451,0.207,2.663,1.954,4.183,4.384,4.485,1.999,5.882,5.284,1.571,0.000,0.000,-1.064,2.450,0.451,0.156,2.644,1.840,
152.141,162.993,-1.158,2.665,5.994,0.475,1.064,0.000,0.000,1.204,2.105,2.911,1.921,1.265,1.827,4.889,0.000,0.000,2.404,0.000,0.000,0.000,0.000,0.000,0.000,0.000,0.000,0.000,0.000,0.000,3.142,0.001,0.000,2.100,1.898,1.799,4.286,0.398,1.000,4.711,0.000,0.000,-0.906,2.761,0.451,0.169,2.649,1.880,4.183,4.384,4.485,1.999,5.882,5.284,1.571,0.000,0.000,-1.000,2.446,0.451,0.117,2.635,1.767,
152.260,163.112,-1.125,2.656,6.069,0.442,1.099,0.000,0.000,1.295,0.000,2.722,1.919,1.341,2.331,4.720,0.000,0.000,2.334,0.000,0.000,0.000,0.000,0.000,0.000,0.000,0.000,0.000,0.000,0.000,3.142,0.001,0.000,2.100,1.898,1.799,4.286,0.398,1.000,4.711,0.000,0.000,-0.880,2.770,0.451,0.133,2.639,1.813,4.182,4.384,4.485,1.999,5.882,5.284,1.571,0.000,0.000,-0.950,2.449,0.451,0.080,2.628,1.701,
152.360,163.212,-1.059,2.643,6.119,0.996,0.055,0.000,0.000,1.276,0.000,2.680,1.308,2.174,4.273,4.535,0.000,0.000,2.299,4.503,0.000,0.000,0.000,0.000,0.000,0.000,0.000,0.000,0.000,0.000,3.142,6.280,6.283,2.105,1.898,1.796,4.285,0.399,0.997,4.709,0.000,0.000,-0.823,2.772,0.450,0.105,2.636,1.766,4.182,4.385,4.482,1.997,5.883,5.283,1.570,0.000,0.000,-0.875,2.447,0.451,0.053,2.626,1.655,
152.460,163.312,-0.916,2.620,6.119,1.272,0.001,0.000,0.000,0.949,2.181,2.878,1.453,1.830,4.586,4.680,0.000,0.000,2.334,0.000,0.000,0.000,0.000,0.000,0.000,0.000,0.000,0.000,0.000,0.000,3.142,6.283,0.000,2.100,1.897,1.798,4.285,0.398,1.000,4.711,0.000,0.000,-0.678,2.747,0.451,0.108,2.633,1.769,4.183,4.384,4.484,1.998,5.882,5.283,1.570,0.000,0.000,-0.731,2.422,0.451,0.055,2.625,1.658,
152.560,163.412,-0.808,2.602,6.119,0.951,0.001,0.000,0.000,0.588,0.000,3.028,1.563,1.790,4.824,4.018,0.000,0.000,2.369,0.000,0.000,0.000,0.000,0.000,0.000,0.000,0.000,0.000,0.000,0.000,3.142,0.001,0.001,2.098,1.897,1.799,4.285,0.398,1.001,4.712,0.000,0.000,-0.568,2.728,0.451,0.109,2.632,1.770,4.183,4.383,4.485,1.998,5.882,5.283,1.571,0.000,0.000,-0.623,2.404,0.452,0.056,2.625,1.659,
152.650,163.502,-0.723,2.587,6.118,0.878,0.000,0.000,0.000,0.485,0.000,3.146,1.650,1.759,0.000,1.397,0.000,0.000,2.369,0.000,0.000,0.000,0.000,0.000,0.000,0.000,0.000,0.000,0.000,0.000,3.142,6.282,0.000,2.101,1.897,1.798,4.285,0.398,0.999,4.711,0.000,0.000,-0.484,2.715,0.451,0.108,2.633,1.769,4.183,4.384,4.484,1.998,5.882,5.283,1.570,0.000,0.000,-0.538,2.390,0.451,0.055,2.626,1.657,
152.760,163.612,-0.649,2.575,6.118,1.014,0.000,0.000,0.000,0.499,0.000,3.248,1.724,1.809,0.000,0.625,0.000,0.000,2.404,0.000,0.000,0.000,0.000,0.000,0.000,0.000,0.000,0.000,0.000,0.000,3.142,6.281,0.000,2.102,1.898,1.798,4.285,0.398,0.999,4.711,0.000,0.000,-0.411,2.703,0.451,0.108,2.634,1.768,4.183,4.384,4.483,1.997,5.882,5.283,1.570,0.000,0.000,-0.465,2.378,0.451,0.055,2.626,1.657,
152.860,163.712,-0.525,2.555,6.118,1.078,0.000,0.000,0.000,2.316,0.000,3.421,1.851,1.948,4.555,0.569,0.000,0.000,2.404,0.000,0.000,0.000,0.000,0.000,0.000,0.000,0.000,0.000,0.000,0.000,3.142,6.282,0.000,2.100,1.897,1.798,4.285,0.398,1.000,4.711,0.000,0.000,-0.286,2.682,0.451,0.109,2.633,1.769,4.183,4.384,4.484,1.998,5.882,5.283,1.570,0.000,0.000,-0.340,2.357,0.451,0.055,2.625,1.658,
152.960,163.812,-0.424,2.538,6.118,0.992,0.001,0.000,0.000,2.335,0.493,3.560,1.952,2.061,4.536,0.564,0.000,0.000,2.440,0.000,0.000,0.000,0.000,0.000,0.000,0.000,0.000,0.000,0.000,0.000,3.142,6.283,0.000,2.100,1.897,1.799,4.285,0.398,1.000,4.711,0.000,0.000,-0.185,2.665,0.451,0.109,2.633,1.770,4.183,4.384,4.484,1.998,5.882,5.283,1.570,0.000,0.000,-0.239,2.340,0.451,0.055,2.625,1.658,
153.054,163.905,-0.329,2.522,6.118,0.977,6.283,0.000,0.000,2.353,0.509,3.692,2.048,2.129,4.519,0.595,0.000,0.000,2.440,0.000,0.000,0.000,0.000,0.000,0.000,0.000,0.000,0.000,0.000,0.000,3.142,6.282,0.000,2.101,1.897,1.798,4.285,0.398,1.000,4.711,0.000,0.000,-0.091,2.649,0.451,0.109,2.633,1.769,4.183,4.384,4.484,1.998,5.882,5.283,1.570,0.000,0.000,-0.145,2.325,0.451,0.055,2.626,1.658,
153.152,164.004,-0.233,2.506,6.118,1.022,0.000,0.000,0.000,2.371,0.668,3.826,2.147,2.185,0.576,0.639,0.000,0.000,2.440,0.000,0.000,0.000,0.000,0.000,0.000,0.000,0.000,0.000,0.000,0.000,3.142,6.282,0.000,2.101,1.897,1.798,4.285,0.398,0.999,4.711,0.000,0.000,0.006,2.633,0.451,0.109,2.633,1.770,4.183,4.384,4.484,1.998,5.882,5.283,1.570,0.000,0.000,-0.048,2.309,0.451,0.055,2.626,1.658,
153.260,164.112,-0.133,2.489,6.117,1.028,6.283,0.000,0.000,2.390,1.523,3.965,2.248,2.297,0.557,0.685,0.000,0.000,2.475,0.000,0.000,0.000,0.000,0.000,0.000,0.000,0.000,0.000,0.000,0.000,3.142,6.282,0.000,2.100,1.897,1.798,4.285,0.398,1.000,4.711,0.000,0.000,0.106,2.616,0.451,0.109,2.633,1.770,4.183,4.384,4.484,1.998,5.882,5.283,1.570,0.000,0.000,0.052,2.292,0.451,0.055,2.626,1.659,
153.360,164.212,-0.053,2.476,6.117,1.009,0.001,0.000,0.000,2.405,1.975,4.075,2.328,2.385,0.560,0.721,0.000,0.000,2.475,0.000,0.000,0.000,0.000,0.000,0.000,0.000,0.000,0.000,0.000,0.000,3.142,6.282,0.000,2.100,1.897,1.798,4.285,0.398,1.000,4.711,0.000,0.000,0.186,2.603,0.451,0.109,2.633,1.770,4.183,4.384,4.484,1.998,5.882,5.283,1.570,0.000,0.000,0.131,2.279,0.451,0.056,2.625,1.659,
153.460,164.312,0.063,2.456,6.117,1.002,6.283,0.000,0.000,1.806,2.642,0.821,2.447,2.516,0.602,0.775,0.000,0.000,0.755,0.000,0.000,0.000,0.000,0.000,0.000,0.000,0.000,0.000,0.000,0.000,3.142,6.282,0.000,2.100,1.897,1.798,4.285,0.398,1.000,4.711,0.000,0.000,0.302,2.583,0.451,0.109,2.633,1.770,4.183,4.384,4.484,1.998,5.882,5.283,1.570,0.000,0.000,0.248,2.259,0.451,0.056,2.626,1.659,
153.560,164.927,0.161,2.440,6.117,1.014,6.283,0.000,0.000,1.771,3.007,0.844,2.546,2.625,0.637,0.819,0.000,0.000,0.755,0.000,0.000,0.000,0.000,0.000,0.000,0.000,0.000,0.000,0.000,0.000,3.142,6.282,0.000,2.100,1.897,1.798,4.285,0.398,1.000,4.711,0.000,0.000,0.400,2.567,0.451,0.109,2.633,1.770,4.183,4.384,4.484,1.998,5.882,5.283,1.570,0.000,0.000,0.346,2.243,0.451,0.056,2.626,1.659,
153.660,165.027,0.260,2.423,6.117,1.015,6.283,4.932,0.000,1.736,3.023,0.868,2.646,2.735,0.672,0.864,0.000,0.000,0.755,0.000,0.000,0.000,0.000,0.000,0.000,0.000,0.000,0.000,0.000,0.000,3.142,6.282,0.000,2.100,1.897,1.798,4.285,0.398,1.000,4.711,0.000,0.000,0.499,2.550,0.451,0.109,2.633,1.770,4.183,4.384,4.484,1.998,5.882,5.283,1.570,0.000,0.000,0.444,2.226,0.451,0.056,2.626,1.659,
153.760,165.127,0.358,2.407,6.117,1.009,0.000,4.832,0.000,1.701,3.040,0.980,2.746,0.923,0.707,0.909,0.000,0.000,0.755,0.000,0.000,0.000,0.000,0.000,0.000,0.000,0.000,0.000,0.000,0.000,3.142,6.282,0.000,2.100,1.897,1.798,4.285,0.398,1.000,4.711,0.000,0.000,0.597,2.534,0.451,0.109,2.633,1.770,4.183,4.384,4.484,1.998,5.882,5.283,1.570,0.000,0.000,0.543,2.209,0.451,0.056,2.626,1.659,
153.860,165.253,0.436,2.394,6.117,1.008,6.283,4.753,0.000,1.673,3.053,1.088,2.825,0.893,0.734,0.945,0.000,0.000,0.755,0.000,0.000,0.000,0.000,0.000,0.000,0.000,0.000,0.000,0.000,0.000,3.142,6.282,0.000,2.100,1.897,1.798,4.285,0.398,1.000,4.711,0.000,0.000,0.675,2.521,0.451,0.109,2.633,1.771,4.183,4.384,4.484,1.998,5.882,5.283,1.570,0.000,0.000,0.621,2.196,0.451,0.056,2.626,1.659,
153.960,165.353,0.554,2.374,6.117,1.012,6.283,4.634,0.000,1.631,3.073,1.320,2.945,0.928,0.776,0.928,0.000,0.000,0.755,0.000,0.000,0.000,0.000,0.000,0.000,0.000,0.000,0.000,0.000,0.000,3.142,6.282,0.000,2.100,1.897,1.798,4.285,0.398,1.000,4.711,0.000,0.000,0.793,2.501,0.451,0.109,2.633,1.771,4.183,4.384,4.484,1.998,5.882,5.283,1.570,0.000,0.000,0.739,2.177,0.451,0.056,2.626,1.659,
154.060,165.453,0.652,2.358,6.116,1.012,6.283,4.535,0.000,1.771,3.090,1.456,3.044,0.970,0.811,0.716,0.000,0.000,0.755,0.000,0.000,0.000,0.000,0.000,0.000,0.000,0.000,0.000,0.000,0.000,3.142,6.282,0.000,2.100,1.897,1.798,4.285,0.398,1.000,4.711,0.000,0.000,0.891,2.484,0.451,0.109,2.633,1.771,4.183,4.384,4.484,1.998,5.882,5.283,1.570,0.000,0.000,0.837,2.160,0.451,0.056,2.626,1.659,
154.142,165.534,0.750,2.341,6.116,1.010,6.283,4.436,0.000,3.018,3.107,1.592,3.144,1.011,0.846,0.700,0.000,0.000,0.755,0.000,0.000,0.000,0.000,0.000,0.000,0.000,0.000,0.000,0.000,0.000,3.142,6.282,0.000,2.100,1.897,1.798,4.285,0.398,1.000,4.711,0.000,0.000,0.989,2.468,0.451,0.109,2.633,1.771,4.183,4.384,4.484,1.998,5.882,5.283,1.570,0.000,0.000,0.935,2.143,0.451,0.056,2.626,1.660,
154.260,165.653,0.825,2.328,6.116,0.484,6.283,4.360,0.000,2.847,3.120,1.697,3.220,1.043,0.872,0.687,0.000,0.000,0.755,0.000,0.000,0.000,0.000,0.000,0.000,0.000,0.000,0.000,0.000,0.000,3.142,0.002,0.001,2.097,1.897,1.800,4.285,0.397,1.002,4.713,0.000,0.000,1.066,2.454,0.452,0.111,2.632,1.773,4.184,4.382,4.485,1.999,5.881,5.284,1.571,0.000,0.000,1.011,2.130,0.452,0.058,2.624,1.662,
154.360,165.753,0.840,2.326,6.111,-0.052,5.972,4.348,0.000,2.786,2.344,1.725,3.238,1.053,0.877,0.684,0.000,0.000,0.755,0.000,0.000,0.000,0.000,0.000,0.000,0.000,0.000,0.000,0.000,0.000,3.142,0.001,0.001,2.097,1.897,1.799,4.285,0.397,1.002,4.713,0.000,0.000,1.081,2.451,0.452,0.113,2.632,1.777,4.184,4.382,4.485,1.999,5.881,5.283,1.570,0.000,0.000,1.025,2.127,0.452,0.059,2.624,1.665,
154.460,165.853,0.827,2.328,6.031,-0.002,5.027,4.431,0.000,3.584,2.317,1.856,3.952,1.110,0.873,0.680,0.000,0.000,0.755,0.000,0.000,0.000,0.000,0.000,0.000,0.000,0.000,0.000,0.000,0.000,3.142,6.278,6.283,2.104,1.898,1.796,4.285,0.399,0.997,4.709,0.000,0.000,1.075,2.436,0.450,0.148,2.644,1.843,4.182,4.385,4.482,1.998,5.882,5.283,1.570,0.000,0.000,0.994,2.117,0.451,0.096,2.632,1.732,
154.550,165.943,0.871,2.316,5.982,0.872,5.972,4.346,0.000,3.296,2.321,2.040,4.054,1.172,0.887,0.667,0.000,0.000,0.790,0.000,0.000,0.000,0.000,0.000,0.000,0.000,0.000,0.000,0.000,0.000,3.142,6.277,6.283,2.106,1.898,1.796,4.285,0.399,0.996,4.708,0.000,0.000,1.123,2.412,0.450,0.171,2.652,1.886,4.181,4.386,4.481,1.996,5.883,5.283,1.570,0.000,0.000,1.027,2.097,0.450,0.119,2.638,1.774,
154.660,166.053,1.014,2.272,5.975,1.427,0.009,4.086,0.000,3.007,1.751,2.290,4.213,1.223,0.921,0.622,0.000,0.000,0.790,0.000,0.000,0.000,0.000,0.000,0.000,0.000,0.000,0.000,0.000,0.000,3.142,6.282,0.000,2.101,1.897,1.798,4.285,0.398,0.999,4.711,0.000,0.000,1.268,2.364,0.451,0.177,2.652,1.896,4.183,4.384,4.484,1.998,5.882,5.283,1.571,0.000,0.000,1.169,2.050,0.451,0.125,2.637,1.784,
154.748,166.140,1.110,2.241,5.975,1.092,6.282,3.982,0.000,3.043,1.726,2.445,4.314,1.252,0.942,0.591,0.000,0.000,0.755,0.000,0.000,0.000,0.000,0.000,0.000,0.000,0.000,0.000,0.000,0.000,3.142,0.002,0.001,2.097,1.897,1.800,4.285,0.397,1.002,4.712,0.000,0.000,1.366,2.332,0.452,0.179,2.650,1.898,4.184,4.382,4.485,1.998,5.881,5.284,1.571,0.000,0.000,1.266,2.019,0.452,0.127,2.636,1.785,
154.860,166.253,1.194,2.214,5.976,0.789,0.117,3.902,0.000,3.073,1.705,2.578,4.400,1.276,0.690,0.564,0.000,0.000,0.755,0.000,0.000,0.000,0.000,0.000,0.000,0.000,0.000,0.000,0.000,0.000,3.142,0.001,0.000,2.099,1.897,1.799,4.285,0.398,1.000,4.712,0.000,0.000,1.449,2.306,0.451,0.178,2.651,1.896,4.183,4.383,4.485,1.998,5.882,5.284,1.571,0.000,0.000,1.350,1.993,0.451,0.125,2.637,1.783,
154.960,166.353,1.275,2.190,6.030,0.975,1.200,3.972,0.000,2.998,1.743,2.539,4.416,1.244,0.637,0.541,0.000,0.000,0.755,0.000,0.000,0.000,0.000,0.000,0.000,0.000,0.000,0.000,0.000,0.000,3.142,0.000,6.283,2.101,1.898,1.799,4.286,0.399,0.999,4.711,0.000,0.000,1.524,2.295,0.451,0.152,2.644,1.847,4.182,4.385,4.485,1.998,5.882,5.284,1.571,0.000,0.000,1.441,1.976,0.451,0.099,2.632,1.735,
155.050,166.443,1.378,2.166,6.151,1.122,1.345,3.845,0.000,3.245,1.878,2.384,3.761,1.180,0.570,0.526,0.000,0.000,0.755,0.000,0.000,0.000,0.000,0.000,0.000,0.000,0.000,0.000,0.000,0.000,3.142,0.001,0.000,2.101,1.899,1.799,4.286,0.399,0.999,4.711,0.000,0.000,1.612,2.300,0.451,0.093,2.631,1.740,4.182,4.385,4.485,1.999,5.883,5.283,1.571,0.000,0.000,1.569,1.974,0.451,0.040,2.624,1.630,
155.149,166.542,1.485,2.155,6.232,1.035,0.358,4.918,0.000,3.444,1.970,2.365,3.840,0.920,0.539,1.095,0.000,0.000,0.755,0.000,0.000,0.000,0.000,0.000,0.000,0.000,0.000,0.000,0.000,0.000,3.142,0.001,0.000,2.100,1.898,1.799,4.286,0.398,1.000,4.711,0.000,0.000,1.708,2.308,0.451,0.053,2.626,1.670,4.183,4.384,4.484,1.999,5.882,5.283,1.571,0.000,0.000,1.692,1.979,0.452,6.282,2.622,1.560,
155.251,166.644,1.601,2.149,6.234,0.957,0.001,4.802,0.000,3.447,1.898,2.505,3.955,0.906,0.532,1.090,0.000,0.000,0.755,0.000,0.000,0.000,0.000,0.000,0.000,0.000,0.000,0.000,0.000,0.000,3.142,6.282,0.000,2.101,1.897,1.798,4.285,0.398,0.999,4.711,0.000,0.000,1.823,2.303,0.451,0.051,2.625,1.667,4.183,4.384,4.484,1.998,5.882,5.283,1.570,0.000,0.000,1.807,1.974,0.451,6.281,2.623,1.557,
155.357,166.750,1.677,2.145,6.234,0.999,0.001,4.725,0.000,3.098,1.846,2.602,4.032,0.900,0.528,1.086,0.000,0.000,2.826,0.000,0.000,0.000,0.000,0.000,0.000,0.000,0.000,0.000,0.000,0.000,3.142,6.282,0.000,2.101,1.897,1.798,4.285,0.398,0.999,4.711,0.000,0.000,1.900,2.299,0.451,0.051,2.625,1.668,4.183,4.384,4.484,1.998,5.882,5.283,1.570,0.000,0.000,1.884,1.971,0.451,6.281,2.623,1.557,
155.455,166.848,1.799,2.139,6.233,1.039,0.001,4.604,0.000,2.775,1.764,2.754,4.154,0.890,0.855,1.080,0.000,0.000,2.896,0.000,0.000,0.000,0.000,0.000,0.000,0.000,0.000,0.000,0.000,0.000,3.142,6.282,0.000,2.101,1.897,1.798,4.285,0.398,0.999,4.711,0.000,0.000,2.021,2.293,0.451,0.052,2.625,1.668,4.183,4.384,4.484,1.998,5.882,5.283,1.570,0.000,0.000,2.005,1.964,0.451,6.281,2.623,1.558,
155.560,166.953,1.899,2.134,6.223,1.009,5.747,4.505,0.000,2.791,1.818,2.904,4.257,0.895,1.108,1.071,0.000,0.000,2.966,0.000,0.000,0.000,0.000,0.000,0.000,0.000,0.000,0.000,0.000,0.000,3.142,6.281,0.001,2.101,1.897,1.797,4.285,0.398,0.999,4.711,0.000,0.000,2.123,2.286,0.451,0.056,2.626,1.677,4.183,4.384,4.483,1.998,5.882,5.283,1.570,0.000,0.000,2.104,1.958,0.451,0.002,2.622,1.566,
155.660,167.052,1.978,2.129,6.157,0.994,5.045,3.723,0.000,1.979,2.049,3.171,4.363,0.988,1.133,1.049,0.000,0.000,3.071,0.000,0.000,0.000,0.000,0.000,0.000,0.000,0.000,0.000,0.000,0.000,3.142,6.280,0.001,2.101,1.897,1.798,4.285,0.398,0.999,4.711,0.000,0.000,2.211,2.266,0.451,0.089,2.630,1.734,4.183,4.383,4.483,1.998,5.882,5.283,1.570,0.000,0.000,2.171,1.939,0.452,0.035,2.624,1.624,
155.760,167.153,2.048,2.119,6.125,0.316,6.283,3.120,0.000,1.225,2.227,3.362,4.454,1.030,1.141,1.033,0.000,0.000,3.106,0.000,0.000,0.000,0.000,0.000,0.000,0.000,0.000,0.000,0.000,0.000,3.142,0.001,0.001,2.098,1.897,1.799,4.285,0.397,1.001,4.712,0.000,0.000,2.287,2.247,0.451,0.107,2.631,1.765,4.183,4.383,4.485,1.998,5.882,5.284,1.571,0.000,0.000,2.234,1.923,0.452,0.053,2.624,1.654,
155.857,167.250,2.063,2.117,6.125,0.117,0.000,3.105,0.000,1.206,2.249,3.383,4.469,1.024,1.138,1.031,0.000,0.000,3.106,0.000,0.000,0.000,0.000,0.000,0.000,0.000,0.000,0.000,0.000,0.000,3.142,0.000,0.000,2.099,1.897,1.799,4.285,0.398,1.000,4.712,0.000,0.000,2.301,2.245,0.451,0.106,2.632,1.764,4.183,4.383,4.485,1.998,5.882,5.283,1.571,0.000,0.000,2.249,1.921,0.451,0.052,2.625,1.653,
155.948,167.341,2.067,2.116,6.125,0.001,0.003,3.101,0.000,1.202,2.254,3.387,4.473,1.023,1.137,1.030,0.000,0.000,3.106,0.000,0.000,0.000,0.000,0.000,0.000,0.000,0.000,0.000,0.000,0.000,3.142,6.283,0.000,2.100,1.897,1.799,4.285,0.398,1.000,4.711,0.000,0.000,2.305,2.245,0.451,0.106,2.633,1.764,4.183,4.384,4.484,1.998,5.882,5.283,1.571,0.000,0.000,2.253,1.920,0.451,0.052,2.625,1.653,
156.060,167.453,2.067,2.116,6.125,0.001,0.004,3.101,0.000,1.202,2.254,3.387,4.473,1.023,1.137,1.030,0.000,0.000,3.106,0.000,0.000,0.000,0.000,0.000,0.000,0.000,0.000,0.000,0.000,0.000,3.142,6.283,0.000,2.100,1.897,1.799,4.285,0.398,1.000,4.711,0.000,0.000,2.305,2.245,0.451,0.106,2.633,1.764,4.183,4.384,4.484,1.998,5.882,5.284,1.571,0.000,0.000,2.253,1.920,0.451,0.052,2.625,1.653,
156.160,167.553,2.067,2.116,6.125,0.001,0.004,3.101,0.000,1.202,2.254,3.387,4.473,1.023,1.137,1.030,0.000,0.000,3.106,0.000,0.000,0.000,0.000,0.000,0.000,0.000,0.000,0.000,0.000,0.000,3.142,6.283,0.000,2.100,1.897,1.799,4.285,0.398,1.000,4.711,0.000,0.000,2.305,2.245,0.451,0.106,2.633,1.764,4.183,4.384,4.484,1.998,5.882,5.284,1.571,0.000,0.000,2.253,1.920,0.451,0.052,2.625,1.653,
156.249,167.642,2.067,2.116,6.125,0.001,0.004,3.101,0.000,1.202,2.254,3.387,4.473,1.023,1.137,1.030,0.000,0.000,3.106,0.000,0.000,0.000,0.000,0.000,0.000,0.000,0.000,0.000,0.000,0.000,3.142,6.283,0.000,2.100,1.897,1.799,4.285,0.398,1.000,4.711,0.000,0.000,2.305,2.245,0.451,0.106,2.633,1.764,4.183,4.384,4.484,1.998,5.882,5.284,1.571,0.000,0.000,2.253,1.920,0.451,0.052,2.625,1.653,
156.360,167.753,2.067,2.116,6.125,0.001,0.004,3.101,0.000,1.202,2.254,3.387,4.473,1.023,1.137,1.030,0.000,0.000,3.106,0.000,0.000,0.000,0.000,0.000,0.000,0.000,0.000,0.000,0.000,0.000,3.142,6.283,0.000,2.100,1.897,1.799,4.285,0.398,1.000,4.711,0.000,0.000,2.305,2.245,0.451,0.106,2.633,1.764,4.183,4.384,4.484,1.998,5.882,5.284,1.571,0.000,0.000,2.253,1.920,0.451,0.052,2.625,1.653,
156.446,167.839,2.067,2.116,6.125,0.001,0.004,3.101,0.000,1.202,2.254,3.387,4.473,1.023,1.137,1.030,0.000,0.000,3.106,0.000,0.000,0.000,0.000,0.000,0.000,0.000,0.000,0.000,0.000,0.000,3.142,6.283,0.000,2.100,1.897,1.799,4.285,0.398,1.000,4.711,0.000,0.000,2.305,2.245,0.451,0.106,2.633,1.764,4.183,4.384,4.484,1.998,5.882,5.284,1.571,0.000,0.000,2.253,1.920,0.451,0.052,2.625,1.653,
156.548,167.941,2.067,2.116,6.125,0.001,0.004,3.101,0.000,1.202,2.254,3.387,4.473,1.023,1.137,1.030,0.000,0.000,3.106,0.000,0.000,0.000,0.000,0.000,0.000,0.000,0.000,0.000,0.000,0.000,3.142,6.283,0.000,2.100,1.897,1.799,4.285,0.398,1.000,4.711,0.000,0.000,2.305,2.245,0.451,0.106,2.633,1.764,4.183,4.384,4.484,1.998,5.882,5.284,1.571,0.000,0.000,2.253,1.920,0.451,0.052,2.625,1.653,
156.651,168.044,2.067,2.116,6.125,0.001,0.004,3.101,0.000,1.202,2.254,3.387,4.473,1.023,1.137,1.030,0.000,0.000,3.106,0.000,0.000,0.000,0.000,0.000,0.000,0.000,0.000,0.000,0.000,0.000,3.142,6.283,0.000,2.100,1.897,1.799,4.285,0.398,1.000,4.711,0.000,0.000,2.305,2.245,0.451,0.106,2.633,1.764,4.183,4.384,4.484,1.998,5.882,5.284,1.571,0.000,0.000,2.253,1.920,0.451,0.052,2.625,1.653,
156.753,168.145,2.067,2.116,6.125,0.001,0.004,3.101,0.000,1.202,2.254,3.387,4.473,1.023,1.137,1.030,0.000,0.000,3.106,0.000,0.000,0.000,0.000,0.000,0.000,0.000,0.000,0.000,0.000,0.000,3.142,6.283,0.000,2.100,1.897,1.799,4.285,0.398,1.000,4.711,0.000,0.000,2.305,2.245,0.451,0.106,2.633,1.764,4.183,4.384,4.484,1.998,5.882,5.284,1.571,0.000,0.000,2.253,1.920,0.451,0.052,2.625,1.653,
156.860,168.253,2.067,2.116,6.125,0.001,0.004,3.101,0.000,1.202,2.254,3.387,4.473,1.023,1.137,1.030,0.000,0.000,3.106,0.000,0.000,0.000,0.000,0.000,0.000,0.000,0.000,0.000,0.000,0.000,3.142,6.283,0.000,2.100,1.897,1.799,4.285,0.398,1.000,4.711,0.000,0.000,2.305,2.245,0.451,0.106,2.633,1.764,4.183,4.384,4.484,1.998,5.882,5.284,1.571,0.000,0.000,2.253,1.920,0.451,0.052,2.625,1.653,
156.957,168.349,2.067,2.116,6.125,0.001,0.004,3.101,0.000,1.202,2.254,3.387,4.473,1.023,1.137,1.030,0.000,0.000,3.106,0.000,0.000,0.000,0.000,0.000,0.000,0.000,0.000,0.000,0.000,0.000,3.142,6.283,0.000,2.100,1.897,1.799,4.285,0.398,1.000,4.711,0.000,0.000,2.305,2.245,0.451,0.106,2.633,1.764,4.183,4.384,4.484,1.998,5.882,5.284,1.571,0.000,0.000,2.253,1.920,0.451,0.052,2.625,1.653,
157.060,168.453,2.067,2.116,6.125,0.001,0.004,3.101,0.000,1.202,2.254,3.387,4.473,1.023,1.137,1.030,0.000,0.000,3.106,0.000,0.000,0.000,0.000,0.000,0.000,0.000,0.000,0.000,0.000,0.000,3.142,6.283,0.000,2.100,1.897,1.799,4.285,0.398,1.000,4.711,0.000,0.000,2.305,2.245,0.451,0.106,2.633,1.764,4.183,4.384,4.484,1.998,5.882,5.284,1.571,0.000,0.000,2.253,1.920,0.451,0.052,2.625,1.653,
157.155,168.548,2.067,2.116,6.125,0.001,0.004,3.101,0.000,1.202,2.254,3.387,4.473,1.023,1.137,1.030,0.000,0.000,3.106,0.000,0.000,0.000,0.000,0.000,0.000,0.000,0.000,0.000,0.000,0.000,3.142,6.283,0.000,2.100,1.897,1.799,4.285,0.398,1.000,4.711,0.000,0.000,2.305,2.245,0.451,0.106,2.633,1.764,4.183,4.384,4.484,1.998,5.882,5.284,1.571,0.000,0.000,2.253,1.920,0.451,0.052,2.625,1.653,
157.260,168.653,2.067,2.116,6.125,0.001,0.004,3.101,0.000,1.202,2.254,3.387,4.473,1.023,1.137,1.030,0.000,0.000,3.106,0.000,0.000,0.000,0.000,0.000,0.000,0.000,0.000,0.000,0.000,0.000,3.142,6.283,0.000,2.100,1.897,1.799,4.285,0.398,1.000,4.711,0.000,0.000,2.305,2.245,0.451,0.106,2.633,1.764,4.183,4.384,4.484,1.998,5.882,5.284,1.571,0.000,0.000,2.253,1.920,0.451,0.052,2.625,1.653,
157.360,168.753,2.067,2.116,6.125,0.001,0.004,3.101,0.000,1.202,2.254,3.387,4.473,1.023,1.137,1.030,0.000,0.000,3.106,0.000,0.000,0.000,0.000,0.000,0.000,0.000,0.000,0.000,0.000,0.000,3.142,6.283,0.000,2.100,1.897,1.799,4.285,0.398,1.000,4.711,0.000,0.000,2.305,2.245,0.451,0.106,2.633,1.764,4.183,4.384,4.484,1.998,5.882,5.284,1.571,0.000,0.000,2.253,1.920,0.451,0.052,2.625,1.653,
157.441,168.833,2.067,2.116,6.125,0.001,0.004,3.101,0.000,1.202,2.254,3.387,4.473,1.023,1.137,1.030,0.000,0.000,3.106,0.000,0.000,0.000,0.000,0.000,0.000,0.000,0.000,0.000,0.000,0.000,3.142,6.283,0.000,2.100,1.897,1.799,4.285,0.398,1.000,4.711,0.000,0.000,2.305,2.245,0.451,0.106,2.633,1.764,4.183,4.384,4.484,1.998,5.882,5.284,1.571,0.000,0.000,2.253,1.920,0.451,0.052,2.625,1.653,
157.551,168.944,2.067,2.116,6.125,0.001,0.004,3.101,0.000,1.202,2.254,3.387,4.473,1.023,1.137,1.030,0.000,0.000,3.106,0.000,0.000,0.000,0.000,0.000,0.000,0.000,0.000,0.000,0.000,0.000,3.142,6.283,0.000,2.100,1.897,1.799,4.285,0.398,1.000,4.711,0.000,0.000,2.305,2.245,0.451,0.106,2.633,1.764,4.183,4.384,4.484,1.998,5.882,5.284,1.571,0.000,0.000,2.253,1.920,0.451,0.052,2.625,1.653,
157.654,169.047,2.067,2.116,6.125,0.001,0.004,3.101,0.000,1.202,2.254,3.387,4.473,1.023,1.137,1.030,0.000,0.000,3.106,0.000,0.000,0.000,0.000,0.000,0.000,0.000,0.000,0.000,0.000,0.000,3.142,6.283,0.000,2.100,1.897,1.799,4.285,0.398,1.000,4.711,0.000,0.000,2.305,2.245,0.451,0.106,2.633,1.764,4.183,4.384,4.484,1.998,5.882,5.284,1.571,0.000,0.000,2.253,1.920,0.451,0.052,2.625,1.653,
157.752,169.145,2.067,2.116,6.125,0.001,0.004,3.101,0.000,1.202,2.254,3.387,4.473,1.023,1.137,1.030,0.000,0.000,3.106,0.000,0.000,0.000,0.000,0.000,0.000,0.000,0.000,0.000,0.000,0.000,3.142,6.283,0.000,2.100,1.897,1.799,4.285,0.398,1.000,4.711,0.000,0.000,2.305,2.245,0.451,0.106,2.633,1.764,4.183,4.384,4.484,1.998,5.882,5.284,1.571,0.000,0.000,2.253,1.920,0.451,0.052,2.625,1.653,
157.860,169.253,2.067,2.116,6.125,0.001,0.004,3.101,0.000,1.202,2.254,3.387,4.473,1.023,1.137,1.030,0.000,0.000,3.106,0.000,0.000,0.000,0.000,0.000,0.000,0.000,0.000,0.000,0.000,0.000,3.142,6.283,0.000,2.100,1.897,1.799,4.285,0.398,1.000,4.711,0.000,0.000,2.305,2.245,0.451,0.106,2.633,1.764,4.183,4.384,4.484,1.998,5.882,5.284,1.571,0.000,0.000,2.253,1.920,0.451,0.052,2.625,1.653,
157.951,169.344,2.067,2.116,6.125,0.001,0.004,3.101,0.000,1.202,2.254,3.387,4.473,1.023,1.137,1.030,0.000,0.000,3.106,0.000,0.000,0.000,0.000,0.000,0.000,0.000,0.000,0.000,0.000,0.000,3.142,6.283,0.000,2.100,1.897,1.799,4.285,0.398,1.000,4.711,0.000,0.000,2.305,2.245,0.451,0.106,2.633,1.764,4.183,4.384,4.484,1.998,5.882,5.284,1.571,0.000,0.000,2.253,1.920,0.451,0.052,2.625,1.653,
158.056,169.449,2.067,2.116,6.125,0.001,0.004,3.101,0.000,1.202,2.254,3.387,4.473,1.023,1.137,1.030,0.000,0.000,3.106,0.000,0.000,0.000,0.000,0.000,0.000,0.000,0.000,0.000,0.000,0.000,3.142,6.283,0.000,2.100,1.897,1.799,4.285,0.398,1.000,4.711,0.000,0.000,2.305,2.245,0.451,0.106,2.633,1.764,4.183,4.384,4.484,1.998,5.882,5.284,1.571,0.000,0.000,2.253,1.920,0.451,0.052,2.625,1.653,
158.157,169.549,2.067,2.116,6.125,0.001,0.004,3.101,0.000,1.202,2.254,3.387,4.473,1.023,1.137,1.030,0.000,0.000,3.106,0.000,0.000,0.000,0.000,0.000,0.000,0.000,0.000,0.000,0.000,0.000,3.142,6.283,0.000,2.100,1.897,1.799,4.285,0.398,1.000,4.711,0.000,0.000,2.305,2.245,0.451,0.106,2.633,1.764,4.183,4.384,4.484,1.998,5.882,5.284,1.571,0.000,0.000,2.253,1.920,0.451,0.052,2.625,1.653,
158.248,169.641,2.067,2.116,6.125,0.001,0.004,3.101,0.000,1.202,2.254,3.387,4.473,1.023,1.137,1.030,0.000,0.000,3.106,0.000,0.000,0.000,0.000,0.000,0.000,0.000,0.000,0.000,0.000,0.000,3.142,6.283,0.000,2.100,1.897,1.799,4.285,0.398,1.000,4.711,0.000,0.000,2.305,2.245,0.451,0.106,2.633,1.764,4.183,4.384,4.484,1.998,5.882,5.284,1.571,0.000,0.000,2.253,1.920,0.451,0.052,2.625,1.653,
158.360,169.753,2.067,2.116,6.125,0.001,0.004,3.101,0.000,1.202,2.254,3.387,4.473,1.023,1.137,1.030,0.000,0.000,3.106,0.000,0.000,0.000,0.000,0.000,0.000,0.000,0.000,0.000,0.000,0.000,3.142,6.283,0.000,2.100,1.897,1.799,4.285,0.398,1.000,4.711,0.000,0.000,2.305,2.245,0.451,0.106,2.633,1.764,4.183,4.384,4.484,1.998,5.882,5.284,1.571,0.000,0.000,2.253,1.920,0.451,0.052,2.625,1.653,
158.460,169.853,2.067,2.116,6.125,0.001,0.004,3.101,0.000,1.202,2.254,3.387,4.473,1.023,1.137,1.030,0.000,0.000,3.106,0.000,0.000,0.000,0.000,0.000,0.000,0.000,0.000,0.000,0.000,0.000,3.142,6.283,0.000,2.100,1.897,1.799,4.285,0.398,1.000,4.711,0.000,0.000,2.305,2.245,0.451,0.106,2.633,1.764,4.183,4.384,4.484,1.998,5.882,5.284,1.571,0.000,0.000,2.253,1.920,0.451,0.052,2.625,1.653,
158.557,169.950,2.067,2.116,6.125,0.001,0.004,3.101,0.000,1.202,2.254,3.387,4.473,1.023,1.137,1.030,0.000,0.000,3.106,0.000,0.000,0.000,0.000,0.000,0.000,0.000,0.000,0.000,0.000,0.000,3.142,6.283,0.000,2.100,1.897,1.799,4.285,0.398,1.000,4.711,0.000,0.000,2.305,2.245,0.451,0.106,2.633,1.764,4.183,4.384,4.484,1.998,5.882,5.284,1.571,0.000,0.000,2.253,1.920,0.451,0.052,2.625,1.653,
158.660,170.053,2.067,2.116,6.125,0.001,0.004,3.101,0.000,1.202,2.254,3.387,4.473,1.023,1.137,1.030,0.000,0.000,3.106,0.000,0.000,0.000,0.000,0.000,0.000,0.000,0.000,0.000,0.000,0.000,3.142,6.283,0.000,2.100,1.897,1.799,4.285,0.398,1.000,4.711,0.000,0.000,2.305,2.245,0.451,0.106,2.633,1.764,4.183,4.384,4.484,1.998,5.882,5.284,1.571,0.000,0.000,2.253,1.920,0.451,0.052,2.625,1.653,
158.752,170.145,2.067,2.116,6.125,0.001,0.004,3.101,0.000,1.202,2.254,3.387,4.473,1.023,1.137,1.030,0.000,0.000,3.106,0.000,0.000,0.000,0.000,0.000,0.000,0.000,0.000,0.000,0.000,0.000,3.142,6.283,0.000,2.100,1.897,1.799,4.285,0.398,1.000,4.711,0.000,0.000,2.305,2.245,0.451,0.106,2.633,1.764,4.183,4.384,4.484,1.998,5.882,5.284,1.571,0.000,0.000,2.253,1.920,0.451,0.052,2.625,1.653,
158.860,170.253,2.067,2.116,6.125,0.001,0.004,3.101,0.000,1.202,2.254,3.387,4.473,1.023,1.137,1.030,0.000,0.000,3.106,0.000,0.000,0.000,0.000,0.000,0.000,0.000,0.000,0.000,0.000,0.000,3.142,6.283,0.000,2.100,1.897,1.799,4.285,0.398,1.000,4.711,0.000,0.000,2.305,2.245,0.451,0.106,2.633,1.764,4.183,4.384,4.484,1.998,5.882,5.284,1.571,0.000,0.000,2.253,1.920,0.451,0.052,2.625,1.653,
158.955,170.348,2.067,2.116,6.125,0.001,0.004,3.101,0.000,1.202,2.254,3.387,4.473,1.023,1.137,1.030,0.000,0.000,3.106,0.000,0.000,0.000,0.000,0.000,0.000,0.000,0.000,0.000,0.000,0.000,3.142,6.283,0.000,2.100,1.897,1.799,4.285,0.398,1.000,4.711,0.000,0.000,2.305,2.245,0.451,0.106,2.633,1.764,4.183,4.384,4.484,1.998,5.882,5.284,1.571,0.000,0.000,2.253,1.920,0.451,0.052,2.625,1.653,
159.055,170.448,2.067,2.116,6.125,0.001,0.004,3.101,0.000,1.202,2.254,3.387,4.473,1.023,1.137,1.030,0.000,0.000,3.106,0.000,0.000,0.000,0.000,0.000,0.000,0.000,0.000,0.000,0.000,0.000,3.142,6.283,0.000,2.100,1.897,1.799,4.285,0.398,1.000,4.711,0.000,0.000,2.305,2.245,0.451,0.106,2.633,1.764,4.183,4.384,4.484,1.998,5.882,5.284,1.571,0.000,0.000,2.253,1.920,0.451,0.052,2.625,1.653,
159.160,170.553,2.067,2.116,6.125,0.001,0.004,3.101,0.000,1.202,2.254,3.387,4.473,1.023,1.137,1.030,0.000,0.000,3.106,0.000,0.000,0.000,0.000,0.000,0.000,0.000,0.000,0.000,0.000,0.000,3.142,6.283,0.000,2.100,1.897,1.799,4.285,0.398,1.000,4.711,0.000,0.000,2.305,2.245,0.451,0.106,2.633,1.764,4.183,4.384,4.484,1.998,5.882,5.284,1.571,0.000,0.000,2.253,1.920,0.451,0.052,2.625,1.653,
159.251,170.644,2.067,2.116,6.125,0.001,0.004,3.101,0.000,1.202,2.254,3.387,4.473,1.023,1.137,1.030,0.000,0.000,3.106,0.000,0.000,0.000,0.000,0.000,0.000,0.000,0.000,0.000,0.000,0.000,3.142,6.283,0.000,2.100,1.897,1.799,4.285,0.398,1.000,4.711,0.000,0.000,2.305,2.245,0.451,0.106,2.633,1.764,4.183,4.384,4.484,1.998,5.882,5.284,1.571,0.000,0.000,2.253,1.920,0.451,0.052,2.625,1.653,
159.357,170.749,2.067,2.116,6.125,0.001,0.004,3.101,0.000,1.202,2.254,3.387,4.473,1.023,1.137,1.030,0.000,0.000,3.106,0.000,0.000,0.000,0.000,0.000,0.000,0.000,0.000,0.000,0.000,0.000,3.142,6.283,0.000,2.100,1.897,1.799,4.285,0.398,1.000,4.711,0.000,0.000,2.305,2.245,0.451,0.106,2.633,1.764,4.183,4.384,4.484,1.998,5.882,5.284,1.571,0.000,0.000,2.253,1.920,0.451,0.052,2.625,1.653,
159.457,170.850,2.067,2.116,6.125,0.001,0.004,3.101,0.000,1.202,2.254,3.387,4.473,1.023,1.137,1.030,0.000,0.000,3.106,0.000,0.000,0.000,0.000,0.000,0.000,0.000,0.000,0.000,0.000,0.000,3.142,6.283,0.000,2.100,1.897,1.799,4.285,0.398,1.000,4.711,0.000,0.000,2.305,2.245,0.451,0.106,2.633,1.764,4.183,4.384,4.484,1.998,5.882,5.284,1.571,0.000,0.000,2.253,1.920,0.451,0.052,2.625,1.653,
159.554,170.946,2.067,2.116,6.125,0.001,0.004,3.101,0.000,1.202,2.254,3.387,4.473,1.023,1.137,1.030,0.000,0.000,3.106,0.000,0.000,0.000,0.000,0.000,0.000,0.000,0.000,0.000,0.000,0.000,3.142,6.283,0.000,2.100,1.897,1.799,4.285,0.398,1.000,4.711,0.000,0.000,2.305,2.245,0.451,0.106,2.633,1.764,4.183,4.384,4.484,1.998,5.882,5.284,1.571,0.000,0.000,2.253,1.920,0.451,0.052,2.625,1.653,
159.660,171.053,2.067,2.116,6.125,0.001,0.004,3.101,0.000,1.202,2.254,3.387,4.473,1.023,1.137,1.030,0.000,0.000,3.106,0.000,0.000,0.000,0.000,0.000,0.000,0.000,0.000,0.000,0.000,0.000,3.142,6.283,0.000,2.100,1.897,1.799,4.285,0.398,1.000,4.711,0.000,0.000,2.305,2.245,0.451,0.106,2.633,1.764,4.183,4.384,4.484,1.998,5.882,5.284,1.571,0.000,0.000,2.253,1.920,0.451,0.052,2.625,1.653,
159.758,171.151,2.067,2.116,6.125,0.001,0.004,3.101,0.000,1.202,2.254,3.387,4.473,1.023,1.137,1.030,0.000,0.000,3.106,0.000,0.000,0.000,0.000,0.000,0.000,0.000,0.000,0.000,0.000,0.000,3.142,6.283,0.000,2.100,1.897,1.799,4.285,0.398,1.000,4.711,0.000,0.000,2.305,2.245,0.451,0.106,2.633,1.764,4.183,4.384,4.484,1.998,5.882,5.284,1.571,0.000,0.000,2.253,1.920,0.451,0.052,2.625,1.653,
159.860,171.253,2.067,2.116,6.125,0.001,0.004,3.101,0.000,1.202,2.254,3.387,4.473,1.023,1.137,1.030,0.000,0.000,3.106,0.000,0.000,0.000,0.000,0.000,0.000,0.000,0.000,0.000,0.000,0.000,3.142,6.283,0.000,2.100,1.897,1.799,4.285,0.398,1.000,4.711,0.000,0.000,2.305,2.245,0.451,0.106,2.633,1.764,4.183,4.384,4.484,1.998,5.882,5.284,1.571,0.000,0.000,2.253,1.920,0.451,0.052,2.625,1.653,
159.960,171.353,2.067,2.116,6.125,0.001,0.004,3.101,0.000,1.202,2.254,3.387,4.473,1.023,1.137,1.030,0.000,0.000,3.106,0.000,0.000,0.000,0.000,0.000,0.000,0.000,0.000,0.000,0.000,0.000,3.142,6.283,0.000,2.100,1.897,1.799,4.285,0.398,1.000,4.711,0.000,0.000,2.305,2.245,0.451,0.106,2.633,1.764,4.183,4.384,4.484,1.998,5.882,5.284,1.571,0.000,0.000,2.253,1.920,0.451,0.052,2.625,1.653,
160.060,171.453,2.067,2.116,6.125,0.001,0.004,3.101,0.000,1.202,2.254,3.387,4.473,1.023,1.137,1.030,0.000,0.000,3.106,0.000,0.000,0.000,0.000,0.000,0.000,0.000,0.000,0.000,0.000,0.000,3.142,6.283,0.000,2.100,1.897,1.799,4.285,0.398,1.000,4.711,0.000,0.000,2.305,2.245,0.451,0.106,2.633,1.764,4.183,4.384,4.484,1.998,5.882,5.284,1.571,0.000,0.000,2.253,1.920,0.451,0.052,2.625,1.653,
160.159,171.551,2.067,2.116,6.125,0.001,0.004,3.101,0.000,1.202,2.254,3.387,4.473,1.023,1.137,1.030,0.000,0.000,3.106,0.000,0.000,0.000,0.000,0.000,0.000,0.000,0.000,0.000,0.000,0.000,3.142,6.283,0.000,2.100,1.897,1.799,4.285,0.398,1.000,4.711,0.000,0.000,2.305,2.245,0.451,0.106,2.633,1.764,4.183,4.384,4.484,1.998,5.882,5.284,1.571,0.000,0.000,2.253,1.920,0.451,0.052,2.625,1.653,
160.260,171.653,2.067,2.116,6.125,0.001,0.004,3.101,0.000,1.202,2.254,3.387,4.473,1.023,1.137,1.030,0.000,0.000,3.106,0.000,0.000,0.000,0.000,0.000,0.000,0.000,0.000,0.000,0.000,0.000,3.142,6.283,0.000,2.100,1.897,1.799,4.285,0.398,1.000,4.711,0.000,0.000,2.305,2.245,0.451,0.106,2.633,1.764,4.183,4.384,4.484,1.998,5.882,5.284,1.571,0.000,0.000,2.253,1.920,0.451,0.052,2.625,1.653,
160.360,171.753,2.067,2.116,6.125,0.001,0.004,3.101,0.000,1.202,2.254,3.387,4.473,1.023,1.137,1.030,0.000,0.000,3.106,0.000,0.000,0.000,0.000,0.000,0.000,0.000,0.000,0.000,0.000,0.000,3.142,6.283,0.000,2.100,1.897,1.799,4.285,0.398,1.000,4.711,0.000,0.000,2.305,2.245,0.451,0.106,2.633,1.764,4.183,4.384,4.484,1.998,5.882,5.284,1.571,0.000,0.000,2.253,1.920,0.451,0.052,2.625,1.653,
160.460,171.853,2.067,2.116,6.125,0.001,0.004,3.101,0.000,1.202,2.254,3.387,4.473,1.023,1.137,1.030,0.000,0.000,3.106,0.000,0.000,0.000,0.000,0.000,0.000,0.000,0.000,0.000,0.000,0.000,3.142,6.283,0.000,2.100,1.897,1.799,4.285,0.398,1.000,4.711,0.000,0.000,2.305,2.245,0.451,0.106,2.633,1.764,4.183,4.384,4.484,1.998,5.882,5.284,1.571,0.000,0.000,2.253,1.920,0.451,0.052,2.625,1.653,
160.556,171.948,2.067,2.116,6.125,0.001,0.004,3.101,0.000,1.202,2.254,3.387,4.473,1.023,1.137,1.030,0.000,0.000,3.106,0.000,0.000,0.000,0.000,0.000,0.000,0.000,0.000,0.000,0.000,0.000,3.142,6.283,0.000,2.100,1.897,1.799,4.285,0.398,1.000,4.711,0.000,0.000,2.305,2.245,0.451,0.106,2.633,1.764,4.183,4.384,4.484,1.998,5.882,5.284,1.571,0.000,0.000,2.253,1.920,0.451,0.052,2.625,1.653,
160.660,172.053,2.067,2.116,6.125,0.001,0.004,3.101,0.000,1.202,2.254,3.387,4.473,1.023,1.137,1.030,0.000,0.000,3.106,0.000,0.000,0.000,0.000,0.000,0.000,0.000,0.000,0.000,0.000,0.000,3.142,6.283,0.000,2.100,1.897,1.799,4.285,0.398,1.000,4.711,0.000,0.000,2.305,2.245,0.451,0.106,2.633,1.764,4.183,4.384,4.484,1.998,5.882,5.284,1.571,0.000,0.000,2.253,1.920,0.451,0.052,2.625,1.653,
160.760,172.153,2.067,2.116,6.125,0.001,0.004,3.101,0.000,1.202,2.254,3.387,4.473,1.023,1.137,1.030,0.000,0.000,3.106,0.000,0.000,0.000,0.000,0.000,0.000,0.000,0.000,0.000,0.000,0.000,3.142,6.283,0.000,2.100,1.897,1.799,4.285,0.398,1.000,4.711,0.000,0.000,2.305,2.245,0.451,0.106,2.633,1.764,4.183,4.384,4.484,1.998,5.882,5.284,1.571,0.000,0.000,2.253,1.920,0.451,0.052,2.625,1.653,
160.852,172.244,2.067,2.116,6.125,0.001,0.004,3.101,0.000,1.202,2.254,3.387,4.473,1.023,1.137,1.030,0.000,0.000,3.106,0.000,0.000,0.000,0.000,0.000,0.000,0.000,0.000,0.000,0.000,0.000,3.142,6.283,0.000,2.100,1.897,1.799,4.285,0.398,1.000,4.711,0.000,0.000,2.305,2.245,0.451,0.106,2.633,1.764,4.183,4.384,4.484,1.998,5.882,5.284,1.571,0.000,0.000,2.253,1.920,0.451,0.052,2.625,1.653,
160.960,172.353,2.067,2.116,6.125,0.001,0.004,3.101,0.000,1.202,2.254,3.387,4.473,1.023,1.137,1.030,0.000,0.000,3.106,0.000,0.000,0.000,0.000,0.000,0.000,0.000,0.000,0.000,0.000,0.000,3.142,6.283,0.000,2.100,1.897,1.799,4.285,0.398,1.000,4.711,0.000,0.000,2.305,2.245,0.451,0.106,2.633,1.764,4.183,4.384,4.484,1.998,5.882,5.284,1.571,0.000,0.000,2.253,1.920,0.451,0.052,2.625,1.653,
161.060,172.453,2.067,2.116,6.125,0.001,0.004,3.101,0.000,1.202,2.254,3.387,4.473,1.023,1.137,1.030,0.000,0.000,3.106,0.000,0.000,0.000,0.000,0.000,0.000,0.000,0.000,0.000,0.000,0.000,3.142,6.283,0.000,2.100,1.897,1.799,4.285,0.398,1.000,4.711,0.000,0.000,2.305,2.245,0.451,0.106,2.633,1.764,4.183,4.384,4.484,1.998,5.882,5.284,1.571,0.000,0.000,2.253,1.920,0.451,0.052,2.625,1.653,
161.160,172.553,2.067,2.116,6.125,0.001,0.004,3.101,0.000,1.202,2.254,3.387,4.473,1.023,1.137,1.030,0.000,0.000,3.106,0.000,0.000,0.000,0.000,0.000,0.000,0.000,0.000,0.000,0.000,0.000,3.142,6.283,0.000,2.100,1.897,1.799,4.285,0.398,1.000,4.711,0.000,0.000,2.305,2.245,0.451,0.106,2.633,1.764,4.183,4.384,4.484,1.998,5.882,5.284,1.571,0.000,0.000,2.253,1.920,0.451,0.052,2.625,1.653,
161.260,172.653,2.067,2.116,6.125,0.001,0.004,3.101,0.000,1.202,2.254,3.387,4.473,1.023,1.137,1.030,0.000,0.000,3.106,0.000,0.000,0.000,0.000,0.000,0.000,0.000,0.000,0.000,0.000,0.000,3.142,6.283,0.000,2.100,1.897,1.799,4.285,0.398,1.000,4.711,0.000,0.000,2.305,2.245,0.451,0.106,2.633,1.764,4.183,4.384,4.484,1.998,5.882,5.284,1.571,0.000,0.000,2.253,1.920,0.451,0.052,2.625,1.653,
161.360,172.753,2.067,2.116,6.125,0.001,0.004,3.101,0.000,1.202,2.254,3.387,4.473,1.023,1.137,1.030,0.000,0.000,3.106,0.000,0.000,0.000,0.000,0.000,0.000,0.000,0.000,0.000,0.000,0.000,3.142,6.283,0.000,2.100,1.897,1.799,4.285,0.398,1.000,4.711,0.000,0.000,2.305,2.245,0.451,0.106,2.633,1.764,4.183,4.384,4.484,1.998,5.882,5.284,1.571,0.000,0.000,2.253,1.920,0.451,0.052,2.625,1.653,
161.447,172.840,2.067,2.116,6.125,0.001,0.004,3.101,0.000,1.202,2.254,3.387,4.473,1.023,1.137,1.030,0.000,0.000,3.106,0.000,0.000,0.000,0.000,0.000,0.000,0.000,0.000,0.000,0.000,0.000,3.142,6.283,0.000,2.100,1.897,1.799,4.285,0.398,1.000,4.711,0.000,0.000,2.305,2.245,0.451,0.106,2.633,1.764,4.183,4.384,4.484,1.998,5.882,5.284,1.571,0.000,0.000,2.253,1.920,0.451,0.052,2.625,1.653,
161.552,172.944,2.067,2.116,6.125,0.001,0.004,3.101,0.000,1.202,2.254,3.387,4.473,1.023,1.137,1.030,0.000,0.000,3.106,0.000,0.000,0.000,0.000,0.000,0.000,0.000,0.000,0.000,0.000,0.000,3.142,6.283,0.000,2.100,1.897,1.799,4.285,0.398,1.000,4.711,0.000,0.000,2.305,2.245,0.451,0.106,2.633,1.764,4.183,4.384,4.484,1.998,5.882,5.284,1.571,0.000,0.000,2.253,1.920,0.451,0.052,2.625,1.653,
161.660,173.053,2.067,2.116,6.125,0.001,0.004,3.101,0.000,1.202,2.254,3.387,4.473,1.023,1.137,1.030,0.000,0.000,3.106,0.000,0.000,0.000,0.000,0.000,0.000,0.000,0.000,0.000,0.000,0.000,3.142,6.283,0.000,2.100,1.897,1.799,4.285,0.398,1.000,4.711,0.000,0.000,2.305,2.245,0.451,0.106,2.633,1.764,4.183,4.384,4.484,1.998,5.882,5.284,1.571,0.000,0.000,2.253,1.920,0.451,0.052,2.625,1.653,
161.760,173.153,2.067,2.116,6.125,0.001,0.004,3.101,0.000,1.202,2.254,3.387,4.473,1.023,1.137,1.030,0.000,0.000,3.106,0.000,0.000,0.000,0.000,0.000,0.000,0.000,0.000,0.000,0.000,0.000,3.142,6.283,0.000,2.100,1.897,1.799,4.285,0.398,1.000,4.711,0.000,0.000,2.305,2.245,0.451,0.106,2.633,1.764,4.183,4.384,4.484,1.998,5.882,5.284,1.571,0.000,0.000,2.253,1.920,0.451,0.052,2.625,1.653,
161.847,173.239,2.067,2.116,6.125,0.001,0.004,3.101,0.000,1.202,2.254,3.387,4.473,1.023,1.137,1.030,0.000,0.000,3.106,0.000,0.000,0.000,0.000,0.000,0.000,0.000,0.000,0.000,0.000,0.000,3.142,6.283,0.000,2.100,1.897,1.799,4.285,0.398,1.000,4.711,0.000,0.000,2.305,2.245,0.451,0.106,2.633,1.764,4.183,4.384,4.484,1.998,5.882,5.284,1.571,0.000,0.000,2.253,1.920,0.451,0.052,2.625,1.653,
161.960,173.353,2.067,2.116,6.125,0.001,0.004,3.101,0.000,1.202,2.254,3.387,4.473,1.023,1.137,1.030,0.000,0.000,3.106,0.000,0.000,0.000,0.000,0.000,0.000,0.000,0.000,0.000,0.000,0.000,3.142,6.283,0.000,2.100,1.897,1.799,4.285,0.398,1.000,4.711,0.000,0.000,2.305,2.245,0.451,0.106,2.633,1.764,4.183,4.384,4.484,1.998,5.882,5.284,1.571,0.000,0.000,2.253,1.920,0.451,0.052,2.625,1.653,
162.054,173.446,2.067,2.116,6.125,0.001,0.004,3.101,0.000,1.202,2.254,3.387,4.473,1.023,1.137,1.030,0.000,0.000,3.106,0.000,0.000,0.000,0.000,0.000,0.000,0.000,0.000,0.000,0.000,0.000,3.142,6.283,0.000,2.100,1.897,1.799,4.285,0.398,1.000,4.711,0.000,0.000,2.305,2.245,0.451,0.106,2.633,1.764,4.183,4.384,4.484,1.998,5.882,5.284,1.571,0.000,0.000,2.253,1.920,0.451,0.052,2.625,1.653,
162.160,173.553,2.067,2.116,6.125,0.001,0.004,3.101,0.000,1.202,2.254,3.387,4.473,1.023,1.137,1.030,0.000,0.000,3.106,0.000,0.000,0.000,0.000,0.000,0.000,0.000,0.000,0.000,0.000,0.000,3.142,6.283,0.000,2.100,1.897,1.799,4.285,0.398,1.000,4.711,0.000,0.000,2.305,2.245,0.451,0.106,2.633,1.764,4.183,4.384,4.484,1.998,5.882,5.284,1.571,0.000,0.000,2.253,1.920,0.451,0.052,2.625,1.653,
162.260,173.653,2.067,2.116,6.125,0.001,0.004,3.101,0.000,1.202,2.254,3.387,4.473,1.023,1.137,1.030,0.000,0.000,3.106,0.000,0.000,0.000,0.000,0.000,0.000,0.000,0.000,0.000,0.000,0.000,3.142,6.283,0.000,2.100,1.897,1.799,4.285,0.398,1.000,4.711,0.000,0.000,2.305,2.245,0.451,0.106,2.633,1.764,4.183,4.384,4.484,1.998,5.882,5.284,1.571,0.000,0.000,2.253,1.920,0.451,0.052,2.625,1.653,
162.360,173.753,2.067,2.116,6.125,0.001,0.004,3.101,0.000,1.202,2.254,3.387,4.473,1.023,1.137,1.030,0.000,0.000,3.106,0.000,0.000,0.000,0.000,0.000,0.000,0.000,0.000,0.000,0.000,0.000,3.142,6.283,0.000,2.100,1.897,1.799,4.285,0.398,1.000,4.711,0.000,0.000,2.305,2.245,0.451,0.106,2.633,1.764,4.183,4.384,4.484,1.998,5.882,5.284,1.571,0.000,0.000,2.253,1.920,0.451,0.052,2.625,1.653,
162.452,173.844,2.067,2.116,6.125,0.001,0.004,3.101,0.000,1.202,2.254,3.387,4.473,1.023,1.137,1.030,0.000,0.000,3.106,0.000,0.000,0.000,0.000,0.000,0.000,0.000,0.000,0.000,0.000,0.000,3.142,6.283,0.000,2.100,1.897,1.799,4.285,0.398,1.000,4.711,0.000,0.000,2.305,2.245,0.451,0.106,2.633,1.764,4.183,4.384,4.484,1.998,5.882,5.284,1.571,0.000,0.000,2.253,1.920,0.451,0.052,2.625,1.653,
162.560,173.953,2.067,2.116,6.125,0.001,0.004,3.101,0.000,1.202,2.254,3.387,4.473,1.023,1.137,1.030,0.000,0.000,3.106,0.000,0.000,0.000,0.000,0.000,0.000,0.000,0.000,0.000,0.000,0.000,3.142,6.283,0.000,2.100,1.897,1.799,4.285,0.398,1.000,4.711,0.000,0.000,2.305,2.245,0.451,0.106,2.633,1.764,4.183,4.384,4.484,1.998,5.882,5.284,1.571,0.000,0.000,2.253,1.920,0.451,0.052,2.625,1.653,
162.660,174.053,2.067,2.116,6.125,0.001,0.004,3.101,0.000,1.202,2.254,3.387,4.473,1.023,1.137,1.030,0.000,0.000,3.106,0.000,0.000,0.000,0.000,0.000,0.000,0.000,0.000,0.000,0.000,0.000,3.142,6.283,0.000,2.100,1.897,1.799,4.285,0.398,1.000,4.711,0.000,0.000,2.305,2.245,0.451,0.106,2.633,1.764,4.183,4.384,4.484,1.998,5.882,5.284,1.571,0.000,0.000,2.253,1.920,0.451,0.052,2.625,1.653,
162.754,174.146,2.067,2.116,6.125,0.001,0.004,3.101,0.000,1.202,2.254,3.387,4.473,1.023,1.137,1.030,0.000,0.000,3.106,0.000,0.000,0.000,0.000,0.000,0.000,0.000,0.000,0.000,0.000,0.000,3.142,6.283,0.000,2.100,1.897,1.799,4.285,0.398,1.000,4.711,0.000,0.000,2.305,2.245,0.451,0.106,2.633,1.764,4.183,4.384,4.484,1.998,5.882,5.284,1.571,0.000,0.000,2.253,1.920,0.451,0.052,2.625,1.653,
162.860,174.253,2.067,2.116,6.125,0.001,0.004,3.101,0.000,1.202,2.254,3.387,4.473,1.023,1.137,1.030,0.000,0.000,3.106,0.000,0.000,0.000,0.000,0.000,0.000,0.000,0.000,0.000,0.000,0.000,3.142,6.283,0.000,2.100,1.897,1.799,4.285,0.398,1.000,4.711,0.000,0.000,2.305,2.245,0.451,0.106,2.633,1.764,4.183,4.384,4.484,1.998,5.882,5.284,1.571,0.000,0.000,2.253,1.920,0.451,0.052,2.625,1.653,
162.959,174.352,2.067,2.116,6.125,0.001,0.004,3.101,0.000,1.202,2.254,3.387,4.473,1.023,1.137,1.030,0.000,0.000,3.106,0.000,0.000,0.000,0.000,0.000,0.000,0.000,0.000,0.000,0.000,0.000,3.142,6.283,0.000,2.100,1.897,1.799,4.285,0.398,1.000,4.711,0.000,0.000,2.305,2.245,0.451,0.106,2.633,1.764,4.183,4.384,4.484,1.998,5.882,5.284,1.571,0.000,0.000,2.253,1.920,0.451,0.052,2.625,1.653,
163.060,174.453,2.067,2.116,6.125,0.001,0.004,3.101,0.000,1.202,2.254,3.387,4.473,1.023,1.137,1.030,0.000,0.000,3.106,0.000,0.000,0.000,0.000,0.000,0.000,0.000,0.000,0.000,0.000,0.000,3.142,6.283,0.000,2.100,1.897,1.799,4.285,0.398,1.000,4.711,0.000,0.000,2.305,2.245,0.451,0.106,2.633,1.764,4.183,4.384,4.484,1.998,5.882,5.284,1.571,0.000,0.000,2.253,1.920,0.451,0.052,2.625,1.653,
163.150,174.543,2.067,2.116,6.125,0.001,0.004,3.101,0.000,1.202,2.254,3.387,4.473,1.023,1.137,1.030,0.000,0.000,3.106,0.000,0.000,0.000,0.000,0.000,0.000,0.000,0.000,0.000,0.000,0.000,3.142,6.283,0.000,2.100,1.897,1.799,4.285,0.398,1.000,4.711,0.000,0.000,2.305,2.245,0.451,0.106,2.633,1.764,4.183,4.384,4.484,1.998,5.882,5.284,1.571,0.000,0.000,2.253,1.920,0.451,0.052,2.625,1.653,
163.246,174.639,2.067,2.116,6.125,0.001,0.004,3.101,0.000,1.202,2.254,3.387,4.473,1.023,1.137,1.030,0.000,0.000,3.106,0.000,0.000,0.000,0.000,0.000,0.000,0.000,0.000,0.000,0.000,0.000,3.142,6.283,0.000,2.100,1.897,1.799,4.285,0.398,1.000,4.711,0.000,0.000,2.305,2.245,0.451,0.106,2.633,1.764,4.183,4.384,4.484,1.998,5.882,5.284,1.571,0.000,0.000,2.253,1.920,0.451,0.052,2.625,1.653,
163.355,174.748,2.067,2.116,6.125,0.001,0.004,3.101,0.000,1.202,2.254,3.387,4.473,1.023,1.137,1.030,0.000,0.000,3.106,0.000,0.000,0.000,0.000,0.000,0.000,0.000,0.000,0.000,0.000,0.000,3.142,6.283,0.000,2.100,1.897,1.799,4.285,0.398,1.000,4.711,0.000,0.000,2.305,2.245,0.451,0.106,2.633,1.764,4.183,4.384,4.484,1.998,5.882,5.284,1.571,0.000,0.000,2.253,1.920,0.451,0.052,2.625,1.653,
163.460,174.853,2.067,2.116,6.125,0.001,0.004,3.101,0.000,1.202,2.254,3.387,4.473,1.023,1.137,1.030,0.000,0.000,3.106,0.000,0.000,0.000,0.000,0.000,0.000,0.000,0.000,0.000,0.000,0.000,3.142,6.283,0.000,2.100,1.897,1.799,4.285,0.398,1.000,4.711,0.000,0.000,2.305,2.245,0.451,0.106,2.633,1.764,4.183,4.384,4.484,1.998,5.882,5.284,1.571,0.000,0.000,2.253,1.920,0.451,0.052,2.625,1.653,
163.560,174.953,2.067,2.116,6.125,0.001,0.004,3.101,0.000,1.202,2.254,3.387,4.473,1.023,1.137,1.030,0.000,0.000,3.106,0.000,0.000,0.000,0.000,0.000,0.000,0.000,0.000,0.000,0.000,0.000,3.142,6.283,0.000,2.100,1.897,1.799,4.285,0.398,1.000,4.711,0.000,0.000,2.305,2.245,0.451,0.106,2.633,1.764,4.183,4.384,4.484,1.998,5.882,5.284,1.571,0.000,0.000,2.253,1.920,0.451,0.052,2.625,1.653,
163.653,175.046,2.067,2.116,6.125,0.001,0.004,3.101,0.000,1.202,2.254,3.387,4.473,1.023,1.137,1.030,0.000,0.000,3.106,0.000,0.000,0.000,0.000,0.000,0.000,0.000,0.000,0.000,0.000,0.000,3.142,6.283,0.000,2.100,1.897,1.799,4.285,0.398,1.000,4.711,0.000,0.000,2.305,2.245,0.451,0.106,2.633,1.764,4.183,4.384,4.484,1.998,5.882,5.284,1.571,0.000,0.000,2.253,1.920,0.451,0.052,2.625,1.653,
163.760,175.153,2.067,2.116,6.125,0.001,0.004,3.101,0.000,1.202,2.254,3.387,4.473,1.023,1.137,1.030,0.000,0.000,3.106,0.000,0.000,0.000,0.000,0.000,0.000,0.000,0.000,0.000,0.000,0.000,3.142,6.283,0.000,2.100,1.897,1.799,4.285,0.398,1.000,4.711,0.000,0.000,2.305,2.245,0.451,0.106,2.633,1.764,4.183,4.384,4.484,1.998,5.882,5.284,1.571,0.000,0.000,2.253,1.920,0.451,0.052,2.625,1.653,
163.856,175.248,2.067,2.116,6.125,0.001,0.004,3.101,0.000,1.202,2.254,3.387,4.473,1.023,1.137,1.030,0.000,0.000,3.106,0.000,0.000,0.000,0.000,0.000,0.000,0.000,0.000,0.000,0.000,0.000,3.142,6.283,0.000,2.100,1.897,1.799,4.285,0.398,1.000,4.711,0.000,0.000,2.305,2.245,0.451,0.106,2.633,1.764,4.183,4.384,4.484,1.998,5.882,5.284,1.571,0.000,0.000,2.253,1.920,0.451,0.052,2.625,1.653,
163.960,175.353,2.067,2.116,6.125,0.001,0.004,3.101,0.000,1.202,2.254,3.387,4.473,1.023,1.137,1.030,0.000,0.000,3.106,0.000,0.000,0.000,0.000,0.000,0.000,0.000,0.000,0.000,0.000,0.000,3.142,6.283,0.000,2.100,1.897,1.799,4.285,0.398,1.000,4.711,0.000,0.000,2.305,2.245,0.451,0.106,2.633,1.764,4.183,4.384,4.484,1.998,5.882,5.284,1.571,0.000,0.000,2.253,1.920,0.451,0.052,2.625,1.653,
164.049,175.442,2.067,2.116,6.125,0.001,0.004,3.101,0.000,1.202,2.254,3.387,4.473,1.023,1.137,1.030,0.000,0.000,3.106,0.000,0.000,0.000,0.000,0.000,0.000,0.000,0.000,0.000,0.000,0.000,3.142,6.283,0.000,2.100,1.897,1.799,4.285,0.398,1.000,4.711,0.000,0.000,2.305,2.245,0.451,0.106,2.633,1.764,4.183,4.384,4.484,1.998,5.882,5.284,1.571,0.000,0.000,2.253,1.920,0.451,0.052,2.625,1.653,
164.160,175.553,2.067,2.116,6.125,0.001,0.004,3.101,0.000,1.202,2.254,3.387,4.473,1.023,1.137,1.030,0.000,0.000,3.106,0.000,0.000,0.000,0.000,0.000,0.000,0.000,0.000,0.000,0.000,0.000,3.142,6.283,0.000,2.100,1.897,1.799,4.285,0.398,1.000,4.711,0.000,0.000,2.305,2.245,0.451,0.106,2.633,1.764,4.183,4.384,4.484,1.998,5.882,5.284,1.571,0.000,0.000,2.253,1.920,0.451,0.052,2.625,1.653,
164.248,175.641,2.067,2.116,6.125,0.001,0.004,3.101,0.000,1.202,2.254,3.387,4.473,1.023,1.137,1.030,0.000,0.000,3.106,0.000,0.000,0.000,0.000,0.000,0.000,0.000,0.000,0.000,0.000,0.000,3.142,6.283,0.000,2.100,1.897,1.799,4.285,0.398,1.000,4.711,0.000,0.000,2.305,2.245,0.451,0.106,2.633,1.764,4.183,4.384,4.484,1.998,5.882,5.284,1.571,0.000,0.000,2.253,1.920,0.451,0.052,2.625,1.653,
164.360,175.753,2.067,2.116,6.125,0.001,0.004,3.101,0.000,1.202,2.254,3.387,4.473,1.023,1.137,1.030,0.000,0.000,3.106,0.000,0.000,0.000,0.000,0.000,0.000,0.000,0.000,0.000,0.000,0.000,3.142,6.283,0.000,2.100,1.897,1.799,4.285,0.398,1.000,4.711,0.000,0.000,2.305,2.245,0.451,0.106,2.633,1.764,4.183,4.384,4.484,1.998,5.882,5.284,1.571,0.000,0.000,2.253,1.920,0.451,0.052,2.625,1.653,
164.446,175.839,2.067,2.116,6.125,0.001,0.004,3.101,0.000,1.202,2.254,3.387,4.473,1.023,1.137,1.030,0.000,0.000,3.106,0.000,0.000,0.000,0.000,0.000,0.000,0.000,0.000,0.000,0.000,0.000,3.142,6.283,0.000,2.100,1.897,1.799,4.285,0.398,1.000,4.711,0.000,0.000,2.305,2.245,0.451,0.106,2.633,1.764,4.183,4.384,4.484,1.998,5.882,5.284,1.571,0.000,0.000,2.253,1.920,0.451,0.052,2.625,1.653,
164.560,175.953,2.067,2.116,6.125,0.001,0.004,3.101,0.000,1.202,2.254,3.387,4.473,1.023,1.137,1.030,0.000,0.000,3.106,0.000,0.000,0.000,0.000,0.000,0.000,0.000,0.000,0.000,0.000,0.000,3.142,6.283,0.000,2.100,1.897,1.799,4.285,0.398,1.000,4.711,0.000,0.000,2.305,2.245,0.451,0.106,2.633,1.764,4.183,4.384,4.484,1.998,5.882,5.284,1.571,0.000,0.000,2.253,1.920,0.451,0.052,2.625,1.653,
164.650,176.042,2.067,2.116,6.125,0.001,0.004,3.101,0.000,1.202,2.254,3.387,4.473,1.023,1.137,1.030,0.000,0.000,3.106,0.000,0.000,0.000,0.000,0.000,0.000,0.000,0.000,0.000,0.000,0.000,3.142,6.283,0.000,2.100,1.897,1.799,4.285,0.398,1.000,4.711,0.000,0.000,2.305,2.245,0.451,0.106,2.633,1.764,4.183,4.384,4.484,1.998,5.882,5.284,1.571,0.000,0.000,2.253,1.920,0.451,0.052,2.625,1.653,
164.760,176.153,2.067,2.116,6.125,0.001,0.004,3.101,0.000,1.202,2.254,3.387,4.473,1.023,1.137,1.030,0.000,0.000,3.106,0.000,0.000,0.000,0.000,0.000,0.000,0.000,0.000,0.000,0.000,0.000,3.142,6.283,0.000,2.100,1.897,1.799,4.285,0.398,1.000,4.711,0.000,0.000,2.305,2.245,0.451,0.106,2.633,1.764,4.183,4.384,4.484,1.998,5.882,5.284,1.571,0.000,0.000,2.253,1.920,0.451,0.052,2.625,1.653,
164.860,176.253,2.067,2.116,6.125,0.001,0.004,3.101,0.000,1