deveshdatwani/Gopher/Assets/Data/07-16 22-12-16/Obstacle Handling_robot_value.csv
game_time,true_time,x,y,az,vx,vaz,dis_to_obs_0,dis_to_obs_36,dis_to_obs_72,dis_to_obs_108,dis_to_obs_144,dis_to_obs_180,dis_to_obs_-144,dis_to_obs_-108,dis_to_obs_-72,dis_to_obs_-36,dis_to_min_obs,direction_to_min_obs,dis_to_human_0,dis_to_human_36,dis_to_human_72,dis_to_human_108,dis_to_human_144,dis_to_human_180,dis_to_human_-144,dis_to_human_-108,dis_to_human_-72,dis_to_human_-36,dis_to_min_human,direction_to_min_human,main_cam_yaw,main_cam_pitch,left_joint_1,left_joint_2,left_joint_3,left_joint_4,left_joint_5,left_joint_6,left_joint_7,left_joint_gripper,left_is_grasping,left_end_x,left_end_y,left_end_z,left_end_ax,left_end_ay,left_end_az,right_joint_1,right_joint_2,right_joint_3,right_joint_4,right_joint_5,right_joint_6,right_joint_7,right_joint_gripper,right_is_grasping,right_end_x,right_end_y,right_end_z,right_end_ax,right_end_ay,right_end_az,
7.125,279.789,0.958,-9.975,1.639,0.122,6.266,3.488,0.000,1.795,1.247,2.268,4.948,3.167,2.101,1.779,4.066,0.000,2.896,0.000,3.028,0.000,0.000,0.000,0.000,0.000,0.000,0.000,0.000,0.000,3.142,0.000,0.001,1.002,1.570,1.570,4.167,6.281,1.199,4.712,0.000,0.000,0.589,-9.388,0.957,4.822,3.812,5.609,5.281,4.712,4.712,2.118,6.282,5.083,1.570,0.000,0.000,1.243,-9.343,0.957,4.821,3.818,5.603,
7.240,279.904,0.958,-9.971,1.640,0.000,6.268,3.484,0.000,1.798,1.247,2.270,4.952,3.166,2.101,1.780,4.060,0.000,2.896,0.000,3.198,0.000,0.000,0.000,0.000,0.000,0.000,0.000,0.000,0.000,3.142,6.283,0.000,1.003,1.569,1.570,4.128,6.281,1.199,4.712,0.000,0.000,0.589,-9.394,0.973,4.796,4.111,5.311,5.281,4.711,4.712,2.156,6.282,5.083,1.570,0.000,0.000,1.243,-9.349,0.973,4.796,4.118,5.304,
7.340,280.004,0.958,-9.971,1.640,0.000,6.274,3.484,0.000,1.798,1.247,2.270,4.952,3.166,2.101,1.780,4.060,0.000,2.896,0.000,3.316,0.000,0.000,0.000,0.000,0.000,0.000,0.000,0.000,0.000,3.142,6.283,0.000,1.003,1.569,1.569,4.106,6.281,1.199,4.712,0.000,0.000,0.589,-9.400,0.982,4.786,4.368,5.055,5.281,4.711,4.712,2.178,6.282,5.083,1.570,0.000,0.000,1.244,-9.355,0.982,4.786,4.376,5.048,
7.432,280.096,0.958,-9.971,1.640,0.000,6.273,3.484,0.000,1.798,1.247,2.270,4.952,3.166,2.101,1.780,4.060,0.000,2.896,0.000,0.000,0.000,0.000,0.000,0.000,0.000,0.000,0.000,0.000,0.000,3.142,6.283,0.000,1.003,1.569,1.569,4.085,6.281,1.199,4.712,0.000,0.000,0.590,-9.406,0.990,4.782,4.641,4.783,5.281,4.711,4.712,2.198,6.282,5.083,1.570,0.000,0.000,1.244,-9.361,0.990,4.782,4.650,4.774,
7.540,280.204,0.958,-9.971,1.640,0.000,6.274,3.484,0.000,1.798,1.247,2.270,4.952,3.166,2.101,1.780,4.060,0.000,2.896,0.000,0.000,0.000,0.000,0.000,0.000,0.000,0.000,0.000,0.000,0.000,3.142,6.283,0.000,1.003,1.569,1.569,4.085,6.281,1.199,4.712,0.000,0.000,0.590,-9.406,0.990,4.782,4.640,4.784,5.281,4.711,4.712,2.198,6.282,5.083,1.570,0.000,0.000,1.244,-9.361,0.990,4.782,4.650,4.774,
7.640,280.304,0.958,-9.971,1.640,0.000,6.274,3.484,0.000,1.798,1.247,2.270,4.952,3.166,2.101,1.780,4.060,0.000,2.896,0.000,0.000,0.000,0.000,0.000,0.000,0.000,0.000,0.000,0.000,0.000,3.142,6.283,0.000,1.003,1.569,1.569,4.085,6.281,1.199,4.712,0.000,0.000,0.590,-9.406,0.990,4.782,4.640,4.784,5.281,4.711,4.712,2.198,6.282,5.083,1.570,0.000,0.000,1.244,-9.361,0.990,4.782,4.650,4.774,
7.728,280.392,0.958,-9.971,1.640,0.000,6.274,3.484,0.000,1.798,1.247,2.270,4.952,3.166,2.101,1.780,4.060,0.000,2.896,0.000,0.000,0.000,0.000,0.000,0.000,0.000,0.000,0.000,0.000,0.000,3.142,6.283,0.000,1.003,1.569,1.569,4.085,6.281,1.199,4.712,0.000,0.000,0.590,-9.406,0.990,4.782,4.640,4.784,5.281,4.711,4.712,2.198,6.282,5.083,1.570,0.000,0.000,1.244,-9.361,0.990,4.782,4.650,4.774,
7.840,280.504,0.958,-9.971,1.640,0.000,6.274,3.484,0.000,1.798,1.247,2.270,4.952,3.166,2.101,1.780,4.060,0.000,2.896,0.000,0.000,0.000,0.000,0.000,0.000,0.000,0.000,0.000,0.000,0.000,3.142,6.283,0.000,1.003,1.569,1.569,4.085,6.281,1.199,4.712,0.000,0.000,0.590,-9.406,0.990,4.782,4.640,4.784,5.281,4.711,4.712,2.198,6.282,5.083,1.570,0.000,0.000,1.244,-9.361,0.990,4.782,4.650,4.774,
7.940,280.604,0.958,-9.968,1.639,0.235,6.276,3.481,0.000,1.805,1.246,2.266,4.956,3.169,2.102,1.780,4.057,0.000,2.896,0.000,0.000,0.000,0.000,0.000,0.000,0.000,0.000,0.000,0.000,0.000,3.142,6.279,6.283,1.007,1.568,1.567,4.080,6.281,1.199,4.712,0.000,0.000,0.588,-9.404,0.990,4.783,4.686,4.738,5.282,4.710,4.709,2.197,6.282,5.083,1.570,0.000,0.000,1.243,-9.357,0.990,4.783,4.648,4.776,
8.040,280.704,0.952,-9.881,1.641,1.207,0.087,3.394,0.000,1.906,1.240,2.261,0.000,3.172,2.107,1.788,3.951,0.000,3.142,0.000,0.000,0.000,0.000,0.000,0.000,0.000,0.000,0.000,0.000,0.000,3.142,6.278,6.283,1.008,1.567,1.566,4.077,6.282,1.199,4.712,0.000,0.000,0.580,-9.319,0.991,4.787,4.703,4.721,5.282,4.710,4.709,2.197,6.282,5.083,1.570,0.000,0.000,1.235,-9.270,0.991,4.787,4.655,4.770,
8.140,280.804,0.944,-9.773,1.642,1.417,6.263,3.286,0.000,1.660,1.232,2.250,0.000,3.180,2.115,0.000,3.823,0.000,3.142,0.000,0.000,0.000,0.000,0.000,0.000,0.000,0.000,0.000,0.000,0.000,3.142,6.282,0.000,1.004,1.569,1.569,4.085,6.281,1.199,4.712,0.000,0.000,0.574,-9.209,0.990,4.784,4.648,4.775,5.281,4.711,4.711,2.198,6.282,5.083,1.570,0.000,0.000,1.228,-9.162,0.990,4.784,4.650,4.774,
8.240,280.904,0.934,-9.634,1.665,0.901,0.759,3.154,0.000,1.590,1.260,2.324,0.000,3.111,2.114,0.000,3.611,0.000,3.142,0.000,0.000,0.000,0.000,0.000,0.000,0.000,0.000,0.000,0.000,0.000,3.142,0.003,0.001,1.001,1.572,1.574,4.090,6.280,1.200,4.712,0.000,0.000,0.555,-9.077,0.990,4.801,4.632,4.792,5.281,4.713,4.716,2.199,6.281,5.083,1.571,0.000,0.000,1.207,-9.017,0.991,4.802,4.673,4.752,
8.340,281.004,0.927,-9.570,1.744,0.806,1.386,3.126,0.000,1.598,1.271,2.703,0.000,2.876,2.092,0.000,3.395,0.000,3.142,0.000,3.280,0.000,0.000,0.000,0.000,0.000,0.000,0.000,0.000,0.000,3.142,0.002,0.000,1.003,1.571,1.571,4.086,6.281,1.199,4.712,0.000,0.000,0.503,-9.046,0.990,4.883,4.685,4.738,5.282,4.713,4.714,2.198,6.282,5.083,1.571,0.000,0.000,1.150,-8.933,0.991,4.883,4.695,4.729,
8.421,281.084,0.903,-9.462,1.886,1.077,1.125,3.134,0.000,1.771,1.374,3.912,4.842,2.584,1.699,4.962,3.100,0.000,3.106,0.000,3.216,0.000,0.000,0.000,0.000,0.000,0.000,0.000,0.000,0.000,3.142,6.283,0.000,1.005,1.569,1.568,4.083,6.282,1.199,4.712,0.000,0.000,0.407,-9.005,0.990,5.030,4.701,4.722,5.282,4.712,4.711,2.198,6.283,5.083,1.570,0.000,0.000,1.031,-8.800,0.991,5.029,4.702,4.721,
8.540,281.204,0.866,-9.358,1.965,1.109,0.794,3.118,0.000,1.714,1.418,0.000,3.689,2.496,1.742,4.342,2.929,0.000,3.036,0.000,0.000,0.000,0.000,0.000,0.000,0.000,0.000,0.000,0.000,0.000,3.142,0.001,0.000,1.003,1.570,1.570,4.086,6.281,1.199,4.712,0.000,0.000,0.337,-8.940,0.990,5.106,4.699,4.724,5.281,4.712,4.712,2.198,6.282,5.083,1.570,0.000,0.000,0.943,-8.688,0.991,5.106,4.703,4.720,
8.626,281.290,0.825,-9.264,2.038,0.978,0.967,2.694,0.000,1.668,1.464,0.000,3.831,2.442,0.000,3.884,2.794,0.000,2.966,0.000,0.000,0.000,0.000,0.000,0.000,0.000,0.000,0.000,0.000,0.000,3.142,0.002,0.000,1.003,1.571,1.571,4.087,6.281,1.199,4.712,0.000,0.000,0.267,-8.885,0.990,5.178,4.700,4.723,5.282,4.713,4.713,2.198,6.282,5.083,1.570,0.000,0.000,0.853,-8.590,0.991,5.178,4.705,4.719,
8.740,281.404,0.781,-9.181,2.129,0.964,1.087,2.841,0.000,1.606,1.554,0.000,4.189,2.390,0.000,3.470,2.685,0.000,2.896,0.000,0.000,0.000,0.000,0.000,0.000,0.000,0.000,0.000,0.000,0.000,3.142,0.001,0.000,1.003,1.570,1.570,4.085,6.282,1.199,4.712,0.000,0.000,0.190,-8.855,0.990,5.270,4.704,4.719,5.282,4.712,4.712,2.198,6.282,5.083,1.570,0.000,0.000,0.747,-8.507,0.991,5.270,4.706,4.717,
8.833,281.497,0.727,-9.099,2.221,1.032,1.037,0.000,1.911,1.554,1.668,0.000,3.754,1.956,0.000,3.139,2.600,0.000,2.826,0.000,0.000,0.000,0.000,0.000,0.000,0.000,0.000,0.000,0.000,0.000,3.142,0.001,0.000,1.004,1.570,1.569,4.085,6.281,1.199,4.712,0.000,0.000,0.108,-8.829,0.990,5.363,4.705,4.717,5.282,4.712,4.712,2.198,6.282,5.083,1.570,0.000,0.000,0.630,-8.431,0.991,5.363,4.707,4.716,
8.940,281.604,0.676,-9.034,2.290,1.043,0.989,0.000,1.607,1.521,1.766,0.000,3.526,1.973,0.000,2.931,2.548,0.000,2.755,0.000,0.000,0.000,0.000,0.000,0.000,0.000,0.000,0.000,0.000,0.000,3.142,0.001,0.000,1.003,1.570,1.570,4.085,6.281,1.199,4.712,0.000,0.000,0.041,-8.807,0.990,5.432,4.705,4.717,5.282,4.712,4.712,2.198,6.282,5.083,1.570,0.000,0.000,0.534,-8.375,0.991,5.432,4.707,4.715,
9.040,281.704,0.594,-8.945,2.342,1.004,6.279,0.000,1.492,1.499,1.764,0.000,3.451,2.036,4.502,2.749,2.475,0.000,2.720,0.000,0.000,0.000,0.000,0.000,0.000,0.000,0.000,0.000,0.000,0.000,3.142,6.283,0.000,1.004,1.568,1.567,4.085,6.281,1.199,4.712,0.000,0.000,-0.054,-8.753,0.990,5.487,4.705,4.716,5.281,4.711,4.710,2.198,6.282,5.083,1.570,0.000,0.000,0.417,-8.295,0.990,5.487,4.706,4.716,
9.140,281.804,0.539,-8.889,2.342,0.994,6.269,4.986,1.550,1.501,1.641,0.000,3.529,2.092,0.000,2.685,2.419,0.000,2.720,0.000,0.000,0.000,0.000,0.000,0.000,0.000,0.000,0.000,0.000,0.000,3.142,6.282,0.000,1.004,1.569,1.569,4.085,6.281,1.199,4.712,0.000,0.000,-0.107,-8.696,0.990,5.484,4.706,4.716,5.281,4.711,4.711,2.198,6.282,5.083,1.570,0.000,0.000,0.363,-8.238,0.990,5.485,4.706,4.717,
9.240,281.904,0.457,-8.804,2.343,1.016,6.269,4.869,3.748,1.264,1.515,0.000,3.647,2.176,0.000,2.590,2.333,0.000,2.720,0.000,0.000,0.000,0.000,0.000,0.000,0.000,0.000,0.000,0.000,0.000,3.142,6.282,0.000,1.004,1.569,1.569,4.085,6.281,1.199,4.712,0.000,0.000,-0.190,-8.611,0.990,5.485,4.706,4.716,5.281,4.711,4.711,2.198,6.282,5.083,1.570,0.000,0.000,0.280,-8.153,0.990,5.485,4.706,4.717,
9.340,282.004,0.401,-8.746,2.343,1.020,6.268,4.789,3.692,1.120,1.516,0.000,3.726,2.310,0.000,2.525,2.275,0.000,2.720,0.000,0.000,0.000,0.000,0.000,0.000,0.000,0.000,0.000,0.000,0.000,3.142,6.282,0.000,1.004,1.569,1.569,4.085,6.281,1.199,4.712,0.000,0.000,-0.246,-8.554,0.990,5.485,4.706,4.716,5.281,4.711,4.711,2.198,6.282,5.083,1.570,0.000,0.000,0.224,-8.096,0.990,5.485,4.706,4.717,
9.440,282.104,0.317,-8.661,2.343,1.009,6.267,4.670,3.607,0.905,1.518,0.000,3.845,2.721,4.817,1.936,2.188,0.000,2.755,0.000,0.000,0.000,0.000,0.000,0.000,0.000,0.000,0.000,0.000,0.000,3.142,6.282,0.000,1.004,1.569,1.569,4.085,6.281,1.199,4.712,0.000,0.000,-0.330,-8.468,0.990,5.485,4.706,4.716,5.281,4.711,4.711,2.198,6.282,5.083,1.570,0.000,0.000,0.140,-8.010,0.990,5.485,4.706,4.717,
9.540,282.204,0.262,-8.604,2.343,1.007,6.267,4.591,0.000,0.798,1.519,0.000,3.924,2.777,4.688,2.364,2.130,0.000,2.755,0.000,0.000,0.000,0.000,0.000,0.000,0.000,0.000,0.000,0.000,0.000,3.142,6.282,0.000,1.004,1.569,1.569,4.085,6.281,1.199,4.712,0.000,0.000,-0.385,-8.412,0.990,5.485,4.706,4.716,5.281,4.711,4.711,2.198,6.282,5.083,1.570,0.000,0.000,0.085,-7.953,0.990,5.485,4.706,4.717,
9.640,282.304,0.178,-8.519,2.344,1.013,6.267,4.473,0.000,0.836,1.521,0.000,4.042,2.911,4.495,2.268,2.044,0.000,2.966,0.000,0.000,0.000,0.000,0.000,0.000,0.000,0.000,0.000,0.000,0.000,3.142,6.282,0.000,1.004,1.569,1.569,4.085,6.281,1.199,4.712,0.000,0.000,-0.468,-8.326,0.990,5.486,4.706,4.716,5.281,4.711,4.711,2.198,6.282,5.083,1.570,0.000,0.000,0.001,-7.868,0.990,5.486,4.706,4.717,
9.740,282.404,0.123,-8.461,2.344,1.014,6.267,4.393,0.000,0.861,1.522,0.000,4.120,3.261,4.366,2.203,1.986,0.000,2.966,0.000,0.000,0.000,0.000,0.000,0.000,0.000,0.000,0.000,0.000,0.000,3.142,6.282,0.000,1.004,1.569,1.569,4.085,6.281,1.199,4.712,0.000,0.000,-0.524,-8.269,0.990,5.486,4.706,4.716,5.281,4.711,4.711,2.198,6.282,5.083,1.570,0.000,0.000,-0.055,-7.811,0.990,5.486,4.706,4.717,
9.840,282.504,0.072,-8.410,2.344,0.323,6.264,4.320,0.000,0.884,1.523,0.000,4.190,3.585,3.265,2.145,1.935,0.000,2.966,0.000,0.000,0.000,0.000,0.000,0.000,0.000,0.000,0.000,0.000,0.000,3.142,0.001,0.001,1.002,1.570,1.571,4.089,6.281,1.200,4.712,0.000,0.000,-0.574,-8.217,0.989,5.484,4.703,4.718,5.281,4.712,4.712,2.198,6.282,5.083,1.570,0.000,0.000,-0.105,-7.759,0.990,5.485,4.706,4.717,
9.920,282.584,0.060,-8.398,2.345,0.086,6.265,4.301,0.000,0.889,1.523,0.000,4.205,3.672,3.234,2.131,1.922,0.000,2.966,0.000,0.000,0.000,0.000,0.000,0.000,0.000,0.000,0.000,0.000,0.000,3.142,0.000,0.001,1.003,1.570,1.570,4.087,6.281,1.199,4.712,0.000,0.000,-0.587,-8.206,0.990,5.486,4.704,4.717,5.281,4.711,4.712,2.198,6.282,5.083,1.570,0.000,0.000,-0.117,-7.747,0.990,5.486,4.706,4.717,
10.040,282.704,0.059,-8.396,2.345,0.000,6.276,4.298,0.000,0.889,1.524,0.000,4.205,3.688,3.229,2.129,1.921,0.000,2.966,0.000,0.000,0.000,0.000,0.000,0.000,0.000,0.000,0.000,0.000,0.000,3.142,6.283,0.000,1.003,1.569,1.569,4.086,6.281,1.199,4.712,0.000,0.000,-0.588,-8.205,0.990,5.487,4.705,4.717,5.281,4.711,4.711,2.198,6.282,5.083,1.570,0.000,0.000,-0.119,-7.746,0.990,5.487,4.706,4.716,
10.140,282.804,0.059,-8.396,2.345,0.000,6.274,4.298,0.000,0.889,1.524,0.000,4.205,3.688,3.229,2.129,1.921,0.000,2.966,0.000,0.000,0.000,0.000,0.000,0.000,0.000,0.000,0.000,0.000,0.000,3.142,6.283,0.000,1.003,1.569,1.569,4.085,6.281,1.199,4.712,0.000,0.000,-0.588,-8.205,0.990,5.487,4.705,4.716,5.281,4.711,4.711,2.198,6.282,5.083,1.570,0.000,0.000,-0.119,-7.746,0.990,5.487,4.706,4.716,
10.240,282.904,0.059,-8.396,2.345,0.000,6.274,4.297,0.000,0.889,1.524,0.000,4.205,3.688,3.229,2.129,1.921,0.000,2.966,0.000,0.000,0.000,0.000,0.000,0.000,0.000,0.000,0.000,0.000,0.000,3.142,6.283,0.000,1.003,1.569,1.569,4.085,6.281,1.199,4.712,0.000,0.000,-0.588,-8.205,0.990,5.487,4.705,4.716,5.281,4.711,4.711,2.198,6.282,5.083,1.570,0.000,0.000,-0.119,-7.746,0.990,5.487,4.706,4.716,
10.328,282.992,0.059,-8.396,2.345,0.000,6.274,4.298,0.000,0.889,1.524,0.000,4.205,3.688,3.229,2.129,1.921,0.000,2.966,0.000,0.000,0.000,0.000,0.000,0.000,0.000,0.000,0.000,0.000,0.000,3.142,6.283,0.000,1.003,1.569,1.569,4.085,6.281,1.199,4.712,0.000,0.000,-0.588,-8.205,0.990,5.487,4.705,4.716,5.281,4.711,4.711,2.198,6.282,5.083,1.570,0.000,0.000,-0.119,-7.746,0.990,5.487,4.706,4.716,
10.440,283.104,0.059,-8.396,2.345,0.000,6.274,4.297,0.000,0.889,1.524,0.000,4.205,3.688,3.229,2.129,1.921,0.000,2.966,0.000,0.000,0.000,0.000,0.000,0.000,0.000,0.000,0.000,0.000,0.000,3.142,6.283,0.000,1.003,1.569,1.569,4.085,6.281,1.199,4.712,0.000,0.000,-0.588,-8.205,0.990,5.487,4.705,4.716,5.281,4.711,4.711,2.198,6.282,5.083,1.570,0.000,0.000,-0.119,-7.746,0.990,5.487,4.706,4.716,
10.540,283.204,0.059,-8.396,2.345,0.000,6.274,4.298,0.000,0.889,1.524,0.000,4.205,3.688,3.229,2.129,1.921,0.000,2.966,0.000,0.000,0.000,0.000,0.000,0.000,0.000,0.000,0.000,0.000,0.000,3.142,6.283,0.000,1.003,1.569,1.569,4.085,6.281,1.199,4.712,0.000,0.000,-0.588,-8.205,0.990,5.487,4.705,4.716,5.281,4.711,4.711,2.198,6.282,5.083,1.570,0.000,0.000,-0.119,-7.746,0.990,5.487,4.706,4.716,
10.640,283.304,0.059,-8.396,2.345,0.000,6.274,0.000,0.000,0.889,1.524,0.000,4.205,3.688,3.229,2.129,1.921,0.000,2.966,2.048,0.000,0.000,0.000,0.000,0.000,0.000,0.000,0.000,0.000,0.000,3.142,6.283,0.000,1.003,1.569,1.569,4.085,6.281,1.199,4.712,0.000,0.000,-0.588,-8.205,0.990,5.487,4.705,4.716,5.281,4.711,4.711,2.198,6.282,5.083,1.570,0.000,0.000,-0.119,-7.746,0.990,5.487,4.706,4.716,
10.740,283.404,0.059,-8.396,2.345,0.000,6.274,0.000,0.000,0.889,1.524,0.000,4.205,3.688,3.229,2.129,1.921,0.000,2.966,2.012,0.000,0.000,0.000,0.000,0.000,0.000,0.000,0.000,0.000,0.000,3.142,6.283,0.000,1.003,1.569,1.569,4.085,6.281,1.199,4.712,0.000,0.000,-0.588,-8.205,0.990,5.487,4.705,4.716,5.281,4.711,4.711,2.198,6.282,5.083,1.570,0.000,0.000,-0.119,-7.746,0.990,5.487,4.706,4.716,
10.827,283.491,0.059,-8.396,2.345,0.000,6.274,0.000,0.000,0.889,1.524,0.000,4.205,3.688,3.229,2.129,1.921,0.000,2.966,2.032,0.000,0.000,0.000,0.000,0.000,0.000,0.000,0.000,0.000,0.000,3.142,6.283,0.000,1.003,1.569,1.569,4.085,6.281,1.199,4.712,0.000,0.000,-0.588,-8.205,0.990,5.487,4.705,4.716,5.281,4.711,4.711,2.198,6.282,5.083,1.570,0.000,0.000,-0.119,-7.746,0.990,5.487,4.706,4.716,
10.940,283.604,0.059,-8.396,2.345,0.000,6.274,0.000,0.000,0.889,1.524,0.000,4.205,3.688,3.229,2.129,1.921,0.000,2.966,2.146,0.000,0.000,0.000,0.000,0.000,0.000,0.000,0.000,0.000,0.000,3.142,6.283,0.000,1.003,1.569,1.569,4.085,6.281,1.199,4.712,0.000,0.000,-0.588,-8.205,0.990,5.487,4.705,4.716,5.281,4.711,4.711,2.198,6.282,5.083,1.570,0.000,0.000,-0.119,-7.746,0.990,5.487,4.706,4.716,
11.040,283.704,0.059,-8.396,2.345,0.000,6.274,0.000,0.000,0.889,1.524,0.000,4.205,3.688,3.229,2.129,1.921,0.000,2.966,2.262,0.000,0.000,0.000,0.000,0.000,0.000,0.000,0.000,0.000,0.000,3.142,6.283,0.000,1.003,1.569,1.569,4.085,6.281,1.199,4.712,0.000,0.000,-0.588,-8.205,0.990,5.487,4.705,4.716,5.281,4.711,4.711,2.198,6.282,5.083,1.570,0.000,0.000,-0.119,-7.746,0.990,5.487,4.706,4.716,
11.140,283.804,0.059,-8.396,2.345,0.000,6.274,4.297,0.000,0.889,1.524,0.000,4.205,3.688,3.229,2.129,1.921,0.000,2.966,0.000,0.000,0.000,0.000,0.000,0.000,0.000,0.000,0.000,0.000,0.000,3.142,6.283,0.000,1.003,1.569,1.569,4.085,6.281,1.199,4.712,0.000,0.000,-0.588,-8.205,0.990,5.487,4.705,4.716,5.281,4.711,4.711,2.198,6.282,5.083,1.570,0.000,0.000,-0.119,-7.746,0.990,5.487,4.706,4.716,
11.240,283.904,0.052,-8.389,2.353,0.399,0.239,4.255,0.000,0.888,1.527,0.000,4.183,3.912,3.191,2.113,1.916,0.000,2.966,0.000,0.000,0.000,0.000,0.000,0.000,0.000,0.000,0.000,0.000,0.000,3.142,6.279,6.283,1.007,1.568,1.568,4.078,6.281,1.199,4.712,0.000,0.000,-0.596,-8.206,0.991,5.497,4.711,4.713,5.282,4.710,4.710,2.197,6.282,5.083,1.571,0.000,0.000,-0.133,-7.741,0.991,5.497,4.707,4.716,
11.340,284.004,0.010,-8.348,2.370,1.040,0.132,4.132,0.000,0.897,1.537,0.000,4.173,4.307,3.915,2.050,1.880,0.000,2.966,0.000,0.000,0.000,0.000,0.000,0.000,0.000,0.000,0.000,0.000,0.000,3.142,6.279,6.283,1.008,1.567,1.566,4.078,6.282,1.199,4.712,0.000,0.000,-0.641,-8.176,0.990,5.516,4.711,4.712,5.282,4.710,4.708,2.198,6.282,5.083,1.570,0.000,0.000,-0.185,-7.704,0.991,5.515,4.707,4.716,
11.440,284.104,-0.099,-8.242,2.414,1.320,1.003,3.824,0.000,0.916,1.561,0.000,4.149,0.000,3.409,1.893,0.000,0.000,2.966,0.000,0.000,0.000,0.000,0.000,0.000,0.000,0.000,0.000,0.000,0.000,3.142,0.002,0.000,1.003,1.571,1.573,4.087,6.281,1.199,4.712,0.000,0.000,-0.757,-8.093,0.990,5.552,4.705,4.717,5.281,4.713,4.715,2.199,6.281,5.083,1.571,0.000,0.000,-0.320,-7.604,0.991,5.552,4.708,4.715,
11.523,284.187,-0.184,-8.170,2.508,0.920,0.769,3.450,3.067,0.897,1.623,0.000,3.949,0.000,2.834,1.753,1.447,0.000,2.861,0.000,0.000,0.000,0.000,0.000,0.000,0.000,0.000,0.000,0.000,0.000,3.142,0.002,0.001,1.002,1.570,1.569,4.088,6.282,1.199,4.712,0.000,0.000,-0.854,-8.086,0.990,5.650,4.705,4.715,5.281,4.713,4.712,2.198,6.283,5.083,1.570,0.000,0.000,-0.464,-7.557,0.991,5.650,4.707,4.714,
11.640,284.304,-0.238,-8.131,2.527,0.834,6.265,3.340,3.014,0.898,0.861,0.000,3.962,0.000,2.698,1.702,1.415,0.000,2.861,0.000,0.000,0.000,0.000,0.000,0.000,0.000,0.000,0.000,0.000,0.000,3.142,6.282,0.000,1.004,1.568,1.567,4.085,6.281,1.199,4.712,0.000,0.000,-0.909,-8.062,0.990,5.672,4.706,4.714,5.281,4.711,4.709,2.198,6.282,5.083,1.570,0.000,0.000,-0.531,-7.525,0.990,5.671,4.707,4.715,
11.733,284.397,-0.328,-8.067,2.527,1.061,6.272,3.230,2.923,0.909,0.871,0.000,4.074,0.000,1.905,1.635,1.347,0.000,2.896,0.000,0.000,0.000,0.000,0.000,0.000,0.000,0.000,0.000,0.000,0.000,3.142,6.281,0.000,1.005,1.569,1.568,4.083,6.281,1.199,4.712,0.000,0.000,-0.999,-7.997,0.990,5.670,4.708,4.714,5.281,4.711,4.710,2.197,6.282,5.083,1.570,0.000,0.000,-0.622,-7.461,0.990,5.670,4.707,4.715,
11.840,284.504,-0.399,-8.018,2.530,1.102,0.197,3.139,2.853,0.916,0.880,0.000,4.152,0.000,2.501,1.582,1.296,0.000,2.896,0.000,0.000,0.000,0.000,0.000,0.000,0.000,0.000,0.000,0.000,0.000,3.142,0.000,0.000,1.003,1.570,1.570,4.086,6.281,1.199,4.712,0.000,0.000,-1.070,-7.947,0.990,5.670,4.706,4.715,5.281,4.712,4.712,2.199,6.282,5.083,1.570,0.000,0.000,-0.693,-7.411,0.991,5.670,4.708,4.715,
11.927,284.591,-0.501,-7.948,2.612,0.983,1.328,2.954,2.769,1.771,0.911,0.000,4.058,0.000,2.163,1.479,0.000,0.000,2.861,0.000,0.000,0.000,0.000,0.000,0.000,0.000,0.000,0.000,1.705,0.000,3.142,0.002,0.000,1.003,1.571,1.572,4.087,6.281,1.199,4.712,0.000,0.000,-1.175,-7.932,0.990,5.750,4.706,4.715,5.282,4.713,4.714,2.198,6.282,5.083,1.571,0.000,0.000,-0.843,-7.366,0.991,5.750,4.709,4.714,
12.040,284.704,-0.585,-7.902,2.730,0.976,1.041,3.657,2.743,1.642,0.955,0.000,3.476,0.000,1.862,0.968,0.000,0.000,2.755,0.000,0.000,0.000,0.000,0.000,0.000,0.000,0.000,0.000,1.645,0.000,3.142,0.001,0.000,1.004,1.569,1.568,4.085,6.282,1.199,4.712,0.000,0.000,-1.257,-7.969,0.990,5.874,4.708,4.713,5.282,4.712,4.711,2.198,6.283,5.083,1.570,0.000,0.000,-0.994,-7.367,0.991,5.873,4.708,4.713,
12.126,284.790,-0.676,-7.864,2.760,1.034,6.257,3.801,2.669,1.652,0.955,0.000,3.533,3.729,1.767,1.068,0.000,0.000,2.755,0.000,0.000,0.000,0.000,0.000,0.000,0.000,0.000,0.000,1.709,0.000,3.142,6.282,0.000,1.004,1.568,1.567,4.084,6.281,1.199,4.712,0.000,0.000,-1.346,-7.951,0.990,5.904,4.708,4.713,5.281,4.710,4.710,2.197,6.282,5.083,1.570,0.000,0.000,-1.102,-7.342,0.990,5.904,4.707,4.713,
12.240,284.904,-0.771,-7.826,2.759,1.028,6.275,3.701,2.570,1.701,0.939,0.000,3.636,3.777,1.719,1.030,3.485,0.000,2.791,0.000,0.000,0.000,0.000,0.000,0.000,0.000,0.000,0.000,0.000,0.000,3.142,6.282,0.000,1.004,1.569,1.569,4.085,6.281,1.199,4.712,0.000,0.000,-1.440,-7.912,0.990,5.902,4.707,4.713,5.281,4.711,4.711,2.197,6.282,5.083,1.570,0.000,0.000,-1.196,-7.303,0.990,5.902,4.707,4.714,
12.332,284.996,-0.863,-7.789,2.759,0.999,6.274,3.602,2.474,1.749,0.923,0.000,3.736,0.000,1.671,0.992,3.440,0.000,2.826,0.000,0.000,0.000,0.000,0.000,0.000,0.000,0.000,0.000,0.000,0.000,3.142,6.282,0.000,1.004,1.569,1.569,4.085,6.281,1.199,4.712,0.000,0.000,-1.533,-7.874,0.990,5.901,4.707,4.713,5.281,4.711,4.711,2.197,6.282,5.083,1.570,0.000,0.000,-1.288,-7.266,0.990,5.901,4.707,4.714,
12.440,285.104,-0.955,-7.752,2.759,1.003,6.273,3.505,2.379,3.283,0.907,0.000,3.834,0.000,1.624,0.956,0.000,0.000,2.861,0.000,0.000,0.000,0.000,0.000,0.000,0.000,0.000,0.000,1.343,0.000,3.142,6.282,0.000,1.004,1.569,1.569,4.084,6.281,1.199,4.712,0.000,0.000,-1.624,-7.838,0.990,5.901,4.707,4.713,5.281,4.711,4.711,2.197,6.282,5.083,1.570,0.000,0.000,-1.379,-7.229,0.990,5.901,4.707,4.714,
12.540,285.204,-1.047,-7.715,2.759,1.018,6.272,3.400,2.284,3.135,0.891,0.000,3.934,4.935,1.576,0.918,0.000,0.000,2.896,0.000,0.000,0.000,0.000,0.000,0.000,0.000,0.000,0.000,1.219,0.000,3.142,6.282,0.000,1.004,1.569,1.569,4.084,6.281,1.199,4.712,0.000,0.000,-1.716,-7.800,0.990,5.901,4.707,4.713,5.281,4.711,4.711,2.197,6.282,5.083,1.570,0.000,0.000,-1.471,-7.192,0.990,5.901,4.707,4.714,
12.640,285.304,-1.121,-7.685,2.758,1.017,6.271,3.315,2.207,3.015,0.967,0.000,4.014,4.815,0.969,3.994,0.000,0.000,2.896,0.000,0.000,0.000,0.000,0.000,0.000,0.000,0.000,0.000,1.091,0.000,3.142,6.282,0.000,1.004,1.569,1.569,4.085,6.281,1.199,4.712,0.000,0.000,-1.790,-7.770,0.990,5.901,4.707,4.713,5.281,4.711,4.711,2.197,6.282,5.083,1.570,0.000,0.000,-1.546,-7.162,0.990,5.901,4.707,4.714,
12.740,285.404,-1.232,-7.641,2.759,1.008,6.270,3.191,2.092,2.838,1.222,0.000,4.133,4.633,1.479,4.030,0.000,0.000,2.931,0.000,0.000,0.000,0.000,0.000,0.000,0.000,0.000,0.000,0.801,0.000,3.142,6.282,0.000,1.004,1.569,1.569,4.085,6.281,1.199,4.712,0.000,0.000,-1.901,-7.726,0.990,5.901,4.707,4.713,5.281,4.711,4.711,2.198,6.282,5.083,1.570,0.000,0.000,-1.657,-7.117,0.990,5.901,4.707,4.714,
12.829,285.493,-1.323,-7.604,2.748,0.970,5.829,3.009,1.992,2.658,1.555,0.000,4.249,4.672,1.054,4.820,0.000,0.000,3.001,0.000,0.000,0.000,0.000,0.000,0.000,0.000,0.000,0.000,0.705,0.000,3.142,6.281,0.001,1.004,1.568,1.567,4.084,6.281,1.199,4.712,0.000,0.000,-1.993,-7.684,0.990,5.893,4.707,4.713,5.281,4.710,4.709,2.197,6.282,5.083,1.570,0.000,0.000,-1.743,-7.077,0.990,5.893,4.707,4.714,
12.940,285.604,-1.392,-7.575,2.689,0.936,5.080,2.549,4.847,2.379,1.592,1.471,4.441,0.000,1.072,3.909,0.000,0.000,3.071,0.000,0.000,0.000,0.000,0.000,0.000,0.000,0.000,0.000,0.654,0.000,3.142,6.280,0.001,1.004,1.568,1.565,4.085,6.281,1.199,4.711,0.000,0.000,-2.066,-7.615,0.990,5.835,4.707,4.713,5.281,4.710,4.708,2.197,0.004,5.081,1.570,0.001,0.000,-1.780,-7.026,0.990,5.839,4.705,4.715,
13.040,285.704,-1.486,-7.525,2.553,0.868,5.334,1.897,0.000,2.310,1.683,1.196,0.000,0.000,1.639,3.784,0.000,0.000,3.142,0.000,0.000,0.000,0.000,0.000,0.000,0.000,0.000,0.000,0.618,0.000,3.142,6.281,0.000,1.004,1.569,1.569,4.085,6.280,1.199,4.712,0.000,0.000,-2.158,-7.471,0.990,5.694,4.707,4.714,5.279,4.708,4.687,2.219,0.051,5.061,1.483,0.002,0.000,-1.804,-6.952,0.991,5.767,4.704,4.637,
13.125,285.789,-1.552,-7.479,2.530,0.788,0.027,1.750,0.000,2.165,3.548,1.195,0.000,0.000,1.123,3.718,0.000,0.000,3.142,0.000,0.000,0.000,0.000,0.000,0.000,0.000,0.000,0.000,0.580,0.000,3.142,6.282,6.283,1.005,1.569,1.569,4.083,6.280,1.199,4.712,0.000,0.000,-2.223,-7.411,0.990,5.671,4.708,4.714,5.273,4.697,4.649,2.222,0.108,5.025,1.645,0.001,0.000,-1.875,-6.933,0.979,5.835,4.661,4.826,
13.240,285.904,-1.612,-7.438,2.533,0.554,6.274,1.682,0.000,2.093,3.589,1.286,0.000,0.000,1.050,3.965,0.000,0.000,3.142,0.000,0.000,0.000,0.000,0.000,0.000,0.000,0.000,0.000,0.636,0.000,3.142,0.002,0.001,1.001,1.570,1.570,4.090,6.280,1.200,4.712,0.000,0.000,-2.284,-7.369,0.989,5.673,4.703,4.716,5.277,4.706,4.697,2.203,0.012,5.074,1.575,0.000,0.000,-1.914,-6.843,0.988,5.702,4.698,4.726,
13.326,285.990,-1.639,-7.419,2.533,0.178,6.264,1.649,0.000,2.059,3.608,1.327,0.000,0.000,1.019,4.065,0.000,0.000,3.142,0.000,0.000,0.000,0.000,0.000,0.000,0.000,0.000,0.000,0.633,0.000,3.142,0.000,0.001,1.003,1.570,1.570,4.087,6.281,1.199,4.712,0.000,0.000,-2.310,-7.351,0.990,5.674,4.705,4.716,5.280,4.710,4.703,2.201,0.016,5.078,1.552,0.001,0.000,-1.940,-6.822,0.989,5.699,4.703,4.702,
13.440,286.104,-1.645,-7.415,2.533,0.040,6.268,1.643,0.000,2.053,3.612,1.336,0.000,0.000,1.012,4.092,0.000,0.000,3.142,0.000,0.000,0.000,0.000,0.000,0.000,0.000,0.000,0.000,0.642,0.000,3.142,6.283,0.001,1.003,1.570,1.570,4.086,6.281,1.199,4.712,0.000,0.000,-2.316,-7.348,0.990,5.675,4.706,4.715,5.281,4.711,4.708,2.199,0.010,5.083,1.565,0.002,0.000,-1.944,-6.814,0.991,5.688,4.709,4.711,
13.532,286.196,-1.645,-7.415,2.534,0.001,6.269,1.644,0.000,2.053,3.612,1.336,0.000,0.000,1.011,4.097,0.000,0.000,3.142,0.000,0.000,0.000,0.000,0.000,0.000,0.000,0.000,0.000,0.684,0.000,3.142,6.283,0.000,1.003,1.569,1.569,4.085,6.281,1.199,4.712,0.000,0.000,-2.316,-7.348,0.990,5.675,4.706,4.715,5.281,4.710,4.707,2.200,0.005,5.082,1.567,0.001,0.000,-1.944,-6.814,0.991,5.686,4.708,4.711,
13.640,286.304,-1.645,-7.415,2.533,0.000,6.279,1.643,0.000,2.052,3.612,1.336,0.000,0.000,1.012,4.090,0.000,0.000,3.142,0.000,0.000,0.000,0.000,0.000,0.000,0.000,0.000,0.000,0.753,0.000,3.142,6.283,0.000,1.003,1.569,1.569,4.085,6.281,1.199,4.712,0.000,0.000,-2.316,-7.348,0.990,5.675,4.706,4.715,5.281,4.711,4.711,2.199,6.281,5.082,1.571,0.000,0.000,-1.941,-6.810,0.990,5.674,4.707,4.715,
13.731,286.395,-1.645,-7.415,2.533,-0.001,6.272,1.643,0.000,2.052,3.612,1.336,0.000,0.000,1.012,4.090,0.000,0.000,3.142,0.000,0.000,0.000,0.000,0.000,0.000,0.000,0.000,0.000,0.911,0.000,3.142,6.283,0.000,1.003,1.569,1.569,4.085,6.281,1.199,4.712,0.000,0.000,-2.316,-7.348,0.990,5.675,4.706,4.715,5.281,4.711,4.712,2.198,6.282,5.083,1.570,0.000,0.000,-1.941,-6.810,0.990,5.675,4.707,4.715,
13.840,286.504,-1.645,-7.415,2.533,-0.001,6.272,1.643,0.000,2.052,3.612,1.336,0.000,0.000,1.012,4.090,2.676,0.000,3.142,0.000,0.000,0.000,0.000,0.000,0.000,0.000,0.000,0.000,0.000,0.000,3.142,6.283,0.000,1.003,1.569,1.569,4.085,6.281,1.199,4.712,0.000,0.000,-2.316,-7.348,0.990,5.675,4.706,4.715,5.281,4.711,4.712,2.198,6.282,5.083,1.570,0.000,0.000,-1.941,-6.810,0.990,5.675,4.707,4.715,
13.940,286.604,-1.645,-7.415,2.533,-0.001,6.272,0.000,0.000,2.052,3.612,1.336,0.000,0.000,1.012,4.090,2.676,0.000,3.142,0.887,0.000,0.000,0.000,0.000,0.000,0.000,0.000,0.000,0.000,0.000,3.142,6.283,0.000,1.003,1.569,1.569,4.085,6.281,1.199,4.712,0.000,0.000,-2.316,-7.348,0.990,5.675,4.706,4.715,5.281,4.711,4.712,2.198,6.282,5.083,1.570,0.000,0.000,-1.941,-6.810,0.990,5.675,4.707,4.715,
14.040,286.704,-1.645,-7.415,2.533,-0.001,6.272,0.000,0.000,2.052,3.612,1.336,0.000,0.000,1.012,4.090,2.676,0.000,3.142,0.878,0.000,0.000,0.000,0.000,0.000,0.000,0.000,0.000,0.000,0.000,3.142,6.283,0.000,1.003,1.569,1.569,4.085,6.281,1.199,4.712,0.000,0.000,-2.316,-7.348,0.990,5.675,4.706,4.715,5.281,4.711,4.712,2.198,6.282,5.083,1.570,0.000,0.000,-1.941,-6.810,0.990,5.675,4.707,4.715,
14.140,286.804,-1.645,-7.415,2.533,-0.001,6.272,0.000,0.000,2.052,3.612,1.336,0.000,0.000,1.012,4.090,2.676,0.000,3.142,0.917,0.000,0.000,0.000,0.000,0.000,0.000,0.000,0.000,0.000,0.000,3.142,6.283,0.000,1.003,1.569,1.569,4.085,6.281,1.199,4.712,0.000,0.000,-2.316,-7.348,0.990,5.675,4.706,4.715,5.281,4.711,4.712,2.198,6.282,5.083,1.570,0.000,0.000,-1.941,-6.810,0.990,5.675,4.707,4.715,
14.236,286.900,-1.645,-7.415,2.533,-0.001,6.272,0.000,0.000,2.052,3.612,1.336,0.000,0.000,1.012,4.090,2.676,0.000,3.142,0.966,0.000,0.000,0.000,0.000,0.000,0.000,0.000,0.000,0.000,0.000,3.142,6.283,0.000,1.003,1.569,1.569,4.085,6.281,1.199,4.712,0.000,0.000,-2.316,-7.348,0.990,5.675,4.706,4.715,5.281,4.711,4.712,2.198,6.282,5.083,1.570,0.000,0.000,-1.941,-6.810,0.990,5.675,4.707,4.715,
14.340,287.004,-1.645,-7.415,2.533,-0.001,6.272,1.643,0.000,2.052,3.612,1.336,0.000,0.000,1.012,4.090,2.676,0.000,3.142,0.000,0.000,0.000,0.000,0.000,0.000,0.000,0.000,0.000,0.000,0.000,3.142,6.283,0.000,1.003,1.569,1.569,4.085,6.281,1.199,4.712,0.000,0.000,-2.316,-7.348,0.990,5.675,4.706,4.715,5.281,4.711,4.712,2.198,6.282,5.083,1.570,0.000,0.000,-1.941,-6.810,0.990,5.675,4.707,4.715,
14.440,287.104,-1.645,-7.415,2.533,-0.001,6.272,1.643,0.000,2.052,3.612,1.336,0.000,0.000,1.012,4.090,2.676,0.000,3.142,0.000,0.000,0.000,0.000,0.000,0.000,0.000,0.000,0.000,0.000,0.000,3.142,6.283,0.000,1.003,1.569,1.569,4.085,6.281,1.199,4.712,0.000,0.000,-2.316,-7.348,0.990,5.675,4.706,4.715,5.281,4.711,4.712,2.198,6.282,5.083,1.570,0.000,0.000,-1.941,-6.810,0.990,5.675,4.707,4.715,
14.540,287.204,-1.645,-7.415,2.533,-0.001,6.272,1.643,0.000,2.052,3.612,1.336,0.000,0.000,1.012,4.090,2.676,0.000,3.142,0.000,0.000,0.000,0.000,0.000,0.000,0.000,0.000,0.000,0.000,0.000,3.142,6.283,0.000,1.003,1.569,1.569,4.085,6.281,1.199,4.712,0.000,0.000,-2.316,-7.348,0.990,5.675,4.706,4.715,5.281,4.711,4.712,2.198,6.282,5.083,1.570,0.000,0.000,-1.941,-6.810,0.990,5.675,4.707,4.715,
14.640,287.304,-1.645,-7.415,2.533,-0.001,6.272,1.643,0.000,2.052,3.612,1.336,0.000,0.000,1.012,4.090,2.676,0.000,3.142,0.000,1.221,0.000,0.000,0.000,0.000,0.000,0.000,0.000,0.000,0.000,3.142,6.283,0.000,1.003,1.569,1.569,4.085,6.281,1.199,4.712,0.000,0.000,-2.316,-7.348,0.990,5.675,4.706,4.715,5.281,4.711,4.712,2.198,6.282,5.083,1.570,0.000,0.000,-1.941,-6.810,0.990,5.675,4.707,4.715,
14.727,287.391,-1.645,-7.415,2.533,-0.001,6.272,1.643,0.000,2.052,3.612,1.336,0.000,0.000,1.012,4.090,2.676,0.000,3.142,0.000,1.106,0.000,0.000,0.000,0.000,0.000,0.000,0.000,0.000,0.000,3.142,6.283,0.000,1.003,1.569,1.569,4.085,6.281,1.199,4.712,0.000,0.000,-2.316,-7.348,0.990,5.675,4.706,4.715,5.281,4.711,4.712,2.198,6.282,5.083,1.570,0.000,0.000,-1.941,-6.810,0.990,5.675,4.707,4.715,
14.840,287.504,-1.645,-7.415,2.533,-0.001,6.272,1.643,0.000,2.052,3.612,1.336,0.000,0.000,1.012,4.090,2.676,0.000,3.142,0.000,1.051,0.000,0.000,0.000,0.000,0.000,0.000,0.000,0.000,0.000,3.142,6.283,0.000,1.003,1.569,1.569,4.085,6.281,1.199,4.712,0.000,0.000,-2.316,-7.348,0.990,5.675,4.706,4.715,5.281,4.711,4.712,2.198,6.282,5.083,1.570,0.000,0.000,-1.941,-6.810,0.990,5.675,4.707,4.715,
14.940,287.604,-1.645,-7.415,2.533,-0.001,6.272,1.643,0.000,2.052,3.612,1.336,0.000,0.000,1.012,4.090,2.676,0.000,3.142,0.000,1.044,0.000,0.000,0.000,0.000,0.000,0.000,0.000,0.000,0.000,3.142,6.283,0.000,1.003,1.569,1.569,4.085,6.281,1.199,4.712,0.000,0.000,-2.316,-7.348,0.990,5.675,4.706,4.715,5.281,4.711,4.712,2.198,6.282,5.083,1.570,0.000,0.000,-1.941,-6.810,0.990,5.675,4.707,4.715,
15.022,287.686,-1.645,-7.415,2.533,-0.001,6.272,1.643,0.000,2.052,3.612,1.336,0.000,0.000,1.012,4.090,2.676,0.000,3.142,0.000,1.048,0.000,0.000,0.000,0.000,0.000,0.000,0.000,0.000,0.000,3.142,6.283,0.000,1.003,1.569,1.569,4.085,6.281,1.199,4.712,0.000,0.000,-2.316,-7.348,0.990,5.675,4.706,4.715,5.281,4.711,4.712,2.198,6.282,5.083,1.570,0.000,0.000,-1.941,-6.810,0.990,5.675,4.707,4.715,
15.140,287.804,-1.645,-7.415,2.533,-0.001,6.272,1.643,0.000,2.052,3.612,1.336,0.000,0.000,1.012,4.090,2.676,0.000,3.142,0.000,1.098,0.000,0.000,0.000,0.000,0.000,0.000,0.000,0.000,0.000,3.142,6.283,0.000,1.003,1.569,1.569,4.085,6.281,1.199,4.712,0.000,0.000,-2.316,-7.348,0.990,5.675,4.706,4.715,5.281,4.711,4.712,2.198,6.282,5.083,1.570,0.000,0.000,-1.941,-6.810,0.990,5.675,4.707,4.715,
15.225,287.889,-1.645,-7.415,2.533,-0.001,6.272,1.643,0.000,2.052,3.612,1.336,0.000,0.000,1.012,4.090,2.676,0.000,3.142,0.000,0.000,0.000,0.000,0.000,0.000,0.000,0.000,0.000,0.000,0.000,3.142,6.283,0.000,1.003,1.569,1.569,4.085,6.281,1.199,4.712,0.000,0.000,-2.316,-7.348,0.990,5.675,4.706,4.715,5.281,4.711,4.712,2.198,6.282,5.083,1.570,0.000,0.000,-1.941,-6.810,0.990,5.675,4.707,4.715,
15.340,288.004,-1.645,-7.415,2.533,-0.001,6.272,1.643,0.000,2.052,3.612,1.336,0.000,0.000,1.012,4.090,2.676,0.000,3.142,0.000,0.000,0.000,0.000,0.000,0.000,0.000,0.000,0.000,0.000,0.000,3.142,6.283,0.000,1.003,1.569,1.569,4.085,6.281,1.199,4.712,0.000,0.000,-2.316,-7.348,0.990,5.675,4.706,4.715,5.281,4.711,4.712,2.198,6.282,5.083,1.570,0.000,0.000,-1.941,-6.810,0.990,5.675,4.707,4.715,
15.440,288.104,-1.645,-7.415,2.533,-0.001,6.272,1.643,0.000,2.052,3.612,1.336,0.000,0.000,1.012,4.090,2.676,0.000,3.142,0.000,0.000,0.000,0.000,0.000,0.000,0.000,0.000,0.000,0.000,0.000,3.142,6.283,0.000,1.003,1.569,1.569,4.085,6.281,1.199,4.712,0.000,0.000,-2.316,-7.348,0.990,5.675,4.706,4.715,5.281,4.711,4.712,2.198,6.282,5.083,1.570,0.000,0.000,-1.941,-6.810,0.990,5.675,4.707,4.715,
15.525,288.189,-1.645,-7.415,2.533,-0.001,6.272,1.643,0.000,0.000,3.612,1.336,0.000,0.000,1.012,4.090,2.676,0.000,3.142,0.000,0.000,1.093,0.000,0.000,0.000,0.000,0.000,0.000,0.000,0.000,3.142,6.283,0.000,1.003,1.569,1.569,4.085,6.281,1.199,4.712,0.000,0.000,-2.316,-7.348,0.990,5.675,4.706,4.715,5.281,4.711,4.712,2.198,6.282,5.083,1.570,0.000,0.000,-1.941,-6.810,0.990,5.675,4.707,4.715,
15.640,288.304,-1.645,-7.415,2.533,-0.001,6.272,1.643,0.000,0.000,3.612,1.336,0.000,0.000,1.012,4.090,2.676,0.000,3.142,0.000,0.000,0.852,0.000,0.000,0.000,0.000,0.000,0.000,0.000,0.000,3.142,6.283,0.000,1.003,1.569,1.569,4.085,6.281,1.199,4.712,0.000,0.000,-2.316,-7.348,0.990,5.675,4.706,4.715,5.281,4.711,4.712,2.198,6.282,5.083,1.570,0.000,0.000,-1.941,-6.810,0.990,5.675,4.707,4.715,
15.740,288.404,-1.645,-7.415,2.533,-0.001,6.272,1.643,0.000,0.000,3.612,1.336,0.000,0.000,1.012,4.090,2.676,0.000,3.142,0.000,0.000,0.777,0.000,0.000,0.000,0.000,0.000,0.000,0.000,0.000,3.142,6.283,0.000,1.003,1.569,1.569,4.085,6.281,1.199,4.712,0.000,0.000,-2.316,-7.348,0.990,5.675,4.706,4.715,5.281,4.711,4.712,2.198,6.282,5.083,1.570,0.000,0.000,-1.941,-6.810,0.990,5.675,4.707,4.715,
15.840,288.504,-1.645,-7.415,2.533,-0.001,6.272,1.643,0.000,0.000,3.612,1.336,0.000,0.000,1.012,4.090,2.676,0.000,3.142,0.000,0.000,0.777,0.000,0.000,0.000,0.000,0.000,0.000,0.000,0.000,3.142,6.283,0.000,1.003,1.569,1.569,4.085,6.281,1.199,4.712,0.000,0.000,-2.316,-7.348,0.990,5.675,4.706,4.715,5.281,4.711,4.712,2.198,6.282,5.083,1.570,0.000,0.000,-1.941,-6.810,0.990,5.675,4.707,4.715,
15.940,288.604,-1.645,-7.415,2.533,-0.001,6.272,1.643,0.000,0.000,3.612,1.336,0.000,0.000,1.012,4.090,2.676,0.000,3.142,0.000,0.000,0.777,0.000,0.000,0.000,0.000,0.000,0.000,0.000,0.000,3.142,6.283,0.000,1.003,1.569,1.569,4.085,6.281,1.199,4.712,0.000,0.000,-2.316,-7.348,0.990,5.675,4.706,4.715,5.281,4.711,4.712,2.198,6.282,5.083,1.570,0.000,0.000,-1.941,-6.810,0.990,5.675,4.707,4.715,
16.040,288.704,-1.645,-7.415,2.533,-0.001,6.272,1.643,0.000,0.000,3.612,1.336,0.000,0.000,1.012,4.090,2.676,0.000,3.142,0.000,0.000,0.775,0.000,0.000,0.000,0.000,0.000,0.000,0.000,0.000,3.142,6.283,0.000,1.003,1.569,1.569,4.085,6.281,1.199,4.712,0.000,0.000,-2.316,-7.348,0.990,5.675,4.706,4.715,5.281,4.711,4.712,2.198,6.282,5.083,1.570,0.000,0.000,-1.941,-6.810,0.990,5.675,4.707,4.715,
16.140,288.804,-1.645,-7.415,2.533,-0.001,6.272,1.643,0.000,0.000,3.612,1.336,0.000,0.000,1.012,4.090,2.676,0.000,3.142,0.000,0.000,0.771,0.000,0.000,0.000,0.000,0.000,0.000,0.000,0.000,3.142,6.283,0.000,1.003,1.569,1.569,4.085,6.281,1.199,4.712,0.000,0.000,-2.316,-7.348,0.990,5.675,4.706,4.715,5.281,4.711,4.712,2.198,6.282,5.083,1.570,0.000,0.000,-1.941,-6.810,0.990,5.675,4.707,4.715,
16.240,288.904,-1.645,-7.415,2.533,-0.001,6.272,1.643,0.000,0.000,3.612,1.336,0.000,0.000,1.012,4.090,2.676,0.000,3.142,0.000,0.000,0.766,0.000,0.000,0.000,0.000,0.000,0.000,0.000,0.000,3.142,6.283,0.000,1.003,1.569,1.569,4.085,6.281,1.199,4.712,0.000,0.000,-2.316,-7.348,0.990,5.675,4.706,4.715,5.281,4.711,4.712,2.198,6.282,5.083,1.570,0.000,0.000,-1.941,-6.810,0.990,5.675,4.707,4.715,
16.327,288.991,-1.645,-7.415,2.533,-0.001,6.272,1.643,0.000,0.000,3.612,1.336,0.000,0.000,1.012,4.090,2.676,0.000,3.142,0.000,0.000,0.769,0.000,0.000,0.000,0.000,0.000,0.000,0.000,0.000,3.142,6.283,0.000,1.003,1.569,1.569,4.085,6.281,1.199,4.712,0.000,0.000,-2.316,-7.348,0.990,5.675,4.706,4.715,5.281,4.711,4.712,2.198,6.282,5.083,1.570,0.000,0.000,-1.941,-6.810,0.990,5.675,4.707,4.715,
16.440,289.104,-1.645,-7.415,2.533,-0.001,6.272,1.643,0.000,0.000,3.612,1.336,0.000,0.000,1.012,4.090,2.676,0.000,3.142,0.000,0.000,0.780,0.000,0.000,0.000,0.000,0.000,0.000,0.000,0.000,3.142,6.283,0.000,1.003,1.569,1.569,4.085,6.281,1.199,4.712,0.000,0.000,-2.316,-7.348,0.990,5.675,4.706,4.715,5.281,4.711,4.712,2.198,6.282,5.083,1.570,0.000,0.000,-1.941,-6.810,0.990,5.675,4.707,4.715,
16.540,289.204,-1.645,-7.415,2.533,-0.001,6.272,1.643,0.000,2.052,3.612,1.336,0.000,0.000,1.012,4.090,2.676,0.000,3.142,0.000,0.000,0.000,0.000,0.000,0.000,0.000,0.000,0.000,0.000,0.000,3.142,6.283,0.000,1.003,1.569,1.569,4.085,6.281,1.199,4.712,0.000,0.000,-2.316,-7.348,0.990,5.675,4.706,4.715,5.281,4.711,4.712,2.198,6.282,5.083,1.570,0.000,0.000,-1.941,-6.810,0.990,5.675,4.707,4.715,
16.629,289.293,-1.645,-7.415,2.533,-0.001,6.272,1.643,0.000,2.052,3.612,1.336,0.000,0.000,1.012,4.090,2.676,0.000,3.142,0.000,0.795,0.000,0.000,0.000,0.000,0.000,0.000,0.000,0.000,0.000,3.142,6.283,0.000,1.003,1.569,1.569,4.085,6.281,1.199,4.712,0.000,0.000,-2.316,-7.348,0.990,5.675,4.706,4.715,5.281,4.711,4.712,2.198,6.282,5.083,1.570,0.000,0.000,-1.941,-6.810,0.990,5.675,4.707,4.715,
16.740,289.404,-1.645,-7.415,2.533,-0.001,6.272,1.643,0.000,2.052,3.612,1.336,0.000,0.000,1.012,4.090,2.676,0.000,3.142,0.000,0.665,0.000,0.000,0.000,0.000,0.000,0.000,0.000,0.000,0.000,3.142,6.283,0.000,1.003,1.570,1.571,4.085,6.277,1.200,4.714,0.010,0.000,-2.315,-7.346,0.990,5.670,4.706,4.716,5.281,4.711,4.711,2.198,6.282,5.083,1.570,0.000,0.000,-1.941,-6.810,0.990,5.675,4.707,4.715,
16.840,289.504,-1.645,-7.415,2.533,0.000,6.272,1.643,0.000,2.052,3.612,1.336,0.000,0.000,1.012,4.090,2.676,0.000,3.142,0.000,0.655,0.000,0.000,0.000,0.000,0.000,0.000,0.000,0.000,0.000,3.142,6.283,0.000,1.003,1.569,1.569,4.085,6.281,1.199,4.712,0.000,0.000,-2.316,-7.348,0.990,5.675,4.706,4.715,5.281,4.711,4.712,2.198,6.282,5.083,1.570,0.000,0.000,-1.941,-6.810,0.990,5.675,4.707,4.715,
16.940,289.604,-1.645,-7.415,2.533,-0.001,6.272,1.643,0.000,2.052,3.612,1.336,0.000,0.000,1.012,4.090,2.676,0.000,3.142,0.000,0.681,0.000,0.000,0.000,0.000,0.000,0.000,0.000,0.000,0.000,3.142,6.283,0.000,1.003,1.569,1.569,4.085,6.281,1.199,4.712,0.000,0.000,-2.316,-7.348,0.990,5.675,4.706,4.715,5.281,4.711,4.711,2.198,6.282,5.083,1.570,0.000,0.000,-1.941,-6.810,0.990,5.675,4.707,4.715,
17.040,289.704,-1.645,-7.415,2.533,-0.001,6.272,1.643,0.000,2.052,3.612,1.336,0.000,0.000,1.012,4.090,2.676,0.000,3.142,0.000,0.000,0.000,0.000,0.000,0.000,0.000,0.000,0.000,0.000,0.000,3.142,6.283,0.000,1.003,1.569,1.569,4.085,6.281,1.199,4.712,0.000,0.000,-2.316,-7.348,0.990,5.675,4.706,4.715,5.281,4.711,4.712,2.198,6.282,5.083,1.570,0.000,0.000,-1.941,-6.810,0.990,5.675,4.707,4.715,
17.130,289.794,-1.645,-7.415,2.533,-0.001,6.272,1.643,0.000,2.052,3.612,1.336,0.000,0.000,1.012,4.090,2.676,0.000,3.142,0.000,0.000,0.000,0.000,0.000,0.000,0.000,0.000,0.000,0.000,0.000,3.142,6.283,0.000,1.003,1.569,1.569,4.085,6.281,1.199,4.712,0.000,0.000,-2.316,-7.348,0.990,5.675,4.706,4.715,5.281,4.711,4.712,2.198,6.282,5.083,1.570,0.000,0.000,-1.941,-6.810,0.990,5.675,4.707,4.715,
17.240,289.904,-1.645,-7.415,2.533,-0.001,6.272,0.000,0.000,2.052,3.612,1.336,0.000,0.000,1.012,4.090,2.676,0.000,3.142,0.826,0.000,0.000,0.000,0.000,0.000,0.000,0.000,0.000,0.000,0.000,3.142,6.283,0.000,1.003,1.569,1.569,4.085,6.281,1.199,4.712,0.000,0.000,-2.316,-7.348,0.990,5.675,4.706,4.715,5.281,4.711,4.712,2.198,6.282,5.083,1.570,0.000,0.000,-1.941,-6.810,0.990,5.675,4.707,4.715,
17.339,290.003,-1.645,-7.415,2.533,-0.001,6.272,0.000,0.000,2.052,3.612,1.336,0.000,0.000,1.012,4.090,2.676,0.000,3.142,0.840,0.000,0.000,0.000,0.000,0.000,0.000,0.000,0.000,0.000,0.000,3.142,6.283,0.000,1.003,1.569,1.569,4.085,6.281,1.199,4.712,0.000,0.000,-2.316,-7.348,0.990,5.675,4.706,4.715,5.281,4.711,4.712,2.198,6.282,5.083,1.570,0.000,0.000,-1.941,-6.810,0.990,5.675,4.707,4.715,
17.440,290.104,-1.645,-7.415,2.533,-0.001,6.272,0.000,0.000,2.052,3.612,1.336,0.000,0.000,1.012,4.090,2.676,0.000,3.142,0.873,0.000,0.000,0.000,0.000,0.000,0.000,0.000,0.000,0.000,0.000,3.142,6.283,0.000,1.003,1.569,1.569,4.085,6.281,1.199,4.712,0.000,0.000,-2.316,-7.348,0.990,5.675,4.706,4.715,5.281,4.711,4.712,2.198,6.282,5.083,1.570,0.000,0.000,-1.941,-6.810,0.990,5.675,4.707,4.715,
17.540,290.204,-1.645,-7.415,2.533,-0.001,6.272,0.000,0.000,2.052,3.612,1.336,0.000,0.000,1.012,4.090,2.676,0.000,3.142,1.017,0.000,0.000,0.000,0.000,0.000,0.000,0.000,0.000,0.000,0.000,3.142,6.283,0.000,1.003,1.569,1.569,4.085,6.281,1.199,4.712,0.000,0.000,-2.316,-7.348,0.990,5.675,4.706,4.715,5.281,4.711,4.712,2.198,6.282,5.083,1.570,0.000,0.000,-1.941,-6.810,0.990,5.675,4.707,4.715,
17.640,290.304,-1.645,-7.415,2.533,-0.001,6.272,1.643,0.000,2.052,3.612,1.336,0.000,0.000,1.012,4.090,2.676,0.000,3.142,0.000,0.000,0.000,0.000,0.000,0.000,0.000,0.000,0.000,0.000,0.000,3.142,6.283,0.000,1.003,1.569,1.569,4.085,6.281,1.199,4.712,0.000,0.000,-2.316,-7.348,0.990,5.675,4.706,4.715,5.281,4.711,4.712,2.198,6.282,5.083,1.570,0.000,0.000,-1.941,-6.810,0.990,5.675,4.707,4.715,
17.740,290.404,-1.645,-7.415,2.533,-0.001,6.272,1.643,0.000,2.052,3.612,1.336,0.000,0.000,1.012,4.090,2.676,0.000,3.142,0.000,0.000,0.000,0.000,0.000,0.000,0.000,0.000,0.000,0.000,0.000,3.142,6.283,0.000,1.003,1.569,1.569,4.085,6.281,1.199,4.712,0.000,0.000,-2.316,-7.348,0.990,5.675,4.706,4.715,5.281,4.711,4.712,2.198,6.282,5.083,1.570,0.000,0.000,-1.941,-6.810,0.990,5.675,4.707,4.715,
17.840,290.504,-1.645,-7.415,2.533,-0.001,6.272,1.643,0.000,2.052,3.612,1.336,0.000,0.000,1.012,4.090,0.000,0.000,3.142,0.000,0.000,0.000,0.000,0.000,0.000,0.000,0.000,0.000,1.219,0.000,3.142,6.283,0.000,1.003,1.569,1.569,4.085,6.281,1.199,4.712,0.000,0.000,-2.316,-7.348,0.990,5.675,4.706,4.715,5.281,4.711,4.712,2.198,6.282,5.083,1.570,0.000,0.000,-1.941,-6.810,0.990,5.675,4.707,4.715,
17.940,290.604,-1.645,-7.415,2.533,-0.001,6.272,1.643,0.000,2.052,3.612,1.336,0.000,0.000,1.012,4.090,0.000,0.000,3.142,0.000,0.000,0.000,0.000,0.000,0.000,0.000,0.000,0.000,1.092,0.000,3.142,6.283,0.000,1.003,1.569,1.569,4.085,6.281,1.199,4.712,0.000,0.000,-2.316,-7.348,0.990,5.675,4.706,4.715,5.281,4.711,4.712,2.198,6.282,5.083,1.570,0.000,0.000,-1.941,-6.810,0.990,5.675,4.707,4.715,
18.040,290.704,-1.645,-7.415,2.533,-0.001,6.272,1.643,0.000,2.052,3.612,1.336,0.000,0.000,1.012,4.090,0.000,0.000,3.142,0.000,0.000,0.000,0.000,0.000,0.000,0.000,0.000,0.000,1.100,0.000,3.142,6.283,0.000,1.003,1.569,1.569,4.085,6.281,1.199,4.712,0.000,0.000,-2.316,-7.348,0.990,5.675,4.706,4.715,5.281,4.711,4.712,2.198,6.282,5.083,1.570,0.000,0.000,-1.941,-6.810,0.990,5.675,4.707,4.715,
18.140,290.804,-1.645,-7.415,2.533,-0.001,6.272,1.643,0.000,2.052,3.612,1.336,0.000,0.000,1.012,4.090,0.000,0.000,3.142,0.000,0.000,0.000,0.000,0.000,0.000,0.000,0.000,0.000,1.135,0.000,3.142,6.283,0.000,1.003,1.569,1.569,4.085,6.281,1.199,4.712,0.000,0.000,-2.316,-7.348,0.990,5.675,4.706,4.715,5.281,4.711,4.712,2.198,6.282,5.083,1.570,0.000,0.000,-1.941,-6.810,0.990,5.675,4.707,4.715,
18.240,290.904,-1.645,-7.415,2.533,-0.001,6.272,1.643,0.000,2.052,3.612,1.336,0.000,0.000,1.012,4.090,2.676,0.000,3.142,0.000,0.000,0.000,0.000,0.000,0.000,0.000,0.000,0.000,0.000,0.000,3.142,6.283,0.000,1.003,1.569,1.569,4.085,6.281,1.199,4.712,0.000,0.000,-2.316,-7.348,0.990,5.675,4.706,4.715,5.281,4.711,4.712,2.198,6.282,5.083,1.570,0.000,0.000,-1.941,-6.810,0.990,5.675,4.707,4.715,
18.337,291.001,-1.645,-7.415,2.533,-0.001,6.272,1.643,0.000,2.052,3.612,1.336,0.000,0.000,1.012,4.090,2.676,0.000,3.142,0.000,0.000,0.000,0.000,0.000,0.000,0.000,0.000,0.000,0.000,0.000,3.142,6.283,0.000,1.003,1.569,1.569,4.085,6.281,1.199,4.712,0.000,0.000,-2.316,-7.348,0.990,5.675,4.706,4.715,5.281,4.711,4.712,2.198,6.282,5.083,1.570,0.000,0.000,-1.941,-6.810,0.990,5.675,4.707,4.715,
18.440,291.104,-1.645,-7.415,2.533,-0.001,6.272,1.643,0.000,2.052,3.612,1.336,0.000,0.000,1.012,4.090,2.676,0.000,3.142,0.000,0.000,0.000,0.000,0.000,0.000,0.000,0.000,0.000,0.000,0.000,3.142,6.283,0.000,1.003,1.569,1.569,4.085,6.281,1.199,4.712,0.000,0.000,-2.316,-7.348,0.990,5.675,4.706,4.715,5.281,4.711,4.712,2.198,6.282,5.083,1.570,0.000,0.000,-1.941,-6.810,0.990,5.675,4.707,4.715,
18.540,291.204,-1.645,-7.415,2.533,-0.001,6.272,1.643,0.000,2.052,3.612,1.336,0.000,0.000,1.012,4.090,2.676,0.000,3.142,0.000,0.000,0.000,0.000,0.000,0.000,0.000,0.000,0.000,0.000,0.000,3.142,6.283,0.000,1.003,1.569,1.569,4.085,6.281,1.199,4.712,0.000,0.000,-2.316,-7.348,0.990,5.675,4.706,4.715,5.281,4.711,4.712,2.198,6.282,5.083,1.570,0.000,0.000,-1.941,-6.810,0.990,5.675,4.707,4.715,
18.629,291.293,-1.645,-7.415,2.533,-0.001,6.272,1.643,0.000,2.052,3.612,1.336,0.000,0.000,1.012,4.090,2.676,0.000,3.142,0.000,0.000,0.000,0.000,0.000,0.000,0.000,0.000,0.000,0.000,0.000,3.142,6.283,0.000,1.003,1.569,1.569,4.085,6.281,1.199,4.712,0.000,0.000,-2.316,-7.348,0.990,5.675,4.706,4.715,5.281,4.711,4.712,2.198,6.282,5.083,1.570,0.000,0.000,-1.941,-6.810,0.990,5.675,4.707,4.715,
18.740,291.404,-1.645,-7.415,2.533,-0.001,6.272,1.643,0.000,2.052,3.612,1.336,0.000,0.000,1.012,0.000,2.676,0.000,3.142,0.000,0.000,0.000,0.000,0.000,0.000,0.000,0.000,1.658,0.000,0.000,3.142,6.283,0.000,1.003,1.569,1.569,4.085,6.281,1.199,4.712,0.000,0.000,-2.316,-7.348,0.990,