deveshdatwani/Gopher/Assets/Data/07-15 20-29-17/Grasping_robot_value.csv
game_time,true_time,x,y,az,vx,vaz,dis_to_obs_0,dis_to_obs_36,dis_to_obs_72,dis_to_obs_108,dis_to_obs_144,dis_to_obs_180,dis_to_obs_-144,dis_to_obs_-108,dis_to_obs_-72,dis_to_obs_-36,dis_to_min_obs,direction_to_min_obs,dis_to_human_0,dis_to_human_36,dis_to_human_72,dis_to_human_108,dis_to_human_144,dis_to_human_180,dis_to_human_-144,dis_to_human_-108,dis_to_human_-72,dis_to_human_-36,dis_to_min_human,direction_to_min_human,main_cam_yaw,main_cam_pitch,left_joint_1,left_joint_2,left_joint_3,left_joint_4,left_joint_5,left_joint_6,left_joint_7,left_joint_gripper,left_is_grasping,left_end_x,left_end_y,left_end_z,left_end_ax,left_end_ay,left_end_az,right_joint_1,right_joint_2,right_joint_3,right_joint_4,right_joint_5,right_joint_6,right_joint_7,right_joint_gripper,right_is_grasping,right_end_x,right_end_y,right_end_z,right_end_ax,right_end_ay,right_end_az,
12.187,17.960,1.566,-10.205,1.428,0.909,1.011,3.734,4.238,2.348,1.787,2.600,4.755,2.809,1.592,1.458,4.488,0.000,2.931,0.000,0.000,0.000,0.000,0.000,0.000,0.000,0.000,0.000,0.000,0.000,3.142,0.001,0.000,1.003,1.570,1.570,4.086,6.281,1.199,4.712,0.000,0.000,1.325,-9.575,0.990,4.855,1.606,1.535,5.282,4.712,4.712,2.198,6.282,5.083,1.570,0.000,0.000,1.975,-9.668,0.991,4.856,1.594,1.547,
12.300,18.073,1.577,-10.117,1.516,0.902,1.025,3.619,4.007,2.341,1.837,2.906,4.802,2.607,1.521,1.477,4.610,0.000,2.896,0.000,0.000,0.000,0.000,0.000,0.000,0.000,0.000,0.000,0.000,0.000,3.142,0.001,0.000,1.003,1.570,1.570,4.085,6.281,1.199,4.712,0.000,0.000,1.281,-9.511,0.990,4.767,1.656,1.485,5.282,4.712,4.712,2.198,6.282,5.083,1.570,0.000,0.000,1.936,-9.546,0.991,4.768,1.632,1.509,
12.386,18.159,1.580,-10.027,1.605,0.922,1.029,3.532,0.000,2.695,1.897,3.308,4.887,2.299,1.475,1.092,4.217,0.000,2.861,0.000,0.000,0.000,0.000,0.000,0.000,0.000,0.000,0.000,0.000,0.000,3.142,0.001,0.000,1.003,1.570,1.569,4.085,6.281,1.199,4.712,0.000,0.000,1.231,-9.450,0.990,4.747,4.577,4.847,5.282,4.712,4.712,2.198,6.282,5.083,1.570,0.000,0.000,1.887,-9.427,0.991,4.746,4.614,4.810,
12.500,18.273,1.578,-9.973,1.689,0.084,0.815,3.505,0.000,2.431,1.967,3.824,4.962,2.088,1.448,1.133,3.950,0.000,2.861,0.000,0.000,0.000,0.000,0.000,0.000,0.000,0.000,0.000,0.000,0.000,3.142,0.006,0.001,0.998,1.572,1.573,4.095,6.281,1.200,4.712,0.000,0.000,1.184,-9.423,0.989,4.826,4.628,4.795,5.280,4.714,4.715,2.199,6.282,5.083,1.570,0.000,0.000,1.836,-9.349,0.990,4.826,4.673,4.751,
12.600,18.373,1.580,-9.987,1.743,-0.382,0.869,3.551,0.000,2.246,2.026,0.000,4.986,1.973,1.433,1.163,3.859,0.000,2.791,0.000,0.000,0.000,0.000,0.000,0.000,0.000,0.000,0.000,0.000,0.000,3.142,0.004,0.000,1.000,1.571,1.572,4.090,6.281,1.200,4.712,0.000,0.000,1.157,-9.461,0.990,4.881,4.672,4.751,5.280,4.713,4.714,2.200,6.282,5.083,1.570,0.000,0.000,1.804,-9.351,0.991,4.881,4.693,4.730,
12.700,18.473,1.586,-10.019,1.853,-0.073,1.206,3.684,0.000,1.955,2.183,0.000,2.859,1.785,1.414,1.237,3.722,0.000,2.650,0.000,0.000,0.000,0.000,0.000,0.000,0.000,0.000,0.000,0.000,0.000,3.142,0.000,6.283,1.004,1.569,1.568,4.083,6.281,1.199,4.712,0.000,0.000,1.106,-9.546,0.990,4.996,4.703,4.721,5.282,4.711,4.711,2.199,6.282,5.083,1.570,0.000,0.000,1.736,-9.363,0.991,4.995,4.704,4.720,
12.800,18.573,1.588,-10.026,1.936,-0.275,1.035,3.801,0.000,1.806,2.333,0.000,2.847,1.681,1.414,1.314,3.638,0.000,2.545,0.000,0.000,0.000,0.000,0.000,0.000,0.000,0.000,0.000,0.000,0.000,3.142,0.005,0.001,1.000,1.571,1.572,4.092,6.281,1.200,4.712,0.000,0.000,1.072,-9.590,0.989,5.075,4.690,4.733,5.280,4.713,4.715,2.200,6.282,5.083,1.570,0.000,0.000,1.686,-9.358,0.991,5.074,4.703,4.720,
12.900,18.673,1.622,-10.111,1.986,-1.242,0.199,3.978,2.766,1.821,2.488,4.881,2.813,1.591,1.386,1.327,3.683,0.000,2.440,0.000,0.000,0.000,0.000,0.000,0.000,0.000,0.000,0.000,0.000,0.000,3.142,0.004,0.001,0.999,1.570,1.571,4.093,6.280,1.200,4.712,0.000,0.000,1.084,-9.702,0.989,5.125,4.691,4.731,5.280,4.712,4.713,2.199,6.282,5.083,1.570,0.000,0.000,1.685,-9.439,0.990,5.126,4.702,4.721,
13.000,18.773,1.666,-10.211,1.987,-1.409,6.280,4.090,2.428,1.866,2.550,4.778,2.705,1.539,1.342,1.268,3.785,0.000,2.369,0.000,0.000,0.000,0.000,0.000,0.000,0.000,0.000,0.000,0.000,0.000,3.142,6.283,0.000,1.003,1.570,1.570,4.086,6.281,1.199,4.712,0.000,0.000,1.128,-9.805,0.990,5.128,4.700,4.723,5.281,4.711,4.712,2.199,6.282,5.083,1.570,0.000,0.000,1.728,-9.540,0.990,5.128,4.702,4.721,
13.100,18.873,1.722,-10.336,1.987,-0.886,6.278,4.227,2.539,1.922,2.626,4.651,2.568,1.475,1.286,1.193,3.912,0.000,2.299,0.000,0.000,0.000,0.000,0.000,0.000,0.000,0.000,0.000,0.000,0.000,3.142,6.281,6.283,1.005,1.569,1.568,4.082,6.281,1.199,4.712,0.000,0.000,1.182,-9.931,0.990,5.131,4.705,4.719,5.281,4.711,4.710,2.198,6.282,5.083,1.570,0.000,0.000,1.782,-9.665,0.990,5.130,4.702,4.721,
13.200,18.973,1.748,-10.394,1.987,-0.809,6.277,4.292,2.590,1.948,2.662,4.592,2.504,1.445,1.260,1.158,3.972,0.000,2.264,0.000,0.000,0.000,0.000,0.000,0.000,0.000,0.000,0.000,0.000,0.000,3.142,0.000,0.000,1.003,1.570,1.570,4.086,6.281,1.199,4.712,0.000,0.000,1.209,-9.988,0.990,5.128,4.699,4.723,5.281,4.712,4.712,2.199,6.282,5.083,1.570,0.000,0.000,1.809,-9.723,0.990,5.128,4.702,4.721,
13.300,19.073,1.792,-10.496,1.957,-1.081,5.451,4.346,2.680,1.986,2.649,4.515,2.362,1.419,1.212,1.266,4.102,0.000,2.229,0.000,0.000,0.000,0.000,0.000,0.000,0.000,0.000,0.000,0.000,0.000,3.142,6.282,0.001,1.003,1.569,1.567,4.087,6.281,1.199,4.712,0.000,0.000,1.264,-10.074,0.990,5.101,4.697,4.725,5.280,4.711,4.710,2.198,6.282,5.083,1.570,0.000,0.000,1.872,-9.827,0.990,5.101,4.699,4.723,
13.400,19.173,1.824,-10.578,1.872,-1.112,4.857,4.295,0.000,2.009,2.511,4.530,2.206,1.464,1.176,1.452,3.822,0.000,2.299,0.000,0.000,0.000,0.000,0.000,0.000,0.000,0.000,0.000,0.000,0.000,3.142,6.281,0.001,1.003,1.570,1.568,4.086,6.282,1.199,4.712,0.000,0.000,1.334,-10.113,0.990,5.015,4.696,4.726,5.281,4.712,4.711,2.198,6.283,5.083,1.570,0.000,0.000,1.961,-9.918,0.991,5.015,4.700,4.723,
13.500,19.273,1.847,-10.643,1.736,-0.009,5.320,4.214,0.000,2.048,2.325,4.686,2.169,1.611,1.165,1.307,4.598,0.000,2.404,0.000,0.000,0.000,0.000,0.000,0.000,0.000,0.000,0.000,0.000,0.000,3.142,6.277,6.283,1.007,1.568,1.567,4.077,6.283,1.199,4.712,0.000,0.000,1.424,-10.119,0.991,4.882,4.711,4.713,5.283,4.711,4.710,2.198,0.000,5.083,1.571,0.000,0.000,2.072,-10.008,0.991,4.881,4.696,4.729,
13.600,19.373,1.845,-10.625,1.677,0.374,5.454,4.157,0.000,2.065,2.253,4.846,4.299,1.716,1.178,1.271,1.555,0.000,2.475,0.000,0.000,0.000,0.000,0.000,0.000,0.000,0.000,0.000,0.000,0.000,3.142,6.279,0.000,1.006,1.568,1.567,4.082,6.281,1.199,4.712,0.000,0.000,1.455,-10.076,0.990,4.822,4.678,4.746,5.282,4.710,4.710,2.197,6.282,5.083,1.570,0.000,0.000,2.107,-10.004,0.991,4.821,4.672,4.751,
13.700,19.473,1.842,-10.586,1.577,0.490,5.309,4.087,0.000,2.396,2.157,0.000,4.326,1.943,1.212,1.224,1.330,0.000,2.580,0.000,0.000,0.000,0.000,0.000,0.000,0.000,0.000,0.000,0.000,0.000,3.142,6.278,0.000,1.007,1.567,1.566,4.080,6.281,1.199,4.712,0.000,0.000,1.507,-10.001,0.990,4.724,4.532,4.892,5.282,4.710,4.708,2.197,6.282,5.083,1.570,0.000,0.000,2.164,-9.994,0.991,4.723,4.317,5.107,
13.800,19.573,1.842,-10.525,1.523,1.048,5.791,4.027,4.519,2.765,2.118,3.371,4.392,2.101,1.235,1.203,1.235,0.000,2.650,0.000,0.000,0.000,0.000,0.000,0.000,0.000,0.000,0.000,0.000,0.000,3.142,6.278,6.283,1.008,1.568,1.566,4.078,6.281,1.198,4.712,0.000,0.000,1.540,-9.923,0.990,4.757,1.607,1.534,5.283,4.710,4.709,2.197,6.282,5.083,1.571,0.000,0.000,2.196,-9.952,0.991,4.758,1.655,1.486,
13.900,19.673,1.852,-10.375,1.447,1.290,5.244,3.897,4.480,2.687,2.086,3.087,4.571,2.360,1.264,1.172,1.115,0.000,2.826,0.000,0.000,0.000,0.000,0.000,0.000,0.000,0.000,0.000,0.000,0.000,3.142,6.281,0.001,1.004,1.568,1.566,4.086,6.281,1.199,4.712,0.000,0.000,1.596,-9.750,0.989,4.833,1.616,1.524,5.281,4.711,4.709,2.197,6.282,5.083,1.570,0.000,0.000,2.248,-9.830,0.990,4.833,1.610,1.530,
14.000,19.773,1.864,-10.286,1.377,0.991,5.508,3.845,4.216,2.638,2.071,2.882,4.714,2.679,1.296,1.146,1.021,0.000,2.931,0.000,0.000,0.000,0.000,0.000,0.000,0.000,0.000,0.000,0.000,0.000,3.142,6.283,0.001,1.002,1.570,1.570,4.089,6.280,1.199,4.712,0.000,0.000,1.656,-9.643,0.989,4.908,1.606,1.535,5.281,4.712,4.713,2.198,6.281,5.083,1.570,0.000,0.000,2.299,-9.770,0.990,4.908,1.593,1.548,
14.088,19.861,1.884,-10.184,1.384,0.870,0.778,3.738,4.116,2.606,2.094,2.930,4.812,2.594,1.268,1.126,0.999,0.000,2.966,0.000,0.000,0.000,0.000,0.000,0.000,0.000,0.000,0.000,0.000,0.000,3.142,0.001,0.000,1.003,1.571,1.572,4.085,6.281,1.199,4.712,0.000,0.000,1.673,-9.544,0.990,4.903,1.596,1.546,5.281,4.712,4.714,2.199,6.281,5.083,1.571,0.000,0.000,2.317,-9.667,0.991,4.903,1.588,1.554,
14.200,19.973,1.899,-10.098,1.477,0.687,0.741,3.609,4.236,2.598,2.149,3.271,4.835,2.149,1.196,1.131,1.082,0.000,2.931,0.000,0.000,0.000,0.000,0.000,0.000,0.000,0.000,0.000,0.000,0.000,3.142,0.003,0.001,1.001,1.570,1.569,4.090,6.282,1.200,4.712,0.000,0.000,1.627,-9.479,0.989,4.806,1.651,1.489,5.281,4.713,4.712,2.198,6.283,5.083,1.570,0.000,0.000,2.280,-9.542,0.990,4.806,1.616,1.525,
14.300,20.073,1.902,-10.061,1.497,0.313,0.036,3.567,4.246,2.590,2.164,3.360,4.864,2.072,1.183,1.134,1.103,0.000,2.966,0.000,0.000,0.000,0.000,0.000,0.000,0.000,0.000,0.000,0.000,0.000,3.142,0.001,0.001,1.002,1.569,1.569,4.089,6.281,1.200,4.712,0.000,0.000,1.617,-9.448,0.989,4.785,1.664,1.476,5.281,4.711,4.711,2.198,6.282,5.083,1.570,0.000,0.000,2.271,-9.497,0.990,4.785,1.633,1.508,
14.395,20.167,1.903,-10.043,1.498,0.054,6.267,3.549,4.227,2.583,2.166,3.364,4.881,2.068,1.181,1.133,1.102,0.000,2.966,0.000,0.000,0.000,0.000,0.000,0.000,0.000,0.000,0.000,0.000,0.000,3.142,6.283,0.001,1.003,1.570,1.570,4.086,6.281,1.199,4.712,0.000,0.000,1.618,-9.431,0.990,4.786,1.647,1.494,5.281,4.711,4.712,2.198,6.282,5.083,1.570,0.000,0.000,2.273,-9.479,0.990,4.785,1.635,1.506,
14.500,20.273,1.903,-10.043,1.498,0.001,6.267,3.548,4.227,2.583,2.166,3.365,4.882,2.067,1.181,1.133,1.102,0.000,2.966,0.000,0.000,0.000,0.000,0.000,0.000,0.000,0.000,0.000,0.000,0.000,3.142,6.283,0.000,1.003,1.569,1.569,4.085,6.281,1.199,4.712,0.000,0.000,1.618,-9.431,0.990,4.785,1.640,1.501,5.281,4.711,4.711,2.198,6.282,5.083,1.570,0.000,0.000,2.272,-9.479,0.990,4.785,1.630,1.511,
14.586,20.358,1.903,-10.043,1.498,0.001,6.267,3.548,4.227,2.583,2.166,3.365,4.882,2.067,1.181,1.133,1.102,0.000,2.966,0.000,0.000,0.000,0.000,0.000,0.000,0.000,0.000,0.000,0.000,0.000,3.142,6.283,0.000,1.003,1.569,1.569,4.085,6.281,1.199,4.712,0.000,0.000,1.618,-9.431,0.990,4.785,1.640,1.501,5.281,4.711,4.712,2.198,6.282,5.083,1.570,0.000,0.000,2.272,-9.479,0.990,4.785,1.630,1.511,
14.700,20.473,1.903,-10.043,1.498,0.001,6.267,3.548,4.227,2.583,2.166,3.365,4.882,2.067,1.181,1.133,1.102,0.000,2.966,0.000,0.000,0.000,0.000,0.000,0.000,0.000,0.000,0.000,0.000,0.000,3.142,6.283,0.000,1.003,1.569,1.569,4.085,6.281,1.199,4.712,0.000,0.000,1.618,-9.431,0.990,4.785,1.640,1.501,5.281,4.711,4.712,2.198,6.282,5.083,1.570,0.000,0.000,2.272,-9.479,0.990,4.785,1.630,1.511,
14.800,20.573,1.903,-10.043,1.498,0.001,6.267,3.548,4.227,2.583,2.166,3.365,4.882,2.067,1.181,1.133,1.102,0.000,2.966,0.000,0.000,0.000,0.000,0.000,0.000,0.000,0.000,0.000,0.000,0.000,3.142,6.283,0.000,1.003,1.569,1.569,4.085,6.281,1.199,4.712,0.000,0.000,1.618,-9.431,0.990,4.785,1.640,1.501,5.281,4.711,4.712,2.198,6.282,5.083,1.570,0.000,0.000,2.272,-9.479,0.990,4.785,1.630,1.511,
14.900,20.673,1.903,-10.043,1.498,0.001,6.267,3.548,4.227,2.583,2.166,3.365,4.882,2.067,1.181,1.133,1.102,0.000,2.966,0.000,0.000,0.000,0.000,0.000,0.000,0.000,0.000,0.000,0.000,0.000,3.142,6.283,0.000,1.003,1.569,1.569,4.085,6.281,1.199,4.712,0.000,0.000,1.618,-9.431,0.990,4.785,1.640,1.501,5.281,4.711,4.712,2.198,6.282,5.083,1.570,0.000,0.000,2.272,-9.479,0.990,4.785,1.630,1.511,
15.000,20.773,1.903,-10.043,1.498,0.001,6.267,3.548,4.227,2.583,2.166,3.365,4.882,2.067,1.181,1.133,1.102,0.000,2.966,0.000,0.000,0.000,0.000,0.000,0.000,0.000,0.000,0.000,0.000,0.000,3.142,6.283,0.000,1.003,1.569,1.569,4.085,6.281,1.199,4.712,0.000,0.000,1.618,-9.431,0.990,4.785,1.640,1.501,5.281,4.711,4.712,2.198,6.282,5.083,1.570,0.000,0.000,2.272,-9.479,0.990,4.785,1.630,1.511,
15.097,20.869,1.903,-10.043,1.498,0.001,6.267,3.548,4.227,2.583,2.166,3.365,4.882,2.067,1.181,1.133,1.102,0.000,2.966,0.000,0.000,0.000,0.000,0.000,0.000,0.000,0.000,0.000,0.000,0.000,3.142,6.283,0.000,1.003,1.569,1.569,4.085,6.281,1.199,4.712,0.000,0.000,1.618,-9.431,0.990,4.785,1.640,1.501,5.281,4.711,4.712,2.198,6.282,5.083,1.570,0.000,0.000,2.272,-9.479,0.990,4.785,1.630,1.511,
15.200,20.973,1.903,-10.043,1.498,0.001,6.267,3.548,4.227,2.583,2.166,3.365,4.882,2.067,1.181,1.133,1.102,0.000,2.966,0.000,0.000,0.000,0.000,0.000,0.000,0.000,0.000,0.000,0.000,0.000,3.142,6.283,0.000,1.003,1.569,1.569,4.085,6.281,1.199,4.712,0.000,0.000,1.618,-9.431,0.990,4.785,1.640,1.501,5.281,4.711,4.712,2.198,6.282,5.083,1.570,0.000,0.000,2.272,-9.479,0.990,4.785,1.630,1.511,
15.289,21.062,1.903,-10.043,1.498,0.001,6.267,3.548,4.227,2.583,2.166,3.365,4.882,2.067,1.181,1.133,1.102,0.000,2.966,0.000,0.000,0.000,0.000,0.000,0.000,0.000,0.000,0.000,0.000,0.000,3.142,6.283,0.000,1.003,1.569,1.569,4.085,6.281,1.199,4.712,0.000,0.000,1.618,-9.431,0.990,4.785,1.640,1.501,5.281,4.711,4.712,2.198,6.282,5.083,1.570,0.000,0.000,2.272,-9.479,0.990,4.785,1.630,1.511,
15.400,21.173,1.903,-10.043,1.498,0.001,6.267,3.548,4.227,2.583,2.166,3.365,4.882,2.067,1.181,1.133,1.102,0.000,2.966,0.000,0.000,0.000,0.000,0.000,0.000,0.000,0.000,0.000,0.000,0.000,3.142,6.283,0.000,1.003,1.569,1.569,4.085,6.281,1.199,4.712,0.000,0.000,1.618,-9.431,0.990,4.785,1.640,1.501,5.281,4.711,4.712,2.198,6.282,5.083,1.570,0.000,0.000,2.272,-9.479,0.990,4.785,1.630,1.511,
15.481,21.253,1.903,-10.043,1.498,0.001,6.267,3.548,4.227,2.583,2.166,3.365,4.882,2.067,1.181,1.133,1.102,0.000,2.966,0.000,0.000,0.000,0.000,0.000,0.000,0.000,0.000,0.000,0.000,0.000,3.142,6.283,0.000,1.003,1.569,1.569,4.085,6.281,1.199,4.712,0.000,0.000,1.618,-9.431,0.990,4.785,1.640,1.501,5.281,4.711,4.712,2.198,6.282,5.083,1.570,0.000,0.000,2.272,-9.479,0.990,4.785,1.630,1.511,
15.600,21.373,1.903,-10.043,1.498,0.001,6.267,3.548,4.227,2.583,2.166,3.365,4.882,2.067,1.181,1.133,1.102,0.000,2.966,0.000,0.000,0.000,0.000,0.000,0.000,0.000,0.000,0.000,0.000,0.000,3.142,6.283,0.000,1.003,1.569,1.569,4.085,6.281,1.199,4.712,0.000,0.000,1.618,-9.431,0.990,4.785,1.640,1.501,5.281,4.711,4.712,2.198,6.282,5.083,1.570,0.000,0.000,2.272,-9.479,0.990,4.785,1.630,1.511,
15.700,21.473,1.903,-10.043,1.498,0.001,6.267,3.548,4.227,2.583,2.166,3.365,4.882,2.067,1.181,1.133,1.102,0.000,2.966,0.000,0.000,0.000,0.000,0.000,0.000,0.000,0.000,0.000,0.000,0.000,3.142,6.283,0.000,1.003,1.569,1.569,4.085,6.281,1.199,4.712,0.000,0.000,1.618,-9.431,0.990,4.785,1.640,1.501,5.281,4.711,4.712,2.198,6.282,5.083,1.570,0.000,0.000,2.272,-9.479,0.990,4.785,1.630,1.511,
15.791,21.564,1.903,-10.043,1.498,0.001,6.267,3.548,4.227,2.583,2.166,3.365,4.882,2.067,1.181,1.133,1.102,0.000,2.966,0.000,0.000,0.000,0.000,0.000,0.000,0.000,0.000,0.000,0.000,0.000,3.142,6.283,0.000,1.003,1.569,1.569,4.085,6.281,1.199,4.712,0.000,0.000,1.618,-9.431,0.990,4.785,1.640,1.501,5.281,4.711,4.712,2.198,6.282,5.083,1.570,0.000,0.000,2.272,-9.479,0.990,4.785,1.630,1.511,
15.900,21.673,1.903,-10.043,1.498,0.001,6.267,3.548,4.227,2.583,2.166,3.365,4.882,2.067,1.181,1.133,1.102,0.000,2.966,0.000,0.000,0.000,0.000,0.000,0.000,0.000,0.000,0.000,0.000,0.000,3.142,6.283,0.000,1.003,1.569,1.569,4.085,6.281,1.199,4.712,0.000,0.000,1.618,-9.431,0.990,4.785,1.640,1.501,5.281,4.711,4.712,2.198,6.282,5.083,1.570,0.000,0.000,2.272,-9.479,0.990,4.785,1.630,1.511,
15.982,21.754,1.903,-10.043,1.498,0.001,6.267,3.548,4.227,2.583,2.166,3.365,4.882,2.067,1.181,1.133,1.102,0.000,2.966,0.000,0.000,0.000,0.000,0.000,0.000,0.000,0.000,0.000,0.000,0.000,3.142,6.283,0.000,1.003,1.569,1.569,4.085,6.281,1.199,4.712,0.000,0.000,1.618,-9.431,0.990,4.785,1.640,1.501,5.281,4.711,4.712,2.198,6.282,5.083,1.570,0.000,0.000,2.272,-9.479,0.990,4.785,1.630,1.511,
16.100,21.873,1.903,-10.043,1.498,0.001,6.267,3.548,4.227,2.583,2.166,3.365,4.882,2.067,1.181,1.133,1.102,0.000,2.966,0.000,0.000,0.000,0.000,0.000,0.000,0.000,0.000,0.000,0.000,0.000,3.142,6.283,0.000,1.003,1.569,1.569,4.085,6.281,1.199,4.712,0.000,0.000,1.618,-9.431,0.990,4.785,1.640,1.501,5.281,4.711,4.712,2.198,6.282,5.083,1.570,0.000,0.000,2.272,-9.479,0.990,4.785,1.630,1.511,
16.200,21.973,1.903,-10.043,1.498,0.001,6.267,3.548,4.227,2.583,2.166,3.365,4.882,2.067,1.181,1.133,1.102,0.000,2.966,0.000,0.000,0.000,0.000,0.000,0.000,0.000,0.000,0.000,0.000,0.000,3.142,6.283,0.000,1.003,1.569,1.569,4.085,6.281,1.199,4.712,0.000,0.000,1.618,-9.431,0.990,4.785,1.640,1.501,5.281,4.711,4.712,2.198,6.282,5.083,1.570,0.000,0.000,2.272,-9.479,0.990,4.785,1.630,1.511,
16.300,22.073,1.903,-10.043,1.498,0.001,6.267,3.548,4.227,2.583,2.166,3.365,4.882,2.067,1.181,1.133,1.102,0.000,2.966,0.000,0.000,0.000,0.000,0.000,0.000,0.000,0.000,0.000,0.000,0.000,3.142,6.283,0.000,1.003,1.569,1.569,4.085,6.281,1.199,4.712,0.000,0.000,1.618,-9.431,0.990,4.785,1.640,1.501,5.281,4.711,4.712,2.198,6.282,5.083,1.570,0.000,0.000,2.272,-9.479,0.990,4.785,1.630,1.511,
16.400,22.173,1.903,-10.043,1.498,0.001,6.267,3.548,4.227,2.583,2.166,3.365,4.882,2.067,1.181,1.133,1.102,0.000,2.966,0.000,0.000,0.000,0.000,0.000,0.000,0.000,0.000,0.000,0.000,0.000,3.142,6.283,0.000,1.003,1.569,1.569,4.085,6.281,1.199,4.712,0.000,0.000,1.618,-9.431,0.990,4.785,1.640,1.501,5.281,4.711,4.712,2.198,6.282,5.083,1.570,0.000,0.000,2.272,-9.479,0.990,4.785,1.630,1.511,
16.491,22.264,1.903,-10.043,1.498,0.001,6.267,3.548,4.227,2.583,2.166,3.365,4.882,2.067,1.181,1.133,1.102,0.000,2.966,0.000,0.000,0.000,0.000,0.000,0.000,0.000,0.000,0.000,0.000,0.000,3.142,6.283,0.000,1.003,1.569,1.569,4.085,6.281,1.199,4.712,0.000,0.000,1.618,-9.431,0.990,4.785,1.640,1.501,5.281,4.711,4.712,2.198,6.282,5.083,1.570,0.000,0.000,2.272,-9.479,0.990,4.785,1.630,1.511,
16.600,22.373,1.903,-10.043,1.498,0.001,6.267,3.548,4.227,2.583,2.166,3.365,4.882,2.067,1.181,1.133,1.102,0.000,2.966,0.000,0.000,0.000,0.000,0.000,0.000,0.000,0.000,0.000,0.000,0.000,3.142,6.283,0.000,1.003,1.569,1.569,4.085,6.281,1.199,4.712,0.000,0.000,1.618,-9.431,0.990,4.785,1.640,1.501,5.281,4.711,4.712,2.198,6.282,5.083,1.570,0.000,0.000,2.272,-9.479,0.990,4.785,1.630,1.511,
16.684,22.456,1.903,-10.043,1.498,0.001,6.267,3.548,4.227,2.583,2.166,3.365,4.882,2.067,1.181,1.133,1.102,0.000,2.966,0.000,0.000,0.000,0.000,0.000,0.000,0.000,0.000,0.000,0.000,0.000,3.142,6.283,0.000,1.003,1.569,1.569,4.085,6.281,1.199,4.712,0.000,0.000,1.618,-9.431,0.990,4.785,1.640,1.501,5.281,4.711,4.712,2.198,6.282,5.083,1.570,0.000,0.000,2.272,-9.479,0.990,4.785,1.630,1.511,
16.800,22.573,1.903,-10.043,1.498,0.001,6.267,3.548,4.227,2.583,2.166,3.365,4.882,2.067,1.181,1.133,1.102,0.000,2.966,0.000,0.000,0.000,0.000,0.000,0.000,0.000,0.000,0.000,0.000,0.000,3.142,6.283,0.000,1.003,1.569,1.569,4.085,6.281,1.199,4.712,0.000,0.000,1.618,-9.431,0.990,4.785,1.640,1.501,5.281,4.711,4.712,2.198,6.282,5.083,1.570,0.000,0.000,2.272,-9.479,0.990,4.785,1.630,1.511,
16.900,22.673,1.903,-10.043,1.498,0.001,6.267,3.548,4.227,2.583,2.166,3.365,4.882,2.067,1.181,1.133,1.102,0.000,2.966,0.000,0.000,0.000,0.000,0.000,0.000,0.000,0.000,0.000,0.000,0.000,3.142,6.283,0.000,1.003,1.569,1.569,4.085,6.281,1.199,4.712,0.000,0.000,1.618,-9.431,0.990,4.785,1.640,1.501,5.281,4.711,4.712,2.198,6.282,5.083,1.570,0.000,0.000,2.272,-9.479,0.990,4.785,1.630,1.511,
16.994,22.766,1.903,-10.043,1.498,0.001,6.267,3.548,4.227,2.583,2.166,3.365,4.882,2.067,1.181,1.133,1.102,0.000,2.966,0.000,0.000,0.000,0.000,0.000,0.000,0.000,0.000,0.000,0.000,0.000,3.142,6.283,0.000,1.003,1.569,1.569,4.085,6.281,1.199,4.712,0.000,0.000,1.618,-9.431,0.990,4.785,1.640,1.501,5.281,4.711,4.712,2.198,6.282,5.083,1.570,0.000,0.000,2.272,-9.479,0.990,4.785,1.630,1.511,
17.100,22.873,1.903,-10.043,1.498,0.001,6.267,3.548,4.227,2.583,2.166,3.365,4.882,2.067,1.181,1.133,1.102,0.000,2.966,0.000,0.000,0.000,0.000,0.000,0.000,0.000,0.000,0.000,0.000,0.000,3.142,6.283,0.000,1.003,1.569,1.569,4.085,6.281,1.199,4.712,0.000,0.000,1.618,-9.431,0.990,4.785,1.640,1.501,5.281,4.711,4.712,2.198,6.282,5.083,1.570,0.000,0.000,2.272,-9.479,0.990,4.785,1.630,1.511,
17.187,22.959,1.903,-10.043,1.498,0.001,6.267,3.548,4.227,2.583,2.166,3.365,4.882,2.067,1.181,1.133,1.102,0.000,2.966,0.000,0.000,0.000,0.000,0.000,0.000,0.000,0.000,0.000,0.000,0.000,3.142,6.283,0.000,1.003,1.569,1.569,4.085,6.281,1.199,4.712,0.000,0.000,1.618,-9.431,0.990,4.785,1.640,1.501,5.281,4.711,4.712,2.198,6.282,5.083,1.570,0.000,0.000,2.272,-9.479,0.990,4.785,1.630,1.511,
17.300,23.073,1.903,-10.043,1.498,0.001,6.267,3.548,4.227,2.583,2.166,3.365,4.882,2.067,1.181,1.133,1.102,0.000,2.966,0.000,0.000,0.000,0.000,0.000,0.000,0.000,0.000,0.000,0.000,0.000,3.142,6.283,0.000,1.003,1.569,1.569,4.085,6.281,1.199,4.712,0.000,0.000,1.618,-9.431,0.990,4.785,1.640,1.501,5.281,4.711,4.712,2.198,6.282,5.083,1.570,0.000,0.000,2.272,-9.479,0.990,4.785,1.630,1.511,
17.400,23.173,1.903,-10.043,1.498,0.001,6.267,3.548,4.227,2.583,2.166,3.365,4.882,2.067,1.181,1.133,1.102,0.000,2.966,0.000,0.000,0.000,0.000,0.000,0.000,0.000,0.000,0.000,0.000,0.000,3.142,6.283,0.000,1.003,1.569,1.569,4.085,6.281,1.199,4.712,0.000,0.000,1.618,-9.431,0.990,4.785,1.640,1.501,5.281,4.711,4.712,2.198,6.282,5.083,1.570,0.000,0.000,2.272,-9.479,0.990,4.785,1.630,1.511,
17.500,23.273,1.903,-10.043,1.498,0.001,6.267,3.548,4.227,2.583,2.166,3.365,4.882,2.067,1.181,1.133,1.102,0.000,2.966,0.000,0.000,0.000,0.000,0.000,0.000,0.000,0.000,0.000,0.000,0.000,3.142,6.283,0.000,1.003,1.569,1.569,4.085,6.281,1.199,4.712,0.000,0.000,1.618,-9.431,0.990,4.785,1.640,1.501,5.281,4.711,4.712,2.198,6.282,5.083,1.570,0.000,0.000,2.272,-9.479,0.990,4.785,1.630,1.511,
17.587,23.360,1.903,-10.043,1.498,0.001,6.267,3.548,4.227,2.583,2.166,3.365,4.882,2.067,1.181,1.133,1.102,0.000,2.966,0.000,0.000,0.000,0.000,0.000,0.000,0.000,0.000,0.000,0.000,0.000,3.142,6.283,0.000,1.003,1.569,1.569,4.085,6.281,1.199,4.712,0.000,0.000,1.618,-9.431,0.990,4.785,1.640,1.501,5.281,4.711,4.712,2.198,6.282,5.083,1.570,0.000,0.000,2.272,-9.479,0.990,4.785,1.630,1.511,
17.700,23.473,1.903,-10.043,1.498,0.001,6.267,3.548,4.227,2.583,2.166,3.365,4.882,2.067,1.181,1.133,1.102,0.000,2.966,0.000,0.000,0.000,0.000,0.000,0.000,0.000,0.000,0.000,0.000,0.000,3.142,6.283,0.000,1.003,1.569,1.569,4.085,6.281,1.199,4.712,0.000,0.000,1.618,-9.431,0.990,4.785,1.640,1.501,5.281,4.711,4.712,2.198,6.282,5.083,1.570,0.000,0.000,2.272,-9.479,0.990,4.785,1.630,1.511,
17.800,23.573,1.903,-10.043,1.498,0.001,6.267,3.548,4.227,2.583,2.166,3.365,4.882,2.067,1.181,1.133,1.102,0.000,2.966,0.000,0.000,0.000,0.000,0.000,0.000,0.000,0.000,0.000,0.000,0.000,3.142,6.283,0.000,1.003,1.569,1.569,4.085,6.281,1.199,4.712,0.000,0.000,1.618,-9.431,0.990,4.785,1.640,1.501,5.281,4.711,4.712,2.198,6.282,5.083,1.570,0.000,0.000,2.272,-9.479,0.990,4.785,1.630,1.511,
17.900,23.672,1.903,-10.043,1.498,0.001,6.267,3.548,4.227,2.583,2.166,3.365,4.882,2.067,1.181,1.133,1.102,0.000,2.966,0.000,0.000,0.000,0.000,0.000,0.000,0.000,0.000,0.000,0.000,0.000,3.142,6.283,0.000,1.003,1.569,1.569,4.085,6.281,1.199,4.712,0.000,0.000,1.618,-9.431,0.990,4.785,1.640,1.501,5.281,4.711,4.712,2.198,6.282,5.083,1.570,0.000,0.000,2.272,-9.479,0.990,4.785,1.630,1.511,
18.000,23.773,1.903,-10.043,1.498,0.001,6.267,3.548,4.227,2.583,2.166,3.365,4.882,2.067,1.181,1.133,1.102,0.000,2.966,0.000,0.000,0.000,0.000,0.000,0.000,0.000,0.000,0.000,0.000,0.000,3.142,6.283,0.000,1.003,1.569,1.569,4.085,6.281,1.199,4.712,0.000,0.000,1.618,-9.431,0.990,4.785,1.640,1.501,5.281,4.711,4.712,2.198,6.282,5.083,1.570,0.000,0.000,2.272,-9.479,0.990,4.785,1.630,1.511,
18.090,23.862,1.903,-10.043,1.498,0.001,6.267,3.548,4.227,2.583,2.166,3.365,4.882,2.067,1.181,1.133,1.102,0.000,2.966,0.000,0.000,0.000,0.000,0.000,0.000,0.000,0.000,0.000,0.000,0.000,3.142,6.283,0.000,1.003,1.569,1.569,4.085,6.281,1.199,4.712,0.000,0.000,1.618,-9.431,0.990,4.785,1.640,1.501,5.281,4.711,4.712,2.198,6.282,5.083,1.570,0.000,0.000,2.272,-9.479,0.990,4.785,1.630,1.511,
18.200,23.973,1.903,-10.043,1.498,0.001,6.267,3.548,4.227,2.583,2.166,3.365,4.882,2.067,1.181,1.133,1.102,0.000,2.966,0.000,0.000,0.000,0.000,0.000,0.000,0.000,0.000,0.000,0.000,0.000,3.142,6.283,0.000,1.003,1.569,1.569,4.085,6.281,1.199,4.712,0.000,0.000,1.618,-9.431,0.990,4.785,1.640,1.501,5.281,4.711,4.712,2.198,6.282,5.083,1.570,0.000,0.000,2.272,-9.479,0.990,4.785,1.630,1.511,
18.285,24.057,1.903,-10.043,1.498,0.001,6.267,3.548,4.227,2.583,2.166,3.365,4.882,2.067,1.181,1.133,1.102,0.000,2.966,0.000,0.000,0.000,0.000,0.000,0.000,0.000,0.000,0.000,0.000,0.000,3.142,6.283,0.000,1.003,1.569,1.569,4.085,6.281,1.199,4.712,0.000,0.000,1.618,-9.431,0.990,4.785,1.640,1.501,5.281,4.711,4.712,2.198,6.282,5.083,1.570,0.000,0.000,2.272,-9.479,0.990,4.785,1.630,1.511,
18.400,24.173,1.903,-10.043,1.498,0.001,6.267,3.548,4.227,2.583,2.166,3.365,4.882,2.067,1.181,1.133,1.102,0.000,2.966,0.000,0.000,0.000,0.000,0.000,0.000,0.000,0.000,0.000,0.000,0.000,3.142,6.283,0.000,1.003,1.569,1.569,4.085,6.281,1.199,4.712,0.000,0.000,1.618,-9.431,0.990,4.785,1.640,1.501,5.281,4.711,4.712,2.198,6.282,5.083,1.570,0.000,0.000,2.272,-9.479,0.990,4.785,1.630,1.511,
18.500,24.273,1.903,-10.043,1.498,0.001,6.267,3.548,4.227,2.583,2.166,3.365,4.882,2.067,1.181,1.133,1.102,0.000,2.966,0.000,0.000,0.000,0.000,0.000,0.000,0.000,0.000,0.000,0.000,0.000,3.142,6.283,0.000,1.003,1.569,1.569,4.085,6.281,1.199,4.712,0.000,0.000,1.618,-9.431,0.990,4.785,1.640,1.501,5.281,4.711,4.712,2.198,6.282,5.083,1.570,0.000,0.000,2.272,-9.479,0.990,4.785,1.630,1.511,
18.591,24.363,1.903,-10.043,1.498,0.001,6.267,3.548,4.227,2.583,2.166,3.365,4.882,2.067,1.181,1.133,1.102,0.000,2.966,0.000,0.000,0.000,0.000,0.000,0.000,0.000,0.000,0.000,0.000,0.000,3.142,6.283,0.000,1.003,1.569,1.569,4.085,6.281,1.199,4.712,0.000,0.000,1.618,-9.431,0.990,4.785,1.640,1.501,5.281,4.711,4.712,2.198,6.282,5.083,1.570,0.000,0.000,2.272,-9.479,0.990,4.785,1.630,1.511,
18.700,24.473,1.903,-10.043,1.498,0.001,6.267,3.548,4.227,2.583,2.166,3.365,4.882,2.067,1.181,1.133,1.102,0.000,2.966,0.000,0.000,0.000,0.000,0.000,0.000,0.000,0.000,0.000,0.000,0.000,3.142,6.283,0.000,1.003,1.569,1.569,4.085,6.281,1.199,4.712,0.000,0.000,1.618,-9.431,0.990,4.785,1.640,1.501,5.281,4.711,4.712,2.198,6.282,5.083,1.570,0.000,0.000,2.272,-9.479,0.990,4.785,1.630,1.511,
18.781,24.553,1.903,-10.043,1.498,0.001,6.267,3.548,4.227,2.583,2.166,3.365,4.882,2.067,1.181,1.133,1.102,0.000,2.966,0.000,0.000,0.000,0.000,0.000,0.000,0.000,0.000,0.000,0.000,0.000,3.142,6.283,0.000,1.003,1.569,1.569,4.085,6.281,1.199,4.712,0.000,0.000,1.618,-9.431,0.990,4.785,1.640,1.501,5.281,4.711,4.712,2.198,6.282,5.083,1.570,0.000,0.000,2.272,-9.479,0.990,4.785,1.630,1.511,
18.900,24.673,1.903,-10.043,1.498,0.001,6.267,3.548,4.227,2.583,2.166,3.365,4.882,2.067,1.181,1.133,1.102,0.000,2.966,0.000,0.000,0.000,0.000,0.000,0.000,0.000,0.000,0.000,0.000,0.000,3.142,6.283,0.000,1.003,1.569,1.569,4.085,6.281,1.199,4.712,0.000,0.000,1.618,-9.431,0.990,4.785,1.640,1.501,5.281,4.711,4.712,2.198,6.282,5.083,1.570,0.000,0.000,2.272,-9.479,0.990,4.785,1.630,1.511,
19.000,24.773,1.903,-10.043,1.498,0.001,6.267,3.548,4.227,2.583,2.166,3.365,4.882,2.067,1.181,1.133,1.102,0.000,2.966,0.000,0.000,0.000,0.000,0.000,0.000,0.000,0.000,0.000,0.000,0.000,3.142,6.283,0.000,1.003,1.569,1.569,4.085,6.281,1.199,4.712,0.000,0.000,1.618,-9.431,0.990,4.785,1.640,1.501,5.281,4.711,4.712,2.198,6.282,5.083,1.570,0.000,0.000,2.272,-9.479,0.990,4.785,1.630,1.511,
19.100,24.873,1.903,-10.043,1.498,0.001,6.267,3.548,4.227,2.583,2.166,3.365,4.882,2.067,1.181,1.133,1.102,0.000,2.966,0.000,0.000,0.000,0.000,0.000,0.000,0.000,0.000,0.000,0.000,0.000,3.142,6.283,0.000,1.003,1.569,1.569,4.085,6.281,1.199,4.712,0.000,0.000,1.618,-9.431,0.990,4.785,1.640,1.501,5.281,4.711,4.712,2.198,6.282,5.083,1.570,0.000,0.000,2.272,-9.479,0.990,4.785,1.630,1.511,
19.200,24.973,1.903,-10.043,1.498,0.001,6.267,3.548,4.227,2.583,2.166,3.365,4.882,2.067,1.181,1.133,1.102,0.000,2.966,0.000,0.000,0.000,0.000,0.000,0.000,0.000,0.000,0.000,0.000,0.000,3.142,6.283,0.000,1.003,1.569,1.569,4.085,6.281,1.199,4.712,0.000,0.000,1.618,-9.431,0.990,4.785,1.640,1.501,5.281,4.711,4.712,2.198,6.282,5.083,1.570,0.000,0.000,2.272,-9.479,0.990,4.785,1.630,1.511,
19.292,25.065,1.903,-10.043,1.498,0.001,6.267,3.548,4.227,2.583,2.166,3.365,4.882,2.067,1.181,1.133,1.102,0.000,2.966,0.000,0.000,0.000,0.000,0.000,0.000,0.000,0.000,0.000,0.000,0.000,3.142,6.283,0.000,1.003,1.569,1.569,4.085,6.281,1.199,4.712,0.000,0.000,1.618,-9.431,0.990,4.785,1.640,1.501,5.281,4.711,4.712,2.198,6.282,5.083,1.570,0.000,0.000,2.272,-9.479,0.990,4.785,1.630,1.511,
19.400,25.173,1.903,-10.043,1.498,0.001,6.267,3.548,4.227,2.583,2.166,3.365,4.882,2.067,1.181,1.133,1.102,0.000,2.966,0.000,0.000,0.000,0.000,0.000,0.000,0.000,0.000,0.000,0.000,0.000,3.142,6.283,0.000,1.003,1.569,1.569,4.085,6.281,1.199,4.712,0.000,0.000,1.618,-9.431,0.990,4.785,1.640,1.501,5.281,4.711,4.712,2.198,6.282,5.083,1.570,0.000,0.000,2.272,-9.479,0.990,4.785,1.630,1.511,
19.485,25.257,1.903,-10.043,1.498,0.001,6.267,3.548,4.227,2.583,2.166,3.365,4.882,2.067,1.181,1.133,1.102,0.000,2.966,0.000,0.000,0.000,0.000,0.000,0.000,0.000,0.000,0.000,0.000,0.000,3.142,6.283,0.000,1.003,1.569,1.569,4.085,6.281,1.199,4.712,0.000,0.000,1.618,-9.431,0.990,4.785,1.640,1.501,5.281,4.711,4.712,2.198,6.282,5.083,1.570,0.000,0.000,2.272,-9.479,0.990,4.785,1.630,1.511,
19.600,25.373,1.903,-10.043,1.498,0.001,6.267,3.548,4.227,2.583,2.166,3.365,4.882,2.067,1.181,1.133,1.102,0.000,2.966,0.000,0.000,0.000,0.000,0.000,0.000,0.000,0.000,0.000,0.000,0.000,3.142,6.283,0.000,1.003,1.569,1.569,4.085,6.281,1.199,4.712,0.000,0.000,1.618,-9.431,0.990,4.785,1.640,1.501,5.281,4.711,4.712,2.198,6.282,5.083,1.570,0.000,0.000,2.272,-9.479,0.990,4.785,1.630,1.511,
19.700,25.473,1.903,-10.043,1.498,0.001,6.267,3.548,4.227,2.583,2.166,3.365,4.882,2.067,1.181,1.133,1.102,0.000,2.966,0.000,0.000,0.000,0.000,0.000,0.000,0.000,0.000,0.000,0.000,0.000,3.142,6.283,0.000,1.003,1.569,1.569,4.085,6.281,1.199,4.712,0.000,0.000,1.618,-9.431,0.990,4.785,1.640,1.501,5.281,4.711,4.712,2.198,6.282,5.083,1.570,0.000,0.000,2.272,-9.479,0.990,4.785,1.630,1.511,
19.797,25.569,1.903,-10.043,1.498,0.001,6.267,3.548,4.227,2.583,2.166,3.365,4.882,2.067,1.181,1.133,1.102,0.000,2.966,0.000,0.000,0.000,0.000,0.000,0.000,0.000,0.000,0.000,0.000,0.000,3.142,6.283,0.000,1.003,1.569,1.569,4.085,6.281,1.199,4.712,0.000,0.000,1.618,-9.431,0.990,4.785,1.640,1.501,5.281,4.711,4.712,2.198,6.282,5.083,1.570,0.000,0.000,2.272,-9.479,0.990,4.785,1.630,1.511,
19.900,25.673,1.903,-10.043,1.498,0.001,6.267,3.548,4.227,2.583,2.166,3.365,4.882,2.067,1.181,1.133,1.102,0.000,2.966,0.000,0.000,0.000,0.000,0.000,0.000,0.000,0.000,0.000,0.000,0.000,3.142,6.283,0.000,1.003,1.569,1.569,4.085,6.281,1.199,4.712,0.000,0.000,1.618,-9.431,0.990,4.785,1.640,1.501,5.281,4.711,4.712,2.198,6.282,5.083,1.570,0.000,0.000,2.272,-9.479,0.990,4.785,1.630,1.511,
19.988,25.761,1.903,-10.043,1.498,0.001,6.267,3.548,4.227,2.583,2.166,3.365,4.882,2.067,1.181,1.133,1.102,0.000,2.966,0.000,0.000,0.000,0.000,0.000,0.000,0.000,0.000,0.000,0.000,0.000,3.142,6.283,0.000,1.003,1.569,1.569,4.085,6.281,1.199,4.712,0.000,0.000,1.618,-9.431,0.990,4.785,1.640,1.501,5.281,4.711,4.712,2.198,6.282,5.083,1.570,0.000,0.000,2.272,-9.479,0.990,4.785,1.630,1.511,
20.100,25.873,1.903,-10.043,1.498,0.001,6.267,3.548,4.227,2.583,2.166,3.365,4.882,2.067,1.181,1.133,1.102,0.000,2.966,0.000,0.000,0.000,0.000,0.000,0.000,0.000,0.000,0.000,0.000,0.000,3.142,6.283,0.000,1.003,1.569,1.569,4.085,6.281,1.199,4.712,0.000,0.000,1.618,-9.431,0.990,4.785,1.640,1.501,5.281,4.711,4.712,2.198,6.282,5.083,1.570,0.000,0.000,2.272,-9.479,0.990,4.785,1.630,1.511,
20.200,25.973,1.903,-10.043,1.498,0.001,6.267,3.548,4.227,2.583,2.166,3.365,4.882,2.067,1.181,1.133,1.102,0.000,2.966,0.000,0.000,0.000,0.000,0.000,0.000,0.000,0.000,0.000,0.000,0.000,3.142,6.283,0.000,1.003,1.569,1.569,4.085,6.281,1.199,4.712,0.000,0.000,1.618,-9.431,0.990,4.785,1.640,1.501,5.281,4.711,4.712,2.198,6.282,5.083,1.570,0.000,0.000,2.272,-9.479,0.990,4.785,1.630,1.511,
20.300,26.073,1.903,-10.043,1.498,0.001,6.267,3.548,4.227,2.583,2.166,3.365,4.882,2.067,1.181,1.133,1.102,0.000,2.966,0.000,0.000,0.000,0.000,0.000,0.000,0.000,0.000,0.000,0.000,0.000,3.142,6.283,0.000,1.003,1.569,1.569,4.085,6.281,1.199,4.712,0.000,0.000,1.618,-9.431,0.990,4.785,1.640,1.501,5.281,4.711,4.712,2.198,6.282,5.083,1.570,0.000,0.000,2.272,-9.479,0.990,4.785,1.630,1.511,
20.400,26.173,1.903,-10.043,1.498,0.001,6.267,3.548,4.227,2.583,2.166,3.365,4.882,2.067,1.181,1.133,1.102,0.000,2.966,0.000,0.000,0.000,0.000,0.000,0.000,0.000,0.000,0.000,0.000,0.000,3.142,6.283,0.000,1.003,1.569,1.569,4.085,6.281,1.199,4.712,0.000,0.000,1.618,-9.431,0.990,4.785,1.640,1.501,5.281,4.711,4.712,2.198,6.28