deveshdatwani/Gopher/Assets/Data/07-15 19-32-14/NavObs_robot_value.csv
game_time,true_time,x,y,az,vx,vaz,dis_to_obs_0,dis_to_obs_36,dis_to_obs_72,dis_to_obs_108,dis_to_obs_144,dis_to_obs_180,dis_to_obs_-144,dis_to_obs_-108,dis_to_obs_-72,dis_to_obs_-36,dis_to_min_obs,direction_to_min_obs,dis_to_human_0,dis_to_human_36,dis_to_human_72,dis_to_human_108,dis_to_human_144,dis_to_human_180,dis_to_human_-144,dis_to_human_-108,dis_to_human_-72,dis_to_human_-36,dis_to_min_human,direction_to_min_human,main_cam_yaw,main_cam_pitch,left_joint_1,left_joint_2,left_joint_3,left_joint_4,left_joint_5,left_joint_6,left_joint_7,left_joint_gripper,left_is_grasping,left_end_x,left_end_y,left_end_z,left_end_ax,left_end_ay,left_end_az,right_joint_1,right_joint_2,right_joint_3,right_joint_4,right_joint_5,right_joint_6,right_joint_7,right_joint_gripper,right_is_grasping,right_end_x,right_end_y,right_end_z,right_end_ax,right_end_ay,right_end_az,
20.300,28.436,1.079,-9.915,1.498,1.010,0.015,2.978,3.717,1.795,1.311,2.035,0.000,3.265,2.069,1.572,4.419,0.000,3.142,0.000,0.000,0.000,0.000,0.000,0.000,0.000,0.000,0.000,0.000,0.000,3.142,6.283,0.000,1.003,1.570,1.570,4.086,6.281,1.199,4.712,0.000,0.000,0.795,-9.304,0.990,4.786,1.641,1.500,5.281,4.711,4.712,2.198,6.282,5.083,1.570,0.000,0.000,1.449,-9.352,0.990,4.786,1.628,1.513,
20.400,28.536,1.085,-9.837,1.518,0.996,0.714,2.965,3.673,1.766,1.330,2.098,0.000,3.402,2.046,1.575,4.248,0.000,3.142,0.000,0.000,0.000,0.000,0.000,0.000,0.000,0.000,0.000,0.000,0.000,3.142,0.001,0.000,1.003,1.571,1.572,4.086,6.281,1.199,4.712,0.000,0.000,0.790,-9.231,0.990,4.769,1.662,1.480,5.281,4.712,4.714,2.199,6.281,5.083,1.571,0.000,0.000,1.445,-9.266,0.991,4.769,1.630,1.511,
20.492,28.628,1.087,-9.718,1.644,1.012,1.437,3.232,0.000,1.763,1.390,2.546,0.000,2.950,1.966,0.000,3.754,0.000,3.142,0.000,0.000,0.000,0.000,0.000,0.000,0.000,0.000,0.000,0.000,0.000,3.142,0.001,0.000,1.003,1.571,1.570,4.085,6.282,1.199,4.712,0.000,0.000,0.717,-9.155,0.990,4.785,4.651,4.773,5.282,4.713,4.713,2.198,6.282,5.083,1.571,0.000,0.000,1.372,-9.106,0.991,4.784,4.670,4.755,
20.600,28.736,1.077,-9.618,1.756,1.024,1.042,3.184,0.000,2.059,1.460,3.154,0.000,2.637,1.937,0.000,3.429,0.000,3.142,0.000,0.000,0.000,0.000,0.000,0.000,0.000,0.000,0.000,0.000,0.000,3.142,0.001,0.000,1.003,1.570,1.569,4.085,6.282,1.199,4.712,0.000,0.000,0.645,-9.100,0.990,4.899,4.688,4.735,5.282,4.712,4.711,2.198,6.283,5.083,1.570,0.000,0.000,1.290,-8.979,0.991,4.898,4.694,4.729,
20.700,28.836,1.061,-9.539,1.817,1.021,0.807,3.148,0.000,1.984,1.498,3.629,0.000,2.520,1.544,0.000,3.257,0.000,3.142,0.000,0.000,0.000,0.000,0.000,0.000,0.000,0.000,0.000,0.000,0.000,3.142,0.001,0.000,1.003,1.570,1.569,4.085,6.281,1.199,4.712,0.000,0.000,0.599,-9.048,0.990,4.959,4.692,4.731,5.282,4.712,4.712,2.198,6.282,5.083,1.570,0.000,0.000,1.235,-8.888,0.991,4.959,4.698,4.726,
20.800,28.936,1.029,-9.424,1.907,1.007,0.998,3.117,4.993,1.894,1.558,0.000,3.565,2.393,1.574,4.764,3.041,0.000,3.071,0.000,0.000,0.000,0.000,0.000,0.000,0.000,0.000,0.000,0.000,0.000,3.142,0.001,0.000,1.003,1.570,1.570,4.086,6.281,1.199,4.712,0.000,0.000,0.525,-8.976,0.990,5.047,4.697,4.726,5.282,4.712,4.713,2.198,6.282,5.083,1.570,0.000,0.000,1.144,-8.759,0.991,5.047,4.702,4.721,
20.900,29.036,1.001,-9.349,1.981,1.009,1.093,3.131,0.000,1.821,1.624,0.000,3.636,2.315,1.609,4.251,2.910,0.000,3.001,0.000,0.000,0.000,0.000,0.000,0.000,0.000,0.000,0.000,0.000,0.000,3.142,0.001,0.000,1.003,1.570,1.570,4.085,6.282,1.199,4.712,0.000,0.000,0.466,-8.940,0.990,5.122,4.701,4.722,5.282,4.712,4.713,2.198,6.282,5.083,1.571,0.000,0.000,1.068,-8.678,0.991,5.121,4.704,4.719,
20.988,29.124,0.950,-9.241,2.091,1.017,1.012,2.695,0.000,1.733,1.744,0.000,3.968,2.244,0.000,3.075,2.753,0.000,2.896,0.000,0.000,0.000,0.000,0.000,0.000,0.000,0.000,0.000,0.000,0.000,3.142,0.001,0.000,1.003,1.570,1.570,4.085,6.282,1.199,4.712,0.000,0.000,0.372,-8.893,0.990,5.233,4.703,4.719,5.282,4.712,4.712,2.198,6.282,5.083,1.570,0.000,0.000,0.942,-8.567,0.991,5.232,4.706,4.718,
21.100,29.236,0.898,-9.156,2.176,1.016,0.988,2.903,0.000,1.679,1.856,0.000,3.692,2.224,0.000,3.312,2.656,0.000,2.826,0.000,0.000,0.000,0.000,0.000,0.000,0.000,0.000,0.000,0.000,0.000,3.142,0.001,0.000,1.003,1.570,1.570,4.085,6.281,1.199,4.712,0.000,0.000,0.293,-8.858,0.990,5.318,4.704,4.718,5.282,4.712,4.712,2.198,6.282,5.083,1.570,0.000,0.000,0.832,-8.484,0.991,5.317,4.706,4.717,
21.189,29.325,0.840,-9.075,2.262,1.013,1.008,0.000,1.918,1.631,2.002,0.000,3.388,1.818,0.000,3.029,2.582,0.000,2.755,0.000,0.000,0.000,0.000,0.000,0.000,0.000,0.000,0.000,0.000,0.000,3.142,0.001,0.000,1.003,1.570,1.570,4.086,6.281,1.199,4.712,0.000,0.000,0.211,-8.830,0.990,5.403,4.705,4.717,5.282,4.712,4.712,2.198,6.282,5.083,1.570,0.000,0.000,0.717,-8.412,0.991,5.403,4.707,4.716,
21.300,29.436,0.774,-9.000,2.350,1.013,1.031,0.000,1.578,1.589,2.208,0.000,3.167,1.851,0.000,2.799,2.534,0.000,2.685,0.000,0.000,0.000,0.000,0.000,0.000,0.000,0.000,0.000,0.000,0.000,3.142,0.001,0.000,1.003,1.570,1.570,4.085,6.281,1.199,4.712,0.000,0.000,0.126,-8.811,0.990,5.492,4.706,4.716,5.282,4.712,4.712,2.198,6.282,5.083,1.570,0.000,0.000,0.593,-8.350,0.991,5.491,4.708,4.715,
21.382,29.518,0.717,-8.944,2.421,1.014,1.025,4.873,1.390,1.558,2.440,0.000,3.038,2.102,4.730,2.649,2.513,0.000,2.615,0.000,0.000,0.000,0.000,0.000,0.000,0.000,0.000,0.000,0.000,0.000,3.142,0.001,0.000,1.003,1.570,1.570,4.085,6.281,1.199,4.712,0.000,0.000,0.058,-8.801,0.990,5.562,4.706,4.715,5.282,4.712,4.712,2.198,6.282,5.083,1.570,0.000,0.000,0.491,-8.308,0.991,5.562,4.708,4.715,
21.500,29.636,0.625,-8.867,2.526,1.014,1.017,4.386,1.186,1.518,2.996,4.505,2.910,0.000,3.923,2.014,2.512,0.000,2.510,0.000,0.000,0.000,0.000,0.000,0.000,0.000,0.000,0.000,0.000,0.000,3.142,0.001,0.000,1.003,1.570,1.570,4.085,6.281,1.199,4.712,0.000,0.000,-0.046,-8.795,0.990,5.667,4.707,4.715,5.282,4.712,4.712,2.198,6.282,5.083,1.570,0.000,0.000,0.333,-8.259,0.991,5.667,4.708,4.714,
21.600,29.736,0.559,-8.822,2.596,1.014,1.018,4.278,1.079,1.495,3.674,4.334,2.856,0.000,3.531,2.380,2.533,0.000,2.440,0.000,0.000,0.000,0.000,0.000,0.000,0.000,0.000,0.000,0.000,0.000,3.142,0.001,0.000,1.003,1.570,1.570,4.085,6.281,1.199,4.712,0.000,0.000,-0.115,-8.797,0.990,5.737,4.707,4.714,5.282,4.712,4.712,2.198,6.282,5.083,1.570,0.000,0.000,0.226,-8.236,0.991,5.737,4.708,4.714,
21.692,29.828,0.454,-8.763,2.701,1.014,1.022,0.000,0.946,1.463,0.000,4.553,2.815,0.000,3.088,2.279,2.259,0.000,2.369,0.000,0.000,0.000,0.000,0.000,0.000,0.000,0.000,0.000,0.000,0.000,3.142,0.001,0.000,1.003,1.570,1.570,4.085,6.281,1.199,4.712,0.000,0.000,-0.219,-8.809,0.990,5.842,4.707,4.714,5.282,4.712,4.712,2.198,6.282,5.083,1.570,0.000,0.000,0.062,-8.215,0.991,5.842,4.709,4.713,
21.800,29.936,0.363,-8.723,2.755,1.014,0.191,0.000,0.879,1.434,0.000,4.760,2.417,0.000,2.892,2.227,2.285,0.000,2.334,0.000,0.000,0.000,0.000,0.000,0.000,0.000,0.000,0.000,0.000,0.000,3.142,6.283,0.000,1.004,1.568,1.567,4.085,6.282,1.199,4.712,0.000,0.000,-0.307,-8.806,0.990,5.899,4.707,4.713,5.281,4.711,4.709,2.198,6.283,5.083,1.570,0.000,0.000,-0.059,-8.198,0.990,5.899,4.708,4.713,
21.881,30.017,0.290,-8.693,2.755,1.011,6.268,0.000,0.863,1.403,0.000,4.797,2.496,0.000,2.851,2.197,2.250,0.000,2.334,0.000,0.000,0.000,0.000,0.000,0.000,0.000,0.000,0.000,0.000,0.000,3.142,6.282,0.000,1.004,1.569,1.569,4.085,6.281,1.199,4.712,0.000,0.000,-0.380,-8.775,0.990,5.897,4.707,4.713,5.281,4.711,4.711,2.198,6.282,5.083,1.570,0.000,0.000,-0.133,-8.167,0.990,5.897,4.707,4.714,
22.000,30.136,0.179,-8.648,2.755,1.010,6.269,0.000,0.840,1.356,0.000,4.851,2.615,0.000,2.792,2.152,4.684,0.000,2.369,0.000,0.000,0.000,0.000,0.000,0.000,0.000,0.000,0.000,0.000,0.000,3.142,6.282,0.000,1.004,1.569,1.569,4.085,6.281,1.199,4.712,0.000,0.000,-0.490,-8.731,0.990,5.898,4.707,4.713,5.281,4.711,4.711,2.198,6.282,5.083,1.570,0.000,0.000,-0.244,-8.123,0.990,5.898,4.707,4.714,
22.100,30.236,0.105,-8.618,2.756,1.012,6.269,0.000,0.824,1.325,0.000,4.888,2.695,0.000,2.753,2.122,4.547,0.000,2.369,0.000,0.000,0.000,0.000,0.000,0.000,0.000,0.000,0.000,0.000,0.000,3.142,6.282,0.000,1.004,1.569,1.569,4.085,6.281,1.199,4.712,0.000,0.000,-0.564,-8.701,0.990,5.898,4.707,4.713,5.281,4.711,4.711,2.198,6.282,5.083,1.570,0.000,0.000,-0.318,-8.093,0.990,5.898,4.707,4.714,
22.200,30.336,-0.005,-8.573,2.756,1.012,6.268,0.000,0.801,1.066,4.120,4.942,2.814,0.000,2.694,2.077,4.365,0.000,2.580,0.000,0.000,0.000,0.000,0.000,0.000,0.000,0.000,0.000,0.000,0.000,3.142,6.282,0.000,1.004,1.569,1.569,4.085,6.281,1.199,4.712,0.000,0.000,-0.675,-8.656,0.990,5.898,4.707,4.713,5.281,4.711,4.711,2.198,6.282,5.083,1.570,0.000,0.000,-0.428,-8.048,0.990,5.898,4.707,4.714,
22.281,30.417,-0.079,-8.543,2.753,1.011,6.055,0.000,0.788,0.563,2.262,4.968,2.897,0.000,2.087,2.047,4.320,0.000,2.615,0.000,0.000,0.000,0.000,0.000,0.000,0.000,0.000,0.000,0.000,0.000,3.142,6.281,0.001,1.004,1.568,1.567,4.084,6.281,1.199,4.712,0.000,0.000,-0.749,-8.625,0.990,5.897,4.708,4.713,5.281,4.710,4.710,2.197,6.282,5.083,1.570,0.000,0.000,-0.501,-8.018,0.990,5.897,4.707,4.714,
22.400,30.536,-0.189,-8.496,2.668,1.012,4.986,4.498,0.841,0.558,1.506,4.985,3.583,0.000,2.809,2.018,4.650,0.000,2.720,0.000,0.000,0.000,0.000,0.000,0.000,0.000,0.000,0.000,0.000,0.000,3.142,6.280,0.001,1.005,1.568,1.565,4.084,6.281,1.199,4.711,0.000,0.000,-0.864,-8.523,0.990,5.814,4.707,4.713,5.282,4.710,4.708,2.197,6.282,5.083,1.570,0.000,0.000,-0.566,-7.938,0.990,5.813,4.707,4.713,
22.500,30.636,-0.260,-8.459,2.570,1.009,4.924,3.411,3.000,0.571,1.379,0.000,3.875,0.000,3.068,2.020,1.792,0.000,2.826,0.000,0.000,0.000,0.000,0.000,0.000,0.000,0.000,0.000,0.000,0.000,3.142,6.280,0.001,1.004,1.568,1.567,4.085,6.281,1.199,4.712,0.000,0.000,-0.934,-8.418,0.990,5.714,4.707,4.714,5.282,4.711,4.710,2.197,6.282,5.083,1.570,0.000,0.000,-0.579,-7.865,0.991,5.714,4.708,4.714,
22.599,30.735,-0.357,-8.391,2.450,1.010,5.337,3.383,2.895,0.612,0.557,0.000,4.360,0.000,3.495,2.026,1.650,0.000,2.966,0.000,0.000,0.000,0.000,0.000,0.000,0.000,0.000,0.000,0.000,0.000,3.142,6.281,0.001,1.004,1.569,1.568,4.085,6.281,1.199,4.712,0.000,0.000,-1.021,-8.269,0.990,5.592,4.706,4.715,5.282,4.711,4.711,2.197,6.282,5.083,1.570,0.000,0.000,-0.603,-7.763,0.991,5.592,4.707,4.715,
22.700,30.836,-0.433,-8.326,2.406,1.017,6.236,3.407,0.000,0.646,0.572,0.000,4.630,0.000,3.622,1.992,1.566,0.000,3.036,0.000,0.000,0.000,0.000,0.000,0.000,0.000,0.000,0.000,0.000,0.000,3.142,6.282,0.000,1.004,1.570,1.571,4.085,6.281,1.199,4.712,0.000,0.000,-1.090,-8.174,0.990,5.546,4.706,4.716,5.282,4.712,4.713,2.198,6.281,5.083,1.571,0.000,0.000,-0.650,-7.687,0.991,5.546,4.707,4.716,
22.791,30.927,-0.507,-8.259,2.407,1.011,6.261,3.307,0.000,0.670,0.593,0.000,4.726,0.000,3.485,1.918,1.498,0.000,3.071,0.000,0.000,0.000,0.000,0.000,0.000,0.000,0.000,0.000,0.000,0.000,3.142,6.283,0.000,1.003,1.569,1.569,4.085,6.281,1.199,4.712,0.000,0.000,-1.165,-8.108,0.990,5.549,4.706,4.716,5.281,4.711,4.711,2.198,6.282,5.083,1.570,0.000,0.000,-0.725,-7.621,0.990,5.549,4.706,4.716,
22.900,31.036,-0.581,-8.193,2.408,1.009,6.262,3.207,0.000,2.833,0.614,0.000,4.822,0.000,3.350,1.845,1.430,0.000,3.071,0.000,0.000,0.000,0.000,0.000,0.000,0.000,0.000,0.000,0.000,0.000,3.142,6.283,0.000,1.004,1.569,1.569,4.085,6.281,1.199,4.712,0.000,0.000,-1.239,-8.042,0.990,5.549,4.706,4.716,5.281,4.711,4.711,2.198,6.282,5.083,1.570,0.000,0.000,-0.800,-7.555,0.990,5.550,4.706,4.716,
22.997,31.133,-0.655,-8.126,2.408,1.012,6.262,3.107,0.000,2.747,0.635,0.872,4.919,0.000,3.214,1.772,1.362,0.000,3.106,0.000,0.000,0.000,0.000,0.000,0.000,0.000,0.000,0.000,0.000,0.000,3.142,6.282,0.000,1.004,1.569,1.569,4.085,6.281,1.199,4.712,0.000,0.000,-1.313,-7.976,0.990,5.550,4.706,4.716,5.281,4.711,4.711,2.198,6.282,5.083,1.570,0.000,0.000,-0.874,-7.489,0.990,5.550,4.706,4.716,
23.100,31.236,-0.729,-8.060,2.409,1.013,6.263,3.008,0.000,2.662,0.656,0.901,0.000,0.000,2.225,1.699,0.000,0.000,3.142,0.000,0.000,0.000,0.000,0.000,0.000,0.000,0.000,0.000,0.000,0.000,3.142,6.282,0.000,1.004,1.569,1.569,4.085,6.281,1.199,4.712,0.000,0.000,-1.387,-7.910,0.990,5.551,4.706,4.716,5.281,4.711,4.711,2.198,6.282,5.083,1.570,0.000,0.000,-0.948,-7.422,0.990,5.551,4.706,4.716,
23.199,31.335,-0.803,-7.993,2.410,1.012,6.263,2.908,0.000,2.576,0.677,0.930,0.000,0.000,2.945,1.626,0.000,0.000,3.142,0.000,0.000,0.000,0.000,0.000,0.000,0.000,0.000,0.000,0.000,0.000,3.142,6.282,0.000,1.004,1.569,1.569,4.085,6.281,1.199,4.712,0.000,0.000,-1.461,-7.844,0.990,5.551,4.706,4.716,5.281,4.711,4.711,2.198,6.282,5.083,1.570,0.000,0.000,-1.023,-7.356,0.990,5.552,4.706,4.716,
23.300,31.436,-0.877,-7.927,2.397,1.011,5.768,2.842,0.000,2.324,0.968,0.947,0.000,0.000,2.877,1.083,0.000,0.000,3.142,0.000,0.000,0.000,0.000,0.000,0.000,0.000,0.000,0.000,0.000,0.000,3.142,6.281,0.001,1.004,1.568,1.566,4.084,6.281,1.199,4.712,0.000,0.000,-1.534,-7.771,0.990,5.542,4.706,4.715,5.281,4.710,4.709,2.197,6.282,5.083,1.570,0.000,0.000,-1.090,-7.288,0.990,5.542,4.705,4.716,
23.400,31.536,-0.949,-7.858,2.310,1.012,4.941,2.987,0.000,2.628,1.472,0.908,0.000,0.000,2.355,1.052,0.000,0.000,3.142,0.000,0.000,0.000,0.000,0.000,0.000,0.000,0.000,0.000,0.000,0.000,3.142,6.280,0.001,1.005,1.568,1.566,4.085,6.281,1.199,4.712,0.000,0.000,-1.591,-7.646,0.990,5.456,4.705,4.716,5.282,4.710,4.709,2.197,6.282,5.083,1.570,0.000,0.000,-1.106,-7.203,0.991,5.455,4.706,4.716,
23.484,31.620,-1.002,-7.798,2.233,1.010,5.591,3.180,4.862,2.413,1.611,0.889,0.000,4.391,3.739,1.032,0.000,0.000,3.142,0.000,0.000,0.000,0.000,0.000,0.000,0.000,0.000,0.000,0.000,0.000,3.142,6.281,0.000,1.004,1.570,1.570,4.085,6.280,1.199,4.712,0.000,0.000,-1.623,-7.535,0.990,5.373,4.704,4.718,5.282,4.712,4.712,2.198,6.281,5.083,1.571,0.000,0.000,-1.106,-7.132,0.991,5.373,4.706,4.717,
23.600,31.736,-1.075,-7.704,2.219,1.012,6.269,3.115,4.703,2.323,3.513,0.936,0.000,4.528,2.403,1.003,0.000,0.000,3.142,0.000,0.000,0.000,0.000,0.000,0.000,0.000,0.000,0.000,0.000,0.000,3.142,6.283,0.000,1.003,1.569,1.569,4.085,6.281,1.199,4.712,0.000,0.000,-1.693,-7.433,0.990,5.361,4.704,4.718,5.281,4.711,4.711,2.198,6.282,5.083,1.570,0.000,0.000,-1.170,-7.036,0.990,5.361,4.705,4.717,
23.684,31.820,-1.123,-7.640,2.220,1.012,6.268,3.033,4.652,2.273,3.430,0.973,0.000,4.765,3.396,1.378,0.000,0.000,3.142,0.000,0.000,0.000,0.000,0.000,0.000,0.000,0.000,0.000,0.000,0.000,3.142,6.283,0.000,1.003,1.569,1.569,4.085,6.281,1.199,4.712,0.000,0.000,-1.741,-7.370,0.990,5.362,4.704,4.718,5.281,4.711,4.711,2.198,6.282,5.083,1.570,0.000,0.000,-1.219,-6.973,0.990,5.362,4.705,4.717,
23.800,31.936,-1.195,-7.545,2.222,1.012,6.262,2.912,0.000,2.196,3.304,1.068,0.000,0.000,3.102,0.902,0.000,0.000,3.142,0.000,0.000,0.000,0.000,0.000,0.000,0.000,0.000,0.000,0.000,0.000,3.142,6.283,0.000,1.003,1.569,1.569,4.085,6.281,1.199,4.712,0.000,0.000,-1.814,-7.276,0.990,5.363,4.704,4.718,5.281,4.711,4.711,2.198,6.282,5.083,1.570,0.000,0.000,-1.292,-6.878,0.990,5.363,4.705,4.717,
23.884,32.020,-1.244,-7.482,2.222,1.012,6.260,2.832,0.000,2.145,3.219,1.201,0.000,0.000,2.909,0.825,0.000,0.000,3.142,0.000,0.000,0.000,0.000,0.000,0.000,0.000,0.000,0.000,0.000,0.000,3.142,6.283,0.000,1.003,1.569,1.569,4.085,6.281,1.199,4.712,0.000,0.000,-1.862,-7.213,0.990,5.364,4.704,4.718,5.281,4.711,4.711,2.198,6.282,5.083,1.570,0.000,0.000,-1.341,-6.815,0.990,5.364,4.705,4.718,
24.000,32.136,-1.316,-7.387,2.223,1.012,6.261,2.712,3.149,2.068,3.091,1.401,0.000,0.000,2.621,0.710,0.000,0.000,3.142,0.000,0.000,0.000,0.000,0.000,0.000,0.000,0.000,0.000,0.000,0.000,3.142,6.283,0.000,1.004,1.569,1.569,4.085,6.281,1.199,4.712,0.000,0.000,-1.935,-7.118,0.990,5.365,4.704,4.718,5.281,4.711,4.711,2.198,6.282,5.083,1.570,0.000,0.000,-1.414,-6.720,0.990,5.365,4.705,4.718,
24.089,32.225,-1.365,-7.324,2.224,1.012,6.262,2.632,2.970,2.184,3.005,1.534,0.000,0.000,2.430,0.658,0.000,0.000,3.142,0.000,0.000,0.000,0.000,0.000,0.000,0.000,0.000,0.000,0.000,0.000,3.142,6.283,0.000,1.004,1.569,1.569,4.085,6.281,1.199,4.712,0.000,0.000,-1.984,-7.056,0.990,5.366,4.704,4.718,5.281,4.711,4.711,2.198,6.282,5.083,1.570,0.000,0.000,-1.463,-6.657,0.990,5.366,4.705,4.718,
24.200,32.336,-1.437,-7.229,2.224,1.012,6.249,2.514,2.752,2.448,2.873,1.734,0.000,0.000,0.985,0.788,0.000,0.000,3.142,0.000,0.000,0.000,0.000,0.000,0.000,0.000,0.000,0.000,0.000,0.000,3.142,6.282,0.000,1.004,1.569,1.569,4.084,6.281,1.199,4.712,0.000,0.000,-2.056,-6.961,0.990,5.367,4.705,4.717,5.281,4.711,4.711,2.197,6.282,5.083,1.570,0.000,0.000,-1.536,-6.562,0.990,5.367,4.704,4.718,
24.293,32.428,-1.486,-7.166,2.203,1.012,5.591,2.504,1.752,0.000,2.695,1.993,0.000,0.000,2.087,0.848,0.000,0.000,3.142,0.000,0.000,0.000,0.000,0.000,0.000,0.000,0.000,0.000,0.000,0.000,3.142,6.281,0.001,1.004,1.568,1.566,4.084,6.281,1.199,4.711,0.000,0.000,-2.101,-6.886,0.990,5.349,4.705,4.717,5.281,4.710,4.708,2.197,6.282,5.083,1.570,0.000,0.000,-1.572,-6.498,0.990,5.348,4.704,4.718,
24.400,32.536,-1.526,-7.109,2.126,0.256,5.995,2.721,1.700,0.000,2.419,2.050,0.000,0.000,2.482,0.830,0.000,0.000,3.142,0.000,0.000,0.000,0.000,0.000,0.000,0.000,0.000,0.000,0.000,0.000,3.142,0.000,0.001,1.001,1.571,1.573,4.088,6.280,1.200,4.712,0.000,0.000,-2.114,-6.779,0.990,5.263,4.701,4.722,5.281,4.713,4.714,2.198,6.281,5.083,1.571,0.000,0.000,-1.556,-6.434,0.990,5.264,4.703,4.720,
24.491,32.627,-1.532,-7.099,2.123,0.084,6.265,2.720,1.661,0.000,2.437,2.060,0.000,0.000,2.467,0.837,0.000,0.000,3.142,0.000,0.000,0.000,0.000,0.000,0.000,0.000,0.000,0.000,0.000,0.000,3.142,0.000,0.001,1.003,1.570,1.570,4.087,6.281,1.199,4.712,0.000,0.000,-2.121,-6.770,0.990,5.265,4.701,4.721,5.281,4.711,4.712,2.198,6.282,5.083,1.570,0.000,0.000,-1.563,-6.426,0.990,5.265,4.704,4.719,
24.600,32.736,-1.533,-7.098,2.124,0.000,6.272,2.717,1.658,0.000,2.438,2.062,0.000,0.000,2.457,0.839,0.000,0.000,3.142,0.000,0.000,0.000,0.000,0.000,0.000,0.000,0.000,0.000,0.000,0.000,3.142,6.283,0.000,1.003,1.569,1.569,4.085,6.281,1.199,4.712,0.000,0.000,-2.122,-6.769,0.990,5.265,4.703,4.719,5.281,4.711,4.711,2.198,6.282,5.083,1.570,0.000,0.000,-1.564,-6.424,0.990,5.265,4.704,4.719,
24.688,32.824,-1.533,-7.098,2.124,0.000,6.271,2.717,1.658,0.000,2.438,2.062,0.000,0.000,2.457,0.839,0.000,0.000,3.142,0.000,0.000,0.000,0.000,0.000,0.000,0.000,0.000,0.000,0.000,0.000,3.142,6.283,0.000,1.003,1.569,1.569,4.085,6.281,1.199,4.712,0.000,0.000,-2.122,-6.769,0.990,5.265,4.703,4.719,5.281,4.711,4.711,2.198,6.282,5.083,1.570,0.000,0.000,-1.564,-6.424,0.990,5.265,4.704,4.719,
24.800,32.985,-1.533,-7.098,2.124,0.000,6.271,2.717,1.658,0.000,2.438,2.062,0.000,0.000,2.457,0.839,0.000,0.000,3.142,0.000,0.000,0.000,0.000,0.000,0.000,0.000,0.000,0.000,0.000,0.000,3.142,6.283,0.000,1.003,1.569,1.569,4.085,6.281,1.199,4.712,0.000,0.000,-2.122,-6.769,0.990,5.265,4.703,4.719,5.281,4.711,4.711,2.198,6.282,5.083,1.570,0.000,0.000,-1.564,-6.424,0.990,5.265,4.704,4.719,
24.890,33.166,-1.533,-7.098,2.124,0.000,6.271,2.717,1.658,0.000,2.438,2.062,0.000,0.000,2.457,0.839,0.000,0.000,3.142,0.000,0.000,0.000,0.000,0.000,0.000,0.000,0.000,0.000,0.000,0.000,3.142,6.283,0.000,1.003,1.569,1.569,4.085,6.281,1.199,4.712,0.000,0.000,-2.122,-6.769,0.990,5.265,4.703,4.719,5.281,4.711,4.711,2.198,6.282,5.083,1.570,0.000,0.000,-1.564,-6.424,0.990,5.265,4.704,4.719,
24.992,33.368,-1.533,-7.098,2.124,0.000,6.271,2.717,1.658,0.000,2.438,2.062,0.000,0.000,2.457,0.839,0.000,0.000,3.142,0.000,0.000,0.000,0.000,0.000,0.000,0.000,0.000,0.000,0.000,0.000,3.142,6.283,0.000,1.003,1.569,1.569,4.085,6.281,1.199,4.712,0.000,0.000,-2.122,-6.769,0.990,5.265,4.703,4.719,5.281,4.711,4.711,2.198,6.282,5.083,1.570,0.000,0.000,-1.564,-6.424,0.990,5.265,4.704,4.719,
25.087,33.560,-1.533,-7.098,2.124,0.000,6.271,2.717,1.658,0.000,2.438,2.062,0.000,0.000,2.457,0.839,0.000,0.000,3.142,0.000,0.000,0.000,0.000,0.000,0.000,0.000,0.000,0.000,0.000,0.000,3.142,6.283,0.000,1.003,1.569,1.569,4.085,6.281,1.199,4.712,0.000,0.000,-2.122,-6.769,0.990,5.265,4.703,4.719,5.281,4.711,4.711,2.198,6.282,5.083,1.570,0.000,0.000,-1.564,-6.424,0.990,5.265,4.704,4.719,
25.191,33.767,-1.533,-7.098,2.124,0.000,6.271,2.717,1.658,0.000,2.438,2.062,0.000,0.000,2.457,0.839,0.000,0.000,3.142,0.000,0.000,0.000,0.000,0.000,0.000,0.000,0.000,0.000,0.000,0.000,3.142,6.283,0.000,1.003,1.569,1.569,4.085,6.281,1.199,4.712,0.000,0.000,-2.122,-6.769,0.990,5.265,4.703,4.719,5.281,4.711,4.711,2.198,6.282,5.083,1.570,0.000,0.000,-1.564,-6.424,0.990,5.265,4.704,4.719,
25.284,33.952,-1.533,-7.098,2.124,0.000,6.271,2.717,1.658,0.000,2.438,2.062,0.000,0.000,2.457,0.839,0.000,0.000,3.142,0.000,0.000,0.000,0.000,0.000,0.000,0.000,0.000,0.000,0.000,0.000,3.142,6.283,0.000,1.003,1.569,1.569,4.085,6.281,1.199,4.712,0.000,0.000,-2.122,-6.769,0.990,5.265,4.703,4.719,5.281,4.711,4.711,2.198,6.282,5.083,1.570,0.000,0.000,-1.564,-6.424,0.990,5.265,4.704,4.719,
25.388,34.162,-1.533,-7.098,2.124,0.000,6.271,2.717,1.658,0.000,2.438,2.062,0.000,0.000,2.457,0.839,0.000,0.000,3.142,0.000,0.000,0.000,0.000,0.000,0.000,0.000,0.000,0.000,0.000,0.000,3.142,6.283,0.000,1.003,1.569,1.569,4.085,6.281,1.199,4.712,0.000,0.000,-2.122,-6.769,0.990,5.265,4.703,4.719,5.281,4.711,4.711,2.198,6.282,5.083,1.570,0.000,0.000,-1.564,-6.424,0.990,5.265,4.704,4.719,
25.481,34.347,-1.533,-7.098,2.124,0.000,6.271,2.717,1.658,0.000,2.438,2.062,0.000,0.000,2.457,0.839,0.000,0.000,3.142,0.000,0.000,0.000,0.000,0.000,0.000,0.000,0.000,0.000,0.000,0.000,3.142,6.283,0.000,1.003,1.569,1.569,4.085,6.281,1.199,4.712,0.000,0.000,-2.122,-6.769,0.990,5.265,4.703,4.719,5.281,4.711,4.711,2.198,6.282,5.083,1.570,0.000,0.000,-1.564,-6.424,0.990,5.265,4.704,4.719,
25.583,34.550,-1.533,-7.098,2.124,0.000,6.271,2.717,1.658,0.000,2.438,2.062,0.000,0.000,2.457,0.839,0.000,0.000,3.142,0.000,0.000,0.000,0.000,0.000,0.000,0.000,0.000,0.000,0.000,0.000,3.142,6.283,0.000,1.003,1.569,1.569,4.085,6.281,1.199,4.712,0.000,0.000,-2.122,-6.769,0.990,5.265,4.703,4.719,5.281,4.711,4.711,2.198,6.282,5.083,1.570,0.000,0.000,-1.564,-6.424,0.990,5.265,4.704,4.719,
25.695,34.775,-1.533,-7.098,2.124,0.000,6.271,2.717,1.658,0.000,2.438,2.062,0.000,0.000,2.457,0.839,0.000,0.000,3.142,0.000,0.000,0.000,0.000,0.000,0.000,0.000,0.000,0.000,0.000,0.000,3.142,6.283,0.000,1.003,1.569,1.569,4.085,6.281,1.199,4.712,0.000,0.000,-2.122,-6.769,0.990,5.265,4.703,4.719,5.281,4.711,4.711,2.198,6.282,5.083,1.570,0.000,0.000,-1.564,-6.424,0.990,5.265,4.704,4.719,
25.792,34.969,-1.533,-7.098,2.124,0.000,6.271,2.717,1.658,0.000,2.438,2.062,0.000,0.000,2.457,0.839,0.000,0.000,3.142,0.000,0.000,0.000,0.000,0.000,0.000,0.000,0.000,0.000,0.000,0.000,3.142,6.283,0.000,1.003,1.569,1.569,4.085,6.281,1.199,4.712,0.000,0.000,-2.122,-6.769,0.990,5.265,4.703,4.719,5.281,4.711,4.711,2.198,6.282,5.083,1.570,0.000,0.000,-1.564,-6.424,0.990,5.265,4.704,4.719,
25.893,35.171,-1.533,-7.098,2.124,0.000,6.271,2.717,1.658,0.000,2.438,2.062,0.000,0.000,2.457,0.839,0.000,0.000,3.142,0.000,0.000,0.000,0.000,0.000,0.000,0.000,0.000,0.000,0.000,0.000,3.142,6.283,0.000,1.003,1.569,1.569,4.085,6.281,1.199,4.712,0.000,0.000,-2.122,-6.769,0.990,5.265,4.703,4.719,5.281,4.711,4.711,2.198,6.282,5.083,1.570,0.000,0.000,-1.564,-6.424,0.990,5.265,4.704,4.719,
25.992,35.369,-1.533,-7.098,2.124,0.000,6.271,2.717,1.658,0.000,2.438,2.062,0.000,0.000,2.457,0.839,0.000,0.000,3.142,0.000,0.000,0.000,0.000,0.000,0.000,0.000,0.000,0.000,0.000,0.000,3.142,6.283,0.000,1.003,1.569,1.569,4.085,6.281,1.199,4.712,0.000,0.000,-2.122,-6.769,0.990,5.265,4.703,4.719,5.281,4.711,4.711,2.198,6.282,5.083,1.570,0.000,0.000,-1.564,-6.424,0.990,5.265,4.704,4.719,
26.091,35.567,-1.533,-7.098,2.124,0.000,6.271,2.717,1.658,0.000,2.438,2.062,0.000,0.000,2.457,0.839,0.000,0.000,3.142,0.000,0.000,0.000,0.000,0.000,0.000,0.000,0.000,0.000,0.000,0.000,3.142,6.283,0.000,1.003,1.569,1.569,4.085,6.281,1.199,4.712,0.000,0.000,-2.122,-6.769,0.990,5.265,4.703,4.719,5.281,4.711,4.711,2.198,6.282,5.083,1.570,0.000,0.000,-1.564,-6.424,0.990,5.265,4.704,4.719,
26.192,35.769,-1.533,-7.098,2.124,0.000,6.271,2.717,1.658,0.000,2.438,2.062,0.000,0.000,2.457,0.839,0.000,0.000,3.142,0.000,0.000,0.000,0.000,0.000,0.000,0.000,0.000,0.000,0.000,0.000,3.142,6.283,0.000,1.003,1.569,1.569,4.085,6.281,1.199,4.712,0.000,0.000,-2.122,-6.769,0.990,5.265,4.703,4.719,5.281,4.711,4.711,2.198,6.282,5.083,1.570,0.000,0.000,-1.564,-6.424,0.990,5.265,4.704,4.719,
26.290,35.965,-1.533,-7.098,2.124,0.000,6.271,2.717,1.658,0.000,2.438,2.062,0.000,0.000,2.457,0.839,0.000,0.000,3.142,0.000,0.000,0.000,0.000,0.000,0.000,0.000,0.000,0.000,0.000,0.000,3.142,6.283,0.000,1.003,1.569,1.569,4.085,6.281,1.199,4.712,0.000,0.000,-2.122,-6.769,0.990,5.265,4.703,4.719,5.281,4.711,4.711,2.198,6.282,5.083,1.570,0.000,0.000,-1.564,-6.424,0.990,5.265,4.704,4.719,
26.390,36.166,-1.533,-7.098,2.124,0.000,6.271,2.717,1.658,0.000,2.438,2.062,0.000,0.000,2.457,0.839,0.000,0.000,3.142,0.000,0.000,0.000,0.000,0.000,0.000,0.000,0.000,0.000,0.000,0.000,3.142,6.283,0.000,1.003,1.569,1.569,4.085,6.281,1.199,4.712,0.000,0.000,-2.122,-6.769,0.990,5.265,4.703,4.719,5.281,4.711,4.711,2.198,6.282,5.083,1.570,0.000,0.000,-1.564,-6.424,0.990,5.265,4.704,4.719,
26.487,36.360,-1.533,-7.098,2.124,0.000,6.271,2.717,1.658,0.000,2.438,2.062,0.000,0.000,2.457,0.839,0.000,0.000,3.142,0.000,0.000,0.000,0.000,0.000,0.000,0.000,0.000,0.000,0.000,0.000,3.142,6.283,0.000,1.003,1.569,1.569,4.085,6.281,1.199,4.712,0.000,0.000,-2.122,-6.769,0.990,5.265,4.703,4.719,5.281,4.711,4.711,2.198,6.282,5.083,1.570,0.000,0.000,-1.564,-6.424,0.990,5.265,4.704,4.719,
26.588,36.562,-1.533,-7.098,2.124,0.000,6.271,2.717,1.658,0.000,2.438,2.062,0.000,0.000,2.457,0.839,0.000,0.000,3.142,0.000,0.000,0.000,0.000,0.000,0.000,0.000,0.000,0.000,0.000,0.000,3.142,6.283,0.000,1.003,1.569,1.569,4.085,6.281,1.199,4.712,0.000,0.000,-2.122,-6.769,0.990,5.265,4.703,4.719,5.281,4.711,4.711,2.198,6.282,5.083,1.570,0.000,0.000,-1.564,-6.424,0.990,5.265,4.704,4.719,
26.681,36.747,-1.533,-7.098,2.124,0.000,6.271,2.717,1.658,0.000,2.438,2.062,0.000,0.000,2.457,0.839,0.000,0.000,3.142,0.000,0.000,0.000,0.000,0.000,0.000,0.000,0.000,0.000,0.000,0.000,3.142,6.283,0.000,1.003,1.569,1.569,4.085,6.281,1.199,4.712,0.000,0.000,-2.122,-6.769,0.990,5.265,4.703,4.719,5.281,4.711,4.711,2.198,6.282,5.083,1.570,0.000,0.000,-1.564,-6.424,0.990,5.265,4.704,4.719,
26.782,36.949,-1.533,-7.098,2.124,0.000,6.271,2.717,1.658,0.000,2.438,2.062,0.000,0.000,2.457,0.839,0.000,0.000,3.142,0.000,0.000,0.000,0.000,0.000,0.000,0.000,0.000,0.000,0.000,0.000,3.142,6.283,0.000,1.003,1.569,1.569,4.085,6.281,1.199,4.712,0.000,0.000,-2.122,-6.769,0.990,5.265,4.703,4.719,5.281,4.711,4.711,2.198,6.282,5.083,1.570,0.000,0.000,-1.564,-6.424,0.990,5.265,4.704,4.719,
26.900,37.185,-1.533,-7.098,2.124,0.000,6.271,2.717,1.658,0.000,2.438,2.062,0.000,0.000,2.457,0.839,0.000,0.000,3.142,0.000,0.000,0.000,0.000,0.000,0.000,0.000,0.000,0.000,0.000,0.000,3.142,6.283,0.000,1.003,1.569,1.569,4.085,6.281,1.199,4.712,0.000,0.000,-2.122,-6.769,0.990,5.265,4.703,4.719,5.281,4.711,4.711,2.198,6.282,5.083,1.570,0.000,0.000,-1.564,-6.424,0.990,5.265,4.704,4.719,
26.982,37.350,-1.533,-7.098,2.124,0.000,6.271,2.717,1.658,0.000,2.438,2.062,0.000,0.000,2.457,0.839,0.000,0.000,3.142,0.000,0.000,0.000,0.000,0.000,0.000,0.000,0.000,0.000,0.000,0.000,3.142,6.283,0.000,1.003,1.569,1.569,4.085,6.281,1.199,4.712,0.000,0.000,-2.122,-6.769,0.990,5.265,4.703,4.719,5.281,4.711,4.711,2.198,6.282,5.083,1.570,0.000,0.000,-1.564,-6.424,0.990,5.265,4.704,4.719,
27.089,37.474,-1.533,-7.098,2.124,0.000,6.271,2.717,1.658,0.000,2.438,2.062,0.000,0.000,2.457,0.839,0.000,0.000,3.142,0.000,0.000,0.000,0.000,0.000,0.000,0.000,0.000,0.000,0.000,0.000,3.142,6.283,0.000,1.003,1.569,1.569,4.085,6.281,1.199,4.712,0.000,0.000,-2.122,-6.769,0.990,5.265,4.703,4.719,5.281,4.711,4.711,2.198,6.282,5.083,1.570,0.000,0.000,-1.564,-6.424,0.990,5.265,4.704,4.719,
27.194,37.578,-1.533,-7.098,2.124,0.000,6.271,2.717,1.658,0.000,2.438,2.062,0.000,0.000,2.457,0.839,0.000,0.000,3.142,0.000,0.000,0.000,0.000,0.000,0.000,0.000,0.000,0.000,0.000,0.000,3.142,6.283,0.000,1.003,1.569,1.569,4.085,6.281,1.199,4.712,0.000,0.000,-2.122,-6.769,0.990,5.265,4.703,4.719,5.281,4.711,4.711,2.198,6.282,5.083,1.570,0.000,0.000,-1.564,-6.424,0.990,5.265,4.704,4.719,
27.300,37.685,-1.533,-7.098,2.124,0.000,6.271,2.717,1.658,0.000,2.438,2.062,0.000,0.000,2.457,0.839,0.000,0.000,3.142,0.000,0.000,0.000,0.000,0.000,0.000,0.000,0.000,0.000,0.000,0.000,3.142,6.283,0.000,1.003,1.569,1.569,4.085,6.281,1.199,4.712,0.000,0.000,-2.122,-6.769,0.990,5.265,4.703,4.719,5.281,4.711,4.711,2.198,6.282,5.083,1.570,0.000,0.000,-1.564,-6.424,0.990,5.265,4.704,4.719,
27.390,37.775,-1.533,-7.098,2.124,0.000,6.271,2.717,1.658,0.000,2.438,2.062,0.000,0.000,2.457,0.839,0.000,0.000,3.142,0.000,0.000,0.000,0.000,0.000,0.000,0.000,0.000,0.000,0.000,0.000,3.142,6.283,0.000,1.003,1.569,1.569,4.085,6.281,1.199,4.712,0.000,0.000,-2.122,-6.769,0.990,5.265,4.703,4.719,5.281,4.711,4.711,2.198,6.282,5.083,1.570,0.000,0.000,-1.564,-6.424,0.990,5.265,4.704,4.719,
27.500,37.885,-1.533,-7.098,2.124,0.000,6.271,2.717,1.658,0.000,2.438,2.062,0.000,0.000,2.457,0.839,0.000,0.000,3.142,0.000,0.000,0.000,0.000,0.000,0.000,0.000,0.000,0.000,0.000,0.000,3.142,6.283,0.000,1.003,1.569,1.569,4.085,6.281,1.199,4.712,0.000,0.000,-2.122,-6.769,0.990,5.265,4.703,4.719,5.281,4.711,4.711,2.198,6.282,5.083,1.570,0.000,0.000,-1.564,-6.424,0.990,5.265,4.704,4.719,
27.592,37.977,-1.533,-7.098,2.124,0.000,6.271,2.717,1.658,0.000,2.438,2.062,0.000,0.000,2.457,0.839,0.000,0.000,3.142,0.000,0.000,0.000,0.000,0.000,0.000,0.000,0.000,0.000,0.000,0.000,3.142,6.283,0.000,1.003,1.569,1.569,4.085,6.281,1.199,4.712,0.000,0.000,-2.122,-6.769,0.990,5.265,4.703,4.719,5.281,4.711,4.711,2.198,6.282,5.083,1.570,0.000,0.000,-1.564,-6.424,0.990,5.265,4.704,4.719,
27.700,38.085,-1.533,-7.098,2.124,0.000,6.270,2.717,1.658,0.000,2.438,2.062,0.000,0.000,2.457,0.839,0.000,0.000,3.142,0.000,0.000,0.000,0.000,0.000,0.000,0.000,0.000,0.000,0.000,0.000,3.142,6.283,0.000,1.020,1.586,1.586,4.103,0.016,1.182,4.712,0.000,0.000,-2.116,-6.760,0.977,5.259,4.671,4.748,5.264,4.695,4.695,2.181,6.264,5.101,1.570,0.000,0.000,-1.575,-6.426,0.978,5.272,4.673,4.744,
27.791,38.176,-1.533,-7.098,2.112,-0.001,5.744,2.769,1.609,0.000,2.462,2.063,0.000,4.918,2.580,0.827,4.545,0.000,3.142,0.000,0.000,0.000,0.000,0.000,0.000,0.000,0.000,0.000,0.000,0.000,3.142,6.281,0.001,1.044,1.608,1.607,4.124,0.037,1.160,4.712,0.000,0.000,-2.102,-6.742,0.960,5.238,4.625,4.790,5.241,4.670,4.668,2.157,6.244,5.122,1.570,0.000,0.000,-1.585,-6.431,0.961,5.279,4.629,4.778,
27.900,38.285,-1.533,-7.098,2.021,-0.003,4.833,2.463,1.646,0.000,2.446,2.082,1.923,4.683,4.186,0.751,3.446,0.000,1.492,0.000,0.000,0.000,0.000,0.000,0.000,0.000,0.000,0.000,0.000,0.000,3.142,6.280,0.001,1.080,1.644,1.644,4.163,0.076,1.121,4.711,0.000,0.000,-2.048,-6.677,0.934,5.136,4.525,4.891,5.206,4.635,4.632,2.119,6.205,5.161,1.570,0.000,0.000,-1.548,-6.435,0.935,5.207,4.550,4.846,
27.995,38.380,-1.533,-7.098,1.894,-0.006,5.013,2.441,1.774,0.000,2.183,3.948,1.631,0.000,0.000,0.673,3.606,0.000,1.632,0.000,0.000,0.000,0.000,0.000,0.000,0.000,0.000,0.000,0.000,0.000,3.142,6.281,0.001,1.102,1.669,1.670,4.185,0.096,1.100,4.712,0.000,0.000,-1.973,-6.607,0.918,5.002,4.365,5.056,5.183,4.613,4.612,2.098,6.183,5.182,1.570,0.000,0.000,-1.479,-6.442,0.919,5.097,4.453,4.942,
28.100,38.485,-1.533,-7.099,1.817,-0.013,5.771,0.000,1.878,4.671,2.064,4.046,1.578,0.000,0.000,0.638,2.811,0.000,1.702,0.000,0.000,0.000,0.000,0.000,0.000,0.000,0.000,0.000,0.000,0.000,3.142,6.282,0.000,1.139,1.706,1.708,4.223,0.135,1.062,4.712,0.000,0.000,-1.907,-6.568,0.892,4.929,4.079,5.350,5.145,4.575,4.576,2.060,6.144,5.221,1.571,0.000,0.000,-1.455,-6.454,0.892,5.051,4.317,5.071,
28.198,38.583,-1.533,-7.100,1.799,0.001,6.141,0.000,1.907,4.676,2.040,4.070,1.609,0.000,0.000,0.630,2.832,0.000,1.702,0.000,0.000,0.000,0.000,0.000,0.000,0.000,0.000,0.000,0.000,0.000,3.142,6.282,0.000,1.163,1.728,1.730,4.245,0.156,1.040,4.712,0.000,0.000,-1.881,-6.558,0.876,4.918,3.910,5.522,5.121,4.552,4.551,2.036,6.124,5.242,1.570,0.000,0.000,-1.462,-6.461,0.875,5.058,4.261,5.121,
28.300,38.685,-1.533,-7.100,1.786,-0.023,5.962,0.000,1.929,4.680,2.023,3.937,1.631,0.000,0.000,0.625,2.848,0.000,1.738,0.000,0.000,0.000,0.000,0.000,0.000,0.000,0.000,0.000,0.000,0.000,3.142,6.281,0.001,1.200,1.765,1.765,4.282,0.195,1.001,4.712,0.000,0.000,-1.846,-6.550,0.851,4.918,3.703,5.737,5.084,4.514,4.514,1.998,6.085,5.281,1.570,0.000,0.000,-1.482,-6.471,0.851,5.078,4.203,5.167,
28.392,38.777,-1.533,-7.102,1.748,0.000,5.690,0.000,1.995,0.000,2.012,3.601,1.702,0.000,0.000,0.631,0.000,0.000,1.773,0.000,0.000,0.000,0.000,0.000,0.000,0.000,0.000,0.000,0.000,0.000,3.142,6.281,0.000,1.222,1.788,1.789,4.284,0.216,0.999,4.712,0.000,0.000,-1.806,-6.544,0.842,4.910,3.438,6.007,5.062,4.491,4.491,1.995,6.064,5.283,1.570,0.000,0.000,-1.473,-6.484,0.841,5.066,4.132,5.238,
28.500,38.885,-1.533,-7.101,1.705,0.004,5.863,0.000,2.079,4.121,2.179,3.286,1.796,0.000,0.000,0.685,0.000,0.000,1.808,0.000,0.000,0.000,0.000,0.000,0.000,0.000,0.000,0.000,0.000,0.000,3.142,6.281,0.000,1.259,1.825,1.798,4.284,0.255,0.999,4.712,0.000,0.000,-1.770,-6.540,0.825,4.933,3.231,6.207,5.024,4.455,4.483,1.996,6.025,5.283,1.571,0.000,0.000,-1.455,-6.498,0.825,5.043,3.971,5.410,
28.588,38.973,-1.533,-7.101,1.688,0.008,6.166,0.000,2.115,4.133,2.254,3.179,1.837,0.000,0.000,0.708,0.000,0.000,1.843,0.000,0.000,0.000,0.000,0.000,0.000,0.000,0.000,0.000,0.000,0.000,3.142,6.282,0.000,1.282,1.847,1.798,4.285,0.277,0.999,4.712,0.000,0.000,-1.756,-6.541,0.814,4.952,3.181,6.250,5.002,4.433,4.483,1.996,6.003,5.283,1.571,0.000,0.000,-1.448,-6.505,0.814,5.041,3.878,5.511,
28.700,39.085,-1.533,-7.100,1.683,0.005,6.138,0.000,2.126,4.136,2.278,3.149,1.849,0.000,0.000,0.715,0.000,0.000,1.843,0.000,0.000,0.000,0.000,0.000,0.000,0.000,0.000,0.000,0.000,0.000,3.142,6.282,0.000,1.320,1.885,1.797,4.284,0.315,0.999,4.712,0.000,0.000,-1.747,-6.549,0.797,4.986,3.209,6.208,4.964,4.395,4.483,1.996,5.965,5.283,1.571,0.000,0.000,-1.450,-6.516,0.797,5.055,3.772,5.628,
28.792,39.176,-1.533,-7.100,1.670,0.007,6.036,0.000,2.155,2.910,2.339,3.074,1.882,0.000,0.000,0.734,0.000,0.000,1.843,0.000,0.000,0.000,0.000,0.000,0.000,0.000,0.000,0.000,0.000,0.000,3.142,6.282,0.000,1.343,1.897,1.797,4.284,0.337,0.999,4.711,0.000,0.000,-1.739,-6.553,0.786,5.008,3.202,6.218,4.941,4.384,4.484,1.996,5.943,5.283,1.571,0.000,0.000,-1.441,-6.523,0.785,5.059,3.676,5.723,
28.900,39.285,-1.533,-7.100,1.655,0.005,6.097,0.000,2.192,2.753,2.420,2.989,2.064,0.000,0.000,0.760,1.060,0.000,1.843,0.000,0.000,0.000,0.000,0.000,0.000,0.000,0.000,0.000,0.000,0.000,3.142,6.282,0.000,1.380,1.897,1.798,4.284,0.375,0.999,4.712,0.000,0.000,-1.739,-6.560,0.764,5.047,3.244,6.201,4.903,4.383,4.484,1.996,5.905,5.283,1.571,0.000,0.000,-1.422,-6.533,0.763,5.071,3.506,5.869,
28.991,39.376,-1.533,-7.101,1.646,-0.011,6.154,0.000,2.213,2.758,4.560,2.945,2.062,0.000,0.000,0.777,1.045,0.000,1.878,0.000,0.000,0.000,0.000,0.000,0.000,0.000,0.000,0.000,0.000,0.000,3.142,6.282,0.000,1.403,1.897,1.797,4.285,0.397,0.999,4.711,0.000,0.000,-1.739,-6.566,0.750,5.070,3.267,6.192,4.881,4.383,4.484,1.996,5.883,5.283,1.571,0.000,0.000,-1.411,-6.541,0.750,5.083,3.417,5.944,
29.100,39.485,-1.533,-7.101,1.640,-0.008,6.180,0.000,2.228,2.752,4.621,2.915,2.061,0.000,0.000,0.789,1.034,0.000,1.878,0.000,0.000,0.000,0.000,0.000,0.000,0.000,0.000,0.000,0.000,0.000,3.142,6.282,0.000,1.441,1.897,1.797,4.284,0.398,0.999,4.711,0.000,0.000,-1.735,-6.577,0.729,5.106,3.239,6.220,4.844,4.383,4.484,1.996,5.883,5.283,1.571,0.000,0.000,-1.407,-6.554,0.729,5.117,3.377,5.983,
29.193,39.578,-1.533,-7.101,1.635,0.005,6.162,0.000,2.241,2.688,4.804,2.889,2.060,0.000,0.000,0.799,1.025,0.000,1.878,0.000,0.000,0.000,0.000,0.000,0.000,0.000,0.000,0.000,0.000,0.000,3.142,6.282,0.000,1.463,1.897,1.797,4.285,0.398,0.999,4.711,0.000,0.000,-1.732,-6.584,0.716,5.129,3.221,6.238,4.821,4.383,4.484,1.996,5.883,5.283,1.571,0.000,0.000,-1.404,-6.562,0.716,5.138,3.352,6.009,
29.300,39.685,-1.533,-7.101,1.629,0.005,6.163,0.000,2.257,2.618,4.874,2.860,2.060,0.000,0.000,0.810,1.015,0.000,1.878,0.000,0.000,0.000,0.000,0.000,0.000,0.000,0.000,0.000,0.000,0.000,3.142,6.282,0.000,1.500,1.897,1.797,4.285,0.398,0.999,4.711,0.000,0.000,-1.728,-6.595,0.696,5.165,3.200,6.259,4.784,4.383,4.484,1.996,5.883,5.283,1.571,0.000,0.000,-1.400,-6.576,0.696,5.173,3.322,6.040,
29.392,39.776,-1.533,-7.100,1.624,0.091,6.178,0.000,2.269,2.565,4.929,2.838,2.060,0.000,0.000,0.817,1.008,0.000,1.878,0.000,0.000,0.000,0.000,0.000,0.000,0.000,0.000,0.000,0.000,0.000,3.142,6.280,0.000,1.524,1.897,1.797,4.283,0.398,0.999,4.712,0.000,0.000,-1.726,-6.602,0.684,5.187,3.190,6.269,4.762,4.384,4.483,1.995,5.883,5.283,1.571,0.000,0.000,-1.398,-6.584,0.683,5.195,3.307,6.055,
29.500,39.885,-1.535,-7.050,1.625,0.899,0.061,0.000,2.265,1.647,0.000,2.835,2.110,0.000,0.000,0.682,1.013,0.000,1.913,0.000,0.000,0.000,0.000,0.000,0.000,0.000,0.000,0.000,0.000,0.000,3.142,6.277,6.283,1.566,1.898,1.795,4.280,0.399,0.997,4.711,0.000,0.000,-1.729,-6.569,0.663,5.224,3.189,6.267,4.723,4.383,4.480,1.995,5.883,5.283,1.571,0.000,0.000,-1.401,-6.549,0.664,5.233,3.300,6.061,
29.592,39.977,-1.542,-6.927,1.627,1.438,6.274,0.000,2.249,1.607,0.000,2.831,2.233,0.000,0.000,0.587,4.808,0.000,1.913,0.000,0.000,0.000,0.000,0.000,0.000,0.000,0.000,0.000,0.000,0.000,3.142,6.281,0.000,1.584,1.897,1.797,4.284,0.398,0.999,4.711,0.000,0.000,-1.735,-6.454,0.652,5.248,3.185,6.271,4.701,4.383,4.483,1.996,5.883,5.283,1.571,0.000,0.000,-1.406,-6.435,0.652,5.254,3.290,6.070,
29.700,40.085,-1.549,-6.799,1.627,1.067,6.276,0.000,2.238,1.491,0.000,2.659,2.362,0.000,0.000,0.595,4.812,0.000,1.948,0.000,0.000,0.000,0.000,0.000,0.000,0.000,0.000,0.000,0.000,0.000,3.142,0.002,0.001,1.616,1.897,1.799,4.288,0.397,1.001,4.711,0.000,0.000,-1.739,-6.339,0.633,5.284,3.174,6.281,4.664,4.383,4.486,1.998,5.882,5.284,1.571,0.000,0.000,-1.411,-6.322,0.634,5.289,3.274,6.087,
29.784,40.168,-1.553,-6.728,1.627,0.796,6.276,0.000,2.231,1.487,0.000,2.810,2.433,0.000,0.000,0.599,4.820,0.000,1.983,0.000,0.000,0.000,0.000,0.000,0.000,0.000,0.000,0.000,0.000,0.000,3.142,0.000,0.001,1.638,1.897,1.798,4.286,0.397,1.000,4.711,0.000,0.000,-1.743,-6.278,0.624,5.304,3.175,6.279,4.644,4.383,4.485,1.997,5.882,5.283,1.571,0.000,0.000,-1.415,-6.259,0.624,5.309,3.271,6.089,
29.900,40.285,-1.559,-6.628,1.627,0.985,6.275,0.000,2.222,1.481,4.993,2.800,2.533,0.000,0.580,0.605,4.832,0.000,1.983,0.000,0.000,0.000,0.000,0.000,0.000,0.000,0.000,0.000,0.000,0.000,3.142,6.281,0.000,1.681,1.898,1.797,4.284,0.398,0.999,4.711,0.000,0.000,-1.749,-6.196,0.604,5.344,3.174,6.277,4.604,4.383,4.483,1.997,5.883,5.283,1.571,0.000,0.000,-1.421,-6.177,0.604,5.350,3.266,6.093,
30.000,40.385,-1.564,-6.544,1.627,1.117,6.275,0.000,2.215,1.476,0.000,2.865,2.617,0.000,0.585,0.611,4.840,0.000,2.124,0.000,0.000,0.000,0.000,0.000,0.000,0.000,0.000,0.000,0.000,0.000,3.142,6.282,0.000,1.702,1.897,1.797,4.285,0.398,0.999,4.711,0.000,0.000,-1.753,-6.122,0.593,5.367,3.171,6.279,4.582,4.384,4.484,1.996,5.883,5.283,1.571,0.000,0.000,-1.425,-6.103,0.594,5.372,3.259,6.100,
30.100,40.485,-1.571,-6.415,1.627,1.014,6.278,0.000,2.204,1.469,0.000,3.015,2.746,0.000,0.593,0.618,2.285,0.000,2.159,0.000,0.000,0.000,0.000,0.000,0.000,0.000,0.000,0.000,0.000,0.000,3.142,6.283,0.000,1.741,1.897,1.798,4.286,0.397,1.000,4.711,0.000,0.000,-1.759,-6.012,0.575,5.407,3.166,0.000,4.542,4.384,4.485,1.997,5.882,5.283,1.571,0.000,0.000,-1.430,-5.993,0.576,5.411,3.250,6.108,
30.200,40.585,-1.575,-6.338,1.627,0.949,6.278,0.000,1.890,1.464,0.000,3.104,2.823,0.000,0.597,1.158,2.195,0.000,2.194,0.000,0.000,0.000,0.000,0.000,0.000,0.000,0.000,0.000,0.000,0.000,3.142,6.283,0.000,1.761,1.897,1.798,4.286,0.398,1.000,4.711,0.000,0.000,-1.763,-5.945,0.567,5.426,3.165,0.000,4.522,4.384,4.484,1.997,5.883,5.283,1.571,0.000,0.000,-1.434,-5.926,0.567,5.431,3.247,6.111,
30.281,40.666,-1.582,-6.224,1.627,1.001,6.277,0.000,1.739,1.458,0.000,3.238,2.938,0.000,0.604,1.165,2.060,0.000,2.931,0.000,0.000,0.000,0.000,0.000,0.000,0.000,0.000,0.000,0.000,0.000,3.142,6.282,0.000,1.802,1.897,1.797,4.285,0.398,0.999,4.711,0.000,0.000,-1.768,-5.851,0.550,5.467,3.162,0.000,4.482,4.384,4.484,1.997,5.883,5.283,1.571,0.000,0.000,-1.440,-5.832,0.550,5.471,3.241,6.116,
30.400,40.785,-1.588,-6.122,1.627,1.038,6.278,0.000,1.606,1.452,0.000,3.231,3.039,0.000,0.610,1.171,1.959,0.000,2.931,0.000,0.000,0.000,0.000,0.000,0.000,0.000,0.000,0.000,0.000,0.000,3.142,6.282,0.000,1.839,1.897,1.798,4.285,0.398,0.999,4.711,0.000,0.000,-1.773,-5.768,0.535,5.503,3.159,0.002,4.445,4.383,4.484,1.997,5.882,5.283,1.571,0.000,0.000,-1.444,-5.750,0.535,5.508,3.235,6.122,
30.500,40.885,-1.592,-6.041,1.627,1.013,6.278,0.000,1.499,1.447,0.000,3.221,3.121,0.937,0.614,1.122,1.968,0.000,2.931,0.000,0.000,0.000,0.000,0.000,0.000,0.000,0.000,0.000,0.000,0.000,3.142,6.283,0.000,1.861,1.897,1.798,4.286,0.398,1.000,4.711,0.000,0.000,-1.776,-5.699,0.526,5.526,3.157,0.003,4.422,4.384,4.484,1.997,5.883,5.283,1.571,0.000,0.000,-1.448,-5.681,0.526,5.530,3.231,6.125,
30.600,40.985,-1.598,-5.943,1.627,0.994,6.279,0.000,1.370,1.441,1.636,3.211,3.220,0.946,0.866,1.128,2.072,0.000,2.931,0.000,0.000,0.000,0.000,0.000,0.000,0.000,0.000,0.000,0.000,0.000,3.142,6.282,0.000,1.899,1.897,1.798,4.285,0.398,0.999,4.711,0.000,0.000,-1.781,-5.621,0.512,5.563,3.154,0.004,4.385,4.383,4.484,1.997,5.882,5.283,1.571,0.000,0.000,-1.453,-5.602,0.513,5.567,3.226,6.129,
30.700,41.085,-1.604,-5.825,1.627,1.003,6.280,0.000,1.215,1.435,1.514,3.197,3.338,0.957,1.140,0.000,2.085,0.000,2.931,0.000,0.000,0.000,0.000,0.000,0.000,0.000,0.000,0.000,0.000,0.000,3.142,6.282,0.000,1.941,1.897,1.798,4.286,0.398,0.999,4.711,0.000,0.000,-1.786,-5.526,0.497,5.606,3.152,0.004,4.342,4.384,4.484,1.997,5.883,5.283,1.571,0.000,0.000,-1.458,-5.508,0.498,5.610,3.221,6.134,
30.800,41.185,-1.609,-5.745,1.627,1.012,6.280,0.000,1.143,1.430,1.509,3.188,3.417,0.964,1.145,4.720,2.093,0.000,2.966,0.000,0.000,0.000,0.000,0.000,0.000,0.000,0.000,0.000,0.000,0.000,3.142,6.282,0.000,1.961,1.897,1.798,4.286,0.398,0.999,4.711,0.000,0.000,-1.790,-5.458,0.490,5.626,3.151,0.005,4.322,4.384,4.484,1.997,5.882,5.283,1.571,0.000,0.000,-1.461,-5.440,0.491,5.630,3.218,6.136,
30.885,41.270,-1.614,-5.645,1.627,1.013,6.281,0.000,1.135,1.424,1.503,3.177,3.518,0.973,1.150,4.451,2.103,0.000,2.966,0.000,0.000,0.000,0.000,0.000,0.000,0.000,0.000,0.000,0.000,0.000,3.142,6.282,0.000,1.998,1.897,1.798,4.285,0.398,1.000,4.711,0.000,0.000,-1.794,-5.379,0.479,5.662,3.148,0.005,4.285,4.383,4.484,1.997,5.882,5.283,1.571,0.000,0.000,-1.466,-5.361,0.479,5.666,3.214,6.140,
30.986,41.371,-1.621,-5.526,1.626,1.004,6.282,0.000,1.125,1.418,1.496,3.163,3.637,0.983,1.157,4.133,2.115,0.000,2.966,0.000,0.000,0.000,0.000,0.000,0.000,0.000,0.000,0.000,0.000,0.000,3.142,6.282,0.000,2.038,1.897,1.798,4.285,0.398,0.999,4.711,0.000,0.000,-1.799,-5.283,0.467,5.702,3.145,0.006,4.245,4.383,4.484,1.998,5.882,5.283,1.571,0.000,0.000,-1.471,-5.265,0.468,5.706,3.210,6.143,
31.100,41.485,-1.626,-5.427,1.626,1.007,6.283,0.000,0.000,1.412,1.490,3.152,3.736,0.992,1.163,4.096,0.000,0.000,2.966,0.000,0.000,0.000,0.000,0.000,0.000,0.000,0.000,0.000,0.000,0.000,3.142,6.282,0.000,2.078,1.897,1.798,4.285,0.398,0.999,4.711,0.000,0.000,-1.804,-5.208,0.457,5.742,3.143,0.006,4.205,4.384,4.484,1.998,5.882,5.283,1.571,0.000,0.000,-1.475,-5.190,0.457,5.746,3.206,6.146,
31.200,41.585,-1.631,-5.348,1.626,1.007,6.283,0.000,0.000,1.407,1.485,3.211,3.815,1.048,1.116,4.101,0.000,0.000,2.966,0.000,0.000,0.000,0.000,0.000,0.000,0.000,0.000,0.000,0.000,0.000,3.142,6.282,0.000,2.100,1.897,1.798,4.286,0.398,1.000,4.711,0.000,0.000,-1.807,-5.142,0.451,5.765,3.142,0.006,4.183,4.384,4.484,1.997,5.882,5.283,1.571,0.000,0.000,-1.479,-5.124,0.451,5.768,3.204,6.148,
31.296,41.680,-1.637,-5.229,1.626,0.916,0.002,0.000,0.000,1.401,1.478,3.350,3.934,1.201,1.123,4.108,0.000,0.000,2.966,0.000,0.000,0.000,0.000,0.000,0.000,0.000,0.000,0.000,0.000,0.000,3.142,0.001,0.001,2.099,1.897,1.799,4.285,0.397,1.001,4.712,0.000,0.000,-1.814,-5.024,0.451,5.764,3.141,0.008,4.183,4.383,4.485,1.998,5.882,5.284,1.571,0.000,0.000,-1.485,-5.006,0.451,5.767,3.203,6.150,
31.400,41.785,-1.640,-5.187,1.626,-0.026,6.276,0.000,0.000,1.237,1.475,3.399,3.976,1.256,1.284,4.110,0.000,0.000,2.966,0.000,0.000,0.000,0.000,0.000,0.000,0.000,0.000,0.000,0.000,0.000,3.142,0.004,0.001,2.094,1.896,1.801,4.286,0.396,1.004,4.714,0.000,0.000,-1.815,-4.979,0.452,5.762,3.138,0.012,4.184,4.381,4.487,1.999,5.881,5.284,1.571,0.000,0.000,-1.487,-4.962,0.452,5.765,3.201,6.153,
31.500,41.885,-1.639,-5.207,1.623,-0.409,0.011,0.000,0.000,1.401,1.475,3.381,3.955,1.227,1.190,4.104,0.000,0.000,2.966,0.000,0.000,0.000,0.000,0.000,0.000,0.000,0.000,0.000,0.000,0.000,3.142,0.001,0.000,2.098,1.897,1.800,4.285,0.397,1.001,4.712,0.000,0.000,-1.814,-5.001,0.451,5.763,3.139,0.012,4.183,4.383,4.485,1.998,5.881,5.284,1.571,0.000,0.000,-1.486,-4.984,0.451,5.767,3.201,6.154,
31.594,41.979,-1.637,-5.235,1.623,0.006,0.011,0.000,0.000,1.402,1.476,3.349,3.927,1.190,1.123,4.102,0.000,0.000,2.966,3.888,0.000,0.000,0.000,0.000,0.000,0.000,0.000,0.000,0.000,0.000,3.142,6.281,6.283,2.103,1.897,1.797,4.285,0.399,0.998,4.710,0.000,0.000,-1.813,-5.031,0.450,5.766,3.141,0.008,4.182,4.385,4.483,1.997,5.882,5.283,1.571,0.000,0.000,-1.485,-5.013,0.451,5.769,3.203,6.150,
31.700,42.085,-1.638,-5.227,1.622,0.143,0.001,0.000,0.000,1.402,1.475,3.361,3.936,1.200,1.124,4.101,0.000,0.000,2.966,3.732,0.000,0.000,0.000,0.000,0.000,0.000,0.000,0.000,0.000,0.000,3.142,6.282,0.000,2.101,1.897,1.798,4.285,0.398,0.999,4.711,0.000,0.000,-1.813,-5.021,0.451,5.765,3.140,0.011,4.183,4.384,4.484,1.998,5.882,5.283,1.570,0.000,0.000,-1.485,-5.004,0.451,5.768,3.202,6.153,
31.800,42.185,-1.638,-5.220,1.622,0.046,0.003,0.000,0.000,1.402,1.475,3.370,3.943,1.209,1.134,4.101,0.000,0.000,2.966,3.651,0.000,0.000,0.000,0.000,0.000,0.000,0.000,0.000,0.000,0.000,3.142,6.283,0.000,2.100,1.897,1.798,4.285,0.398,1.000,4.711,0.000,0.000,-1.813,-5.013,0.451,5.764,3.139,0.012,4.183,4.384,4.484,1.998,5.882,5.283,1.570,0.000,0.000,-1.485,-4.997,0.451,5.767,3.201,6.154,
31.900,42.285,-1.638,-5.219,1.621,-0.001,0.003,0.000,0.000,1.402,1.474,3.372,3.943,1.209,1.133,4.100,0.000,0.000,2.966,3.536,0.000,0.000,0.000,0.000,0.000,0.000,0.000,0.000,0.000,0.000,3.142,6.283,0.000,2.100,1.897,1.799,4.286,0.398,1.000,4.711,0.000,0.000,-1.813,-5.013,0.451,5.765,3.138,0.012,4.183,4.384,4.484,1.998,5.882,5.283,1.571,0.000,0.000,-1.484,-4.997,0.451,5.768,3.200,6.154,
32.000,42.385,-1.638,-5.219,1.621,0.001,0.002,0.000,0.000,1.402,1.474,3.373,3.943,1.208,1.130,4.099,0.000,0.000,2.966,3.465,0.000,0.000,0.000,0.000,0.000,0.000,0.000,0.000,0.000,0.000,3.142,6.283,0.000,2.100,1.897,1.799,4.286,0.398,1.000,4.711,0.000,0.000,-1.813,-5.013,0.451,5.765,3.138,0.013,4.183,4.384,4.484,1.998,5.882,5.283,1.570,0.000,0.000,-1.484,-4.997,0.451,5.768,3.200,6.155,
32.084,42.469,-1.638,-5.220,1.620,-0.002,0.000,0.000,0.000,1.403,1.473,3.375,3.942,1.207,1.126,4.098,0.000,0.000,2.966,3.345,0.000,0.000,0.000,0.000,0.000,0.000,0.000,0.000,0.000,0.000,3.142,6.283,0.000,2.100,1.897,1.799,4.286,0.398,1.000,4.711,0.000,0.000,-1.813,-5.013,0.451,5.765,3.138,0.014,4.183,4.384,4.484,1.998,5.882,5.283,1.570,0.000,0.000,-1.484,-4.997,0.451,5.767,3.200,6.156,
32.200,42.585,-1.638,-5.220,1.618,-0.002,6.256,0.000,0.000,1.403,1.473,3.377,3.942,1.206,1.126,4.095,0.000,0.000,2.966,3.209,0.000,0.000,0.000,0.000,0.000,0.000,0.000,0.000,0.000,0.000,3.142,6.282,0.000,2.100,1.898,1.798,4.286,0.398,0.999,4.711,0.000,0.000,-1.812,-5.013,0.451,5.765,3.137,0.015,4.183,4.384,4.484,1.998,5.882,5.283,1.570,0.000,0.000,-1.484,-4.997,0.451,5.767,3.199,6.157,
32.300,42.685,-1.638,-5.220,1.617,-0.004,6.211,0.000,0.000,1.404,1.472,3.380,3.941,1.204,1.126,4.093,0.000,0.000,2.966,3.137,0.000,0.000,0.000,0.000,0.000,0.000,0.000,0.000,0.000,0.000,3.142,6.282,0.000,2.100,1.897,1.798,4.285,0.398,1.000,4.711,0.000,0.000,-1.812,-5.013,0.451,5.765,3.136,0.017,4.183,4.384,4.484,1.998,5.882,5.283,1.570,0.000,0.000,-1.484,-4.998,0.451,5.767,3.198,6.159,
32.387,42.771,-1.638,-5.220,1.609,0.058,6.149,0.000,0.000,1.406,1.467,3.397,3.940,1.196,1.129,4.080,0.000,0.000,3.001,2.982,0.000,0.000,0.000,0.000,0.000,0.000,0.000,0.000,0.000,0.000,3.142,6.281,0.000,2.102,1.898,1.798,4.285,0.399,0.998,4.710,0.000,0.000,-1.811,-5.013,0.451,5.765,3.132,0.025,4.183,4.385,4.483,1.998,5.883,5.283,1.570,0.000,0.000,-1.482,-5.000,0.451,5.767,3.194,6.167,
32.500,42.885,-1.640,-5.175,1.612,0.859,0.139,0.000,0.000,1.117,1.467,3.443,3.985,1.257,1.262,4.087,0.000,0.000,3.001,2.783,0.000,0.000,0.000,0.000,0.000,0.000,0.000,0.000,0.000,0.000,3.142,6.278,6.283,2.107,1.899,1.796,4.285,0.401,0.996,4.709,0.000,0.000,-1.814,-4.970,0.450,5.767,3.137,0.017,4.182,4.387,4.481,1.997,5.884,5.283,1.570,0.000,0.000,-1.485,-4.955,0.450,5.769,3.198,6.160,
32.600,42.985,-1.643,-5.083,1.615,1.403,0.009,0.000,0.000,0.753,1.465,3.544,4.078,1.379,0.000,4.096,0.000,0.000,3.001,2.604,0.000,0.000,0.000,0.000,0.000,0.000,0.000,0.000,0.000,0.000,3.142,6.280,6.283,2.104,1.898,1.797,4.285,0.399,0.998,4.710,0.000,0.000,-1.818,-4.877,0.450,5.766,3.137,0.016,4.182,4.385,4.482,1.997,5.883,5.283,1.570,0.000,0.000,-1.489,-4.862,0.451,5.769,3.199,6.158,
32.700,43.085,-1.650,-4.925,1.615,1.099,0.000,0.000,0.000,0.721,1.457,3.730,4.237,1.581,0.000,1.242,0.000,0.000,3.001,2.296,0.000,0.000,0.000,0.000,0.000,0.000,0.000,0.000,0.000,0.000,3.142,0.001,0.001,2.097,1.897,1.800,4.285,0.397,1.001,4.712,0.000,0.000,-1.824,-4.716,0.452,5.763,3.134,0.022,4.184,4.383,4.485,1.998,5.881,5.284,1.571,0.000,0.000,-1.495,-4.702,0.452,5.766,3.196,6.163,
32.800,43.185,-1.653,-4.852,1.615,0.805,0.000,0.000,0.000,0.718,1.454,3.816,4.310,1.675,0.000,1.183,0.000,0.000,3.001,2.138,0.000,0.000,0.000,0.000,0.000,0.000,0.000,0.000,0.000,0.000,3.142,0.000,0.001,2.099,1.897,1.799,4.285,0.398,1.001,4.712,0.000,0.000,-1.827,-4.644,0.451,5.764,3.135,0.020,4.183,4.383,4.485,1.998,5.882,5.283,1.571,0.000,0.000,-1.499,-4.629,0.452,5.766,3.197,6.162,
32.895,43.280,-1.658,-4.754,1.615,0.922,0.000,0.000,0.000,0.714,1.449,3.930,4.407,1.850,0.000,1.241,0.000,0.000,3.001,1.900,0.000,0.000,0.000,0.000,0.000,0.000,0.000,0.000,0.000,0.000,3.142,6.281,0.000,2.102,1.898,1.798,4.285,0.398,0.999,4.711,0.000,0.000,-1.832,-4.548,0.451,5.765,3.136,0.018,4.183,4.384,4.483,1.997,5.882,5.283,1.570,0.000,0.000,-1.503,-4.533,0.451,5.768,3.198,6.160,
33.000,43.385,-1.662,-4.659,1.615,0.959,0.000,0.000,0.000,0.709,1.444,0.000,4.503,1.858,0.000,1.246,0.000,0.000,3.001,1.653,0.000,0.000,0.000,0.000,0.000,0.000,0.000,0.000,0.000,0.000,3.142,6.283,0.000,2.100,1.897,1.798,4.285,0.398,1.000,4.711,0.000,0.000,-1.836,-4.451,0.451,5.764,3.135,0.020,4.183,4.384,4.484,1.998,5.882,5.283,1.571,0.000,0.000,-1.507,-4.437,0.451,5.767,3.197,6.161,
33.100,43.485,-1.665,-4.591,1.615,0.754,0.000,0.000,0.000,0.706,0.739,0.000,4.571,1.862,0.000,1.249,0.000,0.000,3.001,1.529,0.000,0.000,0.000,0.000,0.000,0.000,0.000,0.000,0.000,0.000,3.142,0.001,0.001,2.098,1.897,1.799,4.285,0.398,1.001,4.712,0.000,0.000,-1.839,-4.382,0.451,5.763,3.134,0.021,4.183,4.383,4.485,1.998,5.882,5.283,1.571,0.000,0.000,-1.510,-4.368,0.452,5.766,3.197,6.162,
33.192,43.576,-1.668,-4.520,1.615,0.511,0.000,0.000,0.000,0.703,0.736,0.000,4.641,1.867,0.000,1.252,0.000,0.000,3.001,1.331,0.000,0.000,0.000,0.000,0.000,0.000,0.000,0.000,0.000,0.000,3.142,6.283,0.000,2.100,1.897,1.799,4.285,0.398,1.000,4.711,0.000,0.000,-1.842,-4.313,0.451,5.764,3.135,0.020,4.183,4.384,4.484,1.998,5.882,5.283,1.570,0.000,0.000,-1.514,-4.298,0.451,5.767,3.197,6.161,
33.300,43.685,-1.670,-4.470,1.615,0.530,6.283,0.000,0.000,0.701,0.734,0.000,4.692,1.871,0.000,1.255,0.000,0.000,3.001,1.187,0.000,0.000,0.000,0.000,0.000,0.000,0.000,0.000,0.000,0.000,3.142,6.282,0.000,2.101,1.897,1.798,4.285,0.398,1.000,4.711,0.000,0.000,-1.844,-4.263,0.451,5.765,3.135,0.019,4.183,4.384,4.484,1.998,5.882,5.283,1.570,0.000,0.000,-1.516,-4.248,0.451,5.767,3.197,6.161,
33.400,43.785,-1.673,-4.421,1.615,0.464,0.000,0.000,0.000,0.698,0.731,0.000,4.741,1.875,0.000,1.257,0.000,0.000,3.001,1.105,0.000,0.000,0.000,0.000,0.000,0.000,0.000,0.000,0.000,0.000,3.142,6.283,0.000,2.100,1.897,1.799,4.285,0.398,1.000,4.711,0.000,0.000,-1.846,-4.213,0.451,5.764,3.135,0.020,4.183,4.383,4.484,1.998,5.882,5.283,1.571,0.000,0.000,-1.518,-4.199,0.451,5.767,3.197,6.162,
33.500,43.885,-1.674,-4.382,1.615,0.336,0.000,0.000,0.000,0.697,0.730,0.000,4.779,1.877,0.000,1.259,0.000,0.000,3.001,0.000,0.000,0.000,0.000,0.000,0.000,0.000,0.000,0.000,0.000,0.000,3.142,6.283,0.000,2.100,1.897,1.799,4.285,0.398,1.000,4.711,0.000,0.000,-1.848,-4.175,0.451,5.764,3.135,0.020,4.183,4.383,4.484,1.998,5.882,5.283,1.570,0.000,0.000,-1.520,-4.160,0.451,5.767,3.197,6.162,
33.582,43.967,-1.676,-4.354,1.615,0.278,0.011,0.000,0.000,0.695,0.728,0.000,4.808,1.879,0.000,1.260,0.000,0.000,3.001,0.000,0.000,0.000,0.000,0.000,0.000,0.000,0.000,0.000,0.000,0.000,3.142,6.283,0.000,2.100,1.897,1.798,4.285,0.398,1.000,4.711,0.000,0.000,-1.849,-4.146,0.451,5.764,3.135,0.020,4.183,4.384,4.484,1.998,5.882,5.283,1.570,0.000,0.000,-1.521,-4.132,0.451,5.767,3.197,6.161,
33.693,44.078,-1.677,-4.328,1.615,0.271,0.001,0.000,0.000,0.694,0.727,2.520,4.834,1.881,0.000,1.261,0.000,0.000,3.001,0.000,0.000,0.000,0.000,0.000,0.000,0.000,0.000,0.000,0.000,0.000,3.142,6.282,0.000,2.100,1.897,1.798,4.285,0.398,1.000,4.711,0.000,0.000,-1.851,-4.121,0.451,5.764,3.135,0.020,4.183,4.384,4.484,1.998,5.882,5.283,1.570,0.000,0.000,-1.522,-4.106,0.451,5.767,3.197,6.161,
33.800,44.185,-1.678,-4.303,1.614,0.253,0.010,0.000,0.000,0.693,0.726,2.517,4.859,1.884,0.000,1.262,0.000,0.000,3.001,0.000,0.000,0.000,0.000,0.000,0.000,0.000,0.000,0.000,0.000,0.000,3.142,6.283,0.000,2.100,1.897,1.798,4.285,0.398,1.000,4.711,0.000,0.000,-1.852,-4.096,0.451,5.764,3.135,0.020,4.183,4.384,4.484,1.998,5.882,5.283,1.570,0.000,0.000,-1.523,-4.081,0.451,5.767,3.197,6.162,
33.900,44.285,-1.679,-4.275,1.614,0.600,0.014,0.000,0.000,0.692,0.724,2.514,4.886,1.886,0.000,1.264,0.000,0.000,3.001,0.000,0.000,0.000,0.000,0.000,0.000,0.000,0.000,0.000,0.000,0.000,3.142,6.279,6.283,2.105,1.898,1.797,4.285,0.399,0.997,4.709,0.000,0.000,-1.854,-4.070,0.450,5.767,3.137,0.016,4.182,4.386,4.482,1.997,5.883,5.283,1.570,0.000,0.000,-1.525,-4.055,0.451,5.769,3.199,6.158,
34.000,44.385,-1.683,-4.179,1.614,1.317,0.001,0.000,0.000,0.906,0.720,2.506,4.983,1.812,0.000,1.268,0.000,0.000,3.001,0.000,0.000,0.000,0.000,0.000,0.000,0.000,0.000,0.000,0.000,0.000,3.142,6.279,6.283,2.104,1.898,1.797,4.285,0.399,0.997,4.709,0.000,0.000,-1.858,-3.973,0.450,5.766,3.137,0.016,4.182,4.385,4.482,1.997,5.883,5.283,1.570,0.000,0.000,-1.529,-3.958,0.451,5.769,3.198,6.159,
34.096,44.481,-1.693,-4.087,1.310,0.281,2.880,1.980,0.000,1.534,0.659,0.869,0.000,2.222,4.300,1.195,0.000,0.000,3.142,0.000,0.000,0.000,0.000,0.000,0.000,0.000,0.000,0.000,0.000,0.000,3.142,6.278,6.282,2.100,1.895,1.800,4.282,0.397,0.999,4.711,0.000,0.000,-1.797,-3.836,0.452,5.788,2.964,0.369,4.178,4.385,4.486,2.000,5.878,5.282,1.578,0.000,0.000,-1.477,-3.925,0.450,5.783,3.020,0.236,
34.200,44.585,-1.682,-4.045,1.237,0.428,0.797,0.000,0.000,1.623,1.318,0.832,4.783,2.335,3.938,1.182,0.000,0.000,3.001,0.446,0.000,0.000,0.000,0.000,0.000,0.000,0.000,0.000,0.000,0.000,3.142,0.001,0.000,2.098,1.897,1.801,4.285,0.397,1.001,4.712,0.000,0.000,-1.766,-3.788,0.452,5.806,2.925,0.451,4.182,4.383,4.486,1.998,5.881,5.284,1.571,0.000,0.000,-1.456,-3.897,0.451,5.788,2.983,0.313,
34.300,44.685,-1.675,-4.024,1.282,0.187,0.226,0.000,0.000,1.582,1.327,0.871,0.000,2.266,4.233,1.176,0.000,0.000,3.142,0.456,0.000,0.000,0.000,0.000,0.000,0.000,0.000,0.000,0.000,0.000,3.142,0.001,0.001,2.099,1.897,1.798,4.285,0.398,1.001,4.712,0.000,0.000,-1.772,-3.770,0.451,5.797,2.951,0.399,4.183,4.383,4.484,1.999,5.882,5.284,1.571,0.000,0.000,-1.457,-3.864,0.452,5.779,3.009,0.261,
34.400,44.785,-1.673,-4.016,1.283,0.024,0.002,0.000,0.000,1.584,1.329,0.875,0.000,2.275,4.254,1.174,0.000,0.000,3.142,0.452,0.000,0.000,0.000,0.000,0.000,0.000,0.000,0.000,0.000,0.000,3.142,6.283,0.000,2.100,1.897,1.799,4.285,0.398,1.000,4.712,0.000,0.000,-1.770,-3.763,0.451,5.797,2.951,0.397,4.183,4.383,4.484,1.998,5.882,5.283,1.571,0.000,0.000,-1.454,-3.856,0.451,5.780,3.009,0.259,
34.493,44.878,-1.673,-4.016,1.283,0.000,0.006,0.000,0.000,1.584,1.329,0.875,0.000,2.276,4.255,1.174,0.000,0.000,3.142,0.455,0.000,0.000,0.000,0.000,0.000,0.000,0.000,0.000,0.000,0.000,3.142,6.283,0.000,2.100,1.897,1.799,4.285,0.398,1.000,4.711,0.000,0.000,-1.770,-3.763,0.451,5.798,2.952,0.397,4.183,4.384,4.484,1.998,5.882,5.284,1.571,0.000,0.000,-1.454,-3.856,0.451,5.780,3.010,0.259,
34.583,44.968,-1.673,-4.016,1.283,0.001,0.006,0.000,0.000,1.584,1.329,0.875,0.000,2.276,4.255,1.174,0.000,0.000,3.142,0.462,0.000,0.000,0.000,0.000,0.000,0.000,0.000,0.000,0.000,0.000,3.142,6.283,0.000,2.100,1.897,1.799,4.285,0.398,1.000,4.711,0.000,0.000,-1.770,-3.763,0.451,5.798,2.952,0.397,4.183,4.384,4.484,1.998,5.882,5.284,1.571,0.000,0.000,-1.454,-3.856,0.451,5.780,3.010,0.259,
34.700,45.085,-1.673,-4.016,1.283,0.001,0.006,0.000,0.000,1.584,1.329,0.875,0.000,2.276,4.255,1.174,0.000,0.000,3.142,0.475,0.000,0.000,0.000,0.000,0.000,0.000,0.000,0.000,0.000,0.000,3.142,6.283,0.000,2.100,1.897,1.799,4.285,0.398,1.000,4.711,0.000,0.000,-1.770,-3.763,0.451,5.798,2.952,0.397,4.183,4.384,4.484,1.998,5.882,5.284,1.571,0.000,0.000,-1.454,-3.856,0.451,5.780,3.010,0.259,
34.800,45.185,-1.673,-4.016,1.283,0.015,0.016,0.000,0.000,1.584,1.329,0.876,0.000,2.276,4.257,1.173,0.000,0.000,3.142,0.491,0.000,0.000,0.000,0.000,0.000,0.000,0.000,0.000,0.000,0.000,3.142,6.282,0.000,2.101,1.897,1.798,4.285,0.398,1.000,4.711,0.000,0.000,-1.770,-3.763,0.451,5.797,2.952,0.396,4.183,4.384,4.484,1.998,5.882,5.283,1.570,0.000,0.000,-1.454,-3.856,0.451,5.780,3.010,0.258,
34.900,45.285,-1.670,-4.006,1.284,0.177,6.283,0.000,0.000,1.587,1.332,0.879,0.000,2.286,4.276,1.171,0.000,0.000,3.142,0.516,0.000,0.000,0.000,0.000,0.000,0.000,0.000,0.000,0.000,0.000,3.142,6.282,0.000,2.101,1.897,1.798,4.285,0.398,0.999,4.711,0.000,0.000,-1.768,-3.754,0.451,5.798,2.953,0.395,4.183,4.384,4.484,1.998,5.882,5.283,1.570,0.000,0.000,-1.452,-3.847,0.451,5.780,3.011,0.257,
34.984,45.368,-1.665,-3.989,1.284,0.187,0.000,0.000,0.000,1.593,1.337,0.886,0.000,2.304,4.306,1.166,0.000,0.000,3.142,0.563,0.000,0.000,0.000,0.000,0.000,0.000,0.000,0.000,0.000,0.000,3.142,6.283,0.000,2.100,1.897,1.798,4.285,0.398,1.000,4.711,0.000,0.000,-1.762,-3.736,0.451,5.797,2.952,0.396,4.183,4.384,4.484,1.998,5.882,5.283,1.570,0.000,0.000,-1.447,-3.829,0.451,5.780,3.010,0.258,
35.100,45.485,-1.661,-3.975,1.284,0.147,0.001,0.000,0.000,1.598,1.341,0.891,0.000,2.319,4.330,1.162,0.000,0.000,3.142,0.630,0.000,0.000,0.000,0.000,0.000,0.000,0.000,0.000,0.000,0.000,3.142,6.283,0.000,2.100,1.897,1.798,4.285,0.398,1.000,4.711,0.000,0.000,-1.758,-3.722,0.451,5.797,2.952,0.396,4.183,4.384,4.484,1.998,5.882,5.283,1.570,0.000,0.000,-1.443,-3.815,0.451,5.780,3.010,0.258,
35.200,45.585,-1.658,-3.964,1.283,0.177,6.283,0.000,0.000,1.602,1.344,0.895,0.000,2.331,4.349,1.158,0.000,0.000,3.142,0.686,0.000,0.000,0.000,0.000,0.000,0.000,0.000,0.000,0.000,0.000,3.142,6.282,0.000,2.101,1.897,1.798,4.285,0.398,0.999,4.711,0.000,0.000,-1.755,-3.712,0.451,5.797,2.952,0.396,4.183,4.384,4.484,1.998,5.882,5.283,1.570,0.000,0.000,-1.439,-3.805,0.451,5.780,3.010,0.258,
35.280,45.665,-1.651,-3.940,1.283,0.266,6.283,0.000,0.000,1.610,0.913,0.904,0.000,2.356,4.391,0.835,0.000,0.000,3.142,0.798,0.000,0.000,0.000,0.000,0.000,0.000,0.000,0.000,0.000,0.000,3.142,6.282,0.000,2.101,1.897,1.798,4.285,0.398,0.999,4.711,0.000,0.000,-1.748,-3.688,0.451,5.797,2.952,0.396,4.183,4.384,4.484,1.998,5.882,5.283,1.570,0.000,0.000,-1.432,-3.781,0.451,5.780,3.010,0.258,
35.395,45.780,-1.643,-3.915,1.283,0.289,6.283,0.000,0.000,1.619,0.920,0.914,0.000,2.383,4.435,0.827,0.000,0.000,3.142,0.992,0.000,0.000,0.000,0.000,0.000,0.000,0.000,0.000,0.000,0.000,3.142,6.282,0.000,2.100,1.897,1.798,4.285,0.398,1.000,4.711,0.000,0.000,-1.740,-3.662,0.451,5.797,2.952,0.396,4.183,4.384,4.484,1.998,5.882,5.283,1.570,0.000,0.000,-1.425,-3.755,0.451,5.780,3.010,0.258,
35.500,45.885,-1.635,-3.887,1.283,0.336,6.283,1.570,0.000,1.629,0.929,0.924,0.000,2.412,4.484,1.136,0.000,0.000,3.142,0.000,0.000,0.000,0.000,0.000,0.000,0.000,0.000,0.000,0.000,0.000,3.142,6.282,0.000,2.101,1.897,1.798,4.285,0.398,0.999,4.711,0.000,0.000,-1.732,-3.634,0.451,5.798,2.952,0.396,4.183,4.384,4.484,1.998,5.882,5.283,1.570,0.000,0.000,-1.417,-3.728,0.451,5.780,3.010,0.258,
35.600,45.985,-1.627,-3.860,1.283,0.410,6.283,1.539,0.000,1.639,1.375,0.935,0.000,2.441,4.532,1.128,0.000,0.000,3.142,0.000,0.000,0.000,0.000,0.000,0.000,0.000,0.000,0.000,0.000,0.000,3.142,6.282,0.000,2.101,1.897,1.798,4.285,0.398,0.999,4.711,0.000,0.000,-1.724,-3.607,0.451,5.798,2.952,0.396,4.183,4.384,4.484,1.998,5.882,5.283,1.570,0.000,0.000,-1.409,-3.701,0.451,5.780,3.010,0.258,
35.697,46.082,-1.611,-3.808,1.283,0.511,6.283,1.481,0.000,1.658,1.391,0.955,0.000,2.496,4.624,1.112,0.000,0.000,3.142,0.000,0.000,0.000,0.000,0.000,0.000,0.000,0.000,0.000,0.000,0.000,3.142,6.282,0.000,2.101,1.897,1.798,4.285,0.398,0.999,4.711,0.000,0.000,-1.709,-3.555,0.451,5.798,2.952,0.396,4.183,4.384,4.484,1.998,5.882,5.283,1.570,0.000,0.000,-1.393,-3.648,0.451,5.780,3.010,0.258,
35.800,46.185,-1.597,-3.760,1.283,0.499,6.283,1.427,0.000,1.674,1.405,0.973,0.000,2.546,1.265,1.098,0.000,0.000,3.142,0.000,0.000,0.000,0.000,0.000,0.000,0.000,0.000,0.000,0.000,0.000,3.142,6.283,0.000,2.100,1.897,1.798,4.285,0.398,1.000,4.711,0.000,0.000,-1.694,-3.508,0.451,5.797,2.952,0.397,4.183,4.384,4.484,1.998,5.882,5.283,1.570,0.000,0.000,-1.379,-3.601,0.451,5.780,3.010,0.259,
35.900,46.285,-1.587,-3.725,1.283,0.465,6.283,1.387,0.000,1.687,1.415,0.986,0.000,2.584,1.252,0.725,0.000,0.000,3.142,0.000,0.000,0.000,0.000,0.000,0.000,0.000,0.000,0.000,0.000,0.000,3.142,6.283,0.000,2.100,1.897,1.798,4.285,0.398,1.000,4.711,0.000,0.000,-1.684,-3.472,0.451,5.797,2.951,0.397,4.183,4.384,4.484,1.998,5.882,5.283,1.570,0.000,0.000,-1.368,-3.565,0.451,5.780,3.010,0.259,
35.988,46.373,-1.572,-3.675,1.282,0.440,6.283,1.331,0.000,1.705,1.430,1.005,0.000,2.637,1.235,0.575,0.000,0.000,3.142,0.000,0.000,0.000,0.000,0.000,0.000,0.000,0.000,0.000,0.000,0.000,3.142,6.282,0.000,2.100,1.897,1.798,4.285,0.398,1.000,4.711,0.000,0.000,-1.669,-3.422,0.451,5.797,2.952,0.397,4.183,4.384,4.484,1.998,5.882,5.283,1.570,0.000,0.000,-1.353,-3.516,0.451,5.780,3.010,0.259,
36.100,46.485,-1.560,-3.634,1.282,0.442,6.283,1.285,0.000,1.720,1.442,1.021,0.000,2.680,1.244,0.563,0.000,0.000,3.142,0.000,0.000,0.000,0.000,0.000,0.000,0.000,0.000,0.000,0.000,0.000,3.142,6.282,0.000,2.100,1.897,1.798,4.285,0.398,1.000,4.711,0.000,0.000,-1.657,-3.381,0.451,5.798,2.952,0.397,4.183,4.384,4.484,1.998,5.882,5.283,1.570,0.000,0.000,-1.341,-3.475,0.451,5.780,3.010,0.259,
36.200,46.585,-1.550,-3.602,1.282,0.431,6.283,1.249,0.000,1.731,1.452,1.033,0.000,2.715,1.269,0.554,0.000,0.000,3.142,0.000,0.000,0.000,0.000,0.000,0.000,0.000,0.000,0.000,0.000,0.000,3.142,6.283,0.000,2.100,1.897,1.798,4.285,0.398,1.000,4.711,0.000,0.000,-1.647,-3.349,0.451,5.798,2.951,0.398,4.183,4.384,4.484,1.998,5.882,5.283,1.570,0.000,0.000,-1.332,-3.442,0.451,5.780,3.009,0.259,
36.300,46.685,-1.537,-3.556,1.282,0.364,6.280,1.198,0.000,1.747,1.465,1.051,0.000,2.763,1.252,0.540,0.000,0.000,3.142,0.000,0.000,0.000,0.000,0.000,0.000,0.000,0.000,0.000,0.000,0.000,3.142,0.000,0.000,2.099,1.897,1.799,4.285,0.398,1.000,4.712,0.000,0.000,-1.633,-3.303,0.451,5.798,2.951,0.399,4.183,4.383,4.485,1.998,5.882,5.284,1.571,0.000,0.000,-1.318,-3.397,0.451,5.780,3.009,0.260,
36.400,46.785,-1.533,-3.542,1.298,0.027,0.609,1.255,0.000,1.735,1.471,1.070,0.000,2.938,1.234,0.536,0.000,0.000,3.142,0.000,0.000,0.000,0.000,0.000,0.000,0.000,0.000,0.000,0.000,0.000,3.142,0.003,0.000,2.096,1.896,1.801,4.285,0.397,1.002,4.713,0.000,0.000,-1.632,-3.289,0.452,5.793,2.956,0.385,4.183,4.382,4.486,1.999,5.881,5.284,1.571,0.000,0.000,-1.315,-3.379,0.452,5.778,3.015,0.245,
36.486,46.871,-1.535,-3.552,1.415,-0.127,1.440,0.000,0.000,1.624,1.491,1.193,0.000,2.199,0.803,0.546,0.000,0.000,3.142,1.875,0.000,0.000,0.000,0.000,0.000,0.000,0.000,0.000,0.000,0.000,3.142,0.002,6.283,2.100,1.897,1.799,4.285,0.398,1.000,4.711,0.000,0.000,-1.664,-3.314,0.451,5.777,3.022,0.250,4.182,4.383,4.485,1.999,5.882,5.284,1.571,0.000,0.000,-1.339,-3.366,0.451,5.767,3.083,0.110,
36.600,46.985,-1.536,-3.558,1.512,-0.013,0.778,0.000,0.000,1.558,1.525,1.337,0.000,2.385,1.109,0.558,0.000,0.000,3.142,1.968,0.000,0.000,0.000,0.000,0.000,0.000,0.000,0.000,0.000,0.000,3.142,0.001,0.000,2.101,1.897,1.798,4.285,0.398,1.000,4.711,0.000,0.000,-1.688,-3.335,0.451,5.769,3.078,0.137,4.182,4.383,4.484,1.998,5.882,5.284,1.571,0.000,0.000,-1.359,-3.353,0.452,5.764,3.139,6.279,
36.681,47.066,-1.536,-3.557,1.542,0.040,0.327,0.000,0.000,1.542,1.540,1.391,0.000,2.536,1.097,0.563,0.000,0.000,3.142,2.138,0.000,0.000,0.000,0.000,0.000,0.000,0.000,0.000,0.000,0.000,3.142,0.001,0.000,2.100,1.897,1.799,4.285,0.398,1.000,4.711,0.000,0.000,-1.694,-3.338,0.451,5.767,3.094,0.104,4.183,4.383,4.484,1.998,5.882,5.284,1.571,0.000,0.000,-1.365,-3.347,0.451,5.764,3.156,6.246,
36.800,47.184,-1.535,-3.554,1.570,0.023,0.394,0.000,0.000,1.528,1.123,1.448,0.000,2.703,1.086,0.568,0.000,0.000,3.142,0.000,0.000,0.000,0.000,0.000,0.000,0.000,0.000,0.000,0.000,0.000,3.142,0.001,0.000,2.100,1.897,1.799,4.285,0.398,1.000,4.712,0.000,0.000,-1.700,-3.339,0.451,5.765,3.109,0.073,4.182,4.383,4.485,1.998,5.882,5.284,1.571,0.000,0.000,-1.371,-3.339,0.451,5.765,3.171,6.214,
36.900,47.285,-1.535,-3.554,1.607,-0.019,0.579,0.000,0.000,1.513,1.105,1.533,0.000,2.953,1.074,0.576,0.000,0.000,3.142,0.000,0.000,0.000,0.000,0.000,0.000,0.000,0.000,0.000,0.000,0.000,3.142,0.001,0.000,2.100,1.897,1.799,4.285,0.398,1.000,4.712,0.000,0.000,-1.708,-3.345,0.451,5.764,3.130,0.030,4.182,4.383,4.485,1.998,5.882,5.284,1.571,0.000,0.000,-1.379,-3.333,0.451,5.766,3.192,6.172,
36.985,47.370,-1.535,-3.556,1.641,-0.016,0.388,0.000,0.000,1.501,1.121,2.913,0.000,3.220,0.554,0.583,0.000,0.000,3.142,0.000,0.000,0.000,0.000,0.000,0.000,0.000,0.000,0.000,0.000,0.000,3.142,0.001,0.000,2.100,1.897,1.799,4.285,0.398,1.000,4.712,0.000,0.000,-1.714,-3.353,0.451,5.765,3.149,6.274,4.182,4.383,4.485,1.998,5.882,5.284,1.571,0.000,0.000,-1.386,-3.330,0.451,5.768,3.211,6.133,
37.100,47.485,-1.535,-3.556,1.663,0.007,0.318,0.000,0.000,1.494,1.293,3.031,0.000,3.797,0.551,0.589,0.000,0.000,3.142,0.000,0.000,0.000,0.000,0.000,0.000,0.000,0.000,0.000,0.000,0.000,3.142,0.001,0.000,2.100,1.897,1.799,4.285,0.398,1.000,4.712,0.000,0.000,-1.719,-3.357,0.451,5.765,3.162,6.248,4.182,4.383,4.485,1.998,5.882,5.284,1.571,0.000,0.000,-1.391,-3.327,0.451,5.770,3.224,6.107,
37.200,47.585,-1.535,-3.555,1.680,0.008,0.237,0.000,0.000,1.489,1.249,3.129,0.000,3.858,0.549,0.593,0.000,0.000,3.142,0.000,0.000,0.000,0.000,0.000,0.000,0.000,0.000,0.000,0.000,0.000,3.142,0.001,0.000,2.100,1.897,1.799,4.285,0.398,1.000,4.712,0.000,0.000,-1.722,-3.359,0.451,5.765,3.172,6.229,4.182,4.383,4.485,1.998,5.882,5.284,1.571,0.000,0.000,-1.395,-3.323,0.451,5.772,3.233,6.088,
37.298,47.683,-1.535,-3.555,1.694,-0.004,0.238,4.636,0.000,1.485,1.216,3.211,0.000,3.906,0.547,0.597,0.000,0.000,3.142,0.000,0.000,0.000,0.000,0.000,0.000,0.000,0.000,0.000,0.000,0.000,3.142,0.001,0.000,2.100,1.897,1.799,4.285,0.398,1.000,4.712,0.000,0.000,-1.725,-3.362,0.451,5.766,3.179,6.213,4.182,4.383,4.485,1.998,5.882,5.284,1.571,0.000,0.000,-1.398,-3.321,0.451,5.773,3.241,6.072,
37.400,47.785,-1.535,-3.555,1.707,-0.004,0.238,4.645,0.000,1.482,1.184,0.000,0.000,0.000,0.546,0.601,0.000,0.000,3.142,0.000,0.000,0.000,0.000,0.000,0.000,1.709,0.000,0.000,0.000,0.000,3.142,0.001,0.000,2.100,1.897,1.799,4.285,0.398,1.000,4.712,0.000,0.000,-1.727,-3.364,0.451,5.766,3.187,6.198,4.182,4.383,4.485,1.998,5.882,5.284,1.571,0.000,0.000,-1.401,-3.320,0.451,5.774,3.248,6.057,
37.485,47.869,-1.535,-3.554,1.720,0.018,0.246,4.515,0.000,1.479,1.158,0.000,0.000,0.000,0.545,0.605,0.000,0.000,3.142,0.000,0.000,0.000,0.000,0.000,0.000,1.713,0.000,0.000,0.000,0.000,3.142,0.001,0.000,2.100,1.897,1.799,4.285,0.398,1.000,4.712,0.000,0.000,-1.730,-3.366,0.451,5.767,3.194,6.183,4.182,4.383,4.485,1.998,5.882,5.284,1.571,0.000,0.000,-1.405,-3.317,0.451,5.776,3.255,6.042,
37.600,47.985,-1.535,-3.553,1.731,0.009,0.087,4.229,0.000,1.477,1.135,0.000,0.000,0.000,0.544,0.609,0.000,0.000,3.142,0.000,0.000,0.000,0.000,0.000,0.000,1.766,0.000,0.000,0.000,0.000,3.142,0.001,0.000,2.100,1.896,1.799,4.285,0.397,1.001,4.712,0.000,0.000,-1.732,-3.367,0.451,5.767,3.201,6.170,4.182,4.383,4.485,1.998,5.881,5.284,1.571,0.000,0.000,-1.407,-3.315,0.451,5.777,3.262,6.030,
37.700,48.085,-1.535,-3.553,1.733,0.001,0.028,4.185,0.000,1.477,1.132,0.000,0.000,0.000,0.544,0.609,0.000,0.000,3.142,0.000,0.000,0.000,0.000,0.000,0.000,1.813,0.000,0.000,0.000,0.000,3.142,0.001,0.000,2.100,1.896,1.799,4.285,0.397,1.001,4.712,0.000,0.000,-1.733,-3.367,0.451,5.767,3.202,6.168,4.182,4.383,4.485,1.998,5.881,5.284,1.571,0.000,0.000,-1.408,-3.314,0.451,5.778,3.263,6.028,
37.791,48.176,-1.535,-3.553,1.736,0.005,0.086,4.122,0.000,1.476,1.126,0.000,3.272,0.000,0.544,0.610,0.000,0.000,3.106,0.000,0.000,0.000,0.000,0.000,0.000,1.954,0.000,0.000,0.000,0.000,3.142,0.001,0.000,2.099,1.896,1.799,4.285,0.397,1.000,4.712,0.000,0.000,-1.733,-3.368,0.451,5.768,3.203,6.165,4.182,4.383,4.485,1.998,5.881,5.284,1.571,0.000,0.000,-1.408,-3.314,0.451,5.778,3.264,6.025,
37.900,48.285,-1.535,-3.552,1.743,0.009,0.134,4.061,0.000,1.475,1.113,4.991,3.148,0.000,0.543,0.612,0.000,0.000,3.106,0.000,0.000,0.000,0.000,0.000,0.000,2.115,0.000,0.000,0.000,0.000,3.142,0.001,0.000,2.099,1.897,1.799,4.285,0.398,1.000,4.712,0.000,0.000,-1.734,-3.369,0.451,5.768,3.207,6.157,4.182,4.383,4.485,1.998,5.882,5.284,1.571,0.000,0.000,-1.410,-3.313,0.451,5.779,3.268,6.017,
37.980,48.365,-1.536,-3.550,1.750,0.201,0.167,4.063,0.000,1.473,1.106,4.979,3.029,0.000,0.543,0.615,0.000,0.000,3.106,0.000,0.000,0.000,0.000,0.000,0.000,2.229,0.000,0.000,0.000,0.000,3.142,6.281,6.283,2.103,1.898,1.798,4.285,0.399,0.998,4.710,0.000,0.000,-1.736,-3.369,0.451,5.770,3.213,6.145,4.182,4.385,4.483,1.997,5.883,5.283,1.570,0.000,0.000,-1.413,-3.310,0.451,5.781,3.273,6.005,
38.100,48.485,-1.547,-3.488,1.759,1.040,0.104,4.012,0.000,1.460,1.210,0.000,2.949,1.365,0.554,0.631,0.000,0.000,3.106,0.000,0.000,0.000,0.000,0.000,0.000,0.000,0.000,0.000,0.000,0.000,3.142,6.278,6.283,2.106,1.898,1.796,4.284,0.399,0.996,4.708,0.000,0.000,-1.750,-3.311,0.450,5.772,3.220,6.132,4.182,4.386,4.481,1.996,5.883,5.283,1.570,0.000,0.000,-1.427,-3.248,0.451,5.784,3.279,5.993,
38.200,48.585,-1.566,-3.388,1.761,1.438,6.273,3.866,0.000,1.441,1.156,0.000,3.007,1.388,0.573,0.654,0.000,0.000,3.106,0.000,0.000,0.000,0.000,0.000,0.000,0.000,0.000,0.000,0.000,0.000,3.142,6.281,0.000,2.102,1.898,1.798,4.285,0.399,0.999,4.710,0.000,0.000,-1.769,-3.209,0.451,5.771,3.219,6.133,4.182,4.385,4.483,1.997,5.882,5.283,1.570,0.000,0.000,-1.446,-3.146,0.451,5.782,3.279,5.993,
38.298,48.683,-1.595,-3.241,1.761,0.992,0.000,3.729,0.000,1.412,1.631,0.000,3.158,1.494,0.602,0.904,0.000,0.000,3.106,0.000,0.000,0.000,0.000,0.000,0.000,0.000,0.000,0.000,0.000,0.000,3.142,0.001,0.001,2.097,1.897,1.800,4.285,0.397,1.001,4.712,0.000,0.000,-1.797,-3.060,0.452,5.768,3.217,6.137,4.184,4.383,4.485,1.998,5.881,5.284,1.571,0.000,0.000,-1.474,-2.998,0.452,5.780,3.278,5.996,
38.400,48.785,-1.611,-3.159,1.761,0.799,6.283,3.653,0.000,1.396,1.613,1.871,3.241,1.084,0.618,0.738,0.000,0.000,3.106,0.000,0.000,0.000,0.000,0.000,0.000,0.000,0.000,0.000,0.000,0.000,3.142,6.282,0.000,2.100,1.897,1.798,4.285,0.398,1.000,4.711,0.000,0.000,-1.813,-2.979,0.451,5.770,3.218,6.134,4.183,4.384,4.484,1.998,5.882,5.283,1.570,0.000,0.000,-1.490,-2.917,0.451,5.781,3.279,5.994,
38.500,48.885,-1.627,-3.075,1.761,0.947,0.000,3.577,0.000,1.380,1.594,1.829,3.330,0.860,0.634,0.567,0.000,0.000,3.106,0.000,0.000,0.000,0.000,0.000,0.000,0.000,0.000,0.000,0.000,0.000,3.142,6.282,0.000,2.101,1.897,1.798,4.285,0.398,0.999,4.711,0.000,0.000,-1.829,-2.895,0.451,5.770,3.219,6.134,4.183,4.384,4.484,1.998,5.882,5.283,1.570,0.000,0.000,-1.506,-2.833,0.451,5.782,3.279,5.994,
38.600,48.985,-1.641,-3.003,1.761,0.863,0.001,3.512,0.000,1.366,1.578,1.794,3.404,0.879,0.648,0.581,0.000,0.000,3.106,0.000,0.000,0.000,0.000,0.000,0.000,0.000,0.000,0.000,0.000,0.000,3.142,0.000,0.000,2.099,1.897,1.799,4.285,0.398,1.000,4.712,0.000,0.000,-1.843,-2.823,0.451,5.769,3.218,6.135,4.183,4.383,4.484,1.998,5.882,5.283,1.571,0.000,0.000,-1.520,-2.761,0.451,5.781,3.278,5.995,
38.699,49.084,-1.655,-2.927,1.761,0.465,0.000,3.440,0.000,1.351,1.561,1.757,3.481,0.899,1.163,0.598,0.000,0.000,3.106,0.000,0.000,0.000,0.000,0.000,0.000,0.000,0.000,0.000,0.000,0.000,3.142,0.001,0.001,2.098,1.897,1.799,4.285,0.398,1.001,4.712,0.000,0.000,-1.858,-2.746,0.451,5.768,3.218,6.136,4.183,4.383,4.485,1.998,5.882,5.283,1.571,0.000,0.000,-1.535,-2.684,0.452,5.780,3.278,5.996,
38.800,49.185,-1.662,-2.891,1.761,0.347,6.283,3.405,0.000,1.344,1.553,1.740,3.517,0.908,1.170,0.606,0.000,0.000,3.106,0.000,0.000,0.000,0.000,0.000,0.000,0.000,0.000,0.000,0.000,0.000,3.142,6.283,0.000,2.100,1.897,1.798,4.285,0.398,1.000,4.711,0.000,0.000,-1.865,-2.711,0.451,5.770,3.218,6.134,4.183,4.384,4.484,1.998,5.882,5.283,1.570,0.000,0.000,-1.542,-2.649,0.451,5.781,3.279,5.994,
38.900,49.285,-1.669,-2.856,1.761,0.401,6.283,3.375,0.000,1.338,1.545,1.722,3.555,0.918,1.177,0.591,0.000,0.000,3.106,0.000,0.000,0.000,0.000,0.000,0.000,0.000,0.000,0.000,0.000,0.000,3.142,6.282,0.000,2.101,1.897,1.798,4.285,0.398,0.999,4.711,0.000,0.000,-1.871,-2.676,0.451,5.770,3.218,6.134,4.183,4.384,4.484,1.998,5.882,5.283,1.570,0.000,0.000,-1.548,-2.614,0.451,5.781,3.279,5.994,
39.000,49.385,-1.675,-2.826,1.761,0.376,6.283,3.349,0.000,1.332,1.538,1.707,3.588,0.926,1.183,0.530,0.000,0.000,3.106,0.000,0.000,0.000,0.000,0.000,0.000,0.000,0.000,0.000,0.000,0.000,3.142,6.283,0.000,2.100,1.897,1.798,4.285,0.398,1.000,4.711,0.000,0.000,-1.877,-2.646,0.451,5.769,3.218,6.135,4.183,4.384,4.484,1.998,5.882,5.283,1.570,0.000,0.000,-1.554,-2.584,0.451,5.781,3.278,5.995,
39.100,49.485,-1.681,-2.792,1.761,0.222,0.000,3.316,0.000,1.325,1.531,1.691,3.620,0.934,1.189,0.535,0.000,0.000,3.106,0.000,0.000,0.000,0.000,0.000,0.000,0.000,0.000,0.000,0.000,0.000,3.142,6.283,0.000,2.100,1.897,1.799,4.285,0.398,1.000,4.711,0.000,0.000,-1.884,-2.612,0.451,5.769,3.218,6.135,4.183,4.383,4.484,1.998,5.882,5.283,1.570,0.000,0.000,-1.561,-2.550,0.451,5.781,3.278,5.995,
39.200,49.585,-1.684,-2.778,1.761,0.170,0.010,3.303,0.000,1.323,1.528,1.684,3.635,0.938,1.192,0.538,0.000,0.000,3.106,0.000,0.000,0.000,0.000,0.000,0.000,0.000,0.000,0.000,0.000,0.000,3.142,6.283,0.000,2.100,1.897,1.798,4.285,0.398,1.000,4.711,0.000,0.000,-1.886,-2.599,0.451,5.769,3.218,6.135,4.183,4.384,4.484,1.998,5.882,5.283,1.570,0.000,0.000,-1.563,-2.536,0.451,5.781,3.279,5.995,
39.300,49.685,-1.685,-2.771,1.759,-0.009,6.167,3.275,0.000,1.321,1.524,1.674,3.674,0.941,1.194,0.539,0.000,0.000,3.106,0.000,0.000,0.000,0.000,0.000,0.000,0.000,0.000,0.000,0.000,0.000,3.142,6.283,0.000,2.100,1.897,1.798,4.286,0.398,1.000,4.711,0.000,0.000,-1.887,-2.590,0.451,5.769,3.217,6.136,4.183,4.384,4.484,1.998,5.882,5.283,1.570,0.000,0.000,-1.564,-2.529,0.451,5.781,3.278,5.996,
39.400,49.785,-1.685,-2.772,1.742,-0.044,5.830,3.265,0.000,1.324,1.509,1.610,4.044,0.957,1.196,0.534,0.000,0.000,3.106,0.000,0.000,0.000,0.000,0.000,0.000,0.000,0.000,0.000,0.000,0.000,3.142,6.282,0.000,2.101,1.897,1.798,4.285,0.398,1.000,4.711,0.000,0.000,-1.884,-2.589,0.451,5.768,3.208,6.156,4.183,4.384,4.484,1.998,5.882,5.283,1.570,0.000,0.000,-1.560,-2.533,0.451,5.779,3.268,6.016,
39.487,49.872,-1.685,-2.776,1.695,-0.036,5.834,3.850,0.000,1.334,1.473,1.486,0.000,1.002,1.205,0.520,0.000,0.000,3.142,0.000,0.000,0.000,0.000,0.000,0.000,0.000,0.000,0.000,0.000,0.000,3.142,6.281,0.000,2.101,1.897,1.798,4.285,0.398,0.999,4.711,0.000,0.000,-1.875,-2.584,0.451,5.766,3.182,6.209,4.183,4.384,4.484,1.998,5.882,5.283,1.570,0.000,0.000,-1.549,-2.543,0.451,5.774,3.243,6.068,
39.600,49.985,-1.684,-2.777,1.670,0.007,5.965,4.308,0.000,1.340,1.455,1.506,0.000,1.030,1.211,0.517,0.000,0.000,3.142,0.000,0.000,0.000,0.000,0.000,0.000,0.000,0.000,0.000,0.000,0.000,3.142,6.281,0.000,2.101,1.897,1.798,4.285,0.398,0.999,4.711,0.000,0.000,-1.870,-2.580,0.451,5.765,3.167,6.239,4.183,4.384,4.484,1.997,5.882,5.283,1.570,0.000,0.000,-1.542,-2.547,0.451,5.772,3.228,6.098,
39.700,50.085,-1.685,-2.777,1.652,0.007,6.032,0.000,0.000,1.345,1.443,1.521,0.000,1.052,1.216,0.538,0.000,0.000,3.142,0.000,0.000,0.000,0.000,0.000,0.000,0.000,0.000,0.000,0.000,0.000,3.142,6.281,0.000,2.101,1.897,1.798,4.285,0.398,0.999,4.711,0.000,0.000,-1.866,-2.576,0.451,5.764,3.157,6.260,4.183,4.384,4.484,1.998,5.882,5.283,1.570,0.000,0.000,-1.538,-2.549,0.451,5.770,3.218,6.118,
39.797,50.182,-1.685,-2.776,1.638,0.007,6.076,0.000,0.000,1.349,1.434,1.533,0.000,1.068,1.219,0.554,0.000,0.000,3.142,0.000,0.000,0.000,0.000,0.000,0.000,0.000,0.000,0.000,0.000,0.000,3.142,6.282,0.000,2.101,1.897,1.798,4.285,0.398,0.999,4.711,0.000,0.000,-1.864,-2.573,0.451,5.764,3.149,6.275,4.183,4.384,4.484,1.998,5.882,5.283,1.570,0.000,0.000,-1.535,-2.551,0.451,5.769,3.211,6.133,
39.900,50.285,-1.685,-2.776,1.628,0.007,6.088,0.000,0.000,1.352,1.428,1.543,0.000,1.082,1.223,0.567,0.000,0.000,3.142,0.000,0.000,0.000,0.000,0.000,0.000,0.000,0.000,0.000,0.000,0.000,3.142,6.282,0.000,2.101,1.897,1.798,4.285,0.398,0.999,4.711,0.000,0.000,-1.861,-2.571,0.451,5.764,3.143,0.004,4.183,4.384,4.484,1.998,5.882,5.283,1.570,0.000,0.000,-1.533,-2.552,0.451,5.768,3.205,6.145,
40.000,50.385,-1.685,-2.776,1.619,-0.001,6.147,0.000,0.000,1.355,1.422,1.552,0.000,1.094,1.101,0.579,0.000,0.000,3.142,0.000,0.000,0.000,0.000,0.000,0.000,0.000,0.000,0.000,0.000,0.000,3.142,6.282,0.000,2.101,1.897,1.798,4.285,0.398,0.999,4.711,0.000,0.000,-1.860,-2.569,0.451,5.764,3.138,0.014,4.183,4.384,4.484,1.998,5.882,5.283,1.570,0.000,0.000,-1.531,-2.553,0.451,5.768,3.200,6.156,
40.100,50.485,-1.685,-2.776,1.611,-0.012,6.130,0.000,0.000,1.358,1.418,1.559,0.000,1.105,1.066,0.588,0.000,0.000,3.142,0.000,0.000,0.000,0.000,0.000,0.000,0.000,0.000,0.000,0.000,0.000,3.142,6.282,0.000,2.101,1.897,1.798,4.285,0.398,0.999,4.711,0.000,0.000,-1.858,-2.569,0.451,5.765,3.133,0.023,4.183,4.384,4.484,1.998,5.882,5.283,1.570,0.000,0.000,-1.529,-2.555,0.451,5.767,3.195,6.165,
40.200,50.585,-1.685,-2.777,1.603,0.004,6.168,0.000,0.000,1.360,1.413,1.566,0.000,1.116,1.034,0.586,0.000,0.000,3.142,0.000,0.000,0.000,0.000,0.000,0.000,0.000,0.000,0.000,0.000,0.000,3.142,6.282,0.000,2.101,1.898,1.798,4.285,0.398,0.999,4.711,0.000,0.000,-1.856,-2.568,0.451,5.765,3.129,0.032,4.183,4.384,4.484,1.998,5.882,5.283,1.570,0.000,0.000,-1.528,-2.557,0.451,5.767,3.191,6.174,
40.300,50.685,-1.685,-2.777,1.597,0.007,6.143,0.000,0.000,1.362,1.410,1.572,0.000,1.124,1.015,0.585,0.000,0.000,3.142,0.000,0.000,0.000,0.000,0.000,0.000,0.000,0.000,0.000,0.000,0.000,3.142,6.282,0.000,2.101,1.897,1.798,4.285,0.398,0.999,4.711,0.000,0.000,-1.855,-2.567,0.451,5.765,3.126,0.039,4.183,4.384,4.484,1.998,5.882,5.283,1.570,0.000,0.000,-1.526,-2.558,0.451,5.767,3.188,6.181,
40.400,50.785,-1.685,-2.777,1.593,0.006,6.168,0.000,0.000,1.364,1.408,1.577,0.000,1.131,1.000,0.584,0.000,0.000,3.142,0.000,0.000,0.000,0.000,0.000,0.000,0.000,0.000,0.000,0.000,0.000,3.142,6.282,0.000,2.101,1.897,1.798,4.285,0.398,0.999,4.711,0.000,0.000,-1.854,-2.566,0.451,5.765,3.123,0.044,4.183,4.384,4.484,1.997,5.882,5.283,1.570,0.000,0.000,-1.525,-2.558,0.451,5.766,3.185,6.186,
40.490,50.875,-1.685,-2.766,1.589,0.397,0.045,0.000,0.000,1.365,1.406,1.594,0.000,1.136,1.026,0.584,0.000,0.000,3.142,0.000,0.000,0.000,0.000,0.000,0.000,0.000,0.000,0.000,0.000,0.000,3.142,6.278,6.283,2.106,1.898,1.796,4.285,0.400,0.996,4.709,0.000,0.000,-1.854,-2.556,0.450,5.767,3.123,0.044,4.182,4.386,4.482,1.997,5.883,5.283,1.570,0.000,0.000,-1.525,-2.549,0.450,5.768,3.185,6.186,
40.600,50.985,-1.686,-2.686,1.592,1.204,0.062,0.000,0.000,1.363,1.406,1.686,0.000,1.134,1.236,0.500,0.000,0.000,3.142,0.000,0.000,0.000,0.000,0.000,0.000,0.000,0.000,0.000,0.000,0.000,3.142,6.278,6.283,2.106,1.898,1.796,4.285,0.399,0.996,4.709,0.000,0.000,-1.856,-2.477,0.450,5.767,3.125,0.041,4.182,4.386,4.481,1.997,5.883,5.283,1.570,0.000,0.000,-1.527,-2.469,0.451,5.768,3.186,6.183,
40.700,51.085,-1.688,-2.578,1.592,1.418,0.001,0.000,0.000,1.360,1.403,1.612,0.000,1.138,0.576,0.502,0.000,0.000,3.142,0.000,0.000,0.000,0.000,0.000,0.000,0.000,0.000,0.000,0.000,0.000,3.142,6.282,0.000,2.101,1.897,1.798,4.285,0.398,0.999,4.711,0.000,0.000,-1.858,-2.367,0.451,5.765,3.122,0.045,4.183,4.384,4.484,1.998,5.882,5.283,1.571,0.000,0.000,-1.529,-2.359,0.451,5.766,3.184,6.187,
40.796,51.181,-1.691,-2.438,1.592,0.904,6.283,0.000,0.000,0.899,1.400,1.981,0.000,1.143,0.580,0.505,0.000,0.000,3.142,0.000,0.000,0.000,0.000,0.000,0.000,0.000,0.000,0.000,0.000,0.000,3.142,0.001,0.001,2.097,1.897,1.799,4.285,0.397,1.001,4.712,0.000,0.000,-1.860,-2.226,0.452,5.763,3.121,0.048,4.184,4.383,4.485,1.998,5.881,5.284,1.571,0.000,0.000,-1.531,-2.219,0.452,5.765,3.183,6.189,
40.900,51.285,-1.693,-2.358,1.592,0.831,6.283,0.000,0.000,0.813,1.398,2.077,0.000,1.145,0.497,0.507,0.000,0.000,3.142,0.000,0.000,0.000,0.000,0.000,0.000,0.000,0.000,0.000,0.000,0.000,3.142,6.282,0.000,2.101,1.897,1.798,4.285,0.398,0.999,4.711,0.000,0.000,-1.862,-2.147,0.451,5.765,3.123,0.045,4.183,4.384,4.484,1.998,5.882,5.283,1.570,0.000,0.000,-1.534,-2.139,0.451,5.766,3.185,6.187,
40.987,51.372,-1.695,-2.264,1.592,1.070,0.000,0.000,0.000,0.631,1.396,2.398,0.000,1.149,0.500,0.509,0.000,0.000,3.142,0.000,0.000,0.000,0.000,0.000,0.000,0.000,0.000,0.000,0.000,0.000,3.142,6.281,0.000,2.102,1.898,1.798,4.285,0.398,0.999,4.711,0.000,0.000,-1.865,-2.054,0.451,5.766,3.123,0.044,4.182,4.384,4.483,1.997,5.882,5.283,1.570,0.000,0.000,-1.536,-2.046,0.451,5.767,3.185,6.186,
41.100,51.485,-1.697,-2.155,1.592,1.102,0.000,0.000,0.000,0.628,1.394,2.393,0.000,1.153,0.502,1.597,0.000,0.000,3.142,0.000,0.000,0.000,0.000,0.000,0.000,0.000,0.000,0.000,0.000,0.000,3.142,6.283,0.000,2.100,1.897,1.798,4.285,0.398,1.000,4.711,0.000,0.000,-1.867,-1.944,0.451,5.765,3.122,0.046,4.183,4.384,4.484,1.998,5.882,5.283,1.571,0.000,0.000,-1.538,-1.936,0.451,5.766,3.184,6.188,
41.200,51.585,-1.699,-2.072,1.592,0.999,0.000,0.000,0.000,0.626,1.392,2.390,0.000,1.241,0.504,1.598,0.000,0.000,3.142,0.000,0.000,0.000,0.000,0.000,0.000,0.000,0.000,0.000,0.000,0.000,3.142,6.283,0.000,2.100,1.897,1.799,4.285,0.398,1.000,4.711,0.000,0.000,-1.868,-1.860,0.451,5.764,3.122,0.046,4.183,4.383,4.484,1.998,5.882,5.283,1.571,0.000,0.000,-1.539,-1.854,0.451,5.766,3.184,6.188,
41.296,51.681,-1.702,-1.958,1.592,0.965,6.283,0.000,0.000,0.624,1.389,2.386,0.000,0.932,0.506,1.601,0.000,0.000,3.142,0.000,0.000,0.000,0.000,0.000,0.000,0.000,0.000,0.000,0.000,0.000,3.142,6.282,0.000,2.101,1.897,1.798,4.285,0.398,0.999,4.711,0.000,0.000,-1.871,-1.747,0.451,5.765,3.122,0.045,4.183,4.384,4.484,1.998,5.882,5.283,1.570,0.000,0.000,-1.542,-1.740,0.451,5.766,3.184,6.187,
41.400,51.785,-1.703,-1.869,1.592,0.656,0.001,0.000,0.000,0.622,0.642,2.382,0.000,0.803,1.092,0.000,0.000,0.000,3.142,0.000,0.000,0.000,0.000,0.000,0.000,0.000,0.000,0.000,0.000,0.000,3.142,0.003,0.001,2.096,1.896,1.800,4.286,0.397,1.002,4.713,0.000,0.000,-1.872,-1.656,0.452,5.763,3.120,0.050,4.184,4.382,4.486,1.999,5.881,5.284,1.571,0.000,0.000,-1.543,-1.650,0.452,5.764,3.182,6.191,
41.487,51.872,-1.704,-1.849,1.592,-0.074,6.236,0.000,0.000,0.621,0.641,2.380,0.000,0.804,1.092,0.000,0.000,0.000,3.142,0.000,0.000,0.000,0.000,0.000,0.000,0.000,0.000,0.000,0.000,0.000,3.142,0.004,0.001,2.094,1.896,1.801,4.286,0.396,1.003,4.714,0.000,0.000,-1.872,-1.635,0.452,5.762,3.119,0.052,4.184,4.381,4.487,1.999,5.881,5.284,1.571,0.000,0.000,-1.543,-1.630,0.452,5.763,3.182,6.193,
41.600,51.985,-1.703,-1.886,1.590,-0.331,0.006,0.000,0.000,0.622,0.641,2.374,0.000,0.805,0.526,0.000,0.000,0.000,3.142,1.822,0.000,0.000,0.000,0.000,0.000,0.000,0.000,0.000,0.000,0.000,3.142,6.282,0.000,2.101,1.897,1.798,4.285,0.398,0.999,4.711,0.000,0.000,-1.872,-1.675,0.451,5.765,3.121,0.048,4.182,4.384,4.484,1.998,5.882,5.284,1.571,0.000,0.000,-1.543,-1.668,0.451,5.767,3.183,6.190,
41.689,52.074,-1.703,-1.897,1.589,0.028,0.010,0.000,0.000,0.623,0.641,2.373,0.000,0.805,0.508,0.000,0.000,0.000,3.142,1.812,0.000,0.000,0.000,0.000,0.000,0.000,0.000,0.000,0.000,0.000,3.142,6.281,6.283,2.103,1.897,1.798,4.285,0.399,0.998,4.710,0.000,0.000,-1.872,-1.687,0.450,5.767,3.122,0.047,4.182,4.385,4.483,1.997,5.882,5.283,1.571,0.000,0.000,-1.543,-1.680,0.451,5.767,3.183,6.189,
41.800,52.185,-1.703,-1.885,1.589,0.119,0.001,0.000,0.000,0.623,0.641,2.371,0.000,0.806,0.527,0.000,0.000,0.000,3.142,1.829,0.000,0.000,0.000,0.000,0.000,0.000,0.000,0.000,0.000,0.000,3.142,6.282,0.000,2.100,1.897,1.798,4.285,0.398,1.000,4.711,0.000,0.000,-1.872,-1.673,0.451,5.765,3.120,0.049,4.183,4.384,4.484,1.998,5.882,5.283,1.570,0.000,0.000,-1.543,-1.667,0.451,5.766,3.183,6.191,
41.885,52.269,-1.703,-1.881,1.589,-0.001,0.003,0.000,0.000,0.623,0.641,2.370,0.000,0.806,0.540,0.000,0.000,0.000,3.142,1.854,0.000,0.000,0.000,0.000,0.000,0.000,0.000,0.000,0.000,0.000,3.142,6.283,0.000,2.100,1.897,1.799,4.285,0.398,1.000,4.711,0.000,0.000,-1.872,-1.669,0.451,5.764,3.120,0.050,4.183,4.384,4.484,1.998,5.882,5.283,1.570,0.000,0.000,-1.543,-1.663,0.451,5.766,3.182,6.192,
42.000,52.385,-1.703,-1.881,1.588,0.001,0.002,0.000,0.000,0.623,0.641,2.368,0.000,0.807,0.539,0.000,0.000,0.000,3.142,1.947,0.000,0.000,0.000,0.000,0.000,0.000,0.000,0.000,0.000,0.000,3.142,6.283,0.000,2.100,1.897,1.799,4.285,0.398,1.000,4.711,0.000,0.000,-1.872,-1.670,0.451,5.765,3.120,0.050,4.183,4.384,4.484,1.998,5.882,5.283,1.571,0.000,0.000,-1.543,-1.664,0.451,5.766,3.182,6.192,
42.088,52.473,-1.703,-1.881,1.588,0.001,0.002,0.000,0.000,0.623,0.641,2.367,0.000,0.807,0.538,0.000,0.000,0.000,3.142,2.003,0.000,0.000,0.000,0.000,0.000,0.000,0.000,0.000,0.000,0.000,3.142,6.283,0.000,2.100,1.897,1.799,4.285,0.398,1.000,4.711,0.000,0.000,-1.872,-1.670,0.451,5.765,3.120,0.051,4.183,4.384,4.484,1.998,5.882,5.283,1.571,0.000,0.000,-1.543,-1.664,0.451,5.766,3.182,6.192,
42.200,52.585,-1.703,-1.881,1.587,-0.001,0.000,0.000,0.000,0.623,0.640,2.364,0.000,0.808,0.537,0.000,0.000,0.000,3.142,2.131,0.000,0.000,0.000,0.000,0.000,0.000,0.000,0.000,0.000,0.000,3.142,6.283,0.000,2.100,1.897,1.798,4.285,0.398,1.000,4.711,0.000,0.000,-1.872,-1.670,0.451,5.765,3.119,0.051,4.183,4.384,4.484,1.998,5.882,5.283,1.571,0.000,0.000,-1.543,-1.664,0.451,5.766,3.181,6.193,
42.292,52.676,-1.703,-1.879,1.586,0.199,0.060,0.000,0.000,0.623,0.640,2.361,0.000,0.809,0.545,0.000,0.000,0.000,3.142,2.195,0.000,0.000,0.000,0.000,0.000,0.000,0.000,0.000,0.000,0.000,3.142,6.279,6.283,2.104,1.898,1.797,4.285,0.399,0.997,4.709,0.000,0.000,-1.872,-1.668,0.450,5.766,3.121,0.049,4.182,4.386,4.482,1.997,5.883,5.283,1.570,0.000,0.000,-1.543,-1.662,0.451,5.767,3.183,6.191,
42.400,52.785,-1.705,-1.797,1.591,1.168,0.102,0.000,0.000,0.621,0.640,2.375,0.000,0.806,1.094,0.000,0.000,0.000,3.142,2.259,0.000,0.000,0.000,0.000,0.000,0.000,0.000,0.000,0.000,0.000,3.142,6.278,6.283,2.106,1.899,1.796,4.285,0.400,0.996,4.709,0.000,0.000,-1.874,-1.588,0.450,5.767,3.124,0.042,4.182,4.386,4.482,1.997,5.883,5.283,1.570,0.000,0.000,-1.545,-1.580,0.451,5.768,3.186,6.185,
42.494,52.879,-1.707,-1.663,1.592,1.369,0.001,0.000,0.000,1.341,0.637,2.374,0.000,0.809,1.259,0.000,0.000,0.000,3.142,2.200,0.000,0.000,0.000,0.000,0.000,0.000,0.000,0.000,0.000,0.000,3.142,6.283,0.000,2.100,1.897,1.799,4.285,0.398,1.000,4.711,0.000,0.000,-1.876,-1.451,0.451,5.764,3.122,0.047,4.183,4.383,4.484,1.998,5.882,5.283,1.571,0.000,0.000,-1.548,-1.444,0.451,5.766,3.184,6.188,
42.600,52.985,-1.710,-1.550,1.592,0.909,6.283,0.000,0.000,1.338,0.635,2.370,0.000,0.813,1.253,0.000,0.000,0.000,3.142,2.249,0.000,0.000,0.000,0.000,0.000,0.000,0.000,0.000,0.000,0.000,3.142,0.001,0.001,2.097,1.897,1.800,4.285,0.397,1.001,4.712,0.000,0.000,-1.878,-1.337,0.452,5.763,3.120,0.049,4.184,4.383,4.485,1.998,5.881,5.284,1.571,0.000,0.000,-1.550,-1.331,0.452,5.765,3.183,6.190,
42.697,53.082,-1.711,-1.470,1.592,0.815,6.283,0.000,0.000,1.337,0.633,2.367,0.000,0.816,1.287,0.000,0.000,0.000,3.142,2.253,0.000,0.000,0.000,0.000,0.000,0.000,0.000,0.000,0.000,0.000,3.142,6.282,0.000,2.101,1.897,1.798,4.285,0.398,0.999,4.711,0.000,0.000,-1.881,-1.259,0.451,5.765,3.122,0.045,4.183,4.384,4.484,1.998,5.882,5.283,1.570,0.000,0.000,-1.552,-1.252,0.451,5.766,3.184,6.187,
42.800,53.185,-1.713,-1.378,1.592,1.068,0.000,0.000,0.000,1.335,0.631,2.363,0.000,0.828,1.582,4.350,0.000,0.000,3.142,2.336,0.000,0.000,0.000,0.000,0.000,0.000,0.000,0.000,0.000,0.000,3.142,6.281,0.000,2.102,1.898,1.798,4.285,0.399,0.999,4.710,0.000,0.000,-1.883,-1.167,0.451,5.766,3.123,0.045,4.182,4.384,4.483,1.997,5.882,5.283,1.570,0.000,0.000,-1.554,-1.160,0.451,5.767,3.185,6.187,
42.900,53.285,-1.716,-1.268,1.592,1.110,0.001,0.000,0.000,1.332,0.659,2.358,0.000,1.200,1.585,0.000,0.000,0.000,3.142,2.315,0.000,0.000,0.000,0.000,0.000,0.000,0.000,0.000,0.000,0.000,3.142,6.283,0.000,2.100,1.897,1.798,4.285,0.398,1.000,4.711,0.000,0.000,-1.885,-1.057,0.451,5.765,3.122,0.046,4.183,4.384,4.484,1.998,5.882,5.283,1.571,0.000,0.000,-1.556,-1.050,0.451,5.766,3.184,6.188,
43.000,53.385,-1.717,-1.185,1.592,1.002,0.000,0.000,0.000,1.330,0.893,1.075,0.000,1.305,1.587,0.000,0.000,0.000,3.142,2.317,0.000,0.000,0.000,0.000,0.000,0.000,0.000,0.000,0.000,0.000,3.142,6.283,0.000,2.099,1.897,1.799,4.285,0.398,1.000,4.711,0.000,0.000,-1.886,-0.973,0.451,5.764,3.121,0.047,4.183,4.383,4.484,1.998,5.882,5.283,1.571,0.000,0.000,-1.558,-0.966,0.451,5.766,3.184,6.189,
43.100,53.485,-1.720,-1.071,1.592,0.961,6.283,0.000,0.000,1.328,1.370,1.071,0.000,1.448,1.589,0.000,0.000,0.000,3.142,2.403,0.000,0.000,0.000,0.000,0.000,0.000,0.000,0.000,0.000,0.000,3.142,6.282,0.000,2.101,1.897,1.798,4.285,0.398,0.999,4.711,0.000,0.000,-1.889,-0.860,0.451,5.765,3.122,0.046,4.183,4.384,4.484,1.998,5.882,5.283,1.570,0.000,0.000,-1.560,-0.853,0.451,5.766,3.184,6.188,
43.200,53.585,-1.721,-0.993,1.591,1.017,6.283,0.000,0.000,1.326,1.368,1.068,0.000,1.545,1.591,0.000,0.000,0.000,3.142,2.440,0.000,0.000,0.000,0.000,0.000,0.000,0.000,0.000,0.000,0.000,3.142,6.282,0.000,2.101,1.897,1.798,4.285,0.398,0.999,4.711,0.000,0.000,-1.891,-0.782,0.451,5.765,3.122,0.046,4.183,4.384,4.484,1.998,5.882,5.283,1.570,0.000,0.000,-1.562,-0.775,0.451,5.766,3.184,6.188,
43.300,53.685,-1.724,-0.871,1.591,1.036,6.283,0.000,0.000,1.324,1.365,1.063,0.000,1.699,1.747,4.554,0.000,0.000,3.142,2.514,0.000,0.000,0.000,0.000,0.000,0.000,0.000,0.000,0.000,0.000,3.142,6.283,0.000,2.100,1.897,1.798,4.285,0.398,1.000,4.711,0.000,0.000,-1.893,-0.660,0.451,5.765,3.122,0.047,4.183,4.384,4.484,1.998,5.882,5.283,1.571,0.000,0.000,-1.564,-0.653,0.451,5.766,3.184,6.188,
43.382,53.766,-1.726,-0.771,1.591,1.001,0.000,0.000,0.000,1.322,1.363,1.059,0.000,1.763,1.836,4.308,0.000,0.000,3.142,2.548,0.000,0.000,0.000,0.000,0.000,0.000,0.000,0.000,0.000,0.000,3.142,6.283,0.000,2.100,1.897,1.798,4.285,0.398,1.000,4.711,0.000,0.000,-1.895,-0.559,0.451,5.765,3.122,0.047,4.183,4.384,4.484,1.998,5.882,5.283,1.570,0.000,0.000,-1.566,-0.553,0.451,5.766,3.184,6.188,
43.500,53.885,-1.728,-0.673,1.591,0.998,6.283,0.000,0.000,1.320,1.361,1.055,0.000,1.766,2.161,4.946,0.000,0.000,3.142,2.688,0.000,0.000,0.000,0.000,0.000,0.000,0.000,0.000,0.000,0.000,3.142,6.282,0.000,2.100,1.897,1.798,4.285,0.398,1.000,4.711,0.000,0.000,-1.897,-0.461,0.451,5.765,3.122,0.047,4.183,4.384,4.484,1.998,5.882,5.283,1.570,0.000,0.000,-1.568,-0.455,0.451,5.766,3.184,6.188,
43.600,53.985,-1.729,-0.594,1.591,1.013,6.283,0.000,0.000,1.318,1.359,1.083,0.000,1.814,2.725,4.713,0.000,0.000,3.142,0.000,0.000,0.000,0.000,0.000,0.000,0.000,0.000,0.000,0.000,0.000,3.142,6.282,0.000,2.101,1.897,1.798,4.285,0.398,1.000,4.711,0.000,0.000,-1.899,-0.382,0.451,5.765,3.122,0.047,4.183,4.384,4.484,1.998,5.882,5.283,1.570,0.000,0.000,-1.570,-0.375,0.451,5.766,3.184,6.188,
43.700,54.085,-1.732,-0.473,1.591,1.017,6.283,0.000,0.000,1.316,1.356,1.227,0.000,2.031,2.864,4.360,0.000,0.000,3.142,0.000,0.000,0.000,0.000,0.000,0.000,0.000,0.000,0.000,0.000,0.000,3.142,6.282,0.000,2.100,1.897,1.798,4.285,0.398,1.000,4.711,0.000,0.000,-1.901,-0.262,0.451,5.765,3.122,0.047,4.183,4.384,4.484,1.998,5.882,5.283,1.570,0.000,0.000,-1.572,-0.255,0.451,5.766,3.184,6.189,
43.800,54.185,-1.733,-0.394,1.591,1.009,6.283,0.000,0.000,1.314,1.354,1.322,0.000,2.033,3.144,4.125,0.000,0.000,3.142,0.000,0.000,0.000,0.000,0.000,0.000,0.000,0.000,0.000,0.000,0.000,3.142,6.282,0.000,2.100,1.897,1.798,4.285,0.398,1.000,4.711,0.000,0.000,-1.902,-0.182,0.451,5.765,3.121,0.047,4.183,4.384,4.484,1.998,5.882,5.283,1.571,0.000,0.000,-1.574,-0.176,0.451,5.766,3.184,6.189,
43.891,54.276,-1.736,-0.275,1.591,1.008,6.283,0.000,0.000,1.312,1.352,1.464,0.000,2.025,4.686,3.774,0.000,0.000,3.142,0.000,0.000,0.000,0.000,0.000,0.000,0.000,0.000,0.000,0.000,0.000,3.142,6.282,0.000,2.100,1.897,1.798,4.285,0.398,1.000,4.711,0.000,0.000,-1.905,-0.063,0.451,5.765,3.121,0.047,4.183,4.384,4.484,1.998,5.882,5.283,1.570,0.000,0.000,-1.576,-0.057,0.451,5.766,3.184,6.189,
44.000,54.385,-1.738,-0.175,1.590,1.012,6.283,0.000,0.000,1.310,1.350,1.583,0.000,2.085,4.688,3.481,0.000,0.000,3.142,0.000,0.000,0.000,0.000,0.000,0.000,0.000,0.000,0.000,0.000,0.000,3.142,6.282,0.000,2.100,1.897,1.798,4.285,0.398,1.000,4.711,0.000,0.000,-1.907,0.036,0.451,5.765,3.121,0.047,4.183,4.384,4.484,1.998,5.882,5.283,1.570,0.000,0.000,-1.578,0.043,0.451,5.766,3.183,6.189,
44.082,54.467,-1.739,-0.096,1.590,1.013,6.283,0.000,0.000,1.125,1.348,1.678,0.000,2.185,4.690,3.246,0.000,0.000,3.142,0.000,0.000,0.000,0.000,0.000,0.000,0.000,0.000,0.000,0.000,0.000,3.142,6.282,0.000,2.100,1.897,1.798,4.285,0.398,1.000,4.711,0.000,0.000,-1.908,0.116,0.451,5.765,3.121,0.047,4.183,4.384,4.484,1.998,5.882,5.283,1.570,0.000,0.000,-1.579,0.122,0.451,5.766,3.183,6.189,
44.200,54.585,-1.742,0.024,1.590,1.010,6.283,0.000,0.000,0.677,1.345,2.306,0.000,2.335,4.692,2.893,0.000,0.000,3.142,0.000,0.000,0.000,0.000,0.000,0.000,0.000,0.000,0.000,0.000,0.000,3.142,6.282,0.000,2.100,1.897,1.798,4.285,0.398,1.000,4.711,0.000,0.000,-1.911,0.235,0.451,5.765,3.121,0.048,4.183,4.384,4.484,1.998,5.882,5.283,1.570,0.000,0.000,-1.582,0.242,0.451,5.766,3.183,6.189,
44.300,54.685,-1.743,0.103,1.590,1.010,6.283,0.000,0.000,0.645,1.344,2.302,0.000,2.644,4.930,2.658,0.000,0.000,3.142,0.000,0.000,0.000,0.000,0.000,0.000,0.000,0.000,0.000,0.000,0.000,3.142,6.282,0.000,2.100,1.897,1.798,4.285,0.398,1.000,4.711,0.000,0.000,-1.912,0.315,0.451,5.765,3.121,0.048,4.183,4.384,4.484,1.998,5.882,5.283,1.570,0.000,0.000,-1.583,0.321,0.451,5.766,3.183,6.189,
44.400,54.785,-1.745,0.203,1.590,1.011,6.283,0.000,0.000,0.643,1.341,2.298,0.000,2.557,0.000,2.364,0.000,0.000,3.142,0.000,0.000,0.000,0.000,0.000,0.000,0.000,0.000,0.000,0.000,0.000,3.142,6.282,0.000,2.100,1.897,1.798,4.285,0.398,1.000,4.711,0.000,0.000,-1.914,0.414,0.451,5.765,3.121,0.048,4.183,4.384,4.484,1.998,5.882,5.283,1.570,0.000,0.000,-1.585,0.421,0.451,5.766,3.183,6.190,
44.488,54.873,-1.748,0.322,1.590,1.011,6.283,0.000,0.000,0.558,1.339,2.294,0.000,2.562,0.000,2.011,0.000,0.000,3.142,0.000,0.000,0.000,0.000,0.000,0.000,0.000,0.000,0.000,0.000,0.000,3.142,6.282,0.000,2.100,1.897,1.798,4.285,0.398,1.000,4.711,0.000,0.000,-1.916,0.534,0.451,5.765,3.121,0.048,4.183,4.384,4.484,1.998,5.882,5.283,1.570,0.000,0.000,-1.587,0.540,0.451,5.766,3.183,6.190,
44.586,54.971,-1.749,0.422,1.590,1.011,6.283,0.000,0.000,0.556,1.337,2.290,0.000,2.565,0.000,1.716,0.000,0.000,3.142,0.000,0.000,0.000,0.000,0.000,0.000,0.000,0.000,0.000,0.000,0.000,3.142,6.282,0.000,2.100,1.897,1.798,4.285,0.398,1.000,4.711,0.000,0.000,-1.918,0.633,0.451,5.765,3.121,0.048,4.183,4.384,4.484,1.998,5.882,5.283,1.570,0.000,0.000,-1.589,0.640,0.451,5.766,3.183,6.190,
44.700,55.085,-1.751,0.520,1.590,0.952,0.000,0.000,0.000,0.554,0.656,2.286,0.000,2.568,0.000,1.426,0.000,0.000,3.142,0.000,0.000,0.000,0.000,0.000,0.000,0.000,0.000,0.000,0.000,0.000,3.142,6.283,0.000,2.100,1.897,1.799,4.285,0.398,1.000,4.711,0.000,0.000,-1.920,0.731,0.451,5.764,3.121,0.049,4.183,4.383,4.484,1.998,5.882,5.283,1.571,0.000,0.000,-1.591,0.738,0.451,5.766,3.183,6.190,
44.800,55.185,-1.753,0.588,1.590,0.765,0.000,0.000,0.000,0.552,0.655,2.284,0.000,2.570,0.000,1.330,0.000,0.000,3.142,0.000,0.000,0.000,0.000,0.000,0.000,0.000,0.000,0.000,0.000,0.000,3.142,0.000,0.001,2.099,1.897,1.799,4.285,0.398,1.001,4.712,0.000,0.000,-1.921,0.800,0.451,5.764,3.120,0.050,4.183,4.383,4.485,1.998,5.882,5.283,1.571,0.000,0.000,-1.592,0.806,0.452,5.765,3.182,6.191,
44.900,55.285,-1.754,0.649,1.590,0.521,0.000,0.000,0.000,0.551,0.568,2.283,0.000,2.572,0.000,1.332,0.000,0.000,3.142,0.000,0.000,0.000,0.000,0.000,0.000,0.000,0.000,0.000,0.000,0.000,3.142,0.000,0.000,2.099,1.897,1.799,4.285,0.398,1.000,4.712,0.000,0.000,-1.922,0.861,0.451,5.764,3.120,0.049,4.183,4.383,4.485,1.998,5.882,5.283,1.571,0.000,0.000,-1.594,0.868,0.451,5.765,3.183,6.191,
45.000,55.385,-1.755,0.695,1.590,0.442,6.283,0.000,0.000,0.550,0.567,2.281,0.000,2.589,0.000,1.333,0.000,0.000,3.142,0.000,0.000,0.000,0.000,0.000,0.000,0.000,0.000,0.000,0.000,0.000,3.142,6.283,0.000,2.100,1.897,1.798,4.285,0.398,1.000,4.711,0.000,0.000,-1.923,0.906,0.451,5.765,3.121,0.048,4.183,4.384,4.484,1.998,5.882,5.283,1.570,0.000,0.000,-1.595,0.913,0.451,5.766,3.183,6.190,
45.083,55.468,-1.756,0.745,1.590,0.419,0.000,0.000,0.000,0.549,0.566,2.279,0.000,2.652,0.000,1.334,0.000,0.000,3.142,0.000,0.000,0.000,0.000,0.000,0.000,0.000,0.000,0.000,0.000,0.000,3.142,6.283,0.000,2.100,1.897,1.798,4.285,0.398,1.000,4.711,0.000,0.000,-1.924,0.956,0.451,5.765,3.121,0.048,4.183,4.384,4.484,1.998,5.882,5.283,1.570,0.000,0.000,-1.596,0.963,0.451,5.766,3.183,6.190,
45.183,55.568,-1.756,0.781,1.590,0.327,0.000,0.000,0.000,0.548,0.565,2.278,0.000,2.697,0.000,1.334,0.000,0.000,3.142,0.000,0.000,0.000,0.000,0.000,0.000,0.000,0.000,0.000,0.000,0.000,3.142,6.283,0.000,2.100,1.897,1.799,4.285,0.398,1.000,4.711,0.000,0.000,-1.925,0.993,0.451,5.764,3.121,0.049,4.183,4.383,4.484,1.998,5.882,5.283,1.571,0.000,0.000,-1.596,0.999,0.451,5.766,3.183,6.190,
45.290,55.674,-1.757,0.807,1.590,0.241,0.011,0.000,0.000,0.548,0.564,2.277,0.000,2.730,0.000,1.335,0.000,0.000,3.142,0.000,0.000,0.000,0.000,0.000,0.000,0.000,0.000,0.000,0.000,0.000,3.142,6.283,0.000,2.100,1.897,1.798,4.285,0.398,1.000,4.711,0.000,0.000,-1.926,1.019,0.451,5.765,3.121,0.048,4.183,4.384,4.484,1.998,5.882,5.283,1.570,0.000,0.000,-1.597,1.025,0.451,5.766,3.183,6.190,
45.397,55.782,-1.757,0.828,1.590,0.220,0.001,0.000,0.000,1.024,0.564,2.276,0.000,2.757,0.000,1.335,0.000,0.000,3.142,0.000,0.000,0.000,0.000,0.000,0.000,0.000,0.000,0.000,0.000,0.000,3.142,6.282,0.000,2.100,1.897,1.798,4.285,0.398,1.000,4.711,0.000,0.000,-1.926,1.040,0.451,5.765,3.121,0.048,4.183,4.384,4.484,1.998,5.882,5.283,1.570,0.000,0.000,-1.597,1.046,0.451,5.766,3.183,6.190,
45.500,55.885,-1.758,0.849,1.590,0.197,0.000,0.000,0.000,1.024,0.564,2.274,0.000,2.782,0.000,1.336,0.000,0.000,3.142,0.000,0.000,0.000,0.000,0.000,0.000,0.000,0.000,0.000,0.000,0.000,3.142,6.283,0.000,2.100,1.897,1.798,4.285,0.398,1.000,4.711,0.000,0.000,-1.926,1.060,0.451,5.765,3.121,0.049,4.183,4.384,4.484,1.998,5.882,5.283,1.570,0.000,0.000,-1.597,1.067,0.451,5.766,3.183,6.190,
45.600,55.985,-1.758,0.856,1.589,0.011,0.003,0.000,0.000,1.024,0.563,2.274,0.000,2.791,0.000,1.336,0.000,0.000,3.142,0.000,0.000,0.000,0.000,0.000,0.000,0.000,0.000,0.000,0.000,0.000,3.142,0.000,0.001,2.099,1.897,1.799,4.285,0.398,1.000,4.712,0.000,0.000,-1.926,1.068,0.451,5.764,3.120,0.050,4.183,4.383,4.484,1.998,5.882,5.283,1.570,0.000,0.000,-1.597,1.074,0.452,5.765,3.182,6.191,
45.700,56.085,-1.758,0.855,1.588,-0.034,6.218,0.000,0.000,1.024,0.563,2.268,0.000,2.786,0.000,1.335,0.000,0.000,3.142,0.000,0.000,0.000,0.000,0.000,0.000,0.000,0.000,0.000,0.000,0.000,3.142,6.283,0.000,2.100,1.897,1.798,4.285,0.398,1.000,4.711,0.000,0.000,-1.926,1.067,0.451,5.765,3.120,0.051,4.183,4.384,4.484,1.998,5.882,5.283,1.571,0.000,0.000,-1.597,1.073,0.451,5.766,3.182,6.192,
45.800,56.185,-1.758,0.853,1.576,-0.024,6.015,0.000,0.000,1.028,0.561,2.229,0.000,2.760,0.000,1.330,0.000,0.000,3.142,0.000,0.000,0.000,0.000,0.000,0.000,0.000,0.000,0.000,0.000,0.000,3.142,6.282,0.000,2.101,1.897,1.798,4.285,0.398,1.000,4.711,0.000,0.000,-1.924,1.067,0.451,5.765,3.113,0.064,4.182,4.384,4.484,1.998,5.882,5.283,1.571,0.000,0.000,-1.595,1.069,0.451,5.766,3.175,6.205,
