deveshdatwani/Gopher/Assets/Data/07-21 07-27-27/Obstacle Handling_robot_value.csv
game_time,true_time,x,y,az,vx,vaz,dis_to_obs_0,dis_to_obs_36,dis_to_obs_72,dis_to_obs_108,dis_to_obs_144,dis_to_obs_180,dis_to_obs_-144,dis_to_obs_-108,dis_to_obs_-72,dis_to_obs_-36,dis_to_min_obs,direction_to_min_obs,dis_to_human_0,dis_to_human_36,dis_to_human_72,dis_to_human_108,dis_to_human_144,dis_to_human_180,dis_to_human_-144,dis_to_human_-108,dis_to_human_-72,dis_to_human_-36,dis_to_min_human,direction_to_min_human,main_cam_yaw,main_cam_pitch,left_joint_1,left_joint_2,left_joint_3,left_joint_4,left_joint_5,left_joint_6,left_joint_7,left_joint_gripper,left_is_grasping,left_end_x,left_end_y,left_end_z,left_end_ax,left_end_ay,left_end_az,right_joint_1,right_joint_2,right_joint_3,right_joint_4,right_joint_5,right_joint_6,right_joint_7,right_joint_gripper,right_is_grasping,right_end_x,right_end_y,right_end_z,right_end_ax,right_end_ay,right_end_az,
8.492,13.592,0.995,-9.922,1.653,1.012,1.289,3.439,0.000,1.874,1.294,2.396,0.000,3.063,2.057,1.749,3.972,0.000,3.142,0.000,0.000,0.000,0.000,0.000,0.000,0.000,0.000,0.000,0.000,0.000,3.142,0.002,0.000,1.003,1.571,1.572,4.086,6.281,1.199,4.712,0.000,0.000,0.621,-9.362,0.990,4.791,4.649,4.775,5.282,4.713,4.714,2.199,6.282,5.083,1.571,0.000,0.000,1.275,-9.308,0.991,4.791,4.675,4.749,
8.600,13.700,0.984,-9.824,1.776,0.998,1.312,3.408,0.000,1.683,1.369,3.061,0.000,2.715,2.026,0.000,3.624,0.000,3.142,0.000,3.541,0.000,0.000,0.000,0.000,0.000,0.000,0.000,0.000,0.000,3.142,0.001,0.000,1.003,1.570,1.569,4.085,6.282,1.199,4.712,0.000,0.000,0.543,-9.314,0.990,4.918,4.690,4.733,5.282,4.713,4.712,2.198,6.283,5.083,1.570,0.000,0.000,1.185,-9.180,0.991,4.917,4.696,4.728,
8.700,13.800,0.967,-9.747,1.854,1.015,0.938,3.399,0.000,1.605,1.420,3.732,0.000,2.566,2.034,0.000,3.433,0.000,3.142,0.000,0.000,0.000,0.000,0.000,0.000,0.000,0.000,0.000,0.000,0.000,3.142,0.001,0.000,1.003,1.570,1.569,4.085,6.282,1.199,4.712,0.000,0.000,0.486,-9.273,0.990,4.997,4.697,4.726,5.282,4.712,4.711,2.198,6.283,5.083,1.570,0.000,0.000,1.116,-9.089,0.991,4.996,4.700,4.723,
8.800,13.900,0.930,-9.632,1.940,1.023,0.869,3.382,0.000,1.554,1.471,0.000,3.532,2.458,1.675,4.896,3.228,0.000,3.036,0.000,0.000,0.000,0.000,0.000,0.000,0.000,0.000,0.000,0.000,0.000,3.142,0.001,0.000,1.003,1.570,1.570,4.086,6.281,1.199,4.712,0.000,0.000,0.411,-9.201,0.990,5.081,4.698,4.724,5.282,4.712,4.712,2.198,6.282,5.083,1.570,0.000,0.000,1.023,-8.964,0.991,5.081,4.703,4.721,
8.885,13.985,0.900,-9.557,2.006,1.011,1.040,3.419,0.000,1.514,1.522,0.000,3.537,2.398,1.716,4.438,3.107,0.000,3.001,0.000,0.000,0.000,0.000,0.000,0.000,0.000,0.000,0.000,0.000,0.000,3.142,0.001,0.000,1.003,1.570,1.570,4.086,6.281,1.199,4.712,0.000,0.000,0.354,-9.161,0.990,5.147,4.701,4.722,5.282,4.712,4.713,2.198,6.282,5.083,1.570,0.000,0.000,0.949,-8.885,0.991,5.146,4.705,4.719,
9.000,14.100,0.846,-9.451,2.118,1.009,1.057,3.141,1.557,1.448,1.637,0.000,3.787,2.330,0.000,3.277,2.958,0.000,2.896,0.000,0.000,0.000,0.000,0.000,0.000,0.000,0.000,0.000,0.000,0.000,3.142,0.001,0.000,1.003,1.570,1.570,4.085,6.282,1.199,4.712,0.000,0.000,0.259,-9.119,0.990,5.260,4.704,4.719,5.282,4.712,4.712,2.198,6.282,5.083,1.570,0.000,0.000,0.819,-8.777,0.991,5.259,4.706,4.717,
9.097,14.197,0.792,-9.367,2.186,1.017,0.364,0.000,1.289,1.420,1.697,0.000,3.825,2.329,0.000,3.550,2.867,0.000,2.826,0.000,0.000,0.000,0.000,0.000,0.000,0.000,0.000,0.000,0.000,0.000,3.142,6.283,0.000,1.004,1.569,1.567,4.085,6.282,1.199,4.712,0.000,0.000,0.182,-9.077,0.990,5.331,4.704,4.718,5.281,4.711,4.710,2.198,6.283,5.083,1.570,0.000,0.000,0.718,-8.698,0.991,5.330,4.705,4.717,
9.200,14.300,0.734,-9.286,2.190,1.013,6.270,0.000,1.457,1.436,1.605,0.000,3.904,2.387,0.000,3.440,2.786,0.000,2.861,3.331,0.000,0.000,0.000,0.000,0.000,0.000,0.000,0.000,0.000,0.000,3.142,6.282,0.000,1.004,1.569,1.569,4.085,6.281,1.199,4.712,0.000,0.000,0.125,-8.997,0.990,5.332,4.704,4.718,5.281,4.711,4.711,2.197,6.282,5.083,1.570,0.000,0.000,0.659,-8.616,0.990,5.332,4.704,4.718,
9.300,14.400,0.677,-9.205,2.190,1.008,6.269,0.000,1.644,1.454,1.505,0.000,4.003,2.447,0.000,3.340,2.705,0.000,2.861,3.234,0.000,0.000,0.000,0.000,0.000,0.000,0.000,0.000,0.000,0.000,3.142,6.282,0.000,1.004,1.569,1.569,4.085,6.281,1.199,4.712,0.000,0.000,0.067,-8.916,0.990,5.332,4.704,4.718,5.281,4.711,4.711,2.198,6.282,5.083,1.570,0.000,0.000,0.601,-8.535,0.990,5.332,4.704,4.718,
9.396,14.496,0.631,-9.140,2.190,1.010,6.269,0.000,1.793,1.469,1.424,0.000,4.082,2.496,0.000,3.260,2.640,0.000,2.861,3.194,0.000,0.000,0.000,0.000,0.000,0.000,0.000,0.000,0.000,0.000,3.142,6.282,0.000,1.004,1.569,1.569,4.085,6.281,1.199,4.712,0.000,0.000,0.021,-8.852,0.990,5.332,4.704,4.718,5.281,4.711,4.711,2.198,6.282,5.083,1.570,0.000,0.000,0.555,-8.470,0.990,5.332,4.704,4.718,
9.500,14.600,0.561,-9.043,2.190,1.013,6.268,0.000,0.000,1.490,1.360,0.000,4.200,2.569,0.000,3.139,2.543,0.000,2.861,3.223,0.000,0.000,0.000,0.000,0.000,0.000,0.000,0.000,0.000,0.000,3.142,6.282,0.000,1.004,1.569,1.569,4.085,6.281,1.199,4.712,0.000,0.000,-0.049,-8.754,0.990,5.332,4.704,4.718,5.281,4.711,4.711,2.198,6.282,5.083,1.570,0.000,0.000,0.485,-8.373,0.990,5.333,4.704,4.718,
9.588,14.688,0.515,-8.978,2.190,1.012,6.268,0.000,0.000,1.239,1.373,0.000,4.279,2.198,0.000,3.059,2.478,0.000,2.896,3.236,0.000,0.000,0.000,0.000,0.000,0.000,0.000,0.000,0.000,0.000,3.142,6.282,0.000,1.004,1.569,1.569,4.085,6.281,1.199,4.712,0.000,0.000,-0.095,-8.690,0.990,5.333,4.704,4.718,5.281,4.711,4.711,2.198,6.282,5.083,1.570,0.000,0.000,0.439,-8.308,0.990,5.333,4.704,4.718,
9.700,14.800,0.445,-8.881,2.191,1.011,6.267,4.954,0.000,1.074,1.393,0.000,4.397,2.271,0.000,2.938,2.381,0.000,2.896,0.000,0.000,0.000,0.000,0.000,0.000,0.000,0.000,0.000,0.000,0.000,3.142,6.282,0.000,1.004,1.569,1.569,4.085,6.281,1.199,4.712,0.000,0.000,-0.164,-8.593,0.990,5.333,4.704,4.718,5.281,4.711,4.711,2.198,6.282,5.083,1.570,0.000,0.000,0.369,-8.211,0.990,5.333,4.704,4.718,
9.784,14.884,0.399,-8.816,2.191,1.011,6.267,4.874,0.000,0.964,1.406,0.000,4.475,2.319,0.000,2.858,2.316,0.000,2.896,0.000,0.000,0.000,0.000,0.000,0.000,0.000,0.000,0.000,0.000,0.000,3.142,6.282,0.000,1.004,1.569,1.569,4.085,6.281,1.199,4.712,0.000,0.000,-0.211,-8.528,0.990,5.333,4.704,4.718,5.281,4.711,4.711,2.198,6.282,5.083,1.570,0.000,0.000,0.323,-8.147,0.990,5.333,4.704,4.718,
9.900,15.000,0.330,-8.719,2.191,1.012,6.266,4.754,0.000,0.806,1.426,0.000,4.593,2.392,0.000,2.738,2.219,0.000,2.896,0.000,0.000,0.000,0.000,0.000,0.000,0.000,0.000,0.000,0.000,0.000,3.142,6.282,0.000,1.004,1.569,1.569,4.085,6.281,1.199,4.712,0.000,0.000,-0.280,-8.431,0.990,5.333,4.704,4.718,5.281,4.711,4.711,2.198,6.282,5.083,1.570,0.000,0.000,0.253,-8.049,0.990,5.333,4.704,4.718,
10.000,15.100,0.284,-8.654,2.192,1.012,6.267,4.675,0.000,0.850,1.440,0.000,4.671,2.441,0.000,2.657,2.154,0.000,2.896,0.000,0.000,0.000,0.000,0.000,0.000,0.000,0.000,0.000,0.000,0.000,3.142,6.282,0.000,1.004,1.569,1.569,4.085,6.281,1.199,4.712,0.000,0.000,-0.327,-8.367,0.990,5.334,4.704,4.718,5.281,4.711,4.711,2.198,6.282,5.083,1.570,0.000,0.000,0.207,-7.985,0.990,5.334,4.704,4.718,
10.100,15.200,0.214,-8.557,2.192,1.011,6.266,4.555,0.000,0.915,1.460,0.000,4.788,2.514,0.000,2.537,2.057,0.000,2.896,0.000,0.000,0.000,0.000,0.000,0.000,0.000,0.000,0.000,0.000,0.000,3.142,6.282,0.000,1.004,1.569,1.569,4.085,6.281,1.199,4.712,0.000,0.000,-0.396,-8.270,0.990,5.334,4.704,4.718,5.281,4.711,4.711,2.198,6.282,5.083,1.570,0.000,0.000,0.137,-7.888,0.990,5.334,4.704,4.718,
10.200,15.300,0.170,-8.495,2.197,0.919,0.332,4.496,0.000,0.952,1.474,0.000,4.828,2.556,0.000,1.909,1.995,0.000,3.106,0.000,0.000,0.000,0.000,0.000,0.000,0.000,0.000,0.000,0.000,0.000,3.142,0.001,0.000,1.002,1.570,1.571,4.087,6.281,1.200,4.712,0.000,0.000,-0.441,-8.209,0.990,5.336,4.702,4.720,5.281,4.712,4.713,2.199,6.281,5.083,1.570,0.000,0.000,0.091,-7.825,0.991,5.336,4.706,4.717,
10.300,15.400,0.109,-8.415,2.293,0.826,1.374,4.614,0.000,0.932,1.522,0.000,4.376,2.961,4.753,2.212,1.926,0.000,3.036,0.000,0.000,0.000,0.000,0.000,0.000,0.000,0.000,0.000,0.000,0.000,3.142,0.002,0.000,1.003,1.571,1.571,4.086,6.281,1.199,4.712,0.000,0.000,-0.526,-8.189,0.990,5.432,4.705,4.717,5.282,4.713,4.714,2.198,6.282,5.083,1.571,0.000,0.000,-0.033,-7.755,0.991,5.432,4.708,4.715,
10.387,15.487,0.064,-8.366,2.391,0.876,1.308,4.123,0.000,0.899,1.576,0.000,4.016,0.000,3.802,2.049,1.906,0.000,2.931,0.000,0.000,0.000,0.000,0.000,0.000,0.000,0.000,0.000,0.000,0.000,3.142,0.001,0.000,1.004,1.570,1.569,4.085,6.282,1.199,4.712,0.000,0.000,-0.591,-8.204,0.990,5.533,4.707,4.715,5.282,4.712,4.712,2.198,6.283,5.083,1.570,0.000,0.000,-0.144,-7.724,0.991,5.532,4.708,4.715,
10.500,15.600,-0.018,-8.295,2.500,0.929,0.834,3.676,3.232,0.873,1.649,0.000,3.767,0.000,3.082,1.889,1.427,0.000,2.826,0.000,0.000,0.000,0.000,0.000,0.000,0.000,0.000,0.000,0.000,0.000,3.142,0.001,0.000,1.004,1.570,1.569,4.085,6.282,1.199,4.712,0.000,0.000,-0.686,-8.206,0.990,5.642,4.706,4.715,5.282,4.712,4.711,2.198,6.282,5.083,1.570,0.000,0.000,-0.294,-7.680,0.991,5.642,4.708,4.714,
10.583,15.683,-0.093,-8.241,2.551,0.980,0.277,3.460,3.163,0.865,1.679,0.000,3.724,0.000,2.794,1.805,1.545,0.000,2.826,0.000,0.000,0.000,0.000,0.000,0.000,0.000,0.000,0.000,0.000,0.000,3.142,6.283,0.000,1.004,1.568,1.567,4.084,6.282,1.199,4.712,0.000,0.000,-0.766,-8.188,0.990,5.695,4.707,4.714,5.281,4.711,4.710,2.198,6.282,5.083,1.570,0.000,0.000,-0.401,-7.642,0.991,5.695,4.708,4.714,
10.700,15.800,-0.177,-8.185,2.554,1.053,6.267,3.354,3.079,0.871,1.659,0.000,3.817,0.000,2.694,1.745,1.487,0.000,2.826,0.000,0.000,0.000,0.000,0.000,0.000,0.000,0.000,0.000,0.000,0.000,3.142,6.282,0.000,1.004,1.569,1.569,4.084,6.281,1.199,4.712,0.000,0.000,-0.849,-8.132,0.990,5.696,4.707,4.714,5.281,4.711,4.711,2.198,6.282,5.083,1.570,0.000,0.000,-0.486,-7.586,0.990,5.696,4.707,4.715,
10.800,15.900,-0.245,-8.139,2.554,1.037,6.266,3.272,3.010,0.877,0.855,0.000,3.900,0.000,1.915,1.698,1.438,0.000,2.861,0.000,0.000,0.000,0.000,0.000,0.000,0.000,0.000,0.000,0.000,0.000,3.142,6.282,0.000,1.004,1.569,1.569,4.085,6.281,1.199,4.712,0.000,0.000,-0.918,-8.086,0.990,5.696,4.706,4.715,5.281,4.711,4.711,2.198,6.282,5.083,1.570,0.000,0.000,-0.554,-7.540,0.990,5.696,4.707,4.715,
10.900,16.000,-0.345,-8.073,2.554,0.990,6.267,3.154,2.911,0.885,0.863,0.000,4.018,0.000,2.514,1.629,1.367,0.000,2.861,0.000,0.000,0.000,0.000,0.000,0.000,0.000,0.000,0.000,0.000,0.000,3.142,6.282,0.000,1.004,1.569,1.569,4.085,6.281,1.199,4.712,0.000,0.000,-1.017,-8.021,0.990,5.696,4.707,4.715,5.281,4.711,4.711,2.198,6.282,5.083,1.570,0.000,0.000,-0.654,-7.475,0.990,5.696,4.707,4.715,
11.000,16.100,-0.426,-8.019,2.555,1.004,6.265,3.056,2.830,0.891,0.870,0.000,4.114,0.000,2.426,1.573,1.310,0.000,2.896,0.000,0.000,0.000,0.000,0.000,0.000,0.000,0.000,0.000,0.000,0.000,3.142,6.282,0.000,1.004,1.569,1.569,4.085,6.281,1.199,4.712,0.000,0.000,-1.098,-7.967,0.990,5.697,4.707,4.714,5.281,4.711,4.711,2.198,6.282,5.083,1.570,0.000,0.000,-0.736,-7.421,0.990,5.697,4.707,4.715,
11.100,16.200,-0.492,-7.975,2.555,1.021,6.267,2.977,2.763,1.847,0.875,0.000,4.194,0.000,2.355,1.527,1.262,0.000,2.896,0.000,0.000,0.000,0.000,0.000,0.000,0.000,0.000,0.000,0.000,0.000,3.142,6.282,0.000,1.004,1.569,1.569,4.085,6.281,1.199,4.712,0.000,0.000,-1.165,-7.923,0.990,5.697,4.707,4.715,5.281,4.711,4.711,2.198,6.282,5.083,1.570,0.000,0.000,-0.802,-7.377,0.990,5.697,4.707,4.715,
11.191,16.291,-0.593,-7.909,2.555,1.015,6.266,2.857,3.033,3.134,0.883,0.000,4.313,0.000,2.247,1.458,0.000,0.000,2.931,0.000,0.000,0.000,0.000,0.000,0.000,0.000,0.000,0.000,0.000,0.000,3.142,6.282,0.000,1.004,1.569,1.569,4.085,6.281,1.199,4.712,0.000,0.000,-1.265,-7.857,0.990,5.697,4.707,4.715,5.281,4.711,4.711,2.198,6.282,5.083,1.570,0.000,0.000,-0.903,-7.310,0.990,5.697,4.707,4.715,
11.300,16.400,-0.676,-7.854,2.556,1.006,6.265,2.758,0.000,3.027,0.890,0.000,4.411,0.000,2.159,0.948,0.000,0.000,2.966,0.000,0.000,0.000,0.000,0.000,0.000,0.000,0.000,0.000,0.000,0.000,3.142,6.282,0.000,1.004,1.569,1.569,4.085,6.281,1.199,4.712,0.000,0.000,-1.348,-7.802,0.990,5.698,4.707,4.715,5.281,4.711,4.711,2.198,6.282,5.083,1.570,0.000,0.000,-0.986,-7.255,0.990,5.698,4.707,4.715,
11.387,16.487,-0.742,-7.810,2.556,1.009,6.266,2.679,0.000,2.942,0.895,0.000,4.489,0.000,2.088,0.902,0.000,0.000,3.001,0.000,0.000,0.000,0.000,0.000,0.000,0.000,0.000,0.000,0.000,0.000,3.142,6.282,0.000,1.004,1.569,1.569,4.085,6.281,1.199,4.712,0.000,0.000,-1.414,-7.758,0.990,5.698,4.707,4.715,5.281,4.711,4.711,2.198,6.282,5.083,1.570,0.000,0.000,-1.052,-7.212,0.990,5.698,4.707,4.715,
11.500,16.600,-0.841,-7.744,2.556,1.015,6.266,2.560,0.000,2.813,0.903,0.000,4.608,0.000,1.982,1.325,0.000,0.000,3.001,0.000,0.000,0.000,0.000,0.000,0.000,0.000,0.000,0.000,0.000,0.000,3.142,6.282,0.000,1.004,1.569,1.569,4.085,6.281,1.199,4.712,0.000,0.000,-1.514,-7.693,0.990,5.698,4.707,4.715,5.281,4.711,4.711,2.198,6.282,5.083,1.570,0.000,0.000,-1.152,-7.146,0.990,5.699,4.707,4.715,
11.582,16.683,-0.908,-7.700,2.557,1.013,6.266,2.481,0.000,2.727,0.926,0.000,4.687,0.000,1.911,0.933,0.000,0.000,3.036,0.000,0.000,0.000,0.000,0.000,0.000,0.000,0.000,0.000,0.000,0.000,3.142,6.282,0.000,1.004,1.569,1.569,4.085,6.281,1.199,4.712,0.000,0.000,-1.580,-7.649,0.990,5.699,4.707,4.715,5.281,4.711,4.711,2.198,6.282,5.083,1.570,0.000,0.000,-1.218,-7.102,0.990,5.699,4.707,4.715,
11.700,16.800,-1.007,-7.634,2.557,1.010,6.266,2.362,0.000,2.599,1.353,1.439,4.804,0.000,1.805,0.865,3.693,0.000,3.071,0.000,0.000,0.000,0.000,0.000,0.000,0.000,0.000,0.000,0.000,0.000,3.142,6.282,0.000,1.004,1.569,1.569,4.085,6.281,1.199,4.712,0.000,0.000,-1.680,-7.583,0.990,5.699,4.707,4.715,5.281,4.711,4.711,2.198,6.282,5.083,1.570,0.000,0.000,-1.318,-7.036,0.990,5.699,4.707,4.715,
11.782,16.883,-1.074,-7.590,2.558,1.011,6.266,2.283,0.000,2.350,1.614,1.447,4.883,0.000,1.735,0.819,3.508,0.000,3.106,0.000,0.000,0.000,0.000,0.000,0.000,0.000,0.000,0.000,0.000,0.000,3.142,6.282,0.000,1.004,1.569,1.569,4.085,6.281,1.199,4.712,0.000,0.000,-1.746,-7.540,0.990,5.700,4.707,4.715,5.281,4.711,4.711,2.198,6.282,5.083,1.570,0.000,0.000,-1.385,-6.992,0.990,5.700,4.707,4.715,
11.900,17.000,-1.173,-7.524,2.558,1.012,6.265,2.164,0.000,2.384,1.681,1.460,0.000,0.000,0.933,0.751,3.230,0.000,3.142,0.000,0.000,0.000,0.000,0.000,0.000,0.000,0.000,0.000,0.000,0.000,3.142,6.282,0.000,1.004,1.569,1.569,4.085,6.281,1.199,4.712,0.000,0.000,-1.846,-7.474,0.990,5.700,4.707,4.715,5.281,4.711,4.711,2.198,6.282,5.083,1.570,0.000,0.000,-1.485,-6.927,0.990,5.700,4.707,4.715,
11.987,17.087,-1.240,-7.481,2.558,1.012,6.266,2.085,0.000,2.364,1.726,1.468,0.000,0.000,0.938,0.950,3.045,0.000,3.142,0.000,0.000,0.000,0.000,0.000,0.000,0.000,0.000,0.000,0.000,0.000,3.142,6.282,0.000,1.004,1.569,1.569,4.085,6.281,1.199,4.712,0.000,0.000,-1.913,-7.431,0.990,5.700,4.707,4.715,5.281,4.711,4.711,2.198,6.282,5.083,1.570,0.000,0.000,-1.551,-6.883,0.990,5.700,4.707,4.715,
12.100,17.200,-1.336,-7.417,2.532,0.942,5.536,2.004,0.000,2.543,1.804,1.432,0.000,0.000,1.506,1.209,2.978,0.000,3.142,0.000,0.000,0.000,0.000,0.000,0.000,0.000,0.000,0.000,0.000,0.000,3.142,6.281,0.001,1.004,1.568,1.566,4.084,6.281,1.199,4.711,0.000,0.000,-2.009,-7.351,0.990,5.678,4.707,4.714,5.281,4.710,4.708,2.197,6.282,5.083,1.570,0.000,0.000,-1.634,-6.813,0.990,5.678,4.706,4.715,
12.196,17.296,-1.410,-7.363,2.430,0.926,4.881,2.068,4.799,2.185,3.793,1.291,0.000,0.000,1.646,1.095,0.000,0.000,3.142,0.000,0.000,0.000,0.000,0.000,0.000,0.000,0.000,0.000,0.000,0.000,3.142,6.280,0.001,1.005,1.568,1.566,4.085,6.281,1.199,4.712,0.000,0.000,-2.072,-7.229,0.990,5.575,4.706,4.715,5.282,4.711,4.709,2.197,6.282,5.083,1.570,0.000,0.000,-1.644,-6.731,0.991,5.574,4.707,4.715,
12.300,17.400,-1.479,-7.301,2.313,0.959,5.120,2.210,4.200,1.969,3.252,1.534,0.000,0.000,1.902,0.997,4.428,0.000,3.142,0.000,0.000,0.000,0.000,0.000,0.000,0.000,0.000,0.000,0.000,0.000,3.142,6.280,0.001,1.004,1.569,1.568,4.085,6.281,1.199,4.712,0.000,0.000,-2.120,-7.089,0.990,5.456,4.705,4.716,5.282,4.711,4.710,2.197,6.282,5.083,1.570,0.000,0.000,-1.636,-6.645,0.991,5.455,4.707,4.715,
12.400,17.500,-1.542,-7.229,2.227,0.970,5.424,2.338,2.781,4.942,2.692,1.931,0.000,0.000,2.133,0.979,3.771,0.000,3.142,0.000,0.000,0.000,0.000,0.000,0.000,0.000,0.000,0.000,0.000,0.000,3.142,6.281,0.001,1.004,1.569,1.568,4.085,6.281,1.199,4.712,0.000,0.000,-2.162,-6.963,0.990,5.370,4.704,4.717,5.282,4.711,4.711,2.197,6.282,5.083,1.570,0.000,0.000,-1.642,-6.563,0.991,5.369,4.705,4.717,
12.492,17.592,-1.598,-7.153,2.151,0.954,5.355,2.492,1.599,4.742,2.321,2.004,0.000,0.000,2.424,0.973,3.828,0.000,3.142,0.000,0.000,0.000,0.000,0.000,0.000,0.000,0.000,0.000,0.000,0.000,3.142,6.281,0.001,1.004,1.569,1.567,4.085,6.281,1.199,4.712,0.000,0.000,-2.197,-6.841,0.990,5.295,4.704,4.718,5.282,4.711,4.710,2.197,6.282,5.083,1.570,0.000,0.000,-1.648,-6.481,0.990,5.294,4.704,4.718,
12.600,17.700,-1.648,-7.074,2.063,0.944,5.232,2.770,1.487,0.000,2.386,2.094,1.982,4.760,3.118,0.951,4.311,0.000,1.316,0.000,0.000,0.000,0.000,0.000,0.000,0.000,0.000,0.000,0.000,0.000,3.142,6.280,0.001,1.004,1.568,1.567,4.085,6.281,1.199,4.712,0.000,0.000,-2.217,-6.711,0.990,5.207,4.702,4.720,5.282,4.711,4.710,2.197,6.282,5.083,1.570,0.000,0.000,-1.639,-6.400,0.991,5.206,4.703,4.719,
12.696,17.797,-1.682,-7.008,1.990,0.953,5.240,2.326,1.504,0.000,2.165,4.336,1.844,4.937,1.179,0.931,3.528,0.000,1.422,0.000,0.000,0.000,0.000,0.000,0.000,0.000,0.000,0.000,0.000,0.000,3.142,6.280,0.001,1.004,1.569,1.567,4.085,6.281,1.199,4.712,0.000,0.000,-2.223,-6.604,0.990,5.133,4.701,4.722,5.282,4.711,4.710,2.197,6.282,5.083,1.570,0.000,0.000,-1.624,-6.337,0.991,5.133,4.702,4.721,
12.800,17.900,-1.725,-6.903,1.884,0.961,5.295,2.118,1.553,4.476,1.964,4.163,1.836,0.000,1.215,0.907,3.128,0.000,2.685,0.000,0.000,0.000,0.000,0.000,0.000,0.000,0.000,0.000,0.000,0.000,3.142,6.281,0.001,1.004,1.569,1.567,4.085,6.281,1.199,4.712,0.000,0.000,-2.221,-6.445,0.990,5.027,4.697,4.726,5.282,4.711,4.710,2.197,6.282,5.083,1.570,0.000,0.000,-1.596,-6.242,0.991,5.027,4.698,4.725,
12.898,17.998,-1.753,-6.813,1.798,0.954,5.298,2.466,1.623,0.000,4.658,3.453,2.099,0.000,1.246,0.887,3.318,0.000,2.791,0.000,0.000,0.000,0.000,0.000,0.000,0.000,0.000,0.000,0.000,0.000,3.142,6.281,0.001,1.004,1.568,1.567,4.085,6.281,1.199,4.712,0.000,0.000,-2.207,-6.314,0.990,4.942,4.691,4.732,5.282,4.711,4.710,2.197,6.282,5.083,1.570,0.000,0.000,-1.567,-6.165,0.991,4.941,4.693,4.730,
13.000,18.100,-1.772,-6.723,1.745,0.920,6.126,4.524,1.675,1.342,4.514,2.992,2.326,0.000,1.273,0.882,2.983,0.000,2.861,0.000,0.000,0.000,0.000,0.000,0.000,0.000,0.000,0.000,0.000,0.000,3.142,6.282,0.000,1.004,1.570,1.571,4.085,6.281,1.199,4.712,0.000,0.000,-2.196,-6.199,0.990,4.884,4.683,4.741,5.282,4.712,4.713,2.198,6.281,5.083,1.571,0.000,0.000,-1.550,-6.086,0.991,4.884,4.687,4.737,
13.097,18.197,-1.784,-6.653,1.744,0.902,6.260,4.452,1.658,1.318,4.759,2.661,2.398,0.000,0.794,0.896,3.011,0.000,2.861,0.000,0.000,0.000,0.000,0.000,0.000,0.000,0.000,0.000,0.000,0.000,3.142,6.283,0.000,1.003,1.569,1.569,4.085,6.281,1.199,4.712,0.000,0.000,-2.210,-6.129,0.990,4.886,4.684,4.739,5.281,4.711,4.711,2.198,6.282,5.083,1.570,0.000,0.000,-1.564,-6.016,0.990,4.886,4.687,4.737,
13.200,18.300,-1.803,-6.547,1.745,0.923,6.262,4.345,1.632,1.205,4.966,2.921,2.503,0.000,0.813,1.484,3.059,0.000,2.861,0.000,0.000,0.000,0.000,0.000,0.000,0.000,0.000,0.000,0.000,0.000,3.142,6.282,0.000,1.004,1.569,1.569,4.085,6.281,1.199,4.712,0.000,0.000,-2.229,-6.024,0.990,4.887,4.685,4.738,5.281,4.711,4.711,2.198,6.282,5.083,1.570,0.000,0.000,-1.583,-5.910,0.990,4.887,4.687,4.737,
13.298,18.398,-1.816,-6.474,1.744,0.976,6.145,4.270,1.616,1.192,0.000,2.881,2.581,0.000,0.826,1.497,3.081,0.000,2.861,0.000,0.000,0.000,0.000,0.000,0.000,0.000,0.000,0.000,0.000,0.000,3.142,6.281,0.000,1.005,1.568,1.568,4.083,6.281,1.199,4.712,0.000,0.000,-2.242,-5.951,0.990,4.888,4.689,4.734,5.281,4.710,4.710,2.197,6.282,5.083,1.570,0.000,0.000,-1.596,-5.837,0.990,4.888,4.683,4.740,
13.400,18.500,-1.835,-6.354,1.672,1.059,5.050,4.242,1.708,1.186,4.903,3.008,2.817,0.000,0.857,1.466,2.719,0.000,2.966,0.000,0.000,0.000,0.000,0.000,0.000,0.000,0.000,0.000,0.000,0.000,3.142,6.280,0.001,1.005,1.568,1.565,4.084,6.281,1.199,4.711,0.000,0.000,-2.224,-5.802,0.990,4.818,4.669,4.754,5.282,4.710,4.708,2.197,6.282,5.083,1.570,0.000,0.000,-1.571,-5.735,0.990,4.817,4.667,4.756,
13.500,18.600,-1.843,-6.252,1.562,1.014,5.386,3.046,1.936,1.210,0.000,2.471,2.906,0.000,0.890,1.413,2.216,0.000,3.071,0.000,0.000,0.000,0.000,0.000,0.000,0.000,0.000,0.000,0.000,0.000,3.142,6.281,0.001,1.004,1.569,1.570,4.086,6.280,1.199,4.712,0.000,0.000,-2.166,-5.660,0.990,4.723,2.079,1.062,5.282,4.712,4.712,2.198,6.281,5.083,1.571,0.000,0.000,-1.510,-5.665,0.991,4.723,1.918,1.223,
13.600,18.700,-1.842,-6.173,1.538,0.988,0.003,2.843,1.560,1.221,1.326,2.391,2.986,0.000,0.896,1.401,2.142,0.000,3.106,0.000,0.000,0.000,0.000,0.000,0.000,0.000,0.000,0.000,0.000,0.000,3.142,6.283,0.000,1.003,1.570,1.571,4.085,6.280,1.199,4.712,0.000,0.000,-2.149,-5.573,0.990,4.748,1.709,1.432,5.281,4.712,4.713,2.198,6.281,5.083,1.571,0.000,0.000,-1.494,-5.595,0.991,4.748,1.688,1.454,
13.700,18.800,-1.838,-6.056,1.539,1.010,6.269,2.730,1.418,1.224,1.220,2.526,3.103,0.000,0.892,1.346,2.141,0.000,3.106,0.000,0.000,0.000,0.000,0.000,0.000,0.000,0.000,0.000,0.000,0.000,3.142,6.283,0.000,1.003,1.569,1.569,4.085,6.281,1.199,4.712,0.000,0.000,-2.148,-5.457,0.990,4.744,1.722,1.419,5.281,4.711,4.711,2.198,6.282,5.083,1.570,0.000,0.000,-1.492,-5.477,0.990,4.744,1.706,1.435,
13.793,18.893,-1.835,-5.956,1.540,1.024,6.265,2.631,1.296,1.227,1.224,2.648,3.203,0.000,0.888,1.343,2.222,0.000,3.106,0.000,0.000,0.000,0.000,0.000,0.000,0.000,0.000,0.000,0.000,0.000,3.142,6.283,0.000,1.003,1.569,1.569,4.085,6.281,1.199,4.712,0.000,0.000,-2.146,-5.357,0.990,4.743,1.730,1.411,5.281,4.711,4.711,2.198,6.282,5.083,1.570,0.000,0.000,-1.490,-5.377,0.990,4.743,1.713,1.428,
13.900,19.000,-1.832,-5.855,1.532,1.013,5.880,2.494,1.166,1.234,1.224,2.788,3.304,0.000,0.893,4.694,2.193,0.000,3.106,0.000,0.000,0.000,0.000,0.000,0.000,0.000,0.000,0.000,0.000,0.000,3.142,6.281,0.001,1.004,1.568,1.566,4.084,6.281,1.199,4.712,0.000,0.000,-2.140,-5.254,0.990,4.748,1.699,1.442,5.281,4.710,4.709,2.197,6.282,5.083,1.570,0.000,0.000,-1.484,-5.279,0.990,4.748,1.720,1.421,
14.000,19.100,-1.827,-5.756,1.464,1.007,5.414,2.351,1.013,1.272,1.206,0.000,0.000,0.000,0.999,4.686,2.010,0.000,3.142,0.000,0.000,0.000,0.000,0.000,0.000,0.000,0.000,0.000,0.000,0.000,3.142,6.281,0.001,1.004,1.569,1.568,4.085,6.281,1.199,4.712,0.000,0.000,-2.092,-5.136,0.990,4.817,1.617,1.523,5.282,4.711,4.710,2.197,6.282,5.083,1.570,0.000,0.000,-1.439,-5.205,0.991,4.818,1.613,1.528,
14.088,19.188,-1.818,-5.677,1.427,1.011,6.086,2.336,1.100,1.303,1.206,0.000,0.000,0.000,1.102,4.676,1.843,0.000,3.142,0.000,0.000,0.000,0.000,0.000,0.000,0.000,0.000,0.000,0.000,0.000,3.142,6.282,0.000,1.004,1.570,1.571,4.085,6.281,1.199,4.712,0.000,0.000,-2.057,-5.047,0.990,4.858,1.604,1.538,5.282,4.712,4.713,2.198,6.281,5.083,1.571,0.000,0.000,-1.408,-5.141,0.991,4.858,1.599,1.542,
14.200,19.300,-1.801,-5.559,1.426,1.012,6.262,2.219,1.136,1.322,1.223,0.000,0.000,0.000,1.446,4.619,1.890,0.000,3.142,0.000,0.000,0.000,0.000,0.000,0.000,0.000,0.000,0.000,0.000,0.000,3.142,6.283,0.000,1.004,1.569,1.569,4.085,6.281,1.199,4.712,0.000,0.000,-2.041,-4.929,0.990,4.857,1.604,1.537,5.281,4.711,4.711,2.198,6.282,5.083,1.570,0.000,0.000,-1.392,-5.023,0.990,4.857,1.602,1.540,
14.300,19.400,-1.789,-5.480,1.427,1.012,6.262,2.140,1.159,1.334,1.235,0.000,0.000,0.000,1.433,4.581,1.874,0.000,3.142,0.000,0.000,0.000,0.000,0.000,0.000,0.000,0.000,0.000,0.000,0.000,3.142,6.282,0.000,1.004,1.569,1.569,4.085,6.281,1.199,4.712,0.000,0.000,-2.030,-4.850,0.990,4.856,1.604,1.537,5.281,4.711,4.711,2.198,6.282,5.083,1.570,0.000,0.000,-1.381,-4.944,0.990,4.856,1.602,1.539,
14.400,19.500,-1.775,-5.382,1.427,1.012,6.263,2.041,1.187,1.148,1.250,0.000,0.000,0.000,1.416,4.532,1.855,0.000,3.142,0.000,0.000,0.000,0.000,0.000,0.000,0.000,0.000,0.000,0.000,0.000,3.142,6.282,0.000,1.004,1.569,1.569,4.085,6.281,1.199,4.712,0.000,0.000,-2.016,-4.752,0.990,4.856,1.604,1.537,5.281,4.711,4.711,2.198,6.282,5.083,1.570,0.000,0.000,-1.367,-4.845,0.990,4.856,1.602,1.539,
14.500,19.600,-1.758,-5.264,1.428,1.012,6.263,1.922,1.220,0.868,1.267,0.000,0.000,1.620,1.397,4.475,1.832,0.000,3.142,0.000,0.000,0.000,0.000,0.000,0.000,0.000,0.000,0.000,0.000,0.000,3.142,6.282,0.000,1.004,1.569,1.569,4.085,6.281,1.199,4.712,0.000,0.000,-2.000,-4.634,0.990,4.855,1.605,1.536,5.281,4.711,4.711,2.198,6.282,5.083,1.570,0.000,0.000,-1.350,-4.727,0.990,4.855,1.602,1.539,
14.591,19.692,-1.747,-5.185,1.428,1.012,6.264,1.843,2.581,0.680,1.279,0.000,0.000,1.595,1.384,4.436,1.816,0.000,3.142,0.000,0.000,0.000,0.000,0.000,0.000,0.000,0.000,0.000,0.000,0.000,3.142,6.282,0.000,1.004,1.569,1.569,4.085,6.281,1.199,4.712,0.000,0.000,-1.988,-4.555,0.990,4.855,1.605,1.536,5.281,4.711,4.711,2.198,6.282,5.083,1.570,0.000,0.000,-1.339,-4.648,0.990,4.854,1.603,1.539,
14.700,19.800,-1.730,-5.068,1.430,0.946,0.060,1.724,2.610,0.682,1.296,1.888,0.000,1.555,1.309,4.379,1.794,0.000,3.142,0.000,0.000,0.000,0.000,0.000,0.000,0.000,0.000,0.000,0.000,0.000,3.142,0.001,0.000,1.002,1.570,1.570,4.087,6.281,1.200,4.712,0.000,0.000,-1.972,-4.438,0.990,4.855,1.612,1.529,5.281,4.712,4.712,2.199,6.282,5.083,1.570,0.000,0.000,-1.322,-4.531,0.990,4.854,1.600,1.541,
14.800,19.900,-1.719,-4.989,1.471,0.687,1.008,1.597,2.452,0.682,1.319,2.161,0.000,1.423,1.309,4.470,1.419,0.000,3.142,0.000,0.000,0.000,0.000,0.000,0.000,0.000,0.000,0.000,0.000,0.000,3.142,0.002,0.000,1.002,1.571,1.573,4.088,6.281,1.199,4.712,0.000,0.000,-1.985,-4.370,0.990,4.817,1.629,1.513,5.281,4.713,4.715,2.199,6.281,5.083,1.571,0.000,0.000,-1.332,-4.436,0.991,4.816,1.602,1.539,
14.900,20.000,-1.715,-4.927,1.566,0.623,0.788,1.486,2.138,0.664,1.362,0.000,4.230,1.521,4.807,1.430,1.508,0.000,3.071,0.000,0.000,0.000,0.000,0.000,0.000,0.000,0.000,0.000,0.000,0.000,3.142,0.001,0.000,1.003,1.569,1.567,4.085,6.282,1.199,4.712,0.000,0.000,-2.042,-4.336,0.990,4.717,2.807,0.333,5.282,4.711,4.710,2.198,6.283,5.083,1.570,0.000,0.000,-1.386,-4.339,0.991,4.717,2.578,0.562,
15.000,20.100,-1.715,-4.864,1.585,0.676,6.279,1.473,2.085,0.660,1.371,0.000,4.294,1.621,0.000,1.236,1.412,0.000,3.036,0.000,0.000,0.000,0.000,0.000,0.000,0.000,0.000,0.000,0.000,0.000,3.142,6.282,0.000,1.004,1.569,1.568,4.084,6.281,1.199,4.712,0.000,0.000,-2.053,-4.280,0.990,4.729,4.448,4.976,5.281,4.711,4.710,2.197,6.282,5.083,1.570,0.000,0.000,-1.397,-4.269,0.990,4.729,4.426,4.998,
15.086,20.186,-1.716,-4.827,1.586,0.307,6.265,1.436,2.083,0.659,1.371,0.000,4.330,1.668,0.000,1.236,1.367,0.000,3.036,0.000,0.000,0.000,0.000,0.000,0.000,0.000,0.000,0.000,0.000,0.000,3.142,0.001,0.001,1.002,1.570,1.571,4.088,6.281,1.200,4.712,0.000,0.000,-2.052,-4.242,0.989,4.727,4.238,5.186,5.281,4.712,4.713,2.198,6.282,5.083,1.570,0.000,0.000,-1.396,-4.233,0.990,4.727,4.376,5.048,
15.198,20.298,-1.716,-4.810,1.586,0.051,6.267,1.420,2.081,0.658,1.371,0.000,4.348,1.690,0.000,1.237,1.346,0.000,3.036,0.000,0.000,0.000,0.000,0.000,0.000,0.000,0.000,0.000,0.000,0.000,3.142,6.283,0.001,1.003,1.570,1.570,4.086,6.281,1.199,4.712,0.000,0.000,-2.054,-4.226,0.990,4.729,4.363,5.061,5.281,4.711,4.712,2.198,6.282,5.083,1.570,0.000,0.000,-1.398,-4.215,0.990,4.729,4.420,5.004,
15.300,20.400,-1.715,-4.840,1.584,-0.709,6.134,1.443,2.089,0.660,1.370,0.000,4.318,1.649,0.000,1.235,1.384,0.000,3.036,0.000,0.000,0.000,0.000,0.000,0.000,0.000,0.000,0.000,0.000,0.000,3.142,0.005,0.001,0.998,1.573,1.574,4.095,6.281,1.200,4.712,0.000,0.000,-2.048,-4.252,0.989,4.725,3.785,5.638,5.280,4.714,4.716,2.199,6.282,5.083,1.570,0.000,0.000,-1.392,-4.247,0.990,4.722,4.249,5.175,
15.398,20.499,-1.714,-4.948,1.576,-1.396,6.270,1.532,1.045,0.663,1.368,0.000,4.209,1.505,4.881,4.112,1.524,0.000,3.036,0.000,0.000,0.000,0.000,0.000,0.000,0.000,0.000,0.000,0.000,0.000,3.142,0.003,0.001,1.001,1.571,1.573,4.090,6.281,1.200,4.712,0.000,0.000,-2.043,-4.359,0.989,4.720,3.262,6.162,5.280,4.713,4.714,2.199,6.282,5.083,1.570,0.000,0.000,-1.387,-4.357,0.990,4.717,3.488,5.936,
15.500,20.600,-1.713,-5.082,1.576,-1.198,6.276,1.672,1.046,0.664,1.369,3.635,4.075,1.338,1.448,4.112,1.687,0.000,3.036,0.000,0.000,0.000,0.000,0.000,0.000,0.000,0.000,0.000,0.000,0.000,3.142,6.281,6.283,1.005,1.569,1.568,4.082,6.281,1.199,4.712,0.000,0.000,-2.046,-4.496,0.990,4.720,4.291,5.133,5.281,4.711,4.710,2.199,6.282,5.083,1.570,0.000,0.000,-1.390,-4.491,0.991,4.720,4.187,5.237,
15.600,20.700,-1.713,-5.178,1.576,-0.810,6.276,1.771,1.047,0.992,1.369,3.519,3.979,1.219,1.218,4.112,1.567,0.000,3.036,0.000,0.000,0.000,0.000,0.000,0.000,0.000,0.000,0.000,0.000,0.000,3.142,6.282,0.000,1.004,1.569,1.569,4.084,6.281,1.199,4.712,0.000,0.000,-2.045,-4.591,0.990,4.720,4.147,5.277,5.281,4.711,4.711,2.199,6.282,5.083,1.570,0.000,0.000,-1.389,-4.587,0.990,4.720,4.142,5.282,
15.700,20.800,-1.712,-5.242,1.577,-0.871,6.274,1.838,1.047,1.341,1.370,3.442,3.915,1.202,1.217,4.112,1.615,0.000,3.036,0.000,0.000,0.000,0.000,0.000,0.000,0.000,0.000,0.000,0.000,0.000,3.142,0.001,0.000,1.002,1.570,1.570,4.087,6.281,1.200,4.712,0.000,0.000,-2.043,-4.654,0.990,4.720,3.765,5.659,5.280,4.712,4.713,2.199,6.282,5.083,1.570,0.000,0.000,-1.387,-4.651,0.990,4.719,3.981,5.443,
15.800,20.900,-1.711,-5.361,1.577,-1.118,6.275,1.963,1.047,1.342,1.371,3.297,3.796,1.200,1.268,4.215,2.121,0.000,3.036,0.000,0.000,0.000,0.000,0.000,0.000,0.000,0.000,0.000,0.000,0.000,3.142,0.001,0.000,1.002,1.570,1.570,4.087,6.281,1.200,4.712,0.000,0.000,-2.043,-4.774,0.990,4.720,3.854,5.570,5.280,4.712,4.712,2.199,6.282,5.083,1.570,0.000,0.000,-1.387,-4.770,0.990,4.719,4.048,5.377,
15.900,21.000,-1.711,-5.449,1.577,-1.082,6.275,2.054,1.048,1.342,1.372,3.191,3.708,1.198,1.268,4.481,2.121,0.000,3.036,0.000,0.000,0.000,0.000,0.000,0.000,0.000,0.000,0.000,0.000,0.000,3.142,6.283,0.000,1.004,1.569,1.569,4.085,6.281,1.199,4.712,0.000,0.000,-2.043,-4.862,0.990,4.720,4.076,5.347,5.281,4.711,4.712,2.199,6.282,5.083,1.570,0.000,0.000,-1.387,-4.858,0.990,4.720,4.155,5.270,
16.000,21.100,-1.710,-5.568,1.578,-0.956,6.275,2.178,1.049,1.343,1.373,3.047,3.589,1.196,1.267,0.000,2.120,0.000,3.036,0.000,0.000,0.000,0.000,0.000,0.000,0.000,0.000,0.000,0.000,0.000,3.142,6.283,0.000,1.003,1.569,1.570,4.085,6.281,1.199,4.712,0.000,0.000,-2.043,-4.981,0.990,4.721,4.069,5.355,5.281,4.711,4.712,2.199,6.282,5.083,1.570,0.000,0.000,-1.387,-4.977,0.990,4.720,4.163,5.261,
16.100,21.200,-1.710,-5.644,1.578,-0.977,6.275,2.257,1.049,1.344,1.373,2.955,3.514,1.195,1.266,0.000,2.120,0.000,3.036,0.000,0.000,0.000,0.000,0.000,0.000,0.000,0.000,0.000,0.000,0.000,3.142,0.000,0.000,1.003,1.570,1.570,4.086,6.281,1.199,4.712,0.000,0.000,-2.042,-5.056,0.990,4.721,4.001,5.423,5.280,4.712,4.712,2.199,6.282,5.083,1.570,0.000,0.000,-1.386,-5.052,0.990,4.720,4.148,5.276,
16.200,21.300,-1.709,-5.763,1.578,-1.041,6.275,2.383,1.090,1.344,1.375,2.811,3.394,1.193,1.265,4.538,2.120,0.000,3.036,0.000,0.000,0.000,0.000,0.000,0.000,0.000,0.000,0.000,0.000,0.000,3.142,0.000,0.000,1.003,1.570,1.570,4.086,6.281,1.199,4.712,0.000,0.000,-2.041,-5.176,0.990,4.721,4.049,5.374,5.280,4.712,4.712,2.199,6.282,5.083,1.570,0.000,0.000,-1.385,-5.172,0.990,4.721,4.183,5.241,
16.300,21.400,-1.708,-5.845,1.579,-1.029,6.275,2.468,1.194,1.345,1.375,2.776,3.312,0.000,1.062,4.565,2.120,0.000,3.036,0.000,0.000,0.000,0.000,0.000,0.000,0.000,0.000,0.000,0.000,0.000,3.142,6.283,0.000,1.003,1.570,1.570,4.086,6.281,1.199,4.712,0.000,0.000,-2.041,-5.258,0.990,4.721,4.114,5.310,5.281,4.712,4.712,2.199,6.282,5.083,1.570,0.000,0.000,-1.385,-5.253,0.990,4.721,4.216,5.208,
16.400,21.500,-1.707,-5.964,1.579,-0.997,6.275,2.593,1.344,1.346,1.377,2.780,3.193,0.000,0.743,1.224,2.119,0.000,3.036,0.000,0.000,0.000,0.000,0.000,0.000,0.000,0.000,0.000,0.000,0.000,3.142,0.000,0.000,1.003,1.570,1.570,4.086,6.281,1.199,4.712,0.000,0.000,-2.040,-5.377,0.990,4.722,4.133,5.291,5.281,4.712,4.712,2.199,6.282,5.083,1.570,0.000,0.000,-1.384,-5.372,0.990,4.721,4.237,5.187,
16.500,21.600,-1.706,-6.043,1.579,-1.003,6.275,2.676,1.444,1.346,1.490,2.782,3.115,0.000,0.742,1.224,2.031,0.000,3.001,0.000,0.000,0.000,0.000,0.000,0.000,0.000,0.000,0.000,0.000,0.000,3.142,0.000,0.000,1.003,1.570,1.570,4.086,6.281,1.199,4.712,0.000,0.000,-2.040,-5.456,0.990,4.722,4.129,5.295,5.280,4.712,4.712,2.199,6.282,5.083,1.570,0.000,0.000,-1.384,-5.451,0.990,4.721,4.245,5.179,
16.600,21.700,-1.705,-6.162,1.580,-1.020,6.275,2.801,1.596,1.347,0.000,2.786,2.995,0.000,0.741,1.276,2.050,0.000,3.001,0.000,0.000,0.000,0.000,0.000,0.000,0.000,0.000,0.000,0.000,0.000,3.142,0.000,0.000,1.003,1.570,1.570,4.086,6.281,1.199,4.712,0.000,0.000,-2.039,-5.576,0.990,4.722,4.158,5.266,5.281,4.712,4.712,2.199,6.282,5.083,1.570,0.000,0.000,-1.383,-5.570,0.990,4.722,4.267,5.157,
16.700,21.800,-1.705,-6.242,1.580,-1.016,6.275,2.886,1.697,1.348,0.000,2.788,2.915,0.000,0.740,1.275,2.147,0.000,3.001,0.000,0.000,0.000,0.000,0.000,0.000,0.000,0.000,0.000,0.000,0.000,3.142,0.000,0.000,1.003,1.570,1.570,4.086,6.281,1.199,4.712,0.000,0.000,-2.038,-5.656,0.990,4.723,4.183,5.241,5.281,4.712,4.712,2.199,6.282,5.083,1.570,0.000,0.000,-1.382,-5.650,0.990,4.722,4.283,5.141,
16.800,21.900,-1.704,-6.361,1.581,-1.008,6.275,3.011,1.849,1.349,0.000,2.792,2.796,0.000,0.739,1.274,2.291,0.000,3.001,0.000,0.000,0.000,0.000,0.000,0.000,0.000,0.000,0.000,0.000,0.000,3.142,0.000,0.000,1.003,1.570,1.570,4.086,6.281,1.199,4.712,0.000,0.000,-2.038,-5.775,0.990,4.723,4.200,5.224,5.281,4.712,4.712,2.199,6.282,5.083,1.570,0.000,0.000,-1.382,-5.769,0.990,4.723,4.299,5.125,
16.900,22.000,-1.703,-6.441,1.581,-1.010,6.275,3.095,2.117,1.350,0.000,2.795,2.716,0.000,0.738,0.747,4.757,0.000,3.001,0.000,0.000,0.000,0.000,0.000,0.000,0.000,0.000,0.000,0.000,0.000,3.142,0.000,0.000,1.003,1.570,1.570,4.086,6.281,1.199,4.712,0.000,0.000,-2.037,-5.855,0.990,4.723,4.209,5.215,5.281,4.712,4.712,2.199,6.282,5.083,1.570,0.000,0.000,-1.381,-5.849,0.990,4.723,4.309,5.115,
17.000,22.100,-1.702,-6.560,1.581,-1.014,6.275,3.220,2.118,1.351,0.000,2.799,2.597,0.000,0.737,0.746,4.758,0.000,3.001,0.000,0.000,0.000,0.000,0.000,0.000,0.000,0.000,0.000,0.000,0.000,3.142,0.000,0.000,1.003,1.570,1.570,4.086,6.281,1.199,4.712,0.000,0.000,-2.036,-5.974,0.990,4.724,4.228,5.196,5.281,4.712,4.712,2.199,6.282,5.083,1.570,0.000,0.000,-1.380,-5.968,0.990,4.723,4.325,5.100,
17.100,22.200,-1.701,-6.640,1.582,-1.013,6.275,3.304,2.119,1.352,0.000,2.833,2.517,0.000,0.000,0.745,4.759,0.000,3.001,0.000,0.000,0.000,0.000,0.000,0.000,0.000,0.000,0.000,0.000,0.000,3.142,0.000,0.000,1.003,1.570,1.570,4.086,6.281,1.199,4.712,0.000,0.000,-2.035,-6.054,0.990,4.724,4.242,5.182,5.281,4.712,4.712,2.199,6.282,5.083,1.570,0.000,0.000,-1.379,-6.047,0.990,4.724,4.335,5.089,
17.200,22.300,-1.699,-6.759,1.582,-1.011,6.275,3.430,2.120,1.353,4.884,2.689,2.398,0.000,0.000,0.744,4.759,0.000,2.018,0.000,0.000,0.000,0.000,0.000,0.000,0.000,0.000,0.000,0.000,0.000,3.142,0.000,0.000,1.003,1.570,1.570,4.086,6.281,1.199,4.712,0.000,0.000,-2.034,-6.174,0.990,4.724,4.258,5.166,5.281,4.712,4.712,2.199,6.282,5.083,1.570,0.000,0.000,-1.378,-6.167,0.990,4.724,4.348,5.076,
17.280,22.380,-1.698,-6.839,1.582,-1.011,6.275,3.514,2.121,1.354,4.767,2.593,2.318,0.000,0.000,0.743,4.842,0.000,1.983,0.000,0.000,0.000,0.000,0.000,0.000,0.000,0.000,0.000,0.000,0.000,3.142,0.000,0.000,1.003,1.570,1.570,4.086,6.281,1.199,4.712,0.000,0.000,-2.034,-6.253,0.990,4.725,4.267,5.157,5.281,4.712,4.712,2.199,6.282,5.083,1.570,0.000,0.000,-1.378,-6.246,0.990,4.724,4.356,5.068,
17.400,22.500,-1.697,-6.958,1.583,-1.012,6.275,3.640,2.122,1.464,4.780,2.449,2.199,0.000,0.000,0.742,4.986,0.000,1.843,0.000,0.000,0.000,0.000,0.000,0.000,0.000,0.000,0.000,0.000,0.000,3.142,0.000,0.000,1.003,1.570,1.570,4.086,6.281,1.199,4.712,0.000,0.000,-2.032,-6.373,0.990,4.725,4.281,5.142,5.281,4.712,4.712,2.199,6.282,5.083,1.570,0.000,0.000,-1.376,-6.365,0.990,4.725,4.368,5.056,
17.500,22.600,-1.696,-7.058,1.583,-1.012,6.275,3.745,2.123,1.465,4.827,2.364,2.100,0.000,0.000,0.785,0.000,0.000,1.808,0.000,0.000,0.000,0.000,0.000,0.000,0.000,0.000,0.000,0.000,0.000,3.142,0.000,0.000,1.003,1.570,1.570,4.086,6.281,1.199,4.712,0.000,0.000,-2.031,-6.472,0.990,4.725,4.293,5.130,5.281,4.712,4.712,2.199,6.282,5.083,1.570,0.000,0.000,-1.375,-6.465,0.990,4.725,4.378,5.046,
17.600,22.700,-1.695,-7.137,1.583,-1.011,6.275,3.829,2.123,2.330,4.865,2.366,2.020,0.000,0.000,1.025,0.000,0.000,2.966,0.000,0.000,0.000,0.000,0.000,0.000,0.000,0.000,0.000,0.000,0.000,3.142,0.000,0.000,1.003,1.570,1.570,4.086,6.281,1.199,4.712,0.000,0.000,-2.031,-6.552,0.990,4.725,4.302,5.122,5.281,4.712,4.712,2.199,6.282,5.083,1.570,0.000,0.000,-1.375,-6.544,0.990,4.725,4.385,5.039,
17.700,22.800,-1.693,-7.257,1.584,-1.012,6.275,3.956,2.125,2.635,4.922,2.184,1.901,0.000,0.000,2.284,1.231,0.000,1.773,0.000,0.000,0.000,0.000,0.000,0.000,0.000,0.000,0.000,0.000,0.000,3.142,0.000,0.000,1.003,1.570,1.570,4.086,6.281,1.199,4.712,0.000,0.000,-2.029,-6.672,0.990,4.726,4.314,5.110,5.281,4.712,4.712,2.199,6.282,5.083,1.570,0.000,0.000,-1.373,-6.663,0.990,4.726,4.395,5.029,
17.781,22.881,-1.692,-7.336,1.584,-1.012,6.275,4.040,2.126,4.669,2.195,2.373,1.821,2.030,0.000,1.253,1.230,0.000,1.738,0.000,0.000,0.000,0.000,0.000,0.000,0.000,0.000,0.000,0.000,0.000,3.142,0.000,0.000,1.003,1.570,1.570,4.086,6.281,1.199,4.712,0.000,0.000,-2.028,-6.751,0.990,4.726,4.322,5.102,5.281,4.712,4.712,2.199,6.282,5.083,1.570,0.000,0.000,-1.372,-6.743,0.990,4.726,4.402,5.023,
17.897,22.997,-1.691,-7.456,1.584,-1.012,6.275,4.167,2.127,4.670,1.849,2.378,1.702,1.770,0.000,2.879,1.228,0.000,1.702,0.000,0.000,0.000,0.000,0.000,0.000,0.000,0.000,0.000,0.000,0.000,3.142,0.000,0.000,1.003,1.570,1.570,4.086,6.281,1.199,4.712,0.000,0.000,-2.027,-6.871,0.990,4.726,4.333,5.090,5.281,4.712,4.712,2.199,6.282,5.083,1.570,0.000,0.000,-1.371,-6.862,0.990,4.726,4.411,5.013,
18.000,23.100,-1.689,-7.555,1.585,-1.012,6.275,4.272,2.129,4.069,1.665,2.382,1.602,1.553,5.000,3.176,1.226,0.000,1.702,0.000,0.000,0.000,0.000,0.000,0.000,0.000,0.000,0.000,0.000,0.000,3.142,0.000,0.000,1.003,1.570,1.570,4.086,6.281,1.199,4.712,0.000,0.000,-2.026,-6.970,0.990,4.727,4.342,5.082,5.281,4.712,4.712,2.199,6.282,5.083,1.570,0.000,0.000,-1.370,-6.962,0.990,4.727,4.418,5.006,
18.093,23.194,-1.688,-7.655,1.585,-1.012,6.275,4.377,2.130,4.070,1.667,2.385,1.503,1.335,4.896,3.472,1.224,0.000,1.667,0.000,0.000,0.000,0.000,0.000,0.000,0.000,0.000,0.000,0.000,0.000,3.142,0.000,0.000,1.003,1.570,1.570,4.086,6.281,1.199,4.712,0.000,0.000,-2.025,-7.070,0.990,4.727,4.351,5.073,5.281,4.712,4.712,2.199,6.282,5.083,1.570,0.000,0.000,-1.369,-7.061,0.990,4.727,4.425,4.999,
18.200,23.300,-1.687,-7.754,1.585,-1.012,6.275,4.483,2.131,4.620,1.669,2.389,1.403,1.117,4.773,3.767,1.222,0.000,1.667,0.000,0.000,0.000,0.000,0.000,0.000,0.000,0.000,0.000,0.000,0.000,3.142,0.000,0.000,1.003,1.570,1.570,4.086,6.281,1.199,4.712,0.000,0.000,-2.023,-7.170,0.990,4.727,4.359,5.065,5.281,4.712,4.712,2.199,6.282,5.083,1.570,0.000,0.000,-1.367,-7.160,0.990,4.727,4.432,4.992,
18.291,23.391,-1.685,-7.854,1.586,-1.012,6.275,4.589,2.133,4.992,1.670,2.393,1.304,0.926,4.477,4.062,1.278,0.000,1.632,0.000,0.000,0.000,0.000,0.000,0.000,0.000,0.000,0.000,0.000,0.000,3.142,0.000,0.000,1.003,1.570,1.570,4.086,6.281,1.199,4.712,0.000,0.000,-2.022,-7.269,0.990,4.728,4.367,5.057,5.281,4.712,4.712,2.199,6.282,5.083,1.570,0.000,0.000,-1.366,-7.260,0.990,4.728,4.438,4.986,
18.400,23.500,-1.684,-7.953,1.586,-1.012,6.275,4.695,2.134,4.692,1.672,2.397,1.204,0.871,4.474,3.048,1.398,0.000,1.597,0.000,0.000,0.000,0.000,0.000,0.000,0.000,0.000,0.000,0.000,0.000,3.142,0.000,0.000,1.003,1.570,1.570,4.086,6.281,1.199,4.712,0.000,0.000,-2.021,-7.369,0.990,4.728,4.374,5.050,5.281,4.712,4.712,2.199,6.282,5.083,1.570,0.000,0.000,-1.365,-7.359,0.990,4.728,4.444,4.980,
18.498,23.598,-1.682,-8.039,1.586,-0.587,6.277,4.785,2.136,4.693,1.674,2.400,1.118,0.823,4.473,4.611,1.502,0.000,1.562,0.000,0.000,0.000,0.000,0.000,0.000,0.000,0.000,0.000,0.000,0.000,3.142,6.280,6.283,1.006,1.568,1.567,4.080,6.281,1.199,4.712,0.000,0.000,-2.022,-7.457,0.990,4.731,4.599,4.824,5.281,4.710,4.709,2.199,6.282,5.083,1.570,0.000,0.000,-1.366,-7.445,0.991,4.731,4.505,4.919,
18.581,23.681,-1.682,-8.074,1.586,-0.206,6.277,4.823,2.136,4.693,1.674,2.402,1.083,0.803,4.472,4.716,1.545,0.000,1.562,0.000,0.000,0.000,0.000,0.000,0.000,0.000,0.000,0.000,0.000,0.000,3.142,6.282,0.000,1.004,1.569,1.569,4.083,6.281,1.199,4.712,0.000,0.000,-2.020,-7.491,0.990,4.729,4.488,4.935,5.281,4.711,4.711,2.199,6.282,5.083,1.570,0.000,0.000,-1.364,-7.480,0.990,4.729,4.476,4.948,
18.700,23.800,-1.682,-8.084,1.587,-0.033,6.269,4.834,2.136,4.693,1.675,2.403,1.073,0.798,4.472,4.743,1.556,0.000,1.562,0.000,0.000,0.000,0.000,0.000,0.000,0.000,0.000,0.000,0.000,0.000,3.142,6.283,0.000,1.004,1.569,1.569,4.085,6.281,1.199,4.712,0.000,0.000,-2.019,-7.500,0.990,4.729,4.437,4.987,5.281,4.711,4.711,2.199,6.282,5.083,1.570,0.000,0.000,-1.363,-7.490,0.990,4.729,4.468,4.956,
18.795,23.895,-1.681,-8.084,1.587,-0.001,6.268,4.835,2.136,4.693,1.675,2.403,1.073,0.798,4.472,4.743,1.556,0.000,1.562,0.000,0.000,0.000,0.000,0.000,0.000,0.000,0.000,0.000,0.000,0.000,3.142,6.283,0.000,1.003,1.569,1.569,4.085,6.281,1.199,4.712,0.000,0.000,-2.019,-7.500,0.990,4.729,4.406,5.018,5.281,4.711,4.711,2.198,6.282,5.083,1.570,0.000,0.000,-1.363,-7.490,0.990,4.729,4.449,4.975,
18.900,24.000,-1.681,-8.084,1.587,-0.001,6.268,4.835,2.136,4.693,1.675,2.403,1.073,0.798,4.472,4.743,1.556,0.000,1.562,0.000,0.000,0.000,0.000,0.000,0.000,0.000,0.000,0.000,0.000,0.000,3.142,6.283,0.000,1.003,1.569,1.569,4.085,6.281,1.199,4.712,0.000,0.000,-2.019,-7.500,0.990,4.729,4.406,5.018,5.281,4.711,4.712,2.198,6.282,5.083,1.570,0.000,0.000,-1.363,-7.490,0.990,4.729,4.449,4.975,
18.999,24.099,-1.681,-8.084,1.587,-0.001,6.268,4.835,2.136,4.693,1.675,2.403,1.073,0.798,4.472,4.743,1.556,0.000,1.562,0.000,0.000,0.000,0.000,0.000,0.000,0.000,0.000,0.000,0.000,0.000,3.142,6.283,0.000,1.003,1.569,1.569,4.085,6.281,1.199,4.712,0.000,0.000,-2.019,-7.500,0.990,4.729,4.406,5.018,5.281,4.711,4.712,2.198,6.282,5.083,1.570,0.000,0.000,-1.363,-7.490,0.990,4.729,4.449,4.975,
19.100,24.200,-1.681,-8.084,1.587,-0.001,6.268,4.835,2.136,4.693,1.675,2.403,1.073,0.798,4.472,4.743,1.556,0.000,1.562,0.000,0.000,0.000,0.000,0.000,0.000,0.000,0.000,0.000,0.000,0.000,3.142,6.283,0.000,1.003,1.569,1.569,4.085,6.281,1.199,4.712,0.000,0.000,-2.019,-7.500,0.990,4.729,4.406,5.018,5.281,4.711,4.712,2.198,6.282,5.083,1.570,0.000,0.000,-1.363,-7.490,0.990,4.729,4.449,4.975,
19.190,24.290,-1.681,-8.084,1.587,-0.001,6.268,4.835,2.136,4.693,1.675,2.403,1.073,0.798,4.472,4.743,1.556,0.000,1.562,0.000,0.000,0.000,0.000,0.000,0.000,0.000,0.000,0.000,0.000,0.000,3.142,6.283,0.000,1.003,1.569,1.569,4.085,6.281,1.199,4.712,0.000,0.000,-2.019,-7.500,0.990,4.729,4.406,5.018,5.281,4.711,4.712,2.198,6.282,5.083,1.570,0.000,0.000,-1.363,-7.490,0.990,4.729,4.449,4.975,
19.300,24.400,-1.681,-8.084,1.587,-0.001,6.268,4.835,2.136,4.693,1.675,2.403,1.073,0.798,4.472,4.743,1.556,0.000,1.562,0.000,0.000,0.000,0.000,0.000,0.000,0.000,0.000,0.000,0.000,0.000,3.142,6.283,0.000,1.003,1.569,1.569,4.085,6.281,1.199,4.712,0.000,0.000,-2.019,-7.500,0.990,4.729,4.406,5.018,5.281,4.711,4.712,2.198,6.282,5.083,1.570,0.000,0.000,-1.363,-7.490,0.990,4.729,4.449,4.975,
19.396,24.497,-1.681,-8.084,1.587,-0.001,6.268,4.835,2.136,4.693,1.675,2.403,1.073,0.798,4.472,4.743,1.556,0.000,1.562,0.000,0.000,0.000,0.000,0.000,0.000,0.000,0.000,0.000,0.000,0.000,3.142,6.283,0.000,1.003,1.569,1.569,4.085,6.281,1.199,4.712,0.000,0.000,-2.019,-7.500,0.990,4.729,4.406,5.018,5.281,4.711,4.712,2.198,6.282,5.083,1.570,0.000,0.000,-1.363,-7.490,0.990,4.729,4.449,4.975,
19.500,24.600,-1.681,-8.084,1.587,-0.001,6.268,4.835,2.136,4.693,1.675,2.403,1.073,0.798,4.472,4.743,1.556,0.000,1.562,0.000,0.000,0.000,0.000,0.000,0.000,0.000,0.000,0.000,0.000,0.000,3.142,6.283,0.000,1.003,1.569,1.569,4.085,6.281,1.199,4.712,0.000,0.000,-2.019,-7.500,0.990,4.729,4.406,5.018,5.281,4.711,4.712,2.198,6.282,5.083,1.570,0.000,0.000,-1.363,-7.490,0.990,4.729,4.449,4.975,
19.600,24.700,-1.681,-8.084,1.587,-0.001,6.268,4.835,2.136,4.693,1.675,2.403,1.073,0.798,4.472,4.743,1.556,0.000,1.562,0.000,0.000,0.000,0.000,0.000,0.000,0.000,0.000,0.000,0.000,0.000,3.142,6.283,0.000,1.003,1.569,1.569,4.085,6.281,1.199,4.712,0.000,0.000,-2.019,-7.500,0.990,4.729,4.406,5.018,5.281,4.711,4.712,2.198,6.282,5.083,1.570,0.000,0.000,-1.363,-7.490,0.990,4.729,4.449,4.975,
19.699,24.799,-1.681,-8.084,1.587,-0.001,6.268,4.835,2.136,4.693,1.675,2.403,1.073,0.798,4.472,4.743,1.556,0.000,1.562,0.000,0.000,0.000,0.000,0.000,0.000,0.000,0.000,0.000,0.000,0.000,3.142,6.283,0.000,1.003,1.569,1.569,4.085,6.281,1.199,4.712,0.000,0.000,-2.019,-7.500,0.990,4.729,4.406,5.018,5.281,4.711,4.712,2.198,6.282,5.083,1.570,0.000,0.000,-1.363,-7.490,0.990,4.729,4.449,4.975,
19.800,24.900,-1.681,-8.084,1.587,-0.001,6.268,4.835,2.136,4.693,1.675,2.403,1.073,0.798,4.472,4.743,1.556,0.000,1.562,0.000,0.000,0.000,0.000,0.000,0.000,0.000,0.000,0.000,0.000,0.000,3.142,6.283,0.000,1.003,1.569,1.569,4.085,6.281,1.199,4.712,0.000,0.000,-2.019,-7.500,0.990,4.729,4.406,5.018,5.281,4.711,4.712,2.198,6.282,5.083,1.570,0.000,0.000,-1.363,-7.490,0.990,4.729,4.449,4.975,
19.900,25.000,-1.681,-8.084,1.587,-0.001,6.268,4.835,2.136,4.693,1.675,2.403,1.073,0.798,4.472,4.743,1.556,0.000,1.562,0.000,0.000,0.000,0.000,0.000,0.000,0.000,0.000,0.000,0.000,0.000,3.142,6.283,0.000,1.003,1.569,1.569,4.085,6.281,1.199,4.712,0.000,0.000,-2.019,-7.500,0.990,4.729,4.406,5.018,5.281,4.711,4.712,2.198,6.282,5.083,1.570,0.000,0.000,-1.363,-7.490,0.990,4.729,4.449,4.975,
20.000,25.100,-1.681,-8.084,1.587,-0.001,6.268,4.835,2.136,4.693,1.675,2.403,1.073,0.798,4.472,4.743,1.556,0.000,1.562,0.000,0.000,0.000,0.000,0.000,0.000,0.000,0.000,0.000,0.000,0.000,3.142,6.283,0.000,1.003,1.569,1.569,4.085,6.281,1.199,4.712,0.000,0.000,-2.019,-7.500,0.990,4.729,4.406,5.018,5.281,4.711,4.712,2.198,6.282,5.083,1.570,0.000,0.000,-1.363,-7.490,0.990,4.729,4.449,4.975,
20.100,25.200,-1.681,-8.084,1.587,-0.001,6.268,4.835,2.136,4.693,1.675,2.403,1.073,0.798,4.472,4.743,1.556,0.000,1.562,0.000,0.000,0.000,0.000,0.000,0.000,0.000,0.000,0.000,0.000,0.000,3.142,6.283,0.000,1.003,1.569,1.569,4.085,6.281,1.199,4.712,0.000,0.000,-2.019,-7.500,0.990,4.729,4.406,5.018,5.281,4.711,4.712,2.198,6.282,5.083,1.570,0.000,0.000,-1.363,-7.490,0.990,4.729,4.449,4.975,
20.184,25.284,-1.681,-8.084,1.587,-0.001,6.268,4.835,2.136,4.693,1.675,2.403,1.073,0.798,4.472,4.743,1.556,0.000,1.562,0.000,0.000,0.000,0.000,0.000,0.000,0.000,0.000,0.000,0.000,0.000,3.142,6.283,0.000,1.003,1.569,1.569,4.085,6.281,1.199,4.712,0.000,0.000,-2.019,-7.500,0.990,4.729,4.406,5.018,5.281,4.711,4.712,2.198,6.282,5.083,1.570,0.000,0.000,-1.363,-7.490,0.990,4.729,4.449,4.975,
20.300,25.400,-1.681,-8.084,1.587,-0.001,6.268,4.835,2.136,4.693,1.675,2.403,1.073,0.798,4.472,4.743,1.556,0.000,1.562,0.000,0.000,0.000,0.000,0.000,0.000,0.000,0.000,0.000,0.000,0.000,3.142,6.283,0.000,1.003,1.569,1.569,4.085,6.281,1.199,4.712,0.000,0.000,-2.019,-7.500,0.990,4.729,4.406,5.018,5.281,4.711,4.712,2.198,6.282,5.083,1.570,0.000,0.000,-1.363,-7.490,0.990,4.729,4.449,4.975,
20.394,25.494,-1.681,-8.084,1.587,-0.001,6.268,4.835,2.136,4.693,1.675,2.403,1.073,0.798,4.472,4.743,1.556,0.000,1.562,0.000,0.000,0.000,0.000,0.000,0.000,0.000,0.000,0.000,0.000,0.000,3.142,6.283,0.000,1.003,1.569,1.569,4.085,6.281,1.199,4.712,0.000,0.000,-2.019,-7.500,0.990,4.729,4.406,5.018,5.281,4.711,4.712,2.198,6.282,5.083,1.570,0.000,0.000,-1.363,-7.490,0.990,4.729,4.449,4.975,
20.500,25.600,-1.681,-8.084,1.587,-0.001,6.268,4.835,2.136,4.693,1.675,2.403,1.073,0.798,4.472,4.743,1.556,0.000,1.562,0.000,0.000,0.000,0.000,0.000,0.000,0.000,0.000,0.000,0.000,0.000,3.142,6.283,0.000,1.003,1.569,1.569,4.085,6.281,1.199,4.712,0.000,0.000,-2.019,-7.500,0.990,4.729,4.406,5.018,5.281,4.711,4.712,2.198,6.282,5.083,1.570,0.000,0.000,-1.363,-7.490,0.990,4.729,4.449,4.975,
20.597,25.697,-1.681,-8.084,1.587,-0.001,6.268,4.835,2.136,4.693,1.675,2.403,1.073,0.798,4.472,4.743,1.556,0.000,1.562,0.000,0.000,0.000,0.000,0.000,0.000,0.000,0.000,0.000,0.000,0.000,3.142,6.283,0.000,1.003,1.569,1.569,4.085,6.281,1.199,4.712,0.000,0.000,-2.019,-7.500,0.990,4.729,4.406,5.018,5.281,4.711,4.712,2.198,6.282,5.083,1.570,0.000,0.000,-1.363,-7.490,0.990,4.729,4.449,4.975,
20.700,25.800,-1.681,-8.084,1.587,-0.001,6.268,4.835,2.136,4.693,1.675,2.403,1.073,0.798,4.472,4.743,1.556,0.000,1.562,0.000,0.000,0.000,0.000,0.000,0.000,0.000,0.000,0.000,0.000,0.000,3.142,6.283,0.000,1.003,1.569,1.569,4.085,6.281,1.199,4.712,0.000,0.000,-2.019,-7.500,0.990,4.729,4.406,5.018,5.281,4.711,4.712,2.198,6.282,5.083,1.570,0.000,0.000,-1.363,-7.490,0.990,4.729,4.449,4.975,
20.790,25.890,-1.681,-8.084,1.587,-0.001,6.268,4.835,2.136,4.693,1.675,2.403,1.073,0.798,4.472,4.743,1.556,0.000,1.562,0.000,0.000,0.000,0.000,0.000,0.000,0.000,0.000,0.000,0.000,0.000,3.142,6.283,0.000,1.003,1.569,1.569,4.085,6.281,1.199,4.712,0.000,0.000,-2.019,-7.500,0.990,4.729,4.406,5.018,5.281,4.711,4.712,2.198,6.282,5.083,1.570,0.000,0.000,-1.363,-7.490,0.990,4.729,4.449,4.975,
20.900,26.000,-1.681,-8.084,1.587,-0.001,6.268,4.835,2.136,4.693,1.675,2.403,1.073,0.798,4.472,4.743,1.556,0.000,1.562,0.000,0.000,0.000,0.000,0.000,0.000,0.000,0.000,0.000,0.000,0.000,3.142,6.283,0.000,1.003,1.569,1.569,4.085,6.281,1.199,4.712,0.000,0.000,-2.019,-7.500,0.990,4.729,4.406,5.018,5.281,4.711,4.712,2.198,6.282,5.083,1.570,0.000,0.000,-1.363,-7.490,0.990,4.729,4.449,4.975,
20.997,26.097,-1.681,-8.084,1.587,-0.001,6.268,4.835,2.136,4.693,1.675,2.403,1.073,0.798,4.472,4.743,1.556,0.000,1.562,0.000,0.000,0.000,0.000,0.000,0.000,0.000,0.000,0.000,0.000,0.000,3.142,6.283,0.000,1.003,1.569,1.569,4.085,6.281,1.199,4.712,0.000,0.000,-2.019,-7.500,0.990,4.729,4.406,5.018,5.281,4.711,4.712,2.198,6.282,5.083,1.570,0.000,0.000,-1.363,-7.490,0.990,4.729,4.449,4.975,
21.100,26.200,-1.681,-8.084,1.587,-0.001,6.268,4.835,2.136,4.693,1.675,2.403,1.073,0.798,4.472,4.743,1.556,0.000,1.562,0.000,0.000,0.000,0.000,0.000,0.000,0.000,0.000,0.000,0.000,0.000,3.142,6.283,0.000,1.003,1.569,1.569,4.085,6.281,1.199,4.712,0.000,0.000,-2.019,-7.500,0.990,4.729,4.406,5.018,5.281,4.711,4.712,2.198,6.282,5.083,1.570,0.000,0.000,-1.363,-7.490,0.990,4.729,4.449,4.975,
21.200,26.300,-1.681,-8.084,1.587,-0.001,6.268,4.835,2.136,4.693,1.675,2.403,1.073,0.798,4.472,4.743,1.556,0.000,1.562,0.000,0.000,0.000,0.000,0.000,0.000,0.000,0.000,0.000,0.000,0.000,3.142,6.283,0.000,1.003,1.569,1.569,4.085,6.281,1.199,4.712,0.000,0.000,-2.019,-7.500,0.990,4.729,4.406,5.018,5.281,4.711,4.712,2.198,6.282,5.083,1.570,0.000,0.000,-1.363,-7.490,0.990,4.729,4.449,4.975,
21.300,26.400,-1.681,-8.084,1.587,-0.001,6.268,4.835,2.136,4.693,1.675,2.403,1.073,0.798,4.472,4.743,1.556,0.000,1.562,0.000,0.000,0.000,0.000,0.000,0.000,0.000,0.000,0.000,0.000,0.000,3.142,6.283,0.000,1.003,1.569,1.569,4.085,6.281,1.199,4.712,0.000,0.000,-2.019,-7.500,0.990,4.729,4.406,5.018,5.281,4.711,4.712,2.198,6.282,5.083,1.570,0.000,0.000,-1.363,-7.490,0.990,4.729,4.449,4.975,
21.399,26.500,-1.681,-8.084,1.587,-0.001,6.268,4.835,2.136,4.693,1.675,2.403,1.073,0.798,4.472,4.743,1.556,0.000,1.562,0.000,0.000,0.000,0.000,0.000,0.000,0.000,0.000,0.000,0.000,0.000,3.142,6.283,0.000,1.003,1.569,1.569,4.085,6.281,1.199,4.712,0.000,0.000,-2.019,-7.500,0.990,4.729,4.406,5.018,5.281,4.711,4.712,2.198,6.282,5.083,1.570,0.000,0.000,-1.363,-7.490,0.990,4.729,4.449,4.975,
21.500,26.600,-1.681,-8.084,1.587,-0.001,6.268,4.835,2.136,4.693,1.675,2.403,1.073,0.798,4.472,4.743,1.556,0.000,1.562,0.000,0.000,0.000,0.000,0.000,0.000,0.000,0.000,0.000,0.000,0.000,3.142,6.283,0.000,1.003,1.569,1.569,4.085,6.281,1.199,4.712,0.000,0.000,-2.019,-7.500,0.990,4.729,4.406,5.018,5.281,4.711,4.712,2.198,6.282,5.083,1.570,0.000,0.000,-1.363,-7.490,0.990,4.729,4.449,4.975,
21.600,26.700,-1.681,-8.084,1.587,-0.001,6.268,4.835,2.136,4.693,1.675,2.403,1.073,0.798,4.472,4.743,1.556,0.000,1.562,0.000,0.000,0.000,0.000,0.000,0.000,0.000,0.000,0.000,0.000,0.000,3.142,6.283,0.000,1.003,1.569,1.569,4.085,6.281,1.199,4.712,0.000,0.000,-2.019,-7.500,0.990,4.729,4.406,5.018,5.281,4.711,4.712,2.198,6.282,5.083,1.570,0.000,0.000,-1.363,-7.490,0.990,4.729,4.449,4.975,
21.700,26.800,-1.681,-8.084,1.587,-0.001,6.268,4.835,2.136,4.693,1.675,2.403,1.073,0.798,4.472,4.743,1.556,0.000,1.562,0.000,0.000,0.000,0.000,0.000,0.000,0.000,0.000,0.000,0.000,0.000,3.142,6.283,0.000,1.003,1.569,1.569,4.085,6.281,1.199,4.712,0.000,0.000,-2.019,-7.500,0.990,4.729,4.406,5.018,5.281,4.711,4.712,2.198,6.282,5.083,1.570,0.000,0.000,-1.363,-7.490,0.990,4.729,4.449,4.975,
21.796,26.896,-1.681,-8.084,1.587,-0.001,6.268,4.835,2.136,4.693,1.675,2.403,1.073,0.798,4.472,4.743,1.556,0.000,1.562,0.000,0.000,0.000,0.000,0.000,0.000,0.000,0.000,0.000,0.000,0.000,3.142,6.283,0.000,1.003,1.569,1.569,4.085,6.281,1.199,4.712,0.000,0.000,-2.019,-7.500,0.990,4.729,4.406,5.018,5.281,4.711,4.712,2.198,6.282,5.083,1.570,0.000,0.000,-1.363,-7.490,0.990,4.729,4.449,4.975,
21.900,27.000,-1.681,-8.084,1.587,-0.001,6.268,4.835,2.136,4.693,1.675,2.403,1.073,0.798,4.472,4.743,1.556,0.000,1.562,0.000,0.000,0.000,0.000,0.000,0.000,0.000,0.000,0.000,0.000,0.000,3.142,6.283,0.000,1.003,1.569,1.569,4.085,6.281,1.199,4.712,0.000,0.000,-2.019,-7.500,0.990,4.729,4.406,5.018,5.281,4.711,4.712,2.198,6.282,5.083,1.570,0.000,0.000,-1.363,-7.490,0.990,4.729,4.449,4.975,
22.000,27.100,-1.681,-8.084,1.587,-0.001,6.268,4.835,2.136,4.693,1.675,2.403,1.073,0.798,4.472,4.743,1.556,0.000,1.562,0.000,0.000,0.000,0.000,0.000,0.000,0.000,0.000,0.000,0.000,0.000,3.142,6.283,0.000,1.003,1.569,1.569,4.085,6.281,1.199,4.712,0.000,0.000,-2.019,-7.500,0.990,4.729,4.406,5.018,5.281,4.711,4.712,2.198,6.282,5.083,1.570,0.000,0.000,-1.363,-7.490,0.990,4.729,4.449,4.975,
22.100,27.200,-1.681,-8.084,1.587,-0.001,6.268,4.835,2.136,4.693,1.675,2.403,1.073,0.798,4.472,4.743,1.556,0.000,1.562,0.000,0.000,0.000,0.000,0.000,0.000,0.000,0.000,0.000,0.000,0.000,3.142,6.283,0.000,1.003,1.569,1.569,4.085,6.281,1.199,4.712,0.000,0.000,-2.019,-7.500,0.990,4.729,4.406,5.018,5.281,4.711,4.712,2.198,6.282,5.083,1.570,0.000,0.000,-1.363,-7.490,0.990,4.729,4.449,4.975,
22.200,27.300,-1.681,-8.084,1.587,-0.001,6.268,4.835,2.136,4.693,1.675,2.403,1.073,0.798,4.472,4.743,1.556,0.000,1.562,0.000,0.000,0.000,0.000,0.000,0.000,0.000,0.000,0.000,0.000,0.000,3.142,6.283,0.000,1.003,1.569,1.569,4.085,6.281,1.199,4.712,0.000,0.000,-2.019,-7.500,0.990,4.729,4.406,5.018,5.281,4.711,4.712,2.198,6.282,5.083,1.570,0.000,0.000,-1.363,-7.490,0.990,4.729,4.449,4.975,
22.283,27.383,-1.681,-8.084,1.587,-0.001,6.268,4.835,2.136,4.693,1.675,2.403,1.073,0.798,4.472,4.743,1.556,0.000,1.562,0.000,0.000,0.000,0.000,0.000,0.000,0.000,0.000,0.000,0.000,0.000,3.142,6.283,0.000,1.003,1.569,1.569,4.085,6.281,1.199,4.712,0.000,0.000,-2.019,-7.500,0.990,4.729,4.406,5.018,5.281,4.711,4.712,2.198,6.282,5.083,1.570,0.000,0.000,-1.363,-7.490,0.990,4.729,4.449,4.975,
22.400,27.500,-1.681,-8.084,1.587,-0.001,6.268,4.835,2.136,4.693,1.675,2.403,1.073,0.798,4.472,4.743,1.556,0.000,1.562,0.000,0.000,0.000,0.000,0.000,0.000,0.000,0.000,0.000,0.000,0.000,3.142,6.283,0.000,1.003,1.569,1.569,4.085,6.281,1.199,4.712,0.000,0.000,-2.019,-7.500,0.990,4.729,4.406,5.018,5.281,4.711,4.712,2.198,6.282,5.083,1.570,0.000,0.000,-1.363,-7.490,0.990,4.729,4.449,4.975,
22.484,27.584,-1.681,-8.084,1.587,-0.001,6.268,4.835,2.136,4.693,1.675,2.403,1.073,0.798,4.472,4.743,1.556,0.000,1.562,0.000,0.000,0.000,0.000,0.000,0.000,0.000,0.000,0.000,0.000,0.000,3.142,6.283,0.000,1.003,1.569,1.569,4.085,6.281,1.199,4.712,0.000,0.000,-2.019,-7.500,0.990,4.729,4.406,5.018,5.281,4.711,4.712,2.198,6.282,5.083,1.570,0.000,0.000,-1.363,-7.490,0.990,4.729,4.449,4.975,
22.600,27.700,-1.681,-8.084,1.587,-0.001,6.268,4.835,2.136,4.693,1.675,2.403,1.073,0.798,4.472,4.743,1.556,0.000,1.562,0.000,0.000,0.000,0.000,0.000,0.000,0.000,0.000,0.000,0.000,0.000,3.142,6.283,0.000,1.003,1.569,1.569,4.085,6.281,1.199,4.712,0.000,0.000,-2.019,-7.500,0.990,4.729,4.406,5.018,5.281,4.711,4.712,2.198,6.282,5.083,1.570,0.000,0.000,-1.363,-7.490,0.990,4.729,4.449,4.975,
22.690,27.790,-1.681,-8.084,1.587,-0.001,6.268,4.835,2.136,4.693,1.675,2.403,1.073,0.798,4.472,4.743,1.556,0.000,1.562,0.000,0.000,0.000,0.000,0.000,0.000,0.000,0.000,0.000,0.000,0.000,3.142,6.283,0.000,1.003,1.569,1.569,4.085,6.281,1.199,4.712,0.000,0.000,-2.019,-7.500,0.990,4.729,4.406,5.018,5.281,4.711,4.712,2.198,6.282,5.083,1.570,0.000,0.000,-1.363,-7.490,0.990,4.729,4.449,4.975,
22.800,27.900,-1.681,-8.084,1.587,-0.001,6.268,4.835,2.136,4.693,1.675,2.403,1.073,0.798,4.472,4.743,1.556,0.000,1.562,0.000,0.000,0.000,0.000,0.000,0.000,0.000,0.000,0.000,0.000,0.000,3.142,6.283,0.000,1.003,1.569,1.569,4.085,6.281,1.199,4.712,0.000,0.000,-2.019,-7.500,0.990,4.729,4.406,5.018,5.281,4.711,4.712,2.198,6.282,5.083,1.570,0.000,0.000,-1.363,-7.490,0.990,4.729,4.449,4.975,
22.896,27.996,-1.681,-8.084,1.587,-0.001,6.268,4.835,2.136,4.693,1.675,2.403,1.073,0.798,4.472,4.743,1.556,0.000,1.562,0.000,0.000,0.000,0.000,0.000,0.000,0.000,0.000,0.000,0.000,0.000,3.142,6.283,0.000,1.003,1.569,1.569,4.085,6.281,1.199,4.712,0.000,0.000,-2.019,-7.500,0.990,4.729,4.406,5.018,5.281,4.711,4.712,2.198,6.282,5.083,1.570,0.000,0.000,-1.363,-7.490,0.990,4.729,4.449,4.975,
23.000,28.100,-1.681,-8.084,1.587,-0.001,6.268,4.835,2.136,4.693,1.675,2.403,1.073,0.798,4.472,4.743,1.556,0.000,1.562,0.000,0.000,0.000,0.000,0.000,0.000,0.000,0.000,0.000,0.000,0.000,3.142,6.283,0.000,1.003,1.569,1.569,4.085,6.281,1.199,4.712,0.000,0.000,-2.019,-7.500,0.990,4.729,4.406,5.018,5.281,4.711,4.712,2.198,6.282,5.083,1.570,0.000,0.000,-1.363,-7.490,0.990,4.729,4.449,4.975,
23.095,28.195,-1.681,-8.084,1.587,-0.001,6.268,4.835,2.136,4.693,1.675,2.403,1.073,0.798,4.472,4.743,1.556,0.000,1.562,0.000,0.000,0.000,0.000,0.000,0.000,0.000,0.000,0.000,0.000,0.000,3.142,6.283,0.000,1.003,1.569,1.569,4.085,6.281,1.199,4.712,0.000,0.000,-2.019,-7.500,0.990,4.729,4.406,5.017,5.281,4.711,4.712,2.198,6.282,5.083,1.570,0.000,0.000,-1.363,-7.490,0.990,4.729,4.449,4.975,
23.200,28.300,-1.681,-8.084,1.587,-0.001,6.268,4.835,2.136,4.693,1.675,2.403,1.073,0.798,4.472,4.743,1.556,0.000,1.562,0.000,0.000,0.000,0.000,0.000,0.000,0.000,0.000,0.000,0.000,0.000,3.142,6.283,0.000,1.003,1.569,1.569,4.085,6.281,1.199,4.712,0.000,0.000,-2.019,-7.500,0.990,4.729,4.406,5.018,5.281,4.711,4.712,2.198,6.282,5.083,1.570,0.000,0.000,-1.363,-7.490,0.990,4.729,4.449,4.975,
23.299,28.399,-1.681,-8.084,1.587,-0.001,6.268,4.835,2.136,4.693,1.675,2.403,1.073,0.798,4.472,4.743,1.556,0.000,1.562,0.000,0.000,0.000,0.000,0.000,0.000,0.000,0.000,0.000,0.000,0.000,3.142,6.283,0.000,1.003,1.569,1.569,4.085,6.281,1.199,4.712,0.000,0.000,-2.019,-7.500,0.990,4.729,4.406,5.018,5.281,4.711,4.712,2.198,6.282,5.083,1.570,0.000,0.000,-1.363,-7.490,0.990,4.729,4.449,4.975,
23.400,28.500,-1.681,-8.084,1.587,-0.001,6.268,4.835,2.136,4.693,1.675,2.403,1.073,0.798,4.472,4.743,1.556,0.000,1.562,0.000,0.000,0.000,0.000,0.000,0.000,0.000,0.000,0.000,0.000,0.000,3.142,6.283,0.000,1.003,1.569,1.569,4.085,6.281,1.199,4.712,0.000,0.000,-2.019,-7.500,0.990,4.729,4.406,5.018,5.281,4.711,4.712,2.198,6.282,5.083,1.570,0.000,0.000,-1.363,-7.490,0.990,4.729,4.449,4.975,
23.500,28.600,-1.681,-8.084,1.587,-0.001,6.268,4.835,2.136,4.693,1.675,2.403,1.073,0.798,4.472,4.743,1.556,0.000,1.562,0.000,0.000,0.000,0.000,0.000,0.000,0.000,0.000,0.000,0.000,0.000,3.142,6.283,0.000,1.003,1.569,1.569,4.085,6.281,1.199,4.712,0.000,0.000,-2.019,-7.500,0.990,4.729,4.406,5.018,5.281,4.711,4.712,2.198,6.282,5.083,1.570,0.000,0.000,-1.363,-7.490,0.990,4.729,4.449,4.975,
23.600,28.700,-1.681,-8.084,1.587,-0.001,6.268,4.835,2.136,4.693,1.675,2.403,1.073,0.798,4.472,4.743,1.556,0.000,1.562,0.000,0.000,0.000,0.000,0.000,0.000,0.000,0.000,0.000,0.000,0.000,3.142,6.283,0.000,1.003,1.569,1.569,4.085,6.281,1.199,4.712,0.000,0.000,-2.019,-7.500,0.990,4.729,4.406,5.018,5.281,4.711,4.712,2.198,6.282,5.083,1.570,0.000,0.000,-1.363,-7.490,0.990,4.729,4.449,4.975,
23.700,28.800,-1.681,-8.084,1.587,-0.001,6.268,4.835,2.136,4.693,1.675,2.403,1.073,0.798,4.472,4.743,1.556,0.000,1.562,0.000,0.000,0.000,0.000,0.000,0.000,0.000,0.000,0.000,0.000,0.000,3.142,6.283,0.000,1.003,1.569,1.569,4.085,6.281,1.199,4.712,0.000,0.000,-2.019,-7.500,0.990,4.729,4.406,5.018,5.281,4.711,4.712,2.198,6.282,5.083,1.570,0.000,0.000,-1.363,-7.490,0.990,4.729,4.449,4.975,
23.800,28.900,-1.681,-8.084,1.587,-0.001,6.268,4.835,2.136,4.693,1.675,2.403,1.073,0.798,4.472,4.743,1.556,0.000,1.562,0.000,0.000,0.000,0.000,0.000,0.000,0.000,0.000,0.000,0.000,0.000,3.142,6.283,0.000,1.003,1.569,1.569,4.085,6.281,1.199,4.712,0.000,0.000,-2.019,-7.500,0.990,4.729,4.406,5.018,5.281,4.711,4.712,2.198,6.282,5.083,1.570,0.000,0.000,-1.363,-7.490,0.990,4.729,4.449,4.975,
23.900,29.000,-1.681,-8.084,1.587,-0.001,6.268,4.835,2.136,4.693,1.675,2.403,1.073,0.798,4.472,4.743,1.556,0.000,1.562,0.000,0.000,0.000,0.000,0.000,0.000,0.000,0.000,0.000,0.000,0.000,3.142,6.283,0.000,1.003,1.569,1.569,4.085,6.281,1.199,4.712,0.000,0.000,-2.019,-7.500,0.990,4.729,4.406,5.018,5.281,4.711,4.712,2.198,6.282,5.083,1.570,0.000,0.000,-1.363,-7.490,0.990,4.729,4.449,4.975,
24.000,29.100,-1.681,-8.084,1.587,-0.001,6.268,4.835,2.136,4.693,1.675,2.403,1.073,0.798,4.472,4.743,1.556,0.000,1.562,0.000,0.000,0.000,0.000,0.000,0.000,0.000,0.000,0.000,0.000,0.000,3.142,6.283,0.000,1.003,1.569,1.569,4.085,6.281,1.199,4.712,0.000,0.000,-2.019,-7.500,0.990,4.729,4.406,5.018,5.281,4.711,4.712,2.198,6.282,5.083,1.570,0.000,0.000,-1.363,-7.490,0.990,4.729,4.449,4.975,
24.100,29.200,-1.681,-8.084,1.587,-0.001,6.268,4.835,2.136,4.693,1.675,2.403,1.073,0.798,4.472,4.743,1.556,0.000,1.562,0.000,0.000,0.000,0.000,0.000,0.000,0.000,0.000,0.000,0.000,0.000,3.142,6.283,0.000,1.003,1.569,1.569,4.085,6.281,1.199,4.712,0.000,0.000,-2.019,-7.500,0.990,4.729,4.406,5.018,5.281,4.711,4.712,2.198,6.282,5.083,1.570,0.000,0.000,-1.363,-7.490,0.990,4.729,4.449,4.975,
24.200,29.300,-1.681,-8.084,1.587,-0.001,6.268,4.835,2.136,4.693,1.675,2.403,1.073,0.798,4.472,4.743,1.556,0.000,1.562,0.000,0.000,0.000,0.000,0.000,0.000,0.000,0.000,0.000,0.000,0.000,3.142,6.283,0.000,1.003,1.569,1.569,4.085,6.281,1.199,4.712,0.000,0.000,-2.019,-7.500,0.990,4.729,4.406,5.018,5.281,4.711,4.712,2.198,6.282,5.083,1.570,0.000,0.000,-1.363,-7.490,0.990,4.729,4.449,4.975,
24.300,29.400,-1.681,-8.084,1.587,-0.001,6.268,4.835,2.136,4.693,1.675,2.403,1.073,0.798,4.472,4.743,1.556,0.000,1.562,0.000,0.000,0.000,0.000,0.000,0.000,0.000,0.000,0.000,0.000,0.000,3.142,6.283,0.000,1.003,1.569,1.569,4.085,6.281,1.199,4.712,0.000,0.000,-2.019,-7.500,0.990,4.729,4.406,5.018,5.281,4.711,4.712,2.198,6.282,5.083,1.570,0.000,0.000,-1.363,-7.490,0.990,4.729,4.449,4.975,
24.386,29.486,-1.681,-8.084,1.587,-0.001,6.268,4.835,2.136,4.693,1.675,2.403,1.073,0.798,4.472,4.743,1.556,0.000,1.562,0.000,0.000,0.000,0.000,0.000,0.000,0.000,0.000,0.000,0.000,0.000,3.142,6.283,0.000,1.003,1.569,1.569,4.085,6.281,1.199,4.712,0.000,0.000,-2.019,-7.500,0.990,4.729,4.406,5.018,5.281,4.711,4.712,2.198,6.282,5.083,1.570,0.000,0.000,-1.363,-7.490,0.990,4.729,4.449,4.975,
24.500,29.600,-1.681,-8.084,1.587,-0.001,6.268,4.835,2.136,4.693,1.675,2.403,1.073,0.798,4.472,4.743,1.556,0.000,1.562,0.000,0.000,0.000,0.000,0.000,0.000,0.000,0.000,0.000,0.000,0.000,3.142,6.283,0.000,1.003,1.569,1.569,4.085,6.281,1.199,4.712,0.000,0.000,-2.019,-7.500,0.990,4.729,4.406,5.018,5.281,4.711,4.712,2.198,6.282,5.083,1.570,0.000,0.000,-1.363,-7.490,0.990,4.729,4.449,4.975,
24.600,29.700,-1.681,-8.084,1.587,-0.001,6.268,4.835,2.136,4.693,1.675,2.403,1.073,0.798,4.472,4.743,1.556,0.000,1.562,0.000,0.000,0.000,0.000,0.000,0.000,0.000,0.000,0.000,0.000,0.000,3.142,6.283,0.000,1.003,1.569,1.569,4.085,6.281,1.199,4.712,0.000,0.000,-2.019,-7.500,0.990,4.729,4.406,5.018,5.281,4.711,4.712,2.198,6.282,5.083,1.570,0.000,0.000,-1.363,-7.490,0.990,4.729,4.449,4.975,
24.700,29.800,-1.681,-8.084,1.587,-0.001,6.268,4.835,2.136,4.693,1.675,2.403,1.073,0.798,4.472,4.743,1.556,0.000,1.562,0.000,0.000,0.000,0.000,0.000,0.000,0.000,0.000,0.000,0.000,0.000,3.142,6.283,0.000,1.003,1.569,1.569,4.085,6.281,1.199,4.712,0.000,0.000,-2.019,-7.500,0.990,4.729,4.406,5.018,5.281,4.711,4.712,2.198,6.282,5.083,1.570,0.000,0.000,-1.363,-7.490,0.990,4.729,4.449,4.975,
24.788,29.888,-1.681,-8.084,1.587,-0.001,6.268,4.835,2.136,4.693,1.675,2.403,1.073,0.798,4.472,4.743,1.556,0.000,1.562,0.000,0.000,0.000,0.000,0.000,0.000,0.000,0.000,0.000,0.000,0.000,3.142,6.283,0.000,1.003,1.569,1.569,4.085,6.281,1.199,4.712,0.000,0.000,-2.019,-7.500,0.990,4.729,4.406,5.018,5.281,4.711,4.712,2.198,6.282,5.083,1.570,0.000,0.000,-1.363,-7.490,0.990,4.729,4.449,4.975,
24.900,30.000,-1.681,-8.084,1.587,-0.001,6.268,4.835,2.136,4.693,1.675,2.403,1.073,0.798,4.472,4.743,1.556,0.000,1.562,0.000,0.000,0.000,0.000,0.000,0.000,0.000,0.000,0.000,0.000,0.000,3.142,6.283,0.000,1.003,1.569,1.569,4.085,6.281,1.199,4.712,0.000,0.000,-2.019,-7.500,0.990,4.729,4.406,5.018,5.281,4.711,4.712,2.198,6.282,5.083,1.570,0.000,0.000,-1.363,-7.490,0.990,4.729,4.449,4.975,
25.000,30.100,-1.681,-8.084,1.587,-0.001,6.268,4.835,2.136,4.693,1.675,2.403,1.073,0.798,4.472,4.743,1.556,0.000,1.562,0.000,0.000,0.000,0.000,0.000,0.000,0.000,0.000,0.000,0.000,0.000,3.142,6.283,0.000,1.003,1.569,1.569,4.085,6.281,1.199,4.712,0.000,0.000,-2.019,-7.500,0.990,4.729,4.406,5.018,5.281,4.711,4.712,2.198,6.282,5.083,1.570,0.000,0.000,-1.363,-7.490,0.990,4.729,4.449,4.975,
25.100,30.200,-1.681,-8.084,1.587,-0.001,6.268,4.835,2.136,4.693,1.675,2.403,1.073,0.798,4.472,4.743,1.556,0.000,1.562,0.000,0.000,0.000,0.000,0.000,0.000,0.000,0.000,0.000,0.000,0.000,3.142,6.283,0.000,1.003,1.569,1.569,4.085,6.281,1.199,4.712,0.000,0.000,-2.019,-7.500,0.990,4.729,4.406,5.018,5.281,4.711,4.712,2.198,6.282,5.083,1.570,0.000,0.000,-1.363,-7.490,0.990,4.729,4.449,4.975,
25.184,30.284,-1.681,-8.084,1.587,-0.001,6.268,4.835,2.136,4.693,1.675,2.403,1.073,0.798,4.472,4.743,1.556,0.000,1.562,0.000,0.000,0.000,0.000,0.000,0.000,0.000,0.000,0.000,0.000,0.000,3.142,6.283,0.000,1.003,1.569,1.569,4.085,6.281,1.199,4.712,0.000,0.000,-2.019,-7.500,0.990,4.729,4.406,5.018,5.281,4.711,4.712,2.198,6.282,5.083,1.570,0.000,0.000,-1.363,-7.490,0.990,4.729,4.449,4.975,
25.300,30.400,-1.681,-8.084,1.587,-0.001,6.268,4.835,2.136,4.693,1.675,2.403,1.073,0.798,4.472,4.743,1.556,0.000,1.562,0.000,0.000,0.000,0.000,0.000,0.000,0.000,0.000,0.000,0.000,0.000,3.142,6.283,0.000,1.003,1.569,1.569,4.085,6.281,1.199,4.712,0.000,0.000,-2.019,-7.500,0.990,4.729,4.406,5.018,5.281,4.711,4.712,2.198,6.282,5.083,1.570,0.000,0.000,-1.363,-7.490,0.990,4.729,4.449,4.975,
25.400,30.500,-1.681,-8.084,1.587,-0.001,6.268,4.835,2.136,4.693,1.675,2.403,1.073,0.798,4.472,4.743,1.556,0.000,1.562,0.000,0.000,0.000,0.000,0.000,0.000,0.000,0.000,0.000,0.000,0.000,3.142,6.283,0.000,1.003,1.569,1.569,4.085,6.281,1.199,4.712,0.000,0.000,-2.019,-7.500,0.990,4.729,4.406,5.018,5.281,4.711,4.712,2.198,6.282,5.083,1.570,0.000,0.000,-1.363,-7.490,0.990,4.729,4.449,4.975,
25.500,30.600,-1.681,-8.084,1.587,-0.001,6.268,4.835,2.136,4.693,1.675,2.403,1.073,0.798,4.472,4.743,1.556,0.000,1.562,0.000,0.000,0.000,0.000,0.000,0.000,0.000,0.000,0.000,0.000,0.000,3.142,6.283,0.000,1.003,1.569,1.569,4.085,6.281,1.199,4.712,0.000,0.000,-2.019,-7.500,0.990,4.729,4.406,5.018,5.281,4.711,4.712,2.198,6.282,5.083,1.570,0.000,0.000,-1.363,-7.490,0.990,4.729,4.449,4.975,
25.587,30.687,-1.681,-8.084,1.587,-0.001,6.268,4.835,2.136,4.693,1.675,2.403,1.073,0.798,4.472,4.743,1.556,0.000,1.562,0.000,0.000,0.000,0.000,0.000,0.000,0.000,0.000,0.000,0.000,0.000,3.142,6.283,0.000,1.003,1.569,1.569,4.085,6.281,1.199,4.712,0.000,0.000,-2.019,-7.500,0.990,4.729,4.406,5.018,5.281,4.711,4.712,2.198,6.282,5.083,1.570,0.000,0.000,-1.363,-7.490,0.990,4.729,4.449,4.975,
25.700,30.800,-1.681,-8.084,1.587,-0.001,6.268,4.835,2.136,4.693,1.675,2.403,1.073,0.798,4.472,4.743,1.556,0.000,1.562,0.000,0.000,0.000,0.000,0.000,0.000,0.000,0.000,0.000,0.000,0.000,3.142,6.283,0.000,1.003,1.569,1.569,4.085,6.281,1.199,4.712,0.000,0.000,-2.019,-7.500,0.990,4.729,4.406,5.018,5.281,4.711,4.712,2.198,6.282,5.083,1.570,0.000,0.000,-1.363,-7.490,0.990,4.729,4.449,4.975,
25.792,30.892,-1.681,-8.084,1.587,-0.001,6.268,4.835,2.136,4.693,1.675,2.403,1.073,0.798,4.472,4.743,1.556,0.000,1.562,0.000,0.000,0.000,0.000,0.000,0.000,0.000,0.000,0.000,0.000,0.000,3.142,6.283,0.000,1.003,1.569,1.569,4.085,6.281,1.199,4.712,0.000,0.000,-2.019,-7.500,0.990,4.729,4.406,5.018,5.281,4.711,4.712,2.198,6.282,5.083,1.570,0.000,0.000,-1.363,-7.490,0.990,4.729,4.449,4.975,
25.900,31.000,-1.681,-8.084,1.587,-0.001,6.268,4.835,2.136,4.693,1.675,2.403,1.073,0.798,4.472,4.743,1.556,0.000,1.562,0.000,0.000,0.000,0.000,0.000,0.000,0.000,0.000,0.000,0.000,0.000,3.142,6.283,0.000,1.003,1.569,1.569,4.085,6.281,1.199,4.712,0.000,0.000,-2.019,-7.500,0.990,4.729,4.406,5.018,5.281,4.711,4.712,2.198,6.282,5.083,1.570,0.000,0.000,-1.363,-7.490,0.990,4.729,4.449,4.975,
25.988,31.088,-1.681,-8.084,1.587,-0.001,6.268,4.835,2.136,4.693,1.675,2.403,1.073,0.798,4.472,4.743,1.556,0.000,1.562,0.000,0.000,0.000,0.000,0.000,0.000,0.000,0.000,0.000,0.000,0.000,3.142,6.283,0.000,1.003,1.569,1.569,4.085,6.281,1.199,4.712,0.000,0.000,-2.019,-7.500,0.990,4.729,4.406,5.018,5.281,4.711,4.712,2.198,6.282,5.083,1.570,0.000,0.000,-1.363,-7.490,0.990,4.729,4.449,4.975,
26.100,31.200,-1.681,-8.084,1.587,-0.001,6.268,4.835,2.136,4.693,1.675,2.403,1.073,0.798,4.472,4.743,1.556,0.000,1.562,0.000,0.000,0.000,0.000,0.000,0.000,0.000,0.000,0.000,0.000,0.000,3.142,6.283,0.000,1.003,1.569,1.569,4.085,6.281,1.199,4.712,0.000,0.000,-2.019,-7.500,0.990,4.729,4.406,5.018,5.281,4.711,4.712,2.198,6.282,5.083,1.570,0.000,0.000,-1.363,-7.490,0.990,4.729,4.449,4.975,
26.198,31.298,-1.681,-8.084,1.587,-0.001,6.268,4.835,2.136,4.693,1.675,2.403,1.073,0.798,4.472,4.743,1.556,0.000,1.562,0.000,0.000,0.000,0.000,0.000,0.000,0.000,0.000,0.000,0.000,0.000,3.142,6.283,0.000,1.003,1.569,1.569,4.085,6.281,1.199,4.712,0.000,0.000,-2.019,-7.500,0.990,4.729,4.406,5.018,5.281,4.711,4.712,2.198,6.282,5.083,1.570,0.000,0.000,-1.363,-7.490,0.990,4.729,4.449,4.975,
26.300,31.400,-1.681,-8.084,1.587,-0.001,6.268,4.835,2.136,4.693,1.675,2.403,1.073,0.798,4.472,4.743,1.556,0.000,1.562,0.000,0.000,0.000,0.000,0.000,0.000,0.000,0.000,0.000,0.000,0.000,3.142,6.283,0.000,1.003,1.569,1.569,4.085,6.281,1.199,4.712,0.000,0.000,-2.019,-7.500,0.990,4.729,4.406,5.018,5.281,4.711,4.712,2.198,6.282,5.083,1.570,0.000,0.000,-1.363,-7.490,0.990,4.729,4.449,4.975,
26.392,31.492,-1.681,-8.084,1.587,-0.001,6.268,4.835,2.136,4.693,1.675,2.403,1.073,0.798,4.472,4.743,1.556,0.000,1.562,0.000,0.000,0.000,0.000,0.000,0.000,0.000,0.000,0.000,0.000,0.000,3.142,6.283,0.000,1.003,1.569,1.569,4.085,6.281,1.199,4.712,0.000,0.000,-2.019,-7.500,0.990,4.729,4.406,5.018,5.281,4.711,4.712,2.198,6.282,5.083,1.570,0.000,0.000,-1.363,-7.490,0.990,4.729,4.449,4.975,
26.500,31.600,-1.681,-8.084,1.587,-0.001,6.268,4.835,2.136,4.693,1.675,2.403,1.073,0.798,4.472,4.743,1.556,0.000,1.562,0.000,0.000,0.000,0.000,0.000,0.000,0.000,0.000,0.000,0.000,0.000,3.142,6.283,0.000,1.003,1.569,1.569,4.085,6.281,1.199,4.712,0.000,0.000,-2.019,-7.500,0.990,4.729,4.406,5.018,5.281,4.711,4.712,2.198,6.282,5.083,1.570,0.000,0.000,-1.363,-7.490,0.990,4.729,4.449,4.975,
26.598,31.698,-1.681,-8.084,1.587,-0.001,6.268,4.835,2.136,4.693,1.675,2.403,1.073,0.798,4.472,4.743,1.556,0.000,1.562,0.000,0.000,0.000,0.000,0.000,0.000,0.000,0.000,0.000,0.000,0.000,3.142,6.283,0.000,1.003,1.569,1.569,4.085,6.281,1.199,4.712,0.000,0.000,-2.019,-7.500,0.990,4.729,4.406,5.018,5.281,4.711,4.712,2.198,6.282,5.083,1.570,0.000,0.000,-1.363,-7.490,0.990,4.729,4.449,4.975,
26.700,31.800,-1.681,-8.084,1.587,-0.001,6.268,4.835,2.136,4.693,1.675,2.403,1.073,0.798,4.472,4.743,1.556,0.000,1.562,0.000,0.000,0.000,0.000,0.000,0.000,0.000,0.000,0.000,0.000,0.000,3.142,6.283,0.000,1.003,1.569,1.569,4.085,6.281,1.199,4.712,0.000,0.000,-2.019,-7.500,0.990,4.729,4.406,5.018,5.281,4.711,4.712,2.198,6.282,5.083,1.570,0.000,0.000,-1.363,-7.490,0.990,4.729,4.449,4.975,
26.796,31.896,-1.681,-8.084,1.587,-0.001,6.268,4.835,2.136,4.693,1.675,2.403,1.073,0.798,4.472,4.743,1.556,0.000,1.562,0.000,0.000,0.000,0.000,0.000,0.000,0.000,0.000,0.000,0.000,0.000,3.142,6.283,0.000,1.003,1.569,1.569,4.085,6.281,1.199,4.712,0.000,0.000,-2.019,-7.500,0.990,4.729,4.406,5.018,5.281,4.711,4.712,2.198,6.282,5.083,1.570,0.000,0.000,-1.363,-7.490,0.990,4.729,4.449,4.975,
26.900,32.000,-1.681,-8.084,1.587,-0.001,6.268,4.835,2.136,4.693,1.675,2.403,1.073,0.798,4.472,4.743,1.556,0.000,1.562,0.000,0.000,0.000,0.000,0.000,0.000,0.000,0.000,0.000,0.000,0.000,3.142,6.283,0.000,1.003,1.569,1.569,4.085,6.281,1.199,4.712,0.000,0.000,-2.019,-7.500,0.990,4.729,4.406,5.018,5.281,4.711,4.712,2.198,6.282,5.083,1.570,0.000,0.000,-1.363,-7.490,0.990,4.729,4.449,4.975,
26.995,32.095,-1.681,-8.084,1.587,-0.001,6.268,4.835,2.136,4.693,1.675,2.403,1.073,0.798,4.472,4.743,1.556,0.000,1.562,0.000,0.000,0.000,0.000,0.000,0.000,0.000,0.000,0.000,0.000,0.000,3.142,6.283,0.000,1.003,1.569,1.569,4.085,6.281,1.199,4.712,0.000,0.000,-2.019,-7.500,0.990,4.729,4.406,5.018,5.281,4.711,4.712,2.198,6.282,5.083,1.570,0.000,0.000,-1.363,-7.490,0.990,4.729,4.449,4.975,
27.081,32.181,-1.681,-8.084,1.587,-0.001,6.268,4.835,2.136,4.693,1.675,2.403,1.073,0.798,4.472,4.743,1.556,0.000,1.562,0.000,0.000,0.000,0.000,0.000,0.000,0.000,0.000,0.000,0.000,0.000,3.142,6.283,0.000,1.003,1.569,1.569,4.085,6.281,1.199,4.712,0.000,0.000,-2.019,-7.500,0.990,4.729,4.406,5.018,5.281,4.711,4.712,2.198,6.282,5.083,1.570,0.000,0.000,-1.363,-7.490,0.990,4.729,4.449,4.975,
27.200,32.300,-1.681,-8.084,1.587,-0.001,6.268,4.835,2.136,4.693,1.675,2.403,1.073,0.798,4.472,4.743,1.556,0.000,1.562,0.000,0.000,0.000,0.000,0.000,0.000,0.000,0.000,0.000,0.000,0.000,3.142,6.283,0.000,1.003,1.569,1.569,4.085,6.281,1.199,4.712,0.000,0.000,-2.019,-7.500,0.990,4.729,4.406,5.018,5.281,4.711,4.712,2.198,6.282,5.083,1.570,0.000,0.000,-1.363,-7.490,0.990,4.729,4.449,4.975,
27.289,32.389,-1.681,-8.084,1.587,-0.001,6.268,4.835,2.136,4.693,1.675,2.403,1.073,0.798,4.472,4.743,1.556,0.000,1.562,0.000,0.000,0.000,0.000,0.000,0.000,0.000,0.000,0.000,0.000,0.000,3.142,6.283,0.000,1.003,1.569,1.569,4.085,6.281,1.199,4.712,0.000,0.000,-2.019,-7.500,0.990,4.729,4.406,5.018,5.281,4.711,4.712,2.198,6.282,5.083,1.570,0.000,0.000,-1.363,-7.490,0.990,4.729,4.449,4.975,
27.400,32.500,-1.681,-8.084,1.587,-0.001,6.268,4.835,2.136,4.693,1.675,2.403,1.073,0.798,4.472,4.743,1.556,0.000,1.562,0.000,0.000,0.000,0.000,0.000,0.000,0.000,0.000,0.000,0.000,0.000,3.142,6.283,0.000,1.003,1.569,1.569,4.085,6.281,1.199,4.712,0.000,0.000,-2.019,-7.500,0.990,4.729,4.406,5.018,5.281,4.711,4.712,2.198,6.282,5.083,1.570,0.000,0.000,-1.363,-7.490,0.990,4.729,4.449,4.975,
27.500,32.600,-1.681,-8.084,1.587,-0.001,6.268,4.835,2.136,4.693,1.675,2.403,1.073,0.798,4.472,4.743,1.556,0.000,1.562,0.000,0.000,0.000,0.000,0.000,0.000,0.000,0.000,0.000,0.000,0.000,3.142,6.283,0.000,1.003,1.569,1.569,4.085,6.281,1.199,4.712,0.000,0.000,-2.019,-7.500,0.990,4.729,4.406,5.018,5.281,4.711,4.712,2.198,6.282,5.083,1.570,0.000,0.000,-1.363,-7.490,0.990,4.729,4.449,4.975,
27.600,32.700,-1.681,-8.084,1.587,-0.001,6.268,4.835,2.136,4.693,1.675,2.403,1.073,0.798,4.472,4.743,1.556,0.000,1.562,0.000,0.000,0.000,0.000,0.000,0.000,0.000,0.000,0.000,0.000,0.000,3.142,6.283,0.000,1.003,1.569,1.569,4.085,6.281,1.199,4.712,0.000,0.000,-2.019,-7.500,0.990,4.729,4.406,5.018,5.281,4.711,4.712,2.198,6.282,5.083,1.570,0.000,0.000,-1.363,-7.490,0.990,4.729,4.449,4.975,
27.700,32.800,-1.681,-8.084,1.587,-0.001,6.268,4.835,2.136,4.693,1.675,2.403,1.073,0.798,4.472,4.743,1.556,0.000,1.562,0.000,0.000,0.000,0.000,0.000,0.000,0.000,0.000,0.000,0.000,0.000,3.142,6.283,0.000,1.003,1.569,1.569,4.085,6.281,1.199,4.712,0.000,0.000,-2.019,-7.500,0.990,4.729,4.406,5.018,5.281,4.711,4.712,2.198,6.282,5.083,1.570,0.000,0.000,-1.363,-7.490,0.990,4.729,4.449,4.975,
27.799,32.899,-1.681,-8.084,1.587,-0.001,6.268,4.835,2.136,4.693,1.675,2.403,1.073,0.798,4.472,4.743,1.556,0.000,1.562,0.000,0.000,0.000,0.000,0.000,0.000,0.000,0.000,0.000,0.000,0.000,3.142,6.283,0.000,1.003,1.569,1.569,4.085,6.281,1.199,4.712,0.000,0.000,-2.019,-7.500,0.990,4.729,4.406,5.018,5.281,4.711,4.712,2.198,6.282,5.083,1.570,0.000,0.000,-1.363,-7.490,0.990,4.729,4.449,4.975,
27.900,33.000,-1.681,-8.084,1.587,-0.001,6.268,4.835,2.136,4.693,1.675,2.403,1.073,0.798,4.472,4.743,1.556,0.000,1.562,0.000,0.000,0.000,0.000,0.000,0.000,0.000,0.000,0.000,0.000,0.000,3.142,6.283,0.000,1.003,1.569,1.569,4.085,6.281,1.199,4.712,0.000,0.000,-2.019,-7.500,0.990,4.729,4.406,5.018,5.281,4.711,4.712,2.198,6.282,5.083,1.570,0.000,0.000,-1.363,-7.490,0.990,4.729,4.449,4.975,
28.000,33.100,-1.681,-8.084,1.587,-0.001,6.268,4.835,2.136,4.693,1.675,2.403,1.073,0.798,4.472,4.743,1.556,0.000,1.562,0.000,0.000,0.000,0.000,0.000,0.000,0.000,0.000,0.000,0.000,0.000,3.142,6.283,0.000,1.003,1.569,1.569,4.085,6.281,1.199,4.712,0.000,0.000,-2.019,-7.500,0.990,4.729,4.406,5.018,5.281,4.711,4.712,2.198,6.282,5.083,1.570,0.000,0.000,-1.363,-7.490,0.990,4.729,4.449,4.975,
28.100,33.200,-1.681,-8.084,1.587,-0.001,6.268,4.835,2.136,4.693,1.675,2.403,1.073,0.798,4.472,4.743,1.556,0.000,1.562,0.000,0.000,0.000,0.000,0.000,0.000,0.000,0.000,0.000,0.000,0.000,3.142,6.283,0.000,1.003,1.569,1.569,4.085,6.281,1.199,4.712,0.000,0.000,-2.019,-7.500,0.990,4.729,4.406,5.018,5.281,4.711,4.712,2.198,6.282,5.083,1.570,0.000,0.000,-1.363,-7.490,0.990,4.729,4.449,4.975,
28.200,33.300,-1.681,-8.084,1.587,-0.001,6.268,4.835,2.136,4.693,1.675,2.403,1.073,0.798,4.472,4.743,1.556,0.000,1.562,0.000,0.000,0.000,0.000,0.000,0.000,0.000,0.000,0.000,0.000,0.000,3.142,6.283,0.000,1.003,1.569,1.569,4.085,6.281,1.199,4.712,0.000,0.000,-2.019,-7.500,0.990,4.729,4.406,5.018,5.281,4.711,4.712,2.198,6.282,5.083,1.570,0.000,0.000,-1.363,-7.490,0.990,4.729,4.449,4.975,
28.284,33.384,-1.681,-8.084,1.587,-0.001,6.268,4.835,2.136,4.693,1.675,2.403,1.073,0.798,4.472,4.743,1.556,0.000,1.562,0.000,0.000,0.000,0.000,0.000,0.000,0.000,0.000,0.000,0.000,0.000,3.142,6.283,0.000,1.003,1.569,1.569,4.085,6.281,1.199,4.712,0.000,0.000,-2.019,-7.500,0.990,4.729,4.406,5.018,5.281,4.711,4.712,2.198,6.282,5.083,1.570,0.000,0.000,-1.363,-7.490,0.990,4.729,4.449,4.975,
28.400,33.500,-1.681,-8.084,1.587,-0.001,6.268,4.835,2.136,4.693,1.675,2.403,1.073,0.798,4.472,4.743,1.556,0.000,1.562,0.000,0.000,0.000,0.000,0.000,0.000,0.000,0.000,0.000,0.000,0.000,3.142,6.283,0.000,1.003,1.569,1.569,4.085,6.281,1.199,4.712,0.000,0.000,-2.019,-7.500,0.990,4.729,4.406,5.018,5.281,4.711,4.712,2.198,6.282,5.083,1.570,0.000,0.000,-1.363,-7.490,0.990,4.729,4.449,4.975,
28.482,33.582,-1.681,-8.084,1.587,-0.001,6.268,4.835,2.136,4.693,1.675,2.403,1.073,0.798,4.472,4.743,1.556,0.000,1.562,0.000,0.000,0.000,0.000,0.000,0.000,0.000,0.000,0.000,0.000,0.000,3.142,6.283,0.000,1.003,1.569,1.569,4.085,6.281,1.199,4.712,0.000,0.000,-2.019,-7.500,0.990,4.729,4.406,5.018,5.281,4.711,4.712,2.198,6.282,5.083,1.570,0.000,0.000,-1.363,-7.490,0.990,4.729,4.449,4.975,
28.600,33.700,-1.681,-8.084,1.587,-0.001,6.268,4.835,2.136,4.693,1.675,2.403,1.073,0.798,4.472,4.743,1.556,0.000,1.562,0.000,0.000,0.000,0.000,0.000,0.000,0.000,0.000,0.000,0.000,0.000,3.142,6.283,0.000,1.003,1.569,1.569,4.085,6.281,1.199,4.712,0.000,0.000,-2.019,-7.500,0.990,4.729,4.406,5.018,5.281,4.711,4.712,2.198,6.282,5.083,1.570,0.000,0.000,-1.363,-7.490,0.990,4.729,4.449,4.975,
28.683,33.783,-1.681,-8.084,1.587,-0.001,6.268,4.835,2.136,4.693,1.675,2.403,1.073,0.798,4.472,4.743,1.556,0.000,1.562,0.000,0.000,0.000,0.000,0.000,0.000,0.000,0.000,0.000,0.000,0.000,3.142,6.283,0.000,1.003,1.569,1.569,4.085,6.281,1.199,4.712,0.000,0.000,-2.019,-7.500,0.990,4.729,4.406,5.018,5.281,4.711,4.712,2.198,6.282,5.083,1.570,0.000,0.000,-1.363,-7.490,0.990,4.729,4.449,4.975,
28.800,33.900,-1.681,-8.084,1.587,-0.001,6.268,4.835,2.136,4.693,1.675,2.403,1.073,0.798,4.472,4.743,1.556,0.000,1.562,0.000,0.000,0.000,0.000,0.000,0.000,0.000,0.000,0.000,0.000,0.000,3.142,6.283,0.000,1.003,1.569,1.569,4.085,6.281,1.199,4.712,0.000,0.000,-2.019,-7.500,0.990,4.729,4.406,5.018,5.281,4.711,4.712,2.198,6.282,5.083,1.570,0.000,0.000,-1.363,-7.490,0.990,4.729,4.449,4.975,
28.883,33.983,-1.681,-8.084,1.587,-0.001,6.268,4.835,2.136,4.693,1.675,2.403,1.073,0.798,4.472,4.743,1.556,0.000,1.562,0.000,0.000,0.000,0.000,0.000,0.000,0.000,0.000,0.000,0.000,0.000,3.142,6.283,0.000,1.003,1.569,1.569,4.085,6.281,1.199,4.712,0.000,0.000,-2.019,-7.500,0.990,4.729,4.406,5.018,5.281,4.711,4.712,2.198,6.282,5.083,1.570,0.000,0.000,-1.363,-7.490,0.990,4.729,4.449,4.975,
29.000,34.100,-1.681,-8.084,1.587,-0.001,6.268,4.835,2.136,4.693,1.675,2.403,1.073,0.798,4.472,4.743,1.556,0.000,1.562,0.000,0.000,0.000,0.000,0.000,0.000,0.000,0.000,0.000,0.000,0.000,3.142,6.283,0.000,1.003,1.569,1.569,4.085,6.281,1.199,4.712,0.000,0.000,-2.019,-7.500,0.990,4.729,4.406,5.018,5.281,4.711,4.712,2.198,6.282,5.083,1.570,0.000,0.000,-1.363,-7.490,0.990,4.729,4.449,4.975,
29.091,34.192,-1.681,-8.084,1.587,-0.001,6.268,4.835,2.136,4.693,1.675,2.403,1.073,0.798,4.472,4.743,1.556,0.000,1.562,0.000,0.000,0.000,0.000,0.000,0.000,0.000,0.000,0.000,0.000,0.000,3.142,6.283,0.000,1.003,1.569,1.569,4.085,6.281,1.199,4.712,0.000,0.000,-2.019,-7.500,0.990,4.729,4.406,5.018,5.281,4.711,4.712,2.198,6.282,5.083,1.570,0.000,0.000,-1.363,-7.490,0.990,4.729,4.449,4.975,
29.200,34.300,-1.681,-8.084,1.587,-0.001,6.268,4.835,2.136,4.693,1.675,2.403,1.073,0.798,4.472,4.743,1.556,0.000,1.562,0.000,0.000,0.000,0.000,0.000,0.000,0.000,0.000,0.000,0.000,0.000,3.142,6.283,0.000,1.003,1.569,1.569,4.085,6.281,1.199,4.712,0.000,0.000,-2.019,-7.500,0.990,4.729,4.406,5.018,5.281,4.711,4.712,2.198,6.282,5.083,1.570,0.000,0.000,-1.363,-7.490,0.990,4.729,4.449,4.975,
29.283,34.383,-1.681,-8.084,1.587,-0.001,6.268,4.835,2.136,4.693,1.675,2.403,1.073,0.798,4.472,4.743,1.556,0.000,1.562,0.000,0.000,0.000,0.000,0.000,0.000,0.000,0.000,0.000,0.000,0.000,3.142,6.283,0.000,1.003,1.569,1.569,4.085,6.281,1.199,4.712,0.000,0.000,-2.019,-7.500,0.990,4.729,4.406,5.018,5.281,4.711,4.712,2.198,6.282,5.083,1.570,0.000,0.000,-1.363,-7.490,0.990,4.729,4.449,4.975,
29.400,34.500,-1.681,-8.084,1.587,-0.001,6.268,4.835,2.136,4.693,1.675,2.403,1.073,0.798,4.472,4.743,1.556,0.000,1.562,0.000,0.000,0.000,0.000,0.000,0.000,0.000,0.000,0.000,0.000,0.000,3.142,6.283,0.000,1.003,1.569,1.569,4.085,6.281,1.199,4.712,0.000,0.000,-2.019,-7.500,0.990,4.729,4.406,5.018,5.281,4.711,4.712,2.198,6.282,5.083,1.570,0.000,0.000,-1.363,-7.490,0.990,4.729,4.449,4.975,
29.500,34.600,-1.681,-8.084,1.587,-0.001,6.268,4.835,2.136,4.693,1.675,2.403,1.073,0.798,4.472,4.743,1.556,0.000,1.562,0.000,0.000,0.000,0.000,0.000,0.000,0.000,0.000,0.000,0.000,0.000,3.142,6.283,0.000,1.003,1.569,1.569,4.085,6.281,1.199,4.712,0.000,0.000,-2.019,-7.500,0.990,4.729,4.406,5.018,5.281,4.711,4.712,2.198,6.282,5.083,1.570,0.000,0.000,-1.363,-7.490,0.990,4.729,4.449,4.975,
29.582,34.682,-1.681,-8.084,1.587,-0.001,6.268,4.835,2.136,4.693,1.675,2.403,1.073,0.798,4.472,4.743,1.556,0.000,1.562,0.000,0.000,0.000,0.000,0.000,0.000,0.000,0.000,0.000,0.000,0.000,3.142,6.283,0.000,1.003,1.569,1.569,4.085,6.281,1.199,4.712,0.000,0.000,-2.019,-7.500,0.990,4.729,4.406,5.018,5.281,4.711,4.712,2.198,6.282,5.083,1.570,0.000,0.000,-1.363,-7.490,0.990,4.729,4.449,4.975,
29.700,34.800,-1.681,-8.084,1.587,-0.001,6.268,4.835,2.136,4.693,1.675,2.403,1.073,0.798,4.472,4.743,1.556,0.000,1.562,0.000,0.000,0.000,0.000,0.000,0.000,0.000,0.000,0.000,0.000,0.000,3.142,6.283,0.000,1.003,1.569,1.569,4.085,6.281,1.199,4.712,0.000,0.000,-2.019,-7.500,0.990,4.729,4.406,5.018,5.281,4.711,4.712,2.198,6.282,5.083,1.570,0.000,0.000,-1.363,-7.490,0.990,4.729,4.449,4.975,
29.793,34.893,-1.681,-8.084,1.587,-0.001,6.268,4.835,2.136,4.693,1.675,2.403,1.073,0.798,4.472,4.743,1.556,0.000,1.562,0.000,0.000,0.000,0.000,0.000,0.000,0.000,0.000,0.000,0.000,0.000,3.142,6.283,0.000,1.003,1.569,1.569,4.085,6.281,1.199,4.712,0.000,0.000,-2.019,-7.500,0.990,4.729,4.406,5.018,5.281,4.711,4.712,2.198,6.282,5.083,1.570,0.000,0.000,-1.363,-7.490,0.990,4.729,4.449,4.975,
29.900,35.000,-1.681,-8.084,1.587,-0.001,6.268,4.835,2.136,4.693,1.675,2.403,1.073,0.798,4.472,4.743,1.556,0.000,1.562,0.000,0.000,0.000,0.000,0.000,0.000,0.000,0.000,0.000,0.000,0.000,3.142,6.283,0.000,1.003,1.569,1.569,4.085,6.281,1.199,4.712,0.000,0.000,-2.019,-7.500,0.990,4.729,4.406,5.018,5.281,4.711,4.712,2.198,6.282,5.083,1.570,0.000,0.000,-1.363,-7.490,0.990,4.729,4.449,4.975,
29.985,35.085,-1.681,-8.084,1.587,-0.001,6.268,4.835,2.136,4.693,1.675,2.403,1.073,0.798,4.472,4.743,1.556,0.000,1.562,0.000,0.000,0.000,0.000,0.000,0.000,0.000,0.000,0.000,0.000,0.000,3.142,6.283,0.000,1.003,1.569,1.569,4.085,6.281,1.199,4.712,0.000,0.000,-2.019,-7.500,0.990,4.729,4.406,5.018,5.281,4.711,4.712,2.198,6.282,5.083,1.570,0.000,0.000,-1.363,-7.490,0.990,4.729,4.449,4.975,
30.100,35.200,-1.681,-8.084,1.587,-0.001,6.268,4.835,2.136,4.693,1.675,2.403,1.073,0.798,4.472,4.743,1.556,0.000,1.562,0.000,0.000,0.000,0.000,0.000,0.000,0.000,0.000,0.000,0.000,0.000,3.142,6.283,0.000,1.003,1.569,1.569,4.085,6.281,1.199,4.712,0.000,0.000,-2.019,-7.500,0.990,4.729,4.406,5.018,5.281,4.711,4.712,2.198,6.282,5.083,1.570,0.000,0.000,-1.363,-7.490,0.990,4.729,4.449,4.975,
30.199,35.299,-1.681,-8.084,1.587,-0.001,6.268,4.835,2.136,4.693,1.675,2.403,1.073,0.798,4.472,4.743,1.556,0.000,1.562,0.000,0.000,0.000,0.000,0.000,0.000,0.000,0.000,0.000,0.000,0.000,3.142,6.283,0.000,1.003,1.569,1.569,4.085,6.281,1.199,4.712,0.000,0.000,-2.019,-7.500,0.990,4.729,4.406,5.018,5.281,4.711,4.712,2.198,6.282,5.083,1.570,0.000,0.000,-1.363,-7.490,0.990,4.729,4.449,4.975,
30.300,35.400,-1.681,-8.084,1.587,-0.001,6.268,4.835,2.136,4.693,1.675,2.403,1.073,0.798,4.472,4.743,1.556,0.000,1.562,0.000,0.000,0.000,0.000,0.000,0.000,0.000,0.000,0.000,0.000,0.000,3.142,6.283,0.000,1.003,1.569,1.569,4.085,6.281,1.199,4.712,0.000,0.000,-2.019,-7.500,0.990,4.729,4.406,5.018,5.281,4.711,4.712,2.198,6.282,5.083,1.570,0.000,0.000,-1.363,-7.490,0.990,4.729,4.449,4.975,
30.400,35.500,-1.681,-8.084,1.587,-0.001,6.268,4.835,2.136,4.693,1.675,2.403,1.073,0.798,4.472,4.743,1.556,0.000,1.562,0.000,0.000,0.000,0.000,0.000,0.000,0.000,0.000,0.000,0.000,0.000,3.142,6.283,0.000,1.003,1.569,1.569,4.085,6.281,1.199,4.712,0.000,0.000,-2.019,-7.500,0.990,4.729,4.406,5.018,5.281,4.711,4.712,