deveshdatwani/Gopher/Assets/Data/07-13 17-41-03/NavObs_robot_value.csv
game_time,true_time,x,y,az,vx,vaz,dis_to_obs_0,dis_to_obs_36,dis_to_obs_72,dis_to_obs_108,dis_to_obs_144,dis_to_obs_180,dis_to_obs_-144,dis_to_obs_-108,dis_to_obs_-72,dis_to_obs_-36,dis_to_min_obs,direction_to_min_obs,dis_to_human_0,dis_to_human_36,dis_to_human_72,dis_to_human_108,dis_to_human_144,dis_to_human_180,dis_to_human_-144,dis_to_human_-108,dis_to_human_-72,dis_to_human_-36,dis_to_min_human,direction_to_min_human,main_cam_yaw,main_cam_pitch,left_joint_1,left_joint_2,left_joint_3,left_joint_4,left_joint_5,left_joint_6,left_joint_7,left_joint_gripper,left_is_grasping,left_end_x,left_end_y,left_end_z,left_end_ax,left_end_ay,left_end_az,right_joint_1,right_joint_2,right_joint_3,right_joint_4,right_joint_5,right_joint_6,right_joint_7,right_joint_gripper,right_is_grasping,right_end_x,right_end_y,right_end_z,right_end_ax,right_end_ay,right_end_az,
107.600,663.455,-6.483,10.359,2.126,0.000,0.008,1.693,0.000,1.180,1.679,1.365,0.000,0.000,2.955,2.000,0.000,0.000,3.142,0.000,0.000,0.000,0.000,0.000,0.000,0.000,0.000,0.000,0.000,0.000,3.142,6.283,0.000,2.100,1.897,1.799,4.285,0.398,1.000,4.711,0.000,0.000,-6.736,10.455,0.451,5.833,3.408,5.729,4.183,4.384,4.484,1.998,5.882,5.284,1.571,0.000,0.000,-6.457,10.628,0.451,5.864,3.457,5.598,
107.700,663.555,-6.483,10.359,2.126,0.000,0.008,1.693,0.000,1.180,1.679,1.365,0.000,0.000,2.955,2.000,0.000,0.000,3.142,0.000,0.000,0.000,0.000,0.000,0.000,0.000,0.000,0.000,0.000,0.000,3.142,6.283,0.000,2.100,1.897,1.799,4.285,0.398,1.000,4.711,0.000,0.000,-6.736,10.455,0.451,5.833,3.408,5.729,4.183,4.384,4.484,1.998,5.882,5.284,1.571,0.000,0.000,-6.457,10.628,0.451,5.864,3.457,5.598,
107.800,663.655,-6.483,10.359,2.126,0.000,0.008,1.693,0.000,1.180,1.679,1.365,0.000,0.000,2.955,2.000,0.000,0.000,3.142,0.000,0.000,0.000,0.000,0.000,0.000,0.000,0.000,0.000,0.000,0.000,3.142,6.283,0.000,2.100,1.897,1.799,4.285,0.398,1.000,4.711,0.000,0.000,-6.736,10.455,0.451,5.833,3.408,5.729,4.183,4.384,4.484,1.998,5.882,5.284,1.571,0.000,0.000,-6.457,10.628,0.451,5.864,3.457,5.598,
107.897,663.752,-6.483,10.359,2.126,0.000,0.008,1.693,0.000,1.180,1.679,1.365,0.000,0.000,2.955,2.000,0.000,0.000,3.142,0.000,0.000,0.000,0.000,0.000,0.000,0.000,0.000,0.000,0.000,0.000,3.142,6.283,0.000,2.100,1.897,1.799,4.285,0.398,1.000,4.711,0.000,0.000,-6.736,10.455,0.451,5.833,3.408,5.729,4.183,4.384,4.484,1.998,5.882,5.284,1.571,0.000,0.000,-6.457,10.628,0.451,5.864,3.457,5.598,
108.000,663.855,-6.483,10.359,2.126,0.000,0.008,1.693,0.000,1.180,1.679,1.365,0.000,0.000,2.955,2.000,0.000,0.000,3.142,0.000,0.000,0.000,0.000,0.000,0.000,0.000,0.000,0.000,0.000,0.000,3.142,6.283,0.000,2.100,1.897,1.799,4.285,0.398,1.000,4.711,0.000,0.000,-6.736,10.455,0.451,5.833,3.408,5.729,4.183,4.384,4.484,1.998,5.882,5.284,1.571,0.000,0.000,-6.457,10.628,0.451,5.864,3.457,5.598,
108.100,663.955,-6.483,10.359,2.126,0.000,0.008,1.693,0.000,1.180,1.679,1.365,0.000,0.000,2.955,2.000,0.000,0.000,3.142,0.000,0.000,0.000,0.000,0.000,0.000,0.000,0.000,0.000,0.000,0.000,3.142,6.283,0.000,2.100,1.897,1.799,4.285,0.398,1.000,4.711,0.000,0.000,-6.736,10.455,0.451,5.833,3.408,5.729,4.183,4.384,4.484,1.998,5.882,5.284,1.571,0.000,0.000,-6.457,10.628,0.451,5.864,3.457,5.598,
108.180,664.035,-6.483,10.359,2.126,0.000,0.008,1.693,0.000,1.180,1.679,1.365,0.000,0.000,2.955,2.000,0.000,0.000,3.142,0.000,0.000,0.000,0.000,0.000,0.000,0.000,0.000,0.000,0.000,0.000,3.142,6.283,0.000,2.100,1.897,1.799,4.285,0.398,1.000,4.711,0.000,0.000,-6.736,10.455,0.451,5.833,3.408,5.729,4.183,4.384,4.484,1.998,5.882,5.284,1.571,0.000,0.000,-6.457,10.628,0.451,5.864,3.457,5.598,
108.294,664.149,-6.483,10.359,2.126,0.000,0.008,1.693,0.000,1.180,1.679,1.365,0.000,0.000,2.955,2.000,0.000,0.000,3.142,0.000,0.000,0.000,0.000,0.000,0.000,0.000,0.000,0.000,0.000,0.000,3.142,6.283,0.000,2.100,1.897,1.799,4.285,0.398,1.000,4.711,0.000,0.000,-6.736,10.455,0.451,5.833,3.408,5.729,4.183,4.384,4.484,1.998,5.882,5.284,1.571,0.000,0.000,-6.457,10.628,0.451,5.864,3.457,5.598,
108.400,664.255,-6.483,10.359,2.126,0.000,0.008,1.693,0.000,1.180,1.679,1.365,0.000,0.000,2.955,2.000,0.000,0.000,3.142,0.000,0.000,0.000,0.000,0.000,0.000,0.000,0.000,0.000,0.000,0.000,3.142,6.283,0.000,2.100,1.897,1.799,4.285,0.398,1.000,4.711,0.000,0.000,-6.736,10.455,0.451,5.833,3.408,5.729,4.183,4.384,4.484,1.998,5.882,5.284,1.571,0.000,0.000,-6.457,10.628,0.451,5.864,3.457,5.598,
108.482,664.336,-6.483,10.359,2.126,0.000,0.008,1.693,0.000,1.180,1.679,1.365,0.000,0.000,2.955,2.000,0.000,0.000,3.142,0.000,0.000,0.000,0.000,0.000,0.000,0.000,0.000,0.000,0.000,0.000,3.142,6.283,0.000,2.100,1.897,1.799,4.285,0.398,1.000,4.711,0.000,0.000,-6.736,10.455,0.451,5.833,3.408,5.729,4.183,4.384,4.484,1.998,5.882,5.284,1.571,0.000,0.000,-6.457,10.628,0.451,5.864,3.457,5.598,
108.600,664.455,-6.483,10.359,2.126,0.000,0.008,1.693,0.000,1.180,1.679,1.365,0.000,0.000,2.955,2.000,0.000,0.000,3.142,0.000,0.000,0.000,0.000,0.000,0.000,0.000,0.000,0.000,0.000,0.000,3.142,6.283,0.000,2.100,1.897,1.799,4.285,0.398,1.000,4.711,0.000,0.000,-6.736,10.455,0.451,5.833,3.408,5.729,4.183,4.384,4.484,1.998,5.882,5.284,1.571,0.000,0.000,-6.457,10.628,0.451,5.864,3.457,5.598,
108.694,664.549,-6.483,10.359,2.126,0.000,0.008,1.693,0.000,1.180,1.679,1.365,0.000,0.000,2.955,2.000,0.000,0.000,3.142,0.000,0.000,0.000,0.000,0.000,0.000,0.000,0.000,0.000,0.000,0.000,3.142,6.283,0.000,2.100,1.897,1.799,4.285,0.398,1.000,4.711,0.000,0.000,-6.736,10.455,0.451,5.833,3.408,5.729,4.183,4.384,4.484,1.998,5.882,5.284,1.571,0.000,0.000,-6.457,10.628,0.451,5.864,3.457,5.598,
108.792,664.647,-6.483,10.359,2.126,0.000,0.008,1.693,0.000,1.180,1.679,1.365,0.000,0.000,2.955,2.000,0.000,0.000,3.142,0.000,0.000,0.000,0.000,0.000,0.000,0.000,0.000,0.000,0.000,0.000,3.142,6.283,0.000,2.100,1.897,1.799,4.285,0.398,1.000,4.711,0.000,0.000,-6.736,10.455,0.451,5.833,3.408,5.729,4.183,4.384,4.484,1.998,5.882,5.284,1.571,0.000,0.000,-6.457,10.628,0.451,5.864,3.457,5.598,
108.883,664.737,-6.483,10.359,2.126,0.000,0.008,1.693,0.000,1.180,1.679,1.365,0.000,0.000,2.955,2.000,0.000,0.000,3.142,0.000,0.000,0.000,0.000,0.000,0.000,0.000,0.000,0.000,0.000,0.000,3.142,6.283,0.000,2.100,1.897,1.799,4.285,0.398,1.000,4.711,0.000,0.000,-6.736,10.455,0.451,5.833,3.408,5.729,4.183,4.384,4.484,1.998,5.882,5.284,1.571,0.000,0.000,-6.457,10.628,0.451,5.864,3.457,5.598,
109.000,664.855,-6.483,10.359,2.126,0.000,0.008,1.693,0.000,1.180,1.679,1.365,0.000,0.000,2.955,2.000,0.000,0.000,3.142,0.000,0.000,0.000,0.000,0.000,0.000,0.000,0.000,0.000,0.000,0.000,3.142,6.283,0.000,2.100,1.897,1.799,4.285,0.398,1.000,4.711,0.000,0.000,-6.736,10.455,0.451,5.833,3.408,5.729,4.183,4.384,4.484,1.998,5.882,5.284,1.571,0.000,0.000,-6.457,10.628,0.451,5.864,3.457,5.598,
109.099,664.954,-6.483,10.359,2.126,0.000,0.008,1.693,0.000,1.180,1.679,1.365,0.000,0.000,2.955,2.000,0.000,0.000,3.142,0.000,0.000,0.000,0.000,0.000,0.000,0.000,0.000,0.000,0.000,0.000,3.142,6.283,0.000,2.100,1.897,1.799,4.285,0.398,1.000,4.711,0.000,0.000,-6.736,10.455,0.451,5.833,3.408,5.729,4.183,4.384,4.484,1.998,5.882,5.284,1.571,0.000,0.000,-6.457,10.628,0.451,5.864,3.457,5.598,
109.195,665.050,-6.483,10.359,2.126,0.000,0.008,1.693,0.000,1.180,1.679,1.365,0.000,0.000,2.955,2.000,0.000,0.000,3.142,0.000,0.000,0.000,0.000,0.000,0.000,0.000,0.000,0.000,0.000,0.000,3.142,6.283,0.000,2.100,1.897,1.799,4.285,0.398,1.000,4.711,0.000,0.000,-6.736,10.455,0.451,5.833,3.408,5.729,4.183,4.384,4.484,1.998,5.882,5.284,1.571,0.000,0.000,-6.457,10.628,0.451,5.864,3.457,5.598,
109.287,665.141,-6.483,10.359,2.126,0.000,0.008,1.693,0.000,1.180,1.679,1.365,0.000,0.000,2.955,2.000,0.000,0.000,3.142,0.000,0.000,0.000,0.000,0.000,0.000,0.000,0.000,0.000,0.000,0.000,3.142,6.283,0.000,2.100,1.897,1.799,4.285,0.398,1.000,4.711,0.000,0.000,-6.736,10.455,0.451,5.833,3.408,5.729,4.183,4.384,4.484,1.998,5.882,5.284,1.571,0.000,0.000,-6.457,10.628,0.451,5.864,3.457,5.598,
109.383,665.237,-6.483,10.359,2.126,0.000,0.008,1.693,0.000,1.180,1.679,1.365,0.000,0.000,2.955,2.000,0.000,0.000,3.142,0.000,0.000,0.000,0.000,0.000,0.000,0.000,0.000,0.000,0.000,0.000,3.142,6.283,0.000,2.100,1.897,1.799,4.285,0.398,1.000,4.711,0.000,0.000,-6.736,10.455,0.451,5.833,3.408,5.729,4.183,4.384,4.484,1.998,5.882,5.284,1.571,0.000,0.000,-6.457,10.628,0.451,5.864,3.457,5.598,
109.500,665.355,-6.483,10.359,2.126,0.000,0.008,1.693,0.000,1.180,1.679,1.365,0.000,0.000,2.955,2.000,0.000,0.000,3.142,0.000,0.000,0.000,0.000,0.000,0.000,0.000,0.000,0.000,0.000,0.000,3.142,6.283,0.000,2.100,1.897,1.799,4.285,0.398,1.000,4.711,0.000,0.000,-6.736,10.455,0.451,5.833,3.408,5.729,4.183,4.384,4.484,1.998,5.882,5.284,1.571,0.000,0.000,-6.457,10.628,0.451,5.864,3.457,5.598,
109.600,665.455,-6.483,10.359,2.126,0.000,0.008,1.693,0.000,1.180,1.679,1.365,0.000,0.000,2.955,2.000,0.000,0.000,3.142,0.000,0.000,0.000,0.000,0.000,0.000,0.000,0.000,0.000,0.000,0.000,3.142,6.283,0.000,2.100,1.897,1.799,4.285,0.398,1.000,4.711,0.000,0.000,-6.736,10.455,0.451,5.833,3.408,5.729,4.183,4.384,4.484,1.998,5.882,5.284,1.571,0.000,0.000,-6.457,10.628,0.451,5.864,3.457,5.598,
109.689,665.544,-6.483,10.359,2.126,0.000,0.008,1.693,0.000,1.180,1.679,1.365,0.000,0.000,2.955,2.000,0.000,0.000,3.142,0.000,0.000,0.000,0.000,0.000,0.000,0.000,0.000,0.000,0.000,0.000,3.142,6.283,0.000,2.100,1.897,1.799,4.285,0.398,1.000,4.711,0.000,0.000,-6.736,10.455,0.451,5.833,3.408,5.729,4.183,4.384,4.484,1.998,5.882,5.284,1.571,0.000,0.000,-6.457,10.628,0.451,5.864,3.457,5.598,
109.800,665.655,-6.483,10.359,2.126,0.000,0.008,1.693,0.000,1.180,1.679,1.365,0.000,0.000,2.955,2.000,0.000,0.000,3.142,0.000,0.000,0.000,0.000,0.000,0.000,0.000,0.000,0.000,0.000,0.000,3.142,6.283,0.000,2.100,1.897,1.799,4.285,0.398,1.000,4.711,0.000,0.000,-6.736,10.455,0.451,5.833,3.408,5.729,4.183,4.384,4.484,1.998,5.882,5.284,1.571,0.000,0.000,-6.457,10.628,0.451,5.864,3.457,5.598,
109.900,665.755,-6.483,10.359,2.126,0.000,0.008,1.693,0.000,1.180,1.679,1.365,0.000,0.000,2.955,2.000,0.000,0.000,3.142,0.000,0.000,0.000,0.000,0.000,0.000,0.000,0.000,0.000,0.000,0.000,3.142,6.283,0.000,2.100,1.897,1.799,4.285,0.398,1.000,4.711,0.000,0.000,-6.736,10.455,0.451,5.833,3.408,5.729,4.183,4.384,4.484,1.998,5.882,5.284,1.571,0.000,0.000,-6.457,10.628,0.451,5.864,3.457,5.598,
110.000,665.855,-6.483,10.359,2.126,0.000,0.008,1.693,0.000,1.180,1.679,1.365,0.000,0.000,2.955,2.000,0.000,0.000,3.142,0.000,0.000,0.000,0.000,0.000,0.000,0.000,0.000,0.000,0.000,0.000,3.142,6.283,0.000,2.100,1.897,1.799,4.285,0.398,1.000,4.711,0.000,0.000,-6.736,10.455,0.451,5.833,3.408,5.729,4.183,4.384,4.484,1.998,5.882,5.284,1.571,0.000,0.000,-6.457,10.628,0.451,5.864,3.457,5.598,
110.089,665.943,-6.483,10.359,2.126,0.000,0.008,1.693,0.000,1.180,1.679,1.365,0.000,0.000,2.955,2.000,0.000,0.000,3.142,0.000,0.000,0.000,0.000,0.000,0.000,0.000,0.000,0.000,0.000,0.000,3.142,6.283,0.000,2.100,1.897,1.799,4.285,0.398,1.000,4.711,0.000,0.000,-6.736,10.455,0.451,5.833,3.408,5.729,4.183,4.384,4.484,1.998,5.882,5.284,1.571,0.000,0.000,-6.457,10.628,0.451,5.864,3.457,5.598,
110.184,666.038,-6.483,10.359,2.126,0.000,0.008,1.693,0.000,1.180,1.679,1.365,0.000,0.000,2.955,2.000,0.000,0.000,3.142,0.000,0.000,0.000,0.000,0.000,0.000,0.000,0.000,0.000,0.000,0.000,3.142,6.283,0.000,2.100,1.897,1.799,4.285,0.398,1.000,4.711,0.000,0.000,-6.736,10.455,0.451,5.833,3.408,5.729,4.183,4.384,4.484,1.998,5.882,5.284,1.571,0.000,0.000,-6.457,10.628,0.451,5.864,3.457,5.598,
110.300,666.155,-6.483,10.359,2.126,0.000,0.008,1.693,0.000,1.180,1.679,1.365,0.000,0.000,2.955,2.000,0.000,0.000,3.142,0.000,0.000,0.000,0.000,0.000,0.000,0.000,0.000,0.000,0.000,0.000,3.142,6.283,0.000,2.100,1.897,1.799,4.285,0.398,1.000,4.711,0.000,0.000,-6.736,10.455,0.451,5.833,3.408,5.729,4.183,4.384,4.484,1.998,5.882,5.284,1.571,0.000,0.000,-6.457,10.628,0.451,5.864,3.457,5.598,
110.400,666.255,-6.483,10.359,2.126,0.000,0.008,1.693,0.000,1.180,1.679,1.365,0.000,0.000,2.955,2.000,0.000,0.000,3.142,0.000,0.000,0.000,0.000,0.000,0.000,0.000,0.000,0.000,0.000,0.000,3.142,6.283,0.000,2.100,1.897,1.799,4.285,0.398,1.000,4.711,0.000,0.000,-6.736,10.455,0.451,5.833,3.408,5.729,4.183,4.384,4.484,1.998,5.882,5.284,1.571,0.000,0.000,-6.457,10.628,0.451,5.864,3.457,5.598,
110.486,666.340,-6.483,10.359,2.126,0.000,0.008,1.693,0.000,1.180,1.679,1.365,0.000,0.000,2.955,2.000,0.000,0.000,3.142,0.000,0.000,0.000,0.000,0.000,0.000,0.000,0.000,0.000,0.000,0.000,3.142,6.283,0.000,2.100,1.897,1.799,4.285,0.398,1.000,4.711,0.000,0.000,-6.736,10.455,0.451,5.833,3.408,5.729,4.183,4.384,4.484,1.998,5.882,5.284,1.571,0.000,0.000,-6.457,10.628,0.451,5.864,3.457,5.598,
110.600,666.455,-6.483,10.359,2.126,0.000,0.008,1.693,0.000,1.180,1.679,1.365,0.000,0.000,2.955,2.000,0.000,0.000,3.142,0.000,0.000,0.000,0.000,0.000,0.000,0.000,0.000,0.000,0.000,0.000,3.142,6.283,0.000,2.100,1.897,1.799,4.285,0.398,1.000,4.711,0.000,0.000,-6.736,10.455,0.451,5.833,3.408,5.729,4.183,4.384,4.484,1.998,5.882,5.284,1.571,0.000,0.000,-6.457,10.628,0.451,5.864,3.457,5.598,
110.688,666.543,-6.483,10.359,2.126,0.000,0.008,1.693,0.000,1.180,1.679,1.365,0.000,0.000,2.955,2.000,0.000,0.000,3.142,0.000,0.000,0.000,0.000,0.000,0.000,0.000,0.000,0.000,0.000,0.000,3.142,6.283,0.000,2.100,1.897,1.799,4.285,0.398,1.000,4.711,0.000,0.000,-6.736,10.455,0.451,5.833,3.408,5.729,4.183,4.384,4.484,1.998,5.882,5.284,1.571,0.000,0.000,-6.457,10.628,0.451,5.864,3.457,5.598,
110.800,666.655,-6.483,10.359,2.126,0.000,0.008,1.693,0.000,1.180,1.679,1.365,0.000,0.000,2.955,2.000,0.000,0.000,3.142,0.000,0.000,0.000,0.000,0.000,0.000,0.000,0.000,0.000,0.000,0.000,3.142,6.283,0.000,2.100,1.897,1.799,4.285,0.398,1.000,4.711,0.000,0.000,-6.736,10.455,0.451,5.833,3.408,5.729,4.183,4.384,4.484,1.998,5.882,5.284,1.571,0.000,0.000,-6.457,10.628,0.451,5.864,3.457,5.598,
110.881,666.736,-6.483,10.359,2.126,0.000,0.008,1.693,0.000,1.180,1.679,1.365,0.000,0.000,2.955,2.000,0.000,0.000,3.142,0.000,0.000,0.000,0.000,0.000,0.000,0.000,0.000,0.000,0.000,0.000,3.142,6.283,0.000,2.100,1.897,1.799,4.285,0.398,1.000,4.711,0.000,0.000,-6.736,10.455,0.451,5.833,3.408,5.729,4.183,4.384,4.484,1.998,5.882,5.284,1.571,0.000,0.000,-6.457,10.628,0.451,5.864,3.457,5.598,
111.000,666.855,-6.483,10.359,2.126,0.000,0.008,1.693,0.000,1.180,1.679,1.365,0.000,0.000,2.955,2.000,0.000,0.000,3.142,0.000,0.000,0.000,0.000,0.000,0.000,0.000,0.000,0.000,0.000,0.000,3.142,6.283,0.000,2.100,1.897,1.799,4.285,0.398,1.000,4.711,0.000,0.000,-6.736,10.455,0.451,5.833,3.408,5.729,4.183,4.384,4.484,1.998,5.882,5.284,1.571,0.000,0.000,-6.457,10.628,0.451,5.864,3.457,5.598,
111.095,666.950,-6.483,10.359,2.126,0.000,0.008,1.693,0.000,1.180,1.679,1.365,0.000,0.000,2.955,2.000,0.000,0.000,3.142,0.000,0.000,0.000,0.000,0.000,0.000,0.000,0.000,0.000,0.000,0.000,3.142,6.283,0.000,2.100,1.897,1.799,4.285,0.398,1.000,4.711,0.000,0.000,-6.736,10.455,0.451,5.833,3.408,5.729,4.183,4.384,4.484,1.998,5.882,5.284,1.571,0.000,0.000,-6.457,10.628,0.451,5.864,3.457,5.598,
111.186,667.041,-6.483,10.359,2.126,0.000,0.008,1.693,0.000,1.180,1.679,1.365,0.000,0.000,2.955,2.000,0.000,0.000,3.142,0.000,0.000,0.000,0.000,0.000,0.000,0.000,0.000,0.000,0.000,0.000,3.142,6.283,0.000,2.100,1.897,1.799,4.285,0.398,1.000,4.711,0.000,0.000,-6.736,10.455,0.451,5.833,3.408,5.729,4.183,4.384,4.484,1.998,5.882,5.284,1.571,0.000,0.000,-6.457,10.628,0.451,5.864,3.457,5.598,
111.300,667.155,-6.483,10.359,2.126,0.000,0.008,1.693,0.000,1.180,1.679,1.365,0.000,0.000,2.955,2.000,0.000,0.000,3.142,0.000,0.000,0.000,0.000,0.000,0.000,0.000,0.000,0.000,0.000,0.000,3.142,6.283,0.000,2.100,1.897,1.799,4.285,0.398,1.000,4.711,0.000,0.000,-6.736,10.455,0.451,5.833,3.408,5.729,4.183,4.384,4.484,1.998,5.882,5.284,1.571,0.000,0.000,-6.457,10.628,0.451,5.864,3.457,5.598,
111.384,667.239,-6.483,10.359,2.126,0.000,0.008,1.693,0.000,1.180,1.679,1.365,0.000,0.000,2.955,2.000,0.000,0.000,3.142,0.000,0.000,0.000,0.000,0.000,0.000,0.000,0.000,0.000,0.000,0.000,3.142,6.283,0.000,2.100,1.897,1.799,4.285,0.398,1.000,4.711,0.000,0.000,-6.736,10.455,0.451,5.833,3.408,5.729,4.183,4.384,4.484,1.998,5.882,5.284,1.571,0.000,0.000,-6.457,10.628,0.451,5.864,3.457,5.598,
111.500,667.355,-6.483,10.359,2.126,0.000,0.008,1.693,0.000,1.180,1.679,1.365,0.000,0.000,2.955,2.000,0.000,0.000,3.142,0.000,0.000,0.000,0.000,0.000,0.000,0.000,0.000,0.000,0.000,0.000,3.142,6.283,0.000,2.100,1.897,1.799,4.285,0.398,1.000,4.711,0.000,0.000,-6.736,10.455,0.451,5.833,3.408,5.729,4.183,4.384,4.484,1.998,5.882,5.284,1.571,0.000,0.000,-6.457,10.628,0.451,5.864,3.457,5.598,
111.600,667.455,-6.483,10.359,2.126,0.000,0.008,1.693,0.000,1.180,1.679,1.365,0.000,0.000,2.955,2.000,0.000,0.000,3.142,0.000,0.000,0.000,0.000,0.000,0.000,0.000,0.000,0.000,0.000,0.000,3.142,6.283,0.000,2.100,1.897,1.799,4.285,0.398,1.000,4.711,0.000,0.000,-6.736,10.455,0.451,5.833,3.408,5.729,4.183,4.384,4.484,1.998,5.882,5.284,1.571,0.000,0.000,-6.457,10.628,0.451,5.864,3.457,5.598,
111.683,667.537,-6.483,10.359,2.126,0.000,0.008,1.693,0.000,1.180,1.679,1.365,0.000,0.000,2.955,2.000,0.000,0.000,3.142,0.000,0.000,0.000,0.000,0.000,0.000,0.000,0.000,0.000,0.000,0.000,3.142,6.283,0.000,2.100,1.897,1.799,4.285,0.398,1.000,4.711,0.000,0.000,-6.736,10.455,0.451,5.833,3.408,5.729,4.183,4.384,4.484,1.998,5.882,5.284,1.571,0.000,0.000,-6.457,10.628,0.451,5.864,3.457,5.598,
111.800,667.655,-6.483,10.359,2.126,0.000,0.008,1.693,0.000,1.180,1.679,1.365,0.000,0.000,2.955,2.000,0.000,0.000,3.142,0.000,0.000,0.000,0.000,0.000,0.000,0.000,0.000,0.000,0.000,0.000,3.142,6.283,0.000,2.100,1.897,1.799,4.285,0.398,1.000,4.711,0.000,0.000,-6.736,10.455,0.451,5.833,3.408,5.729,4.183,4.384,4.484,1.998,5.882,5.284,1.571,0.000,0.000,-6.457,10.628,0.451,5.864,3.457,5.598,
111.900,667.755,-6.483,10.359,2.126,0.000,0.008,1.693,0.000,1.180,1.679,1.365,0.000,0.000,2.955,2.000,0.000,0.000,3.142,0.000,0.000,0.000,0.000,0.000,0.000,0.000,0.000,0.000,0.000,0.000,3.142,6.283,0.000,2.100,1.897,1.799,4.285,0.398,1.000,4.711,0.000,0.000,-6.736,10.455,0.451,5.833,3.408,5.729,4.183,4.384,4.484,1.998,5.882,5.284,1.571,0.000,0.000,-6.457,10.628,0.451,5.864,3.457,5.598,
112.000,667.855,-6.483,10.359,2.126,0.000,0.008,1.693,0.000,1.180,1.679,1.365,0.000,0.000,2.955,2.000,0.000,0.000,3.142,0.000,0.000,0.000,0.000,0.000,0.000,0.000,0.000,0.000,0.000,0.000,3.142,6.283,0.000,2.100,1.897,1.799,4.285,0.398,1.000,4.711,0.000,0.000,-6.736,10.455,0.451,5.833,3.408,5.729,4.183,4.384,4.484,1.998,5.882,5.284,1.571,0.000,0.000,-6.457,10.628,0.451,5.864,3.457,5.598,
112.084,667.939,-6.483,10.359,2.126,0.000,0.008,1.693,0.000,1.180,1.679,1.365,0.000,0.000,2.955,2.000,0.000,0.000,3.142,0.000,0.000,0.000,0.000,0.000,0.000,0.000,0.000,0.000,0.000,0.000,3.142,6.283,0.000,2.100,1.897,1.799,4.285,0.398,1.000,4.711,0.000,0.000,-6.736,10.455,0.451,5.833,3.408,5.729,4.183,4.384,4.484,1.998,5.882,5.284,1.571,0.000,0.000,-6.457,10.628,0.451,5.864,3.457,5.598,
112.196,668.051,-6.483,10.359,2.126,0.000,0.008,1.693,0.000,1.180,1.679,1.365,0.000,0.000,2.955,2.000,0.000,0.000,3.142,0.000,0.000,0.000,0.000,0.000,0.000,0.000,0.000,0.000,0.000,0.000,3.142,6.283,0.000,2.100,1.897,1.799,4.285,0.398,1.000,4.711,0.000,0.000,-6.736,10.455,0.451,5.833,3.408,5.729,4.183,4.384,4.484,1.998,5.882,5.284,1.571,0.000,0.000,-6.457,10.628,0.451,5.864,3.457,5.598,
112.300,668.155,-6.483,10.359,2.126,0.000,0.008,1.693,0.000,1.180,1.679,1.365,0.000,0.000,2.955,2.000,0.000,0.000,3.142,0.000,0.000,0.000,0.000,0.000,0.000,0.000,0.000,0.000,0.000,0.000,3.142,6.283,0.000,2.100,1.897,1.799,4.285,0.398,1.000,4.711,0.000,0.000,-6.736,10.455,0.451,5.833,3.408,5.729,4.183,4.384,4.484,1.998,5.882,5.284,1.571,0.000,0.000,-6.457,10.628,0.451,5.864,3.457,5.598,
112.400,668.255,-6.483,10.359,2.126,0.000,0.008,1.693,0.000,1.180,1.679,1.365,0.000,0.000,2.955,2.000,0.000,0.000,3.142,0.000,0.000,0.000,0.000,0.000,0.000,0.000,0.000,0.000,0.000,0.000,3.142,6.283,0.000,2.100,1.897,1.799,4.285,0.398,1.000,4.711,0.000,0.000,-6.736,10.455,0.451,5.833,3.408,5.729,4.183,4.384,4.484,1.998,5.882,5.284,1.571,0.000,0.000,-6.457,10.628,0.451,5.864,3.457,5.598,
112.499,668.354,-6.483,10.359,2.126,0.000,0.008,1.693,0.000,1.180,1.679,1.365,0.000,0.000,2.955,2.000,0.000,0.000,3.142,0.000,0.000,0.000,0.000,0.000,0.000,0.000,0.000,0.000,0.000,0.000,3.142,6.283,0.000,2.100,1.897,1.799,4.285,0.398,1.000,4.711,0.000,0.000,-6.736,10.455,0.451,5.833,3.408,5.729,4.183,4.384,4.484,1.998,5.882,5.284,1.571,0.000,0.000,-6.457,10.628,0.451,5.864,3.457,5.598,
112.600,668.455,-6.483,10.359,2.126,0.000,0.008,1.693,0.000,1.180,1.679,1.365,0.000,0.000,2.955,2.000,0.000,0.000,3.142,0.000,0.000,0.000,0.000,0.000,0.000,0.000,0.000,0.000,0.000,0.000,3.142,6.283,0.000,2.100,1.897,1.799,4.285,0.398,1.000,4.711,0.000,0.000,-6.736,10.455,0.451,5.833,3.408,5.729,4.183,4.384,4.484,1.998,5.882,5.284,1.571,0.000,0.000,-6.457,10.628,0.451,5.864,3.457,5.598,
112.692,668.547,-6.483,10.359,2.126,0.000,0.008,1.693,0.000,1.180,1.679,1.365,0.000,0.000,2.955,2.000,0.000,0.000,3.142,0.000,0.000,0.000,0.000,0.000,0.000,0.000,0.000,0.000,0.000,0.000,3.142,6.283,0.000,2.100,1.897,1.799,4.285,0.398,1.000,4.711,0.000,0.000,-6.736,10.455,0.451,5.833,3.408,5.729,4.183,4.384,4.484,1.998,5.882,5.284,1.571,0.000,0.000,-6.457,10.628,0.451,5.864,3.457,5.598,
112.800,668.655,-6.483,10.359,2.126,0.000,0.008,1.693,0.000,1.180,1.679,1.365,0.000,0.000,2.955,2.000,0.000,0.000,3.142,0.000,0.000,0.000,0.000,0.000,0.000,0.000,0.000,0.000,0.000,0.000,3.142,6.283,0.000,2.100,1.897,1.799,4.285,0.398,1.000,4.711,0.000,0.000,-6.736,10.455,0.451,5.833,3.408,5.729,4.183,4.384,4.484,1.998,5.882,5.284,1.571,0.000,0.000,-6.457,10.628,0.451,5.864,3.457,5.598,
112.900,668.755,-6.483,10.359,2.126,0.000,0.008,1.693,0.000,1.180,1.679,1.365,0.000,0.000,2.955,2.000,0.000,0.000,3.142,0.000,0.000,0.000,0.000,0.000,0.000,0.000,0.000,0.000,0.000,0.000,3.142,6.283,0.000,2.100,1.897,1.799,4.285,0.398,1.000,4.711,0.000,0.000,-6.736,10.455,0.451,5.833,3.408,5.729,4.183,4.384,4.484,1.998,5.882,5.284,1.571,0.000,0.000,-6.457,10.628,0.451,5.864,3.457,5.598,
113.000,668.855,-6.483,10.359,2.126,0.000,0.008,1.693,0.000,1.180,1.679,1.365,0.000,0.000,2.955,2.000,0.000,0.000,3.142,0.000,0.000,0.000,0.000,0.000,0.000,0.000,0.000,0.000,0.000,0.000,3.142,6.283,0.000,2.100,1.897,1.799,4.285,0.398,1.000,4.711,0.000,0.000,-6.736,10.455,0.451,5.833,3.408,5.729,4.183,4.384,4.484,1.998,5.882,5.284,1.571,0.000,0.000,-6.457,10.628,0.451,5.864,3.457,5.598,
113.089,668.944,-6.483,10.359,2.126,0.000,0.008,1.693,0.000,1.180,1.679,1.365,0.000,0.000,2.955,2.000,0.000,0.000,3.142,0.000,0.000,0.000,0.000,0.000,0.000,0.000,0.000,0.000,0.000,0.000,3.142,6.283,0.000,2.100,1.897,1.799,4.285,0.398,1.000,4.711,0.000,0.000,-6.736,10.455,0.451,5.833,3.408,5.729,4.183,4.384,4.484,1.998,5.882,5.284,1.571,0.000,0.000,-6.457,10.628,0.451,5.864,3.457,5.598,
113.185,669.040,-6.483,10.359,2.126,0.000,0.008,1.693,0.000,1.180,1.679,1.365,0.000,0.000,2.955,2.000,0.000,0.000,3.142,0.000,0.000,0.000,0.000,0.000,0.000,0.000,0.000,0.000,0.000,0.000,3.142,6.283,0.000,2.100,1.897,1.799,4.285,0.398,1.000,4.711,0.000,0.000,-6.736,10.455,0.451,5.833,3.408,5.729,4.183,4.384,4.484,1.998,5.882,5.284,1.571,0.000,0.000,-6.457,10.628,0.451,5.864,3.457,5.598,
113.281,669.135,-6.483,10.359,2.126,0.000,0.008,1.693,0.000,1.180,1.679,1.365,0.000,0.000,2.955,2.000,0.000,0.000,3.142,0.000,0.000,0.000,0.000,0.000,0.000,0.000,0.000,0.000,0.000,0.000,3.142,6.283,0.000,2.100,1.897,1.799,4.285,0.398,1.000,4.711,0.000,0.000,-6.736,10.455,0.451,5.833,3.408,5.729,4.183,4.384,4.484,1.998,5.882,5.284,1.571,0.000,0.000,-6.457,10.628,0.451,5.864,3.457,5.598,
113.400,669.255,-6.483,10.359,2.126,0.000,0.008,1.693,0.000,1.180,1.679,1.365,0.000,0.000,2.955,2.000,0.000,0.000,3.142,0.000,0.000,0.000,0.000,0.000,0.000,0.000,0.000,0.000,0.000,0.000,3.142,6.283,0.000,2.100,1.897,1.799,4.285,0.398,1.000,4.711,0.000,0.000,-6.736,10.455,0.451,5.833,3.408,5.729,4.183,4.384,4.484,1.998,5.882,5.284,1.571,0.000,0.000,-6.457,10.628,0.451,5.864,3.457,5.598,
113.500,669.354,-6.483,10.359,2.126,0.000,0.008,1.693,0.000,1.180,1.679,1.365,0.000,0.000,2.955,2.000,0.000,0.000,3.142,0.000,0.000,0.000,0.000,0.000,0.000,0.000,0.000,0.000,0.000,0.000,3.142,6.283,0.000,2.100,1.897,1.799,4.285,0.398,1.000,4.711,0.000,0.000,-6.736,10.455,0.451,5.833,3.408,5.729,4.183,4.384,4.484,1.998,5.882,5.284,1.571,0.000,0.000,-6.457,10.628,0.451,5.864,3.457,5.598,
113.584,669.439,-6.483,10.359,2.126,0.000,0.008,1.693,0.000,1.180,1.679,1.365,0.000,0.000,2.955,2.000,0.000,0.000,3.142,0.000,0.000,0.000,0.000,0.000,0.000,0.000,0.000,0.000,0.000,0.000,3.142,6.283,0.000,2.100,1.897,1.799,4.285,0.398,1.000,4.711,0.000,0.000,-6.736,10.455,0.451,5.833,3.408,5.729,4.183,4.384,4.484,1.998,5.882,5.284,1.571,0.000,0.000,-6.457,10.628,0.451,5.864,3.457,5.598,
113.681,669.536,-6.483,10.359,2.126,0.000,0.008,1.693,0.000,1.180,1.679,1.365,0.000,0.000,2.955,2.000,0.000,0.000,3.142,0.000,0.000,0.000,0.000,0.000,0.000,0.000,0.000,0.000,0.000,0.000,3.142,6.283,0.000,2.100,1.897,1.799,4.285,0.398,1.000,4.711,0.000,0.000,-6.736,10.455,0.451,5.833,3.408,5.729,4.183,4.384,4.484,1.998,5.882,5.284,1.571,0.000,0.000,-6.457,10.628,0.451,5.864,3.457,5.598,
113.800,669.655,-6.483,10.359,2.126,0.000,0.008,1.693,0.000,1.180,1.679,1.365,0.000,0.000,2.955,2.000,0.000,0.000,3.142,0.000,0.000,0.000,0.000,0.000,0.000,0.000,0.000,0.000,0.000,0.000,3.142,6.283,0.000,2.100,1.897,1.799,4.285,0.398,1.000,4.711,0.000,0.000,-6.736,10.455,0.451,5.833,3.408,5.729,4.183,4.384,4.484,1.998,5.882,5.284,1.571,0.000,0.000,-6.457,10.628,0.451,5.864,3.457,5.598,
113.896,669.751,-6.483,10.359,2.126,0.000,0.008,1.693,0.000,1.180,1.679,1.365,0.000,0.000,2.955,2.000,0.000,0.000,3.142,0.000,0.000,0.000,0.000,0.000,0.000,0.000,0.000,0.000,0.000,0.000,3.142,6.283,0.000,2.100,1.897,1.799,4.285,0.398,1.000,4.711,0.000,0.000,-6.736,10.455,0.451,5.833,3.408,5.729,4.183,4.384,4.484,1.998,5.882,5.284,1.571,0.000,0.000,-6.457,10.628,0.451,5.864,3.457,5.598,
114.000,669.855,-6.483,10.359,2.126,0.000,0.008,1.693,0.000,1.180,1.679,1.365,0.000,0.000,2.955,2.000,0.000,0.000,3.142,0.000,0.000,0.000,0.000,0.000,0.000,0.000,0.000,0.000,0.000,0.000,3.142,6.283,0.000,2.100,1.897,1.799,4.285,0.398,1.000,4.711,0.000,0.000,-6.736,10.455,0.451,5.833,3.408,5.729,4.183,4.384,4.484,1.998,5.882,5.284,1.571,0.000,0.000,-6.457,10.628,0.451,5.864,3.457,5.598,
114.091,669.946,-6.483,10.359,2.126,0.000,0.008,1.693,0.000,1.180,1.679,1.365,0.000,0.000,2.955,2.000,0.000,0.000,3.142,0.000,0.000,0.000,0.000,0.000,0.000,0.000,0.000,0.000,0.000,0.000,3.142,6.283,0.000,2.100,1.897,1.799,4.285,0.398,1.000,4.711,0.000,0.000,-6.736,10.455,0.451,5.833,3.408,5.729,4.183,4.384,4.484,1.998,5.882,5.284,1.571,0.000,0.000,-6.457,10.628,0.451,5.864,3.457,5.598,
114.200,670.055,-6.483,10.359,2.126,0.000,0.008,1.693,0.000,1.180,1.679,1.365,0.000,0.000,2.955,2.000,0.000,0.000,3.142,0.000,0.000,0.000,0.000,0.000,0.000,0.000,0.000,0.000,0.000,0.000,3.142,6.283,0.000,2.100,1.897,1.799,4.285,0.398,1.000,4.711,0.000,0.000,-6.736,10.455,0.451,5.833,3.408,5.729,4.183,4.384,4.484,1.998,5.882,5.284,1.571,0.000,0.000,-6.457,10.628,0.451,5.864,3.457,5.598,
114.300,670.155,-6.483,10.359,2.126,0.000,0.008,1.693,0.000,1.180,1.679,1.365,0.000,0.000,2.955,2.000,0.000,0.000,3.142,0.000,0.000,0.000,0.000,0.000,0.000,0.000,0.000,0.000,0.000,0.000,3.142,6.283,0.000,2.100,1.897,1.799,4.285,0.398,1.000,4.711,0.000,0.000,-6.736,10.455,0.451,5.833,3.408,5.729,4.183,4.384,4.484,1.998,5.882,5.284,1.571,0.000,0.000,-6.457,10.628,0.451,5.864,3.457,5.598,
114.400,670.255,-6.483,10.359,2.126,0.000,0.008,1.693,0.000,1.180,1.679,1.365,0.000,0.000,2.955,2.000,0.000,0.000,3.142,0.000,0.000,0.000,0.000,0.000,0.000,0.000,0.000,0.000,0.000,0.000,3.142,6.283,0.000,2.100,1.897,1.799,4.285,0.398,1.000,4.711,0.000,0.000,-6.736,10.455,0.451,5.833,3.408,5.729,4.183,4.384,4.484,1.998,5.882,5.284,1.571,0.000,0.000,-6.457,10.628,0.451,5.864,3.457,5.598,
114.491,670.345,-6.483,10.359,2.126,0.000,0.008,1.693,0.000,1.180,1.679,1.365,0.000,0.000,2.955,2.000,0.000,0.000,3.142,0.000,0.000,0.000,0.000,0.000,0.000,0.000,0.000,0.000,0.000,0.000,3.142,6.283,0.000,2.100,1.897,1.799,4.285,0.398,1.000,4.711,0.000,0.000,-6.736,10.455,0.451,5.833,3.408,5.729,4.183,4.384,4.484,1.998,5.882,5.284,1.571,0.000,0.000,-6.457,10.628,0.451,5.864,3.457,5.598,
114.590,670.444,-6.483,10.359,2.126,0.000,0.008,1.693,0.000,1.180,1.679,1.365,0.000,0.000,2.955,2.000,0.000,0.000,3.142,0.000,0.000,0.000,0.000,0.000,0.000,0.000,0.000,0.000,0.000,0.000,3.142,6.283,0.000,2.100,1.897,1.799,4.285,0.398,1.000,4.711,0.000,0.000,-6.736,10.455,0.451,5.833,3.408,5.729,4.183,4.384,4.484,1.998,5.882,5.284,1.571,0.000,0.000,-6.457,10.628,0.451,5.864,3.457,5.598,
114.700,670.555,-6.483,10.359,2.126,0.000,0.008,1.693,0.000,1.180,1.679,1.365,0.000,0.000,2.955,2.000,0.000,0.000,3.142,0.000,0.000,0.000,0.000,0.000,0.000,0.000,0.000,0.000,0.000,0.000,3.142,6.283,0.000,2.100,1.897,1.799,4.285,0.398,1.000,4.711,0.000,0.000,-6.736,10.455,0.451,5.833,3.408,5.729,4.183,4.384,4.484,1.998,5.882,5.284,1.571,0.000,0.000,-6.457,10.628,0.451,5.864,3.457,5.598,
114.800,670.655,-6.483,10.359,2.126,0.000,0.008,1.693,0.000,1.180,1.679,1.365,0.000,0.000,2.955,2.000,0.000,0.000,3.142,0.000,0.000,0.000,0.000,0.000,0.000,0.000,0.000,0.000,0.000,0.000,3.142,6.283,0.000,2.100,1.897,1.799,4.285,0.398,1.000,4.711,0.000,0.000,-6.736,10.455,0.451,5.833,3.408,5.729,4.183,4.384,4.484,1.998,5.882,5.284,1.571,0.000,0.000,-6.457,10.628,0.451,5.864,3.457,5.598,
114.889,670.743,-6.483,10.359,2.126,0.000,0.008,1.693,0.000,1.180,1.679,1.365,0.000,0.000,2.955,2.000,0.000,0.000,3.142,0.000,0.000,0.000,0.000,0.000,0.000,0.000,0.000,0.000,0.000,0.000,3.142,6.283,0.000,2.100,1.897,1.799,4.285,0.398,1.000,4.711,0.000,0.000,-6.736,10.455,0.451,5.833,3.408,5.729,4.183,4.384,4.484,1.998,5.882,5.284,1.571,0.000,0.000,-6.457,10.628,0.451,5.864,3.457,5.598,
114.986,670.840,-6.483,10.359,2.126,0.000,0.008,1.693,0.000,1.180,1.679,1.365,0.000,0.000,2.955,2.000,0.000,0.000,3.142,0.000,0.000,0.000,0.000,0.000,0.000,0.000,0.000,0.000,0.000,0.000,3.142,6.283,0.000,2.100,1.897,1.799,4.285,0.398,1.000,4.711,0.000,0.000,-6.736,10.455,0.451,5.833,3.408,5.729,4.183,4.384,4.484,1.998,5.882,5.284,1.571,0.000,0.000,-6.457,10.628,0.451,5.864,3.457,5.598,
115.100,670.955,-6.483,10.359,2.126,0.000,0.008,1.693,0.000,1.180,1.679,1.365,0.000,0.000,2.955,2.000,0.000,0.000,3.142,0.000,0.000,0.000,0.000,0.000,0.000,0.000,0.000,0.000,0.000,0.000,3.142,6.283,0.000,2.100,1.897,1.799,4.285,0.398,1.000,4.711,0.000,0.000,-6.736,10.455,0.451,5.833,3.408,5.729,4.183,4.384,4.484,1.998,5.882,5.284,1.571,0.000,0.000,-6.457,10.628,0.451,5.864,3.457,5.598,
115.200,671.055,-6.483,10.359,2.126,0.000,0.008,1.693,0.000,1.180,1.679,1.365,0.000,0.000,2.955,2.000,0.000,0.000,3.142,0.000,0.000,0.000,0.000,0.000,0.000,0.000,0.000,0.000,0.000,0.000,3.142,6.283,0.000,2.100,1.897,1.799,4.285,0.398,1.000,4.711,0.000,0.000,-6.736,10.455,0.451,5.833,3.408,5.729,4.183,4.384,4.484,1.998,5.882,5.284,1.571,0.000,0.000,-6.457,10.628,0.451,5.864,3.457,5.598,
115.300,671.155,-6.483,10.359,2.126,0.000,0.008,1.693,0.000,1.180,1.679,1.365,0.000,0.000,2.955,2.000,0.000,0.000,3.142,0.000,0.000,0.000,0.000,0.000,0.000,0.000,0.000,0.000,0.000,0.000,3.142,6.283,0.000,2.100,1.897,1.799,4.285,0.398,1.000,4.711,0.000,0.000,-6.736,10.455,0.451,5.833,3.408,5.729,4.183,4.384,4.484,1.998,5.882,5.284,1.571,0.000,0.000,-6.457,10.628,0.451,5.864,3.457,5.598,
115.400,671.255,-6.483,10.359,2.126,0.000,0.008,1.693,0.000,1.180,1.679,1.365,0.000,0.000,2.955,2.000,0.000,0.000,3.142,0.000,0.000,0.000,0.000,0.000,0.000,0.000,0.000,0.000,0.000,0.000,3.142,6.283,0.000,2.100,1.897,1.799,4.285,0.398,1.000,4.711,0.000,0.000,-6.736,10.455,0.451,5.833,3.408,5.729,4.183,4.384,4.484,1.998,5.882,5.284,1.571,0.000,0.000,-6.457,10.628,0.451,5.864,3.457,5.598,
115.498,671.353,-6.483,10.359,2.126,0.000,0.008,1.693,0.000,1.180,1.679,1.365,0.000,0.000,2.955,2.000,0.000,0.000,3.142,0.000,0.000,0.000,0.000,0.000,0.000,0.000,0.000,0.000,0.000,0.000,3.142,6.283,0.000,2.100,1.897,1.799,4.285,0.398,1.000,4.711,0.000,0.000,-6.736,10.455,0.451,5.833,3.408,5.729,4.183,4.384,4.484,1.998,5.882,5.284,1.571,0.000,0.000,-6.457,10.628,0.451,5.864,3.457,5.598,
115.588,671.442,-6.483,10.359,2.126,0.000,0.008,1.693,0.000,1.180,1.679,1.365,0.000,0.000,2.955,2.000,0.000,0.000,3.142,0.000,0.000,0.000,0.000,0.000,0.000,0.000,0.000,0.000,0.000,0.000,3.142,6.283,0.000,2.100,1.897,1.799,4.285,0.398,1.000,4.711,0.000,0.000,-6.736,10.455,0.451,5.833,3.408,5.729,4.183,4.384,4.484,1.998,5.882,5.284,1.571,0.000,0.000,-6.457,10.628,0.451,5.864,3.457,5.598,
115.700,671.555,-6.483,10.359,2.126,0.000,0.008,1.693,0.000,1.180,1.679,1.365,0.000,0.000,2.955,2.000,0.000,0.000,3.142,0.000,0.000,0.000,0.000,0.000,0.000,0.000,0.000,0.000,0.000,0.000,3.142,6.283,0.000,2.100,1.897,1.799,4.285,0.398,1.000,4.711,0.000,0.000,-6.736,10.455,0.451,5.833,3.408,5.729,4.183,4.384,4.484,1.998,5.882,5.284,1.571,0.000,0.000,-6.457,10.628,0.451,5.864,3.457,5.598,
115.800,671.655,-6.483,10.359,2.126,0.000,0.008,1.693,0.000,1.180,1.679,1.365,0.000,0.000,2.955,2.000,0.000,0.000,3.142,0.000,0.000,0.000,0.000,0.000,0.000,0.000,0.000,0.000,0.000,0.000,3.142,6.283,0.000,2.100,1.897,1.799,4.285,0.398,1.000,4.711,0.000,0.000,-6.736,10.455,0.451,5.833,3.408,5.729,4.183,4.384,4.484,1.998,5.882,5.284,1.571,0.000,0.000,-6.457,10.628,0.451,5.864,3.457,5.598,
115.900,671.755,-6.483,10.359,2.126,0.000,0.008,1.693,0.000,1.180,1.679,1.365,0.000,0.000,2.955,2.000,0.000,0.000,3.142,0.000,0.000,0.000,0.000,0.000,0.000,0.000,0.000,0.000,0.000,0.000,3.142,6.283,0.000,2.100,1.897,1.799,4.285,0.398,1.000,4.711,0.000,0.000,-6.736,10.455,0.451,5.833,3.408,5.729,4.183,4.384,4.484,1.998,5.882,5.284,1.571,0.000,0.000,-6.457,10.628,0.451,5.864,3.457,5.598,
115.999,671.854,-6.483,10.359,2.126,0.000,0.008,1.693,0.000,1.180,1.679,1.365,0.000,0.000,2.955,2.000,0.000,0.000,3.142,0.000,0.000,0.000,0.000,0.000,0.000,0.000,0.000,0.000,0.000,0.000,3.142,6.283,0.000,2.100,1.897,1.799,4.285,0.398,1.000,4.711,0.000,0.000,-6.736,10.455,0.451,5.833,3.408,5.729,4.183,4.384,4.484,1.998,5.882,5.284,1.571,0.000,0.000,-6.457,10.628,0.451,5.864,3.457,5.598,
116.092,671.947,-6.483,10.359,2.126,0.000,0.008,1.693,0.000,1.180,1.679,1.365,0.000,0.000,2.955,2.000,0.000,0.000,3.142,0.000,0.000,0.000,0.000,0.000,0.000,0.000,0.000,0.000,0.000,0.000,3.142,6.283,0.000,2.100,1.897,1.799,4.285,0.398,1.000,4.711,0.000,0.000,-6.736,10.455,0.451,5.833,3.408,5.729,4.183,4.384,4.484,1.998,5.882,5.284,1.571,0.000,0.000,-6.457,10.628,0.451,5.864,3.457,5.598,
116.200,672.055,-6.483,10.359,2.126,0.000,0.008,1.693,0.000,1.180,1.679,1.365,0.000,0.000,2.955,2.000,0.000,0.000,3.142,0.000,0.000,0.000,0.000,0.000,0.000,0.000,0.000,0.000,0.000,0.000,3.142,6.283,0.000,2.100,1.897,1.799,4.285,0.398,1.000,4.711,0.000,0.000,-6.736,10.455,0.451,5.833,3.408,5.729,4.183,4.384,4.484,1.998,5.882,5.284,1.571,0.000,0.000,-6.457,10.628,0.451,5.864,3.457,5.598,
116.300,672.155,-6.483,10.359,2.126,0.000,0.008,1.693,0.000,1.180,1.679,1.365,0.000,0.000,2.955,2.000,0.000,0.000,3.142,0.000,0.000,0.000,0.000,0.000,0.000,0.000,0.000,0.000,0.000,0.000,3.142,6.283,0.000,2.100,1.897,1.799,4.285,0.398,1.000,4.711,0.000,0.000,-6.736,10.455,0.451,5.833,3.408,5.729,4.183,4.384,4.484,1.998,5.882,5.284,1.571,0.000,0.000,-6.457,10.628,0.451,5.864,3.457,5.598,
116.400,672.255,-6.483,10.359,2.126,0.000,0.008,1.693,0.000,1.180,1.679,1.365,0.000,0.000,2.955,2.000,0.000,0.000,3.142,0.000,0.000,0.000,0.000,0.000,0.000,0.000,0.000,0.000,0.000,0.000,3.142,6.283,0.000,2.100,1.897,1.799,4.285,0.398,1.000,4.711,0.000,0.000,-6.736,10.455,0.451,5.833,3.408,5.729,4.183,4.384,4.484,1.998,5.882,5.284,1.571,0.000,0.000,-6.457,10.628,0.451,5.864,3.457,5.598,
116.500,672.355,-6.483,10.359,2.126,0.000,0.008,1.693,0.000,1.180,1.679,1.365,0.000,0.000,2.955,2.000,0.000,0.000,3.142,0.000,0.000,0.000,0.000,0.000,0.000,0.000,0.000,0.000,0.000,0.000,3.142,6.283,0.000,2.100,1.897,1.799,4.285,0.398,1.000,4.711,0.000,0.000,-6.736,10.455,0.451,5.833,3.408,5.729,4.183,4.384,4.484,1.998,5.882,5.284,1.571,0.000,0.000,-6.457,10.628,0.451,5.864,3.457,5.598,
116.590,672.445,-6.483,10.359,2.126,0.000,0.008,1.693,0.000,1.180,1.679,1.365,0.000,0.000,2.955,2.000,0.000,0.000,3.142,0.000,0.000,0.000,0.000,0.000,0.000,0.000,0.000,0.000,0.000,0.000,3.142,6.283,0.000,2.100,1.897,1.799,4.285,0.398,1.000,4.711,0.000,0.000,-6.736,10.455,0.451,5.833,3.408,5.729,4.183,4.384,4.484,1.998,5.882,5.284,1.571,0.000,0.000,-6.457,10.628,0.451,5.864,3.457,5.598,
116.700,672.555,-6.483,10.359,2.126,0.000,0.008,1.693,0.000,1.180,1.679,1.365,0.000,0.000,2.955,2.000,0.000,0.000,3.142,0.000,0.000,0.000,0.000,0.000,0.000,0.000,0.000,0.000,0.000,0.000,3.142,6.283,0.000,2.100,1.897,1.799,4.285,0.398,1.000,4.711,0.000,0.000,-6.736,10.455,0.451,5.833,3.408,5.729,4.183,4.384,4.484,1.998,5.882,5.284,1.571,0.000,0.000,-6.457,10.628,0.451,5.864,3.457,5.598,
116.800,672.655,-6.483,10.359,2.126,0.000,0.008,1.693,0.000,1.180,1.679,1.365,0.000,0.000,2.955,2.000,0.000,0.000,3.142,0.000,0.000,0.000,0.000,0.000,0.000,0.000,0.000,0.000,0.000,0.000,3.142,6.283,0.000,2.100,1.897,1.799,4.285,0.398,1.000,4.711,0.000,0.000,-6.736,10.455,0.451,5.833,3.408,5.729,4.183,4.384,4.484,1.998,5.882,5.284,1.571,0.000,0.000,-6.457,10.628,0.451,5.864,3.457,5.598,
116.887,672.741,-6.483,10.359,2.126,0.000,0.008,1.693,0.000,1.180,1.679,1.365,0.000,0.000,2.955,2.000,0.000,0.000,3.142,0.000,0.000,0.000,0.000,0.000,0.000,0.000,0.000,0.000,0.000,0.000,3.142,6.283,0.000,2.100,1.897,1.799,4.285,0.398,1.000,4.711,0.000,0.000,-6.736,10.455,0.451,5.833,3.408,5.729,4.183,4.384,4.484,1.998,5.882,5.284,1.571,0.000,0.000,-6.457,10.628,0.451,5.864,3.457,5.598,
117.000,672.855,-6.483,10.359,2.126,0.000,0.008,1.693,0.000,1.180,1.679,1.365,0.000,0.000,2.955,2.000,0.000,0.000,3.142,0.000,0.000,0.000,0.000,0.000,0.000,0.000,0.000,0.000,0.000,0.000,3.142,6.283,0.000,2.100,1.897,1.799,4.285,0.398,1.000,4.711,0.000,0.000,-6.736,10.455,0.451,5.833,3.408,5.729,4.183,4.384,4.484,1.998,5.882,5.284,1.571,0.000,0.000,-6.457,10.628,0.451,5.864,3.457,5.598,
117.100,672.955,-6.483,10.359,2.126,0.000,0.008,1.693,0.000,1.180,1.679,1.365,0.000,0.000,2.955,2.000,0.000,0.000,3.142,0.000,0.000,0.000,0.000,0.000,0.000,0.000,0.000,0.000,0.000,0.000,3.142,6.283,0.000,2.100,1.897,1.799,4.285,0.398,1.000,4.711,0.000,0.000,-6.736,10.455,0.451,5.833,3.408,5.729,4.183,4.384,4.484,1.998,5.882,5.284,1.571,0.000,0.000,-6.457,10.628,0.451,5.864,3.457,5.598,
117.200,673.055,-6.483,10.359,2.126,0.000,0.008,1.693,0.000,1.180,1.679,1.365,0.000,0.000,2.955,2.000,0.000,0.000,3.142,0.000,0.000,0.000,0.000,0.000,0.000,0.000,0.000,0.000,0.000,0.000,3.142,6.283,0.000,2.100,1.897,1.799,4.285,0.398,1.000,4.711,0.000,0.000,-6.736,10.455,0.451,5.833,3.408,5.729,4.183,4.384,4.484,1.998,5.882,5.284,1.571,0.000,0.000,-6.457,10.628,0.451,5.864,3.457,5.598,
117.300,673.154,-6.483,10.359,2.126,0.000,0.008,1.693,0.000,1.180,1.679,1.365,0.000,0.000,2.955,2.000,0.000,0.000,3.142,0.000,0.000,0.000,0.000,0.000,0.000,0.000,0.000,0.000,0.000,0.000,3.142,6.283,0.000,2.100,1.897,1.799,4.285,0.398,1.000,4.711,0.000,0.000,-6.736,10.455,0.451,5.833,3.408,5.729,4.183,4.384,4.484,1.998,5.882,5.284,1.571,0.000,0.000,-6.457,10.628,0.451,5.864,3.457,5.598,
117.400,673.255,-6.483,10.359,2.126,0.000,0.008,1.693,0.000,1.180,1.679,1.365,0.000,0.000,2.955,2.000,0.000,0.000,3.142,0.000,0.000,0.000,0.000,0.000,0.000,0.000,0.000,0.000,0.000,0.000,3.142,6.283,0.000,2.100,1.897,1.799,4.285,0.398,1.000,4.711,0.000,0.000,-6.736,10.455,0.451,5.833,3.408,5.729,4.183,4.384,4.484,1.998,5.882,5.284,1.571,0.000,0.000,-6.457,10.628,0.451,5.864,3.457,5.598,
117.490,673.345,-6.483,10.359,2.126,0.000,0.008,1.693,0.000,1.180,1.679,1.365,0.000,0.000,2.955,2.000,0.000,0.000,3.142,0.000,0.000,0.000,0.000,0.000,0.000,0.000,0.000,0.000,0.000,0.000,3.142,6.283,0.000,2.100,1.897,1.799,4.285,0.398,1.000,4.711,0.000,0.000,-6.736,10.455,0.451,5.833,3.408,5.729,4.183,4.384,4.484,1.998,5.882,5.284,1.571,0.000,0.000,-6.457,10.628,0.451,5.864,3.457,5.598,
117.600,673.455,-6.483,10.359,2.126,0.000,0.008,1.693,0.000,1.180,1.679,1.365,0.000,0.000,2.955,2.000,0.000,0.000,3.142,0.000,0.000,0.000,0.000,0.000,0.000,0.000,0.000,0.000,0.000,0.000,3.142,6.283,0.000,2.100,1.897,1.799,4.285,0.398,1.000,4.711,0.000,0.000,-6.736,10.455,0.451,5.833,3.408,5.729,4.183,4.384,4.484,1.998,5.882,5.284,1.571,0.000,0.000,-6.457,10.628,0.451,5.864,3.457,5.598,
117.691,673.546,-6.483,10.359,2.126,0.000,0.008,1.693,0.000,1.180,1.679,1.365,0.000,0.000,2.955,2.000,0.000,0.000,3.142,0.000,0.000,0.000,0.000,0.000,0.000,0.000,0.000,0.000,0.000,0.000,3.142,6.283,0.000,2.100,1.897,1.799,4.285,0.398,1.000,4.711,0.000,0.000,-6.736,10.455,0.451,5.833,3.408,5.729,4.183,4.384,4.484,1.998,5.882,5.284,1.571,0.000,0.000,-6.457,10.628,0.451,5.864,3.457,5.598,
117.786,673.641,-6.483,10.359,2.126,0.000,0.008,1.693,0.000,1.180,1.679,1.365,0.000,0.000,2.955,2.000,0.000,0.000,3.142,0.000,0.000,0.000,0.000,0.000,0.000,0.000,0.000,0.000,0.000,0.000,3.142,6.283,0.000,2.100,1.897,1.799,4.285,0.398,1.000,4.711,0.000,0.000,-6.736,10.455,0.451,5.833,3.408,5.729,4.183,4.384,4.484,1.998,5.882,5.284,1.571,0.000,0.000,-6.457,10.628,0.451,5.864,3.457,5.598,
117.900,673.755,-6.483,10.359,2.126,0.000,0.008,1.693,0.000,1.180,1.679,1.365,0.000,0.000,2.955,2.000,0.000,0.000,3.142,0.000,0.000,0.000,0.000,0.000,0.000,0.000,0.000,0.000,0.000,0.000,3.142,6.283,0.000,2.100,1.897,1.799,4.285,0.398,1.000,4.711,0.000,0.000,-6.736,10.455,0.451,5.833,3.408,5.729,4.183,4.384,4.484,1.998,5.882,5.284,1.571,0.000,0.000,-6.457,10.628,0.451,5.864,3.457,5.598,
118.000,673.855,-6.483,10.359,2.126,0.000,0.008,1.693,0.000,1.180,1.679,1.365,0.000,0.000,2.955,2.000,0.000,0.000,3.142,0.000,0.000,0.000,0.000,0.000,0.000,0.000,0.000,0.000,0.000,0.000,3.142,6.283,0.000,2.100,1.897,1.799,4.285,0.398,1.000,4.711,0.000,0.000,-6.736,10.455,0.451,5.833,3.408,5.729,4.183,4.384,4.484,1.998,5.882,5.284,1.571,0.000,0.000,-6.457,10.628,0.451,5.864,3.457,5.598,
118.090,673.944,-6.483,10.359,2.126,0.000,0.008,1.693,0.000,1.180,1.679,1.365,0.000,0.000,2.955,2.000,0.000,0.000,3.142,0.000,0.000,0.000,0.000,0.000,0.000,0.000,0.000,0.000,0.000,0.000,3.142,6.283,0.000,2.100,1.897,1.799,4.285,0.398,1.000,4.711,0.000,0.000,-6.736,10.455,0.451,5.833,3.408,5.729,4.183,4.384,4.484,1.998,5.882,5.284,1.571,0.000,0.000,-6.457,10.628,0.451,5.864,3.457,5.598,
118.200,674.055,-6.483,10.359,2.126,0.000,0.008,1.693,0.000,1.180,1.679,1.365,0.000,0.000,2.955,2.000,0.000,0.000,3.142,0.000,0.000,0.000,0.000,0.000,0.000,0.000,0.000,0.000,0.000,0.000,3.142,6.283,0.000,2.100,1.897,1.799,4.285,0.398,1.000,4.711,0.000,0.000,-6.736,10.455,0.451,5.833,3.408,5.729,4.183,4.384,4.484,1.998,5.882,5.284,1.571,0.000,0.000,-6.457,10.628,0.451,5.864,3.457,5.598,
118.300,674.155,-6.483,10.359,2.126,0.000,0.008,1.693,0.000,1.180,1.679,1.365,0.000,0.000,2.955,2.000,0.000,0.000,3.142,0.000,0.000,0.000,0.000,0.000,0.000,0.000,0.000,0.000,0.000,0.000,3.142,6.283,0.000,2.100,1.897,1.799,4.285,0.398,1.000,4.711,0.000,0.000,-6.736,10.455,0.451,5.833,3.408,5.729,4.183,4.384,4.484,1.998,5.882,5.284,1.571,0.000,0.000,-6.457,10.628,0.451,5.864,3.457,5.598,
118.400,674.255,-6.483,10.359,2.126,0.000,0.008,1.693,0.000,1.180,1.679,1.365,0.000,0.000,2.955,2.000,0.000,0.000,3.142,0.000,0.000,0.000,0.000,0.000,0.000,0.000,0.000,0.000,0.000,0.000,3.142,6.283,0.000,2.100,1.897,1.799,4.285,0.398,1.000,4.711,0.000,0.000,-6.736,10.455,0.451,5.833,3.408,5.729,4.183,4.384,4.484,1.998,5.882,5.284,1.571,0.000,0.000,-6.457,10.628,0.451,5.864,3.457,5.598,
118.498,674.353,-6.483,10.359,2.126,0.000,0.008,1.693,0.000,1.180,1.679,1.365,0.000,0.000,2.955,2.000,0.000,0.000,3.142,0.000,0.000,0.000,0.000,0.000,0.000,0.000,0.000,0.000,0.000,0.000,3.142,6.283,0.000,2.100,1.897,1.799,4.285,0.398,1.000,4.711,0.000,0.000,-6.736,10.455,0.451,5.833,3.408,5.729,4.183,4.384,4.484,1.998,5.882,5.284,1.571,0.000,0.000,-6.457,10.628,0.451,5.864,3.457,5.598,
118.591,674.446,-6.483,10.359,2.126,0.000,0.008,1.693,0.000,1.180,1.679,1.365,0.000,0.000,2.955,2.000,0.000,0.000,3.142,0.000,0.000,0.000,0.000,0.000,0.000,0.000,0.000,0.000,0.000,0.000,3.142,6.283,0.000,2.100,1.897,1.799,4.285,0.398,1.000,4.711,0.000,0.000,-6.736,10.455,0.451,5.833,3.408,5.729,4.183,4.384,4.484,1.998,5.882,5.284,1.571,0.000,0.000,-6.457,10.628,0.451,5.864,3.457,5.598,
118.700,674.555,-6.483,10.359,2.126,0.000,0.008,1.693,0.000,1.180,1.679,1.365,0.000,0.000,2.955,2.000,0.000,0.000,3.142,0.000,0.000,0.000,0.000,0.000,0.000,0.000,0.000,0.000,0.000,0.000,3.142,6.283,0.000,2.100,1.897,1.799,4.285,0.398,1.000,4.711,0.000,0.000,-6.736,10.455,0.451,5.833,3.408,5.729,4.183,4.384,4.484,1.998,5.882,5.284,1.571,0.000,0.000,-6.457,10.628,0.451,5.864,3.457,5.598,
118.800,674.655,-6.483,10.359,2.126,0.000,0.008,1.693,0.000,1.180,1.679,1.365,0.000,0.000,2.955,2.000,0.000,0.000,3.142,0.000,0.000,0.000,0.000,0.000,0.000,0.000,0.000,0.000,0.000,0.000,3.142,6.283,0.000,2.100,1.897,1.799,4.285,0.398,1.000,4.711,0.000,0.000,-6.736,10.455,0.451,5.833,3.408,5.729,4.183,4.384,4.484,1.998,5.882,5.284,1.571,0.000,0.000,-6.457,10.628,0.451,5.864,3.457,5.598,
118.900,674.755,-6.483,10.359,2.126,0.000,0.008,1.693,0.000,1.180,1.679,1.365,0.000,0.000,2.955,2.000,0.000,0.000,3.142,0.000,0.000,0.000,0.000,0.000,0.000,0.000,0.000,0.000,0.000,0.000,3.142,6.283,0.000,2.100,1.897,1.799,4.285,0.398,1.000,4.711,0.000,0.000,-6.736,10.455,0.451,5.833,3.408,5.729,4.183,4.384,4.484,1.998,5.882,5.284,1.571,0.000,0.000,-6.457,10.628,0.451,5.864,3.457,5.598,
118.991,674.846,-6.483,10.359,2.126,0.000,0.008,1.693,0.000,1.180,1.679,1.365,0.000,0.000,2.955,2.000,0.000,0.000,3.142,0.000,0.000,0.000,0.000,0.000,0.000,0.000,0.000,0.000,0.000,0.000,3.142,6.283,0.000,2.100,1.897,1.799,4.285,0.398,1.000,4.711,0.000,0.000,-6.736,10.455,0.451,5.833,3.408,5.729,4.183,4.384,4.484,1.998,5.882,5.284,1.571,0.000,0.000,-6.457,10.628,0.451,5.864,3.457,5.598,
119.093,674.948,-6.483,10.359,2.126,0.000,0.008,1.693,0.000,1.180,1.679,1.365,0.000,0.000,2.955,2.000,0.000,0.000,3.142,0.000,0.000,0.000,0.000,0.000,0.000,0.000,0.000,0.000,0.000,0.000,3.142,6.283,0.000,2.100,1.897,1.799,4.285,0.398,1.000,4.711,0.000,0.000,-6.736,10.455,0.451,5.833,3.408,5.729,4.183,4.384,4.484,1.998,5.882,5.284,1.571,0.000,0.000,-6.457,10.628,0.451,5.864,3.457,5.598,
119.200,675.055,-6.483,10.359,2.126,0.000,0.008,1.693,0.000,1.180,1.679,1.365,0.000,0.000,2.955,2.000,0.000,0.000,3.142,0.000,0.000,0.000,0.000,0.000,0.000,0.000,0.000,0.000,0.000,0.000,3.142,6.283,0.000,2.100,1.897,1.799,4.285,0.398,1.000,4.711,0.000,0.000,-6.736,10.455,0.451,5.833,3.408,5.729,4.183,4.384,4.484,1.998,5.882,5.284,1.571,0.000,0.000,-6.457,10.628,0.451,5.864,3.457,5.598,
119.300,675.155,-6.483,10.359,2.126,0.000,0.008,1.693,0.000,1.180,1.679,1.365,0.000,0.000,2.955,2.000,0.000,0.000,3.142,0.000,0.000,0.000,0.000,0.000,0.000,0.000,0.000,0.000,0.000,0.000,3.142,6.283,0.000,2.100,1.897,1.799,4.285,0.398,1.000,4.711,0.000,0.000,-6.736,10.455,0.451,5.833,3.408,5.729,4.183,4.384,4.484,1.998,5.882,5.284,1.571,0.000,0.000,-6.457,10.628,0.451,5.864,3.457,5.598,
119.400,675.255,-6.483,10.359,2.126,0.000,0.008,1.693,0.000,1.180,1.679,1.365,0.000,0.000,2.955,2.000,0.000,0.000,3.142,0.000,0.000,0.000,0.000,0.000,0.000,0.000,0.000,0.000,0.000,0.000,3.142,6.283,0.000,2.100,1.897,1.799,4.285,0.398,1.000,4.711,0.000,0.000,-6.736,10.455,0.451,5.833,3.408,5.729,4.183,4.384,4.484,1.998,5.882,5.284,1.571,0.000,0.000,-6.457,10.628,0.451,5.864,3.457,5.598,
119.500,675.355,-6.483,10.359,2.126,0.000,0.008,1.693,0.000,1.180,1.679,1.365,0.000,0.000,2.955,2.000,0.000,0.000,3.142,0.000,0.000,0.000,0.000,0.000,0.000,0.000,0.000,0.000,0.000,0.000,3.142,6.283,0.000,2.100,1.897,1.799,4.285,0.398,1.000,4.711,0.000,0.000,-6.736,10.455,0.451,5.833,3.408,5.729,4.183,4.384,4.484,1.998,5.882,5.284,1.571,0.000,0.000,-6.457,10.628,0.451,5.864,3.457,5.598,
119.600,675.455,-6.483,10.359,2.126,0.000,0.008,1.693,0.000,1.180,1.679,1.365,0.000,0.000,2.955,2.000,0.000,0.000,3.142,0.000,0.000,0.000,0.000,0.000,0.000,0.000,0.000,0.000,0.000,0.000,3.142,6.283,0.000,2.100,1.897,1.799,4.285,0.398,1.000,4.711,0.000,0.000,-6.736,10.455,0.451,5.833,3.408,5.729,4.183,4.384,4.484,1.998,5.882,5.284,1.571,0.000,0.000,-6.457,10.628,0.451,5.864,3.457,5.598,
119.700,675.555,-6.483,10.359,2.126,0.000,0.008,1.693,0.000,1.180,1.679,1.365,0.000,0.000,2.955,2.000,0.000,0.000,3.142,0.000,0.000,0.000,0.000,0.000,0.000,0.000,0.000,0.000,0.000,0.000,3.142,6.283,0.000,2.100,1.897,1.799,4.285,0.398,1.000,4.711,0.000,0.000,-6.736,10.455,0.451,5.833,3.408,5.729,4.183,4.384,4.484,1.998,5.882,5.284,1.571,0.000,0.000,-6.457,10.628,0.451,5.864,3.457,5.598,
119.800,675.655,-6.483,10.359,2.126,0.000,0.008,1.693,0.000,1.180,1.679,1.365,0.000,0.000,2.955,2.000,0.000,0.000,3.142,0.000,0.000,0.000,0.000,0.000,0.000,0.000,0.000,0.000,0.000,0.000,3.142,6.283,0.000,2.100,1.897,1.799,4.285,0.398,1.000,4.711,0.000,0.000,-6.736,10.455,0.451,5.833,3.408,5.729,4.183,4.384,4.484,1.998,5.882,5.284,1.571,0.000,0.000,-6.457,10.628,0.451,5.864,3.457,5.598,
119.900,675.755,-6.483,10.359,2.126,0.000,0.008,1.693,0.000,1.180,1.679,1.365,0.000,0.000,2.955,2.000,0.000,0.000,3.142,0.000,0.000,0.000,0.000,0.000,0.000,0.000,0.000,0.000,0.000,0.000,3.142,6.283,0.000,2.100,1.897,1.799,4.285,0.398,1.000,4.711,0.000,0.000,-6.736,10.455,0.451,5.833,3.408,5.729,4.183,4.384,4.484,1.998,5.882,5.284,1.571,0.000,0.000,-6.457,10.628,0.451,5.864,3.457,5.598,
120.000,675.855,-6.483,10.359,2.126,0.000,0.008,1.693,0.000,1.180,1.679,1.365,0.000,0.000,2.955,2.000,0.000,0.000,3.142,0.000,0.000,0.000,0.000,0.000,0.000,0.000,0.000,0.000,0.000,0.000,3.142,6.283,0.000,2.100,1.897,1.799,4.285,0.398,1.000,4.711,0.000,0.000,-6.736,10.455,0.451,5.833,3.408,5.729,4.183,4.384,4.484,1.998,5.882,5.284,1.571,0.000,0.000,-6.457,10.628,0.451,5.864,3.457,5.598,
120.100,675.955,-6.483,10.359,2.126,0.000,0.008,1.693,0.000,1.180,1.679,1.365,0.000,0.000,2.955,2.000,0.000,0.000,3.142,0.000,0.000,0.000,0.000,0.000,0.000,0.000,0.000,0.000,0.000,0.000,3.142,6.283,0.000,2.100,1.897,1.799,4.285,0.398,1.000,4.711,0.000,0.000,-6.736,10.455,0.451,5.833,3.408,5.729,4.183,4.384,4.484,1.998,5.882,5.284,1.571,0.000,0.000,-6.457,10.628,0.451,5.864,3.457,5.598,
120.197,676.052,-6.483,10.359,2.126,0.000,0.008,1.693,0.000,1.180,1.679,1.365,0.000,0.000,2.955,2.000,0.000,0.000,3.142,0.000,0.000,0.000,0.000,0.000,0.000,0.000,0.000,0.000,0.000,0.000,3.142,6.283,0.000,2.100,1.897,1.799,4.285,0.398,1.000,4.711,0.000,0.000,-6.736,10.455,0.451,5.833,3.408,5.729,4.183,4.384,4.484,1.998,5.882,5.284,1.571,0.000,0.000,-6.457,10.628,0.451,5.864,3.457,5.598,
120.284,676.139,-6.483,10.359,2.126,0.000,0.008,1.693,0.000,1.180,1.679,1.365,0.000,0.000,2.955,2.000,0.000,0.000,3.142,0.000,0.000,0.000,0.000,0.000,0.000,0.000,0.000,0.000,0.000,0.000,3.142,6.283,0.000,2.100,1.897,1.799,4.285,0.398,1.000,4.711,0.000,0.000,-6.736,10.455,0.451,5.833,3.408,5.729,4.183,4.384,4.484,1.998,5.882,5.284,1.571,0.000,0.000,-6.457,10.628,0.451,5.864,3.457,5.598,
120.381,676.235,-6.483,10.359,2.126,0.000,0.008,1.693,0.000,1.180,1.679,1.365,0.000,0.000,2.955,2.000,0.000,0.000,3.142,0.000,0.000,0.000,0.000,0.000,0.000,0.000,0.000,0.000,0.000,0.000,3.142,6.283,0.000,2.100,1.897,1.799,4.285,0.398,1.000,4.711,0.000,0.000,-6.736,10.455,0.451,5.833,3.408,5.729,4.183,4.384,4.484,1.998,5.882,5.284,1.571,0.000,0.000,-6.457,10.628,0.451,5.864,3.457,5.598,
120.500,676.355,-6.483,10.359,2.126,0.000,0.008,1.693,0.000,1.180,1.679,1.365,0.000,0.000,2.955,2.000,0.000,0.000,3.142,0.000,0.000,0.000,0.000,0.000,0.000,0.000,0.000,0.000,0.000,0.000,3.142,6.283,0.000,2.100,1.897,1.799,4.285,0.398,1.000,4.711,0.000,0.000,-6.736,10.455,0.451,5.833,3.408,5.729,4.183,4.384,4.484,1.998,5.882,5.284,1.571,0.000,0.000,-6.457,10.628,0.451,5.864,3.457,5.598,
120.598,676.452,-6.483,10.359,2.126,0.000,0.008,1.693,0.000,1.180,1.679,1.365,0.000,0.000,2.955,2.000,0.000,0.000,3.142,0.000,0.000,0.000,0.000,0.000,0.000,0.000,0.000,0.000,0.000,0.000,3.142,6.283,0.000,2.100,1.897,1.799,4.285,0.398,1.000,4.711,0.000,0.000,-6.736,10.455,0.451,5.833,3.408,5.729,4.183,4.384,4.484,1.998,5.882,5.284,1.571,0.000,0.000,-6.457,10.628,0.451,5.864,3.457,5.598,
120.685,676.540,-6.483,10.359,2.126,0.000,0.008,1.693,0.000,1.180,1.679,1.365,0.000,0.000,2.955,2.000,0.000,0.000,3.142,0.000,0.000,0.000,0.000,0.000,0.000,0.000,0.000,0.000,0.000,0.000,3.142,6.283,0.000,2.100,1.897,1.799,4.285,0.398,1.000,4.711,0.000,0.000,-6.736,10.455,0.451,5.833,3.408,5.729,4.183,4.384,4.484,1.998,5.882,5.284,1.571,0.000,0.000,-6.457,10.628,0.451,5.864,3.457,5.598,
120.800,676.655,-6.483,10.359,2.126,0.000,0.008,1.693,0.000,1.180,1.679,1.365,0.000,0.000,2.955,2.000,0.000,0.000,3.142,0.000,0.000,0.000,0.000,0.000,0.000,0.000,0.000,0.000,0.000,0.000,3.142,6.283,0.000,2.100,1.897,1.799,4.285,0.398,1.000,4.711,0.000,0.000,-6.736,10.455,0.451,5.833,3.408,5.729,4.183,4.384,4.484,1.998,5.882,5.284,1.571,0.000,0.000,-6.457,10.628,0.451,5.864,3.457,5.598,
120.900,676.755,-6.483,10.359,2.126,0.000,0.008,1.693,0.000,1.180,1.679,1.365,0.000,0.000,2.955,2.000,0.000,0.000,3.142,0.000,0.000,0.000,0.000,0.000,0.000,0.000,0.000,0.000,0.000,0.000,3.142,6.283,0.000,2.100,1.897,1.799,4.285,0.398,1.000,4.711,0.000,0.000,-6.736,10.455,0.451,5.833,3.408,5.729,4.183,4.384,4.484,1.998,5.882,5.284,1.571,0.000,0.000,-6.457,10.628,0.451,5.864,3.457,5.598,
121.000,676.855,-6.483,10.359,2.126,0.000,0.008,1.693,0.000,1.180,1.679,1.365,0.000,0.000,2.955,2.000,0.000,0.000,3.142,0.000,0.000,0.000,0.000,0.000,0.000,0.000,0.000,0.000,0.000,0.000,3.142,6.283,0.000,2.100,1.897,1.799,4.285,0.398,1.000,4.711,0.000,0.000,-6.736,10.455,0.451,5.833,3.408,5.729,4.183,4.384,4.484,1.998,5.882,5.284,1.571,0.000,0.000,-6.457,10.628,0.451,5.864,3.457,5.598,
121.100,676.955,-6.483,10.359,2.126,0.000,0.008,1.693,0.000,1.180,1.679,1.365,0.000,0.000,2.955,2.000,0.000,0.000,3.142,0.000,0.000,0.000,0.000,0.000,0.000,0.000,0.000,0.000,0.000,0.000,3.142,6.283,0.000,2.100,1.897,1.799,4.285,0.398,1.000,4.711,0.000,0.000,-6.736,10.455,0.451,5.833,3.408,5.729,4.183,4.384,4.484,1.998,5.882,5.284,1.571,0.000,0.000,-6.457,10.628,0.451,5.864,3.457,5.598,
121.194,677.049,-6.483,10.359,2.126,0.000,0.008,1.693,0.000,1.180,1.679,1.365,0.000,0.000,2.955,2.000,0.000,0.000,3.142,0.000,0.000,0.000,0.000,0.000,0.000,0.000,0.000,0.000,0.000,0.000,3.142,6.283,0.000,2.100,1.897,1.799,4.285,0.398,1.000,4.711,0.000,0.000,-6.736,10.455,0.451,5.833,3.408,5.729,4.183,4.384,4.484,1.998,5.882,5.284,1.571,0.000,0.000,-6.457,10.628,0.451,5.864,3.457,5.598,
121.300,677.155,-6.483,10.359,2.126,0.000,0.008,1.693,0.000,1.180,1.679,1.365,0.000,0.000,2.955,2.000,0.000,0.000,3.142,0.000,0.000,0.000,0.000,0.000,0.000,0.000,0.000,0.000,0.000,0.000,3.142,6.283,0.000,2.100,1.897,1.799,4.285,0.398,1.000,4.711,0.000,0.000,-6.736,10.455,0.451,5.833,3.408,5.729,4.183,4.384,4.484,1.998,5.882,5.284,1.571,0.000,0.000,-6.457,10.628,0.451,5.864,3.457,5.598,
121.400,677.255,-6.483,10.359,2.126,0.000,0.008,1.693,0.000,1.180,1.679,1.365,0.000,0.000,2.955,2.000,0.000,0.000,3.142,0.000,0.000,0.000,0.000,0.000,0.000,0.000,0.000,0.000,0.000,0.000,3.142,6.283,0.000,2.100,1.897,1.799,4.285,0.398,1.000,4.711,0.000,0.000,-6.736,10.455,0.451,5.833,3.408,5.729,4.183,4.384,4.484,1.998,5.882,5.284,1.571,0.000,0.000,-6.457,10.628,0.451,5.864,3.457,5.598,
121.489,677.344,-6.483,10.359,2.126,0.000,0.008,1.693,0.000,1.180,1.679,1.365,0.000,0.000,2.955,2.000,0.000,0.000,3.142,0.000,0.000,0.000,0.000,0.000,0.000,0.000,0.000,0.000,0.000,0.000,3.142,6.283,0.000,2.100,1.897,1.799,4.285,0.398,1.000,4.711,0.000,0.000,-6.736,10.455,0.451,5.833,3.408,5.729,4.183,4.384,4.484,1.998,5.882,5.284,1.571,0.000,0.000,-6.457,10.628,0.451,5.864,3.457,5.598,
121.592,677.447,-6.483,10.359,2.126,0.000,0.008,1.693,0.000,1.180,1.679,1.365,0.000,0.000,2.955,2.000,0.000,0.000,3.142,0.000,0.000,0.000,0.000,0.000,0.000,0.000,0.000,0.000,0.000,0.000,3.142,6.283,0.000,2.100,1.897,1.799,4.285,0.398,1.000,4.711,0.000,0.000,-6.736,10.455,0.451,5.833,3.408,5.729,4.183,4.384,4.484,1.998,5.882,5.284,1.571,0.000,0.000,-6.457,10.628,0.451,5.864,3.457,5.598,
121.700,677.555,-6.483,10.359,2.126,0.000,0.008,1.693,0.000,1.180,1.679,1.365,0.000,0.000,2.955,2.000,0.000,0.000,3.142,0.000,0.000,0.000,0.000,0.000,0.000,0.000,0.000,0.000,0.000,0.000,3.142,6.283,0.000,2.100,1.897,1.799,4.285,0.398,1.000,4.711,0.000,0.000,-6.736,10.455,0.451,5.833,3.408,5.729,4.183,4.384,4.484,1.998,5.882,5.284,1.571,0.000,0.000,-6.457,10.628,0.451,5.864,3.457,5.598,
121.800,677.655,-6.483,10.359,2.126,0.000,0.008,1.693,0.000,1.180,1.679,1.365,0.000,0.000,2.955,2.000,0.000,0.000,3.142,0.000,0.000,0.000,0.000,0.000,0.000,0.000,0.000,0.000,0.000,0.000,3.142,6.283,0.000,2.100,1.897,1.799,4.285,0.398,1.000,4.711,0.000,0.000,-6.736,10.455,0.451,5.833,3.408,5.729,4.183,4.384,4.484,1.998,5.882,5.284,1.571,0.000,0.000,-6.457,10.628,0.451,5.864,3.457,5.598,
121.900,677.755,-6.483,10.359,2.126,0.000,0.008,1.693,0.000,1.180,1.679,1.365,0.000,0.000,2.955,2.000,0.000,0.000,3.142,0.000,0.000,0.000,0.000,0.000,0.000,0.000,0.000,0.000,0.000,0.000,3.142,6.283,0.000,2.100,1.897,1.799,4.285,0.398,1.000,4.711,0.000,0.000,-6.736,10.455,0.451,5.833,3.408,5.729,4.183,4.384,4.484,1.998,5.882,5.284,1.571,0.000,0.000,-6.457,10.628,0.451,5.864,3.457,5.598,
121.999,677.854,-6.483,10.359,2.126,0.000,0.008,1.693,0.000,1.180,1.679,1.365,0.000,0.000,2.955,2.000,0.000,0.000,3.142,0.000,0.000,0.000,0.000,0.000,0.000,0.000,0.000,0.000,0.000,0.000,3.142,6.283,0.000,2.100,1.897,1.799,4.285,0.398,1.000,4.711,0.000,0.000,-6.736,10.455,0.451,5.833,3.408,5.729,4.183,4.384,4.484,1.998,5.882,5.284,1.571,0.000,0.000,-6.457,10.628,0.451,5.864,3.457,5.598,
122.087,677.942,-6.483,10.359,2.126,0.000,0.008,1.693,0.000,1.180,1.679,1.365,0.000,0.000,2.955,2.000,0.000,0.000,3.142,0.000,0.000,0.000,0.000,0.000,0.000,0.000,0.000,0.000,0.000,0.000,3.142,6.283,0.000,2.100,1.897,1.799,4.285,0.398,1.000,4.711,0.000,0.000,-6.736,10.455,0.451,5.833,3.408,5.729,4.183,4.384,4.484,1.998,5.882,5.284,1.571,0.000,0.000,-6.457,10.628,0.451,5.864,3.457,5.598,
122.181,678.036,-6.483,10.359,2.126,0.000,0.008,1.693,0.000,1.180,1.679,1.365,0.000,0.000,2.955,2.000,0.000,0.000,3.142,0.000,0.000,0.000,0.000,0.000,0.000,0.000,0.000,0.000,0.000,0.000,3.142,6.283,0.000,2.100,1.897,1.799,4.285,0.398,1.000,4.711,0.000,0.000,-6.736,10.455,0.451,5.833,3.408,5.729,4.183,4.384,4.484,1.998,5.882,5.284,1.571,0.000,0.000,-6.457,10.628,0.451,5.864,3.457,5.598,
122.300,678.155,-6.483,10.359,2.126,0.000,0.008,1.693,0.000,1.180,1.679,1.365,0.000,0.000,2.955,2.000,0.000,0.000,3.142,0.000,0.000,0.000,0.000,0.000,0.000,0.000,0.000,0.000,0.000,0.000,3.142,6.283,0.000,2.100,1.897,1.799,4.285,0.398,1.000,4.711,0.000,0.000,-6.736,10.455,0.451,5.833,3.408,5.729,4.183,4.384,4.484,1.998,5.882,5.284,1.571,0.000,0.000,-6.457,10.628,0.451,5.864,3.457,5.598,
122.400,678.255,-6.483,10.359,2.126,0.000,0.008,1.693,0.000,1.180,1.679,1.365,0.000,0.000,2.955,2.000,0.000,0.000,3.142,0.000,0.000,0.000,0.000,0.000,0.000,0.000,0.000,0.000,0.000,0.000,3.142,6.283,0.000,2.100,1.897,1.799,4.285,0.398,1.000,4.711,0.000,0.000,-6.736,10.455,0.451,5.833,3.408,5.729,4.183,4.384,4.484,1.998,5.882,5.284,1.571,0.000,0.000,-6.457,10.628,0.451,5.864,3.457,5.598,
122.499,678.354,-6.483,10.359,2.126,0.000,0.008,1.693,0.000,1.180,1.679,1.365,0.000,0.000,2.955,2.000,0.000,0.000,3.142,0.000,0.000,0.000,0.000,0.000,0.000,0.000,0.000,0.000,0.000,0.000,3.142,6.283,0.000,2.100,1.897,1.799,4.285,0.398,1.000,4.711,0.000,0.000,-6.736,10.455,0.451,5.833,3.408,5.729,4.183,4.384,4.484,1.998,5.882,5.284,1.571,0.000,0.000,-6.457,10.628,0.451,5.864,3.457,5.598,
122.588,678.442,-6.483,10.359,2.126,0.000,0.008,1.693,0.000,1.180,1.679,1.365,0.000,0.000,2.955,2.000,0.000,0.000,3.142,0.000,0.000,0.000,0.000,0.000,0.000,0.000,0.000,0.000,0.000,0.000,3.142,6.283,0.000,2.100,1.897,1.799,4.285,0.398,1.000,4.711,0.000,0.000,-6.736,10.455,0.451,5.833,3.408,5.729,4.183,4.384,4.484,1.998,5.882,5.284,1.571,0.000,0.000,-6.457,10.628,0.451,5.864,3.457,5.598,
122.690,678.544,-6.483,10.359,2.126,0.000,0.008,1.693,0.000,1.180,1.679,1.365,0.000,0.000,2.955,2.000,0.000,0.000,3.142,0.000,0.000,0.000,0.000,0.000,0.000,0.000,0.000,0.000,0.000,0.000,3.142,6.283,0.000,2.100,1.897,1.799,4.285,0.398,1.000,4.711,0.000,0.000,-6.736,10.455,0.451,5.833,3.408,5.729,4.183,4.384,4.484,1.998,5.882,5.284,1.571,0.000,0.000,-6.457,10.628,0.451,5.864,3.457,5.598,
122.800,678.655,-6.483,10.359,2.126,0.000,0.008,1.693,0.000,1.180,1.679,1.365,0.000,0.000,2.955,2.000,0.000,0.000,3.142,0.000,0.000,0.000,0.000,0.000,0.000,0.000,0.000,0.000,0.000,0.000,3.142,6.283,0.000,2.100,1.897,1.799,4.285,0.398,1.000,4.711,0.000,0.000,-6.736,10.455,0.451,5.833,3.408,5.729,4.183,4.384,4.484,1.998,5.882,5.284,1.571,0.000,0.000,-6.457,10.628,0.451,5.864,3.457,5.598,
122.900,678.755,-6.483,10.359,2.126,0.000,0.008,1.693,0.000,1.180,1.679,1.365,0.000,0.000,2.955,2.000,0.000,0.000,3.142,0.000,0.000,0.000,0.000,0.000,0.000,0.000,0.000,0.000,0.000,0.000,3.142,6.283,0.000,2.100,1.897,1.799,4.285,0.398,1.000,4.711,0.000,0.000,-6.736,10.455,0.451,5.833,3.408,5.729,4.183,4.384,4.484,1.998,5.882,5.284,1.571,0.000,0.000,-6.457,10.628,0.451,5.864,3.457,5.598,
123.000,678.855,-6.483,10.359,2.126,0.000,0.008,1.693,0.000,1.180,1.679,1.365,0.000,0.000,2.955,2.000,0.000,0.000,3.142,0.000,0.000,0.000,0.000,0.000,0.000,0.000,0.000,0.000,0.000,0.000,3.142,6.283,0.000,2.100,1.897,1.799,4.285,0.398,1.000,4.711,0.000,0.000,-6.736,10.455,0.451,5.833,3.408,5.729,4.183,4.384,4.484,1.998,5.882,5.284,1.571,0.000,0.000,-6.457,10.628,0.451,5.864,3.457,5.598,
123.087,678.941,-6.483,10.359,2.126,0.000,0.008,1.693,0.000,1.180,1.679,1.365,0.000,0.000,2.955,2.000,0.000,0.000,3.142,0.000,0.000,0.000,0.000,0.000,0.000,0.000,0.000,0.000,0.000,0.000,3.142,6.283,0.000,2.100,1.897,1.799,4.285,0.398,1.000,4.711,0.000,0.000,-6.736,10.455,0.451,5.833,3.408,5.729,4.183,4.384,4.484,1.998,5.882,5.284,1.571,0.000,0.000,-6.457,10.628,0.451,5.864,3.457,5.598,
123.196,679.051,-6.483,10.359,2.126,0.000,0.008,1.693,0.000,1.180,1.679,1.365,0.000,0.000,2.955,2.000,0.000,0.000,3.142,0.000,0.000,0.000,0.000,0.000,0.000,0.000,0.000,0.000,0.000,0.000,3.142,6.283,0.000,2.100,1.897,1.799,4.285,0.398,1.000,4.711,0.000,0.000,-6.736,10.455,0.451,5.833,3.408,5.729,4.183,4.384,4.484,1.998,5.882,5.284,1.571,0.000,0.000,-6.457,10.628,0.451,5.864,3.457,5.598,
123.300,679.155,-6.483,10.359,2.126,0.000,0.008,1.693,0.000,1.180,1.679,1.365,0.000,0.000,2.955,2.000,0.000,0.000,3.142,0.000,0.000,0.000,0.000,0.000,0.000,0.000,0.000,0.000,0.000,0.000,3.142,6.283,0.000,2.100,1.897,1.799,4.285,0.398,1.000,4.711,0.000,0.000,-6.736,10.455,0.451,5.833,3.408,5.729,4.183,4.384,4.484,1.998,5.882,5.284,1.571,0.000,0.000,-6.457,10.628,0.451,5.864,3.457,5.598,
123.400,679.255,-6.483,10.359,2.126,0.000,0.008,1.693,0.000,1.180,1.679,1.365,0.000,0.000,2.955,2.000,0.000,0.000,3.142,0.000,0.000,0.000,0.000,0.000,0.000,0.000,0.000,0.000,0.000,0.000,3.142,6.283,0.000,2.100,1.897,1.799,4.285,0.398,1.000,4.711,0.000,0.000,-6.736,10.455,0.451,5.833,3.408,5.729,4.183,4.384,4.484,1.998,5.882,5.284,1.571,0.000,0.000,-6.457,10.628,0.451,5.864,3.457,5.598,
123.500,679.355,-6.483,10.359,2.126,0.000,0.008,1.693,0.000,1.180,1.679,1.365,0.000,0.000,2.955,2.000,0.000,0.000,3.142,0.000,0.000,0.000,0.000,0.000,0.000,0.000,0.000,0.000,0.000,0.000,3.142,6.283,0.000,2.100,1.897,1.799,4.285,0.398,1.000,4.711,0.000,0.000,-6.736,10.455,0.451,5.833,3.408,5.729,4.183,4.384,4.484,1.998,5.882,5.284,1.571,0.000,0.000,-6.457,10.628,0.451,5.864,3.457,5.598,
123.600,679.455,-6.483,10.359,2.126,0.000,0.008,1.693,0.000,1.180,1.679,1.365,0.000,0.000,2.955,2.000,0.000,0.000,3.142,0.000,0.000,0.000,0.000,0.000,0.000,0.000,0.000,0.000,0.000,0.000,3.142,6.283,0.000,2.100,1.897,1.799,4.285,0.398,1.000,4.711,0.000,0.000,-6.736,10.455,0.451,5.833,3.408,5.729,4.183,4.384,4.484,1.998,5.882,5.284,1.571,0.000,0.000,-6.457,10.628,0.451,5.864,3.457,5.598,
123.692,679.546,-6.483,10.359,2.126,0.000,0.008,1.693,0.000,1.180,1.679,1.365,0.000,0.000,2.955,2.000,0.000,0.000,3.142,0.000,0.000,0.000,0.000,0.000,0.000,0.000,0.000,0.000,0.000,0.000,3.142,6.283,0.000,2.100,1.897,1.799,4.285,0.398,1.000,4.711,0.000,0.000,-6.736,10.455,0.451,5.833,3.408,5.729,4.183,4.384,4.484,1.998,5.882,5.284,1.571,0.000,0.000,-6.457,10.628,0.451,5.864,3.457,5.598,
123.800,679.655,-6.483,10.359,2.126,0.000,0.008,1.693,0.000,1.180,1.679,1.365,0.000,0.000,2.955,2.000,0.000,0.000,3.142,0.000,0.000,0.000,0.000,0.000,0.000,0.000,0.000,0.000,0.000,0.000,3.142,6.283,0.000,2.100,1.897,1.799,4.285,0.398,1.000,4.711,0.000,0.000,-6.736,10.455,0.451,5.833,3.408,5.729,4.183,4.384,4.484,1.998,5.882,5.284,1.571,0.000,0.000,-6.457,10.628,0.451,5.864,3.457,5.598,
123.900,679.755,-6.483,10.359,2.126,0.000,0.008,1.693,0.000,1.180,1.679,1.365,0.000,0.000,2.955,2.000,0.000,0.000,3.142,0.000,0.000,0.000,0.000,0.000,0.000,0.000,0.000,0.000,0.000,0.000,3.142,6.283,0.000,2.100,1.897,1.799,4.285,0.398,1.000,4.711,0.000,0.000,-6.736,10.455,0.451,5.833,3.408,5.729,4.183,4.384,4.484,1.998,5.882,5.284,1.571,0.000,0.000,-6.457,10.628,0.451,5.864,3.457,5.598,
123.988,679.843,-6.483,10.359,2.126,0.000,0.008,1.693,0.000,1.180,1.679,1.365,0.000,0.000,2.955,2.000,0.000,0.000,3.142,0.000,0.000,0.000,0.000,0.000,0.000,0.000,0.000,0.000,0.000,0.000,3.142,6.283,0.000,2.100,1.897,1.799,4.285,0.398,1.000,4.711,0.000,0.000,-6.736,10.455,0.451,5.833,3.408,5.729,4.183,4.384,4.484,1.998,5.882,5.284,1.571,0.000,0.000,-6.457,10.628,0.451,5.864,3.457,5.598,
124.100,679.955,-6.483,10.359,2.126,0.000,0.008,1.693,0.000,1.180,1.679,1.365,0.000,0.000,2.955,2.000,0.000,0.000,3.142,0.000,0.000,0.000,0.000,0.000,0.000,0.000,0.000,0.000,0.000,0.000,3.142,6.283,0.000,2.100,1.897,1.799,4.285,0.398,1.000,4.711,0.000,0.000,-6.736,10.455,0.451,5.833,3.408,5.729,4.183,4.384,4.484,1.998,5.882,5.284,1.571,0.000,0.000,-6.457,10.628,0.451,5.864,3.457,5.598,
124.189,680.043,-6.483,10.359,2.126,0.000,0.008,1.693,0.000,1.180,1.679,1.365,0.000,0.000,2.955,2.000,0.000,0.000,3.142,0.000,0.000,0.000,0.000,0.000,0.000,0.000,0.000,0.000,0.000,0.000,3.142,6.283,0.000,2.100,1.897,1.799,4.285,0.398,1.000,4.711,0.000,0.000,-6.736,10.455,0.451,5.833,3.408,5.729,4.183,4.384,4.484,1.998,5.882,5.284,1.571,0.000,0.000,-6.457,10.628,0.451,5.864,3.457,5.598,
124.300,680.155,-6.483,10.359,2.126,0.000,0.008,1.693,0.000,1.180,1.679,1.365,0.000,0.000,2.955,2.000,0.000,0.000,3.142,0.000,0.000,0.000,0.000,0.000,0.000,0.000,0.000,0.000,0.000,0.000,3.142,6.283,0.000,2.100,1.897,1.799,4.285,0.398,1.000,4.711,0.000,0.000,-6.736,10.455,0.451,5.833,3.408,5.729,4.183,4.384,4.484,1.998,5.882,5.284,1.571,0.000,0.000,-6.457,10.628,0.451,5.864,3.457,5.598,
124.400,680.255,-6.483,10.359,2.126,0.000,0.008,1.693,0.000,1.180,1.679,1.365,0.000,0.000,2.955,2.000,0.000,0.000,3.142,0.000,0.000,0.000,0.000,0.000,0.000,0.000,0.000,0.000,0.000,0.000,3.142,6.283,0.000,2.100,1.897,1.799,4.285,0.398,1.000,4.711,0.000,0.000,-6.736,10.455,0.451,5.833,3.408,5.729,4.183,4.384,4.484,1.998,5.882,5.284,1.571,0.000,0.000,-6.457,10.628,0.451,5.864,3.457,5.598,
124.497,680.352,-6.483,10.359,2.126,0.000,0.008,1.693,0.000,1.180,1.679,1.365,0.000,0.000,2.955,2.000,0.000,0.000,3.142,0.000,0.000,0.000,0.000,0.000,0.000,0.000,0.000,0.000,0.000,0.000,3.142,6.283,0.000,2.100,1.897,1.799,4.285,0.398,1.000,4.711,0.000,0.000,-6.736,10.455,0.451,5.833,3.408,5.729,4.183,4.384,4.484,1.998,5.882,5.284,1.571,0.000,0.000,-6.457,10.628,0.451,5.864,3.457,5.598,
124.590,680.445,-6.483,10.359,2.126,0.000,0.008,1.693,0.000,1.180,1.679,1.365,0.000,0.000,2.955,2.000,0.000,0.000,3.142,0.000,0.000,0.000,0.000,0.000,0.000,0.000,0.000,0.000,0.000,0.000,3.142,6.283,0.000,2.100,1.897,1.799,4.285,0.398,1.000,4.711,0.000,0.000,-6.736,10.455,0.451,5.833,3.408,5.729,4.183,4.384,4.484,1.998,5.882,5.284,1.571,0.000,0.000,-6.457,10.628,0.451,5.864,3.457,5.598,
124.700,680.555,-6.483,10.359,2.126,0.000,0.008,1.693,0.000,1.180,1.679,1.365,0.000,0.000,2.955,2.000,0.000,0.000,3.142,0.000,0.000,0.000,0.000,0.000,0.000,0.000,0.000,0.000,0.000,0.000,3.142,6.283,0.000,2.100,1.897,1.799,4.285,0.398,1.000,4.711,0.000,0.000,-6.736,10.455,0.451,5.833,3.408,5.729,4.183,4.384,4.484,1.998,5.882,5.284,1.571,0.000,0.000,-6.457,10.628,0.451,5.864,3.457,5.598,
124.800,680.655,-6.483,10.359,2.126,0.000,0.008,1.693,0.000,1.180,1.679,1.365,0.000,0.000,2.955,2.000,0.000,0.000,3.142,0.000,0.000,0.000,0.000,0.000,0.000,0.000,0.000,0.000,0.000,0.000,3.142,6.283,0.000,2.100,1.897,1.799,4.285,0.398,1.000,4.711,0.000,0.000,-6.736,10.455,0.451,5.833,3.408,5.729,4.183,4.384,4.484,1.998,5.882,5.284,1.571,0.000,0.000,-6.457,10.628,0.451,5.864,3.457,5.598,
124.900,680.755,-6.483,10.359,2.126,0.000,0.008,1.693,0.000,1.180,1.679,1.365,0.000,0.000,2.955,2.000,0.000,0.000,3.142,0.000,0.000,0.000,0.000,0.000,0.000,0.000,0.000,0.000,0.000,0.000,3.142,6.283,0.000,2.100,1.897,1.799,4.285,0.398,1.000,4.711,0.000,0.000,-6.736,10.455,0.451,5.833,3.408,5.729,4.183,4.384,4.484,1.998,5.882,5.284,1.571,0.000,0.000,-6.457,10.628,0.451,5.864,3.457,5.598,
125.000,680.855,-6.483,10.359,2.126,0.000,0.008,1.693,0.000,1.180,1.679,1.365,0.000,0.000,2.955,2.000,0.000,0.000,3.142,0.000,0.000,0.000,0.000,0.000,0.000,0.000,0.000,0.000,0.000,0.000,3.142,6.283,0.000,2.100,1.897,1.799,4.285,0.398,1.000,4.711,0.000,0.000,-6.736,10.455,0.451,5.833,3.408,5.729,4.183,4.384,4.484,1.998,5.882,5.284,1.571,0.000,0.000,-6.457,10.628,0.451,5.864,3.457,5.598,
125.089,680.943,-6.483,10.359,2.126,0.000,0.008,1.693,0.000,1.180,1.679,1.365,0.000,0.000,2.955,2.000,0.000,0.000,3.142,0.000,0.000,0.000,0.000,0.000,0.000,0.000,0.000,0.000,0.000,0.000,3.142,6.283,0.000,2.100,1.897,1.799,4.285,0.398,1.000,4.711,0.000,0.000,-6.736,10.455,0.451,5.833,3.408,5.729,4.183,4.384,4.484,1.998,5.882,5.284,1.571,0.000,0.000,-6.457,10.628,0.451,5.864,3.457,5.598,
125.190,681.044,-6.483,10.359,2.126,0.000,0.008,1.693,0.000,1.180,1.679,1.365,0.000,0.000,2.955,2.000,0.000,0.000,3.142,0.000,0.000,0.000,0.000,0.000,0.000,0.000,0.000,0.000,0.000,0.000,3.142,6.283,0.000,2.100,1.897,1.799,4.285,0.398,1.000,4.711,0.000,0.000,-6.736,10.455,0.451,5.833,3.408,5.729,4.183,4.384,4.484,1.998,5.882,5.284,1.571,0.000,0.000,-6.457,10.628,0.451,5.864,3.457,5.598,
125.293,681.148,-6.483,10.359,2.126,0.000,0.008,1.693,0.000,1.180,1.679,1.365,0.000,0.000,2.955,2.000,0.000,0.000,3.142,0.000,0.000,0.000,0.000,0.000,0.000,0.000,0.000,0.000,0.000,0.000,3.142,6.283,0.000,2.100,1.897,1.799,4.285,0.398,1.000,4.711,0.000,0.000,-6.736,10.455,0.451,5.833,3.408,5.729,4.183,4.384,4.484,1.998,5.882,5.284,1.571,0.000,0.000,-6.457,10.628,0.451,5.864,3.457,5.598,
125.382,681.237,-6.483,10.359,2.126,0.000,0.008,1.693,0.000,1.180,1.679,1.365,0.000,0.000,2.955,2.000,0.000,0.000,3.142,0.000,0.000,0.000,0.000,0.000,0.000,0.000,0.000,0.000,0.000,0.000,3.142,6.283,0.000,2.100,1.897,1.799,4.285,0.398,1.000,4.711,0.000,0.000,-6.736,10.455,0.451,5.833,3.408,5.729,4.183,4.384,4.484,1.998,5.882,5.284,1.571,0.000,0.000,-6.457,10.628,0.451,5.864,3.457,5.598,
125.500,681.355,-6.483,10.359,2.126,0.000,0.008,1.693,0.000,1.180,1.679,1.365,0.000,0.000,2.955,2.000,0.000,0.000,3.142,0.000,0.000,0.000,0.000,0.000,0.000,0.000,0.000,0.000,0.000,0.000,3.142,6.283,0.000,2.100,1.897,1.799,4.285,0.398,1.000,4.711,0.000,0.000,-6.736,10.455,0.451,5.833,3.408,5.729,4.183,4.384,4.484,1.998,5.882,5.284,1.571,0.000,0.000,-6.457,10.628,0.451,5.864,3.457,5.598,
125.600,681.455,-6.483,10.359,2.126,0.000,0.008,1.693,0.000,1.180,1.679,1.365,0.000,0.000,2.955,2.000,0.000,0.000,3.142,0.000,0.000,0.000,0.000,0.000,0.000,0.000,0.000,0.000,0.000,0.000,3.142,6.283,0.000,2.100,1.897,1.799,4.285,0.398,1.000,4.711,0.000,0.000,-6.736,10.455,0.451,5.833,3.408,5.729,4.183,4.384,4.484,1.998,5.882,5.284,1.571,0.000,0.000,-6.457,10.628,0.451,5.864,3.457,5.598,
125.700,681.555,-6.483,10.359,2.126,0.000,0.008,1.693,0.000,1.180,1.679,1.365,0.000,0.000,2.955,2.000,0.000,0.000,3.142,0.000,0.000,0.000,0.000,0.000,0.000,0.000,0.000,0.000,0.000,0.000,3.142,6.283,0.000,2.100,1.897,1.799,4.285,0.398,1.000,4.711,0.000,0.000,-6.736,10.455,0.451,5.833,3.408,5.729,4.183,4.384,4.484,1.998,5.882,5.284,1.571,0.000,0.000,-6.457,10.628,0.451,5.864,3.457,5.598,
125.800,681.655,-6.483,10.359,2.126,0.000,0.008,1.693,0.000,1.180,1.679,1.365,0.000,0.000,2.955,2.000,0.000,0.000,3.142,0.000,0.000,0.000,0.000,0.000,0.000,0.000,0.000,0.000,0.000,0.000,3.142,6.283,0.000,2.100,1.897,1.799,4.285,0.398,1.000,4.711,0.000,0.000,-6.736,10.455,0.451,5.833,3.408,5.729,4.183,4.384,4.484,1.998,5.882,5.284,1.571,0.000,0.000,-6.457,10.628,0.451,5.864,3.457,5.598,
125.889,681.744,-6.483,10.359,2.126,0.000,0.008,1.693,0.000,1.180,1.679,1.365,0.000,0.000,2.955,2.000,0.000,0.000,3.142,0.000,0.000,0.000,0.000,0.000,0.000,0.000,0.000,0.000,0.000,0.000,3.142,6.283,0.000,2.100,1.897,1.799,4.285,0.398,1.000,4.711,0.000,0.000,-6.736,10.455,0.451,5.833,3.408,5.729,4.183,4.384,4.484,1.998,5.882,5.284,1.571,0.000,0.000,-6.457,10.628,0.451,5.864,3.457,5.598,
125.990,681.845,-6.483,10.359,2.126,0.000,0.008,1.693,0.000,1.180,1.679,1.365,0.000,0.000,2.955,2.000,0.000,0.000,3.142,0.000,0.000,0.000,0.000,0.000,0.000,0.000,0.000,0.000,0.000,0.000,3.142,6.283,0.000,2.100,1.897,1.799,4.285,0.398,1.000,4.711,0.000,0.000,-6.736,10.455,0.451,5.833,3.408,5.729,4.183,4.384,4.484,1.998,5.882,5.284,1.571,0.000,0.000,-6.457,10.628,0.451,5.864,3.457,5.598,
126.100,681.955,-6.483,10.359,2.126,0.000,0.008,1.693,0.000,1.180,1.679,1.365,0.000,0.000,2.955,2.000,0.000,0.000,3.142,0.000,0.000,0.000,0.000,0.000,0.000,0.000,0.000,0.000,0.000,0.000,3.142,6.283,0.000,2.100,1.897,1.799,4.285,0.398,1.000,4.711,0.000,0.000,-6.736,10.455,0.451,5.833,3.408,5.729,4.183,4.384,4.484,1.998,5.882,5.284,1.571,0.000,0.000,-6.457,10.628,0.451,5.864,3.457,5.598,
126.200,682.055,-6.483,10.359,2.126,0.000,0.008,1.693,0.000,1.180,1.679,1.365,0.000,0.000,2.955,2.000,0.000,0.000,3.142,0.000,0.000,0.000,0.000,0.000,0.000,0.000,0.000,0.000,0.000,0.000,3.142,6.283,0.000,2.100,1.897,1.799,4.285,0.398,1.000,4.711,0.000,0.000,-6.736,10.455,0.451,5.833,3.408,5.729,4.183,4.384,4.484,1.998,5.882,5.284,1.571,0.000,0.000,-6.457,10.628,0.451,5.864,3.457,5.598,
126.300,682.155,-6.483,10.359,2.126,0.000,0.008,1.693,0.000,1.180,1.679,1.365,0.000,0.000,2.955,2.000,0.000,0.000,3.142,0.000,0.000,0.000,0.000,0.000,0.000,0.000,0.000,0.000,0.000,0.000,3.142,6.283,0.000,2.100,1.897,1.799,4.285,0.398,1.000,4.711,0.000,0.000,-6.736,10.455,0.451,5.833,3.408,5.729,4.183,4.384,4.484,1.998,5.882,5.284,1.571,0.000,0.000,-6.457,10.628,0.451,5.864,3.457,5.598,
126.400,682.255,-6.483,10.359,2.126,0.000,0.008,1.693,0.000,1.180,1.679,1.365,0.000,0.000,2.955,2.000,0.000,0.000,3.142,0.000,0.000,0.000,0.000,0.000,0.000,0.000,0.000,0.000,0.000,0.000,3.142,6.283,0.000,2.100,1.897,1.799,4.285,0.398,1.000,4.711,0.000,0.000,-6.736,10.455,0.451,5.833,3.408,5.729,4.183,4.384,4.484,1.998,5.882,5.284,1.571,0.000,0.000,-6.457,10.628,0.451,5.864,3.457,5.598,
126.495,682.349,-6.483,10.359,2.126,0.000,0.008,1.693,0.000,1.180,1.679,1.365,0.000,0.000,2.955,2.000,0.000,0.000,3.142,0.000,0.000,0.000,0.000,0.000,0.000,0.000,0.000,0.000,0.000,0.000,3.142,6.283,0.000,2.100,1.897,1.799,4.285,0.398,1.000,4.711,0.000,0.000,-6.736,10.455,0.451,5.833,3.408,5.729,4.183,4.384,4.484,1.998,5.882,5.284,1.571,0.000,0.000,-6.457,10.628,0.451,5.864,3.457,5.598,
126.600,682.455,-6.483,10.359,2.126,0.000,0.008,1.693,0.000,1.180,1.679,1.365,0.000,0.000,2.955,2.000,0.000,0.000,3.142,0.000,0.000,0.000,0.000,0.000,0.000,0.000,0.000,0.000,0.000,0.000,3.142,6.283,0.000,2.100,1.897,1.799,4.285,0.398,1.000,4.711,0.000,0.000,-6.736,10.455,0.451,5.833,3.408,5.729,4.183,4.384,4.484,1.998,5.882,5.284,1.571,0.000,0.000,-6.457,10.628,0.451,5.864,3.457,5.598,
126.700,682.555,-6.483,10.359,2.126,0.000,0.008,1.693,0.000,1.180,1.679,1.365,0.000,0.000,2.955,2.000,0.000,0.000,3.142,0.000,0.000,0.000,0.000,0.000,0.000,0.000,0.000,0.000,0.000,0.000,3.142,6.283,0.000,2.100,1.897,1.799,4.285,0.398,1.000,4.711,0.000,0.000,-6.736,10.455,0.451,5.833,3.408,5.729,4.183,4.384,4.484,1.998,5.882,5.284,1.571,0.000,0.000,-6.457,10.628,0.451,5.864,3.457,5.598,
126.800,682.655,-6.483,10.359,2.126,0.000,0.008,1.693,0.000,1.180,1.679,1.365,0.000,0.000,2.955,2.000,0.000,0.000,3.142,0.000,0.000,0.000,0.000,0.000,0.000,0.000,0.000,0.000,0.000,0.000,3.142,6.283,0.000,2.100,1.897,1.799,4.285,0.398,1.000,4.711,0.000,0.000,-6.736,10.455,0.451,5.833,3.408,5.729,4.183,4.384,4.484,1.998,5.882,5.284,1.571,0.000,0.000,-6.457,10.628,0.451,5.864,3.457,5.598,
126.900,682.755,-6.483,10.359,2.126,0.000,0.008,1.693,0.000,1.180,1.679,1.365,0.000,0.000,2.955,2.000,0.000,0.000,3.142,0.000,0.000,0.000,0.000,0.000,0.000,0.000,0.000,0.000,0.000,0.000,3.142,6.283,0.000,2.100,1.897,1.799,4.285,0.398,1.000,4.711,0.000,0.000,-6.736,10.455,0.451,5.833,3.408,5.729,4.183,4.384,4.484,1.998,5.882,5.284,1.571,0.000,0.000,-6.457,10.628,0.451,5.864,3.457,5.598,
126.994,682.849,-6.483,10.359,2.126,0.000,0.008,1.693,0.000,1.180,1.679,1.365,0.000,0.000,2.955,2.000,0.000,0.000,3.142,0.000,0.000,0.000,0.000,0.000,0.000,0.000,0.000,0.000,0.000,0.000,3.142,6.283,0.000,2.100,1.897,1.799,4.285,0.398,1.000,4.711,0.000,0.000,-6.736,10.455,0.451,5.833,3.408,5.729,4.183,4.384,4.484,1.998,5.882,5.284,1.571,0.000,0.000,-6.457,10.628,0.451,5.864,3.457,5.598,
127.081,682.936,-6.483,10.359,2.126,0.000,0.008,1.693,0.000,1.180,1.679,1.365,0.000,0.000,2.955,2.000,0.000,0.000,3.142,0.000,0.000,0.000,0.000,0.000,0.000,0.000,0.000,0.000,0.000,0.000,3.142,6.283,0.000,2.100,1.897,1.799,4.285,0.398,1.000,4.711,0.000,0.000,-6.736,10.455,0.451,5.833,3.408,5.729,4.183,4.384,4.484,1.998,5.882,5.284,1.571,0.000,0.000,-6.457,10.628,0.451,5.864,3.457,5.598,
127.200,683.055,-6.483,10.359,2.126,0.000,0.008,1.693,0.000,1.180,1.679,1.365,0.000,0.000,2.955,2.000,0.000,0.000,3.142,0.000,0.000,0.000,0.000,0.000,0.000,0.000,0.000,0.000,0.000,0.000,3.142,6.283,0.000,2.100,1.897,1.799,4.285,0.398,1.000,4.711,0.000,0.000,-6.736,10.455,0.451,5.833,3.408,5.729,4.183,4.384,4.484,1.998,5.882,5.284,1.571,0.000,0.000,-6.457,10.628,0.451,5.864,3.457,5.598,
127.300,683.155,-6.483,10.359,2.126,0.000,0.008,1.693,0.000,1.180,1.679,1.365,0.000,0.000,2.955,2.000,0.000,0.000,3.142,0.000,0.000,0.000,0.000,0.000,0.000,0.000,0.000,0.000,0.000,0.000,3.142,6.283,0.000,2.100,1.897,1.799,4.285,0.398,1.000,4.711,0.000,0.000,-6.736,10.455,0.451,5.833,3.408,5.729,4.183,4.384,4.484,1.998,5.882,5.284,1.571,0.000,0.000,-6.457,10.628,0.451,5.864,3.457,5.598,
127.397,683.251,-6.483,10.359,2.126,0.000,0.008,1.693,0.000,1.180,1.679,1.365,0.000,0.000,2.955,2.000,0.000,0.000,3.142,0.000,0.000,0.000,0.000,0.000,0.000,0.000,0.000,0.000,0.000,0.000,3.142,6.283,0.000,2.100,1.897,1.799,4.285,0.398,1.000,4.711,0.000,0.000,-6.736,10.455,0.451,5.833,3.408,5.729,4.183,4.384,4.484,1.998,5.882,5.284,1.571,0.000,0.000,-6.457,10.628,0.451,5.864,3.457,5.598,
127.486,683.341,-6.483,10.359,2.126,0.000,0.008,1.693,0.000,1.180,1.679,1.365,0.000,0.000,2.955,2.000,0.000,0.000,3.142,0.000,0.000,0.000,0.000,0.000,0.000,0.000,0.000,0.000,0.000,0.000,3.142,6.283,0.000,2.100,1.897,1.799,4.285,0.398,1.000,4.711,0.000,0.000,-6.736,10.455,0.451,5.833,3.408,5.729,4.183,4.384,4.484,1.998,5.882,5.284,1.571,0.000,0.000,-6.457,10.628,0.451,5.864,3.457,5.598,
127.585,683.440,-6.483,10.359,2.126,0.000,0.008,1.693,0.000,1.180,1.679,1.365,0.000,0.000,2.955,2.000,0.000,0.000,3.142,0.000,0.000,0.000,0.000,0.000,0.000,0.000,0.000,0.000,0.000,0.000,3.142,6.283,0.000,2.100,1.897,1.799,4.285,0.398,1.000,4.711,0.000,0.000,-6.736,10.455,0.451,5.833,3.408,5.729,4.183,4.384,4.484,1.998,5.882,5.284,1.571,0.000,0.000,-6.457,10.628,0.451,5.864,3.457,5.598,
127.700,683.555,-6.483,10.359,2.126,0.000,0.008,1.693,0.000,1.180,1.679,1.365,0.000,0.000,2.955,2.000,0.000,0.000,3.142,0.000,0.000,0.000,0.000,0.000,0.000,0.000,0.000,0.000,0.000,0.000,3.142,6.283,0.000,2.100,1.897,1.799,4.285,0.398,1.000,4.711,0.000,0.000,-6.736,10.455,0.451,5.833,3.408,5.729,4.183,4.384,4.484,1.998,5.882,5.284,1.571,0.000,0.000,-6.457,10.628,0.451,5.864,3.457,5.598,
127.800,683.965,-6.483,10.359,2.126,0.000,0.008,1.693,0.000,1.180,1.679,1.365,0.000,0.000,2.955,2.000,0.000,0.000,3.142,0.000,0.000,0.000,0.000,0.000,0.000,0.000,0.000,0.000,0.000,0.000,3.142,6.283,0.000,2.100,1.897,1.799,4.285,0.398,1.000,4.711,0.000,0.000,-6.736,10.455,0.451,5.833,3.408,5.729,4.183,4.384,4.484,1.998,5.882,5.284,1.571,0.000,0.000,-6.457,10.628,0.451,5.864,3.457,5.598,
127.900,684.065,-6.483,10.359,2.126,0.000,0.008,1.693,0.000,1.180,1.679,1.365,0.000,0.000,2.955,2.000,0.000,0.000,3.142,0.000,0.000,0.000,0.000,0.000,0.000,0.000,0.000,0.000,0.000,0.000,3.142,6.283,0.000,2.100,1.897,1.799,4.285,0.398,1.000,4.711,0.000,0.000,-6.736,10.455,0.451,5.833,3.408,5.729,4.183,4.384,4.484,1.998,5.882,5.284,1.571,0.000,0.000,-6.457,10.628,0.451,5.864,3.457,5.598,
128.000,684.165,-6.483,10.359,2.126,0.000,0.008,1.693,0.000,1.180,1.679,1.365,0.000,0.000,2.955,2.000,0.000,0.000,3.142,0.000,0.000,0.000,0.000,0.000,0.000,0.000,0.000,0.000,0.000,0.000,3.142,6.283,0.000,2.100,1.897,1.799,4.285,0.398,1.000,4.711,0.000,0.000,-6.736,10.455,0.451,5.833,3.408,5.729,4.183,4.384,4.484,1.998,5.882,5.284,1.571,0.000,0.000,-6.457,10.628,0.451,5.864,3.457,5.598,
128.093,684.257,-6.483,10.359,2.126,0.000,0.008,1.693,0.000,1.180,1.679,1.365,0.000,0.000,2.955,2.000,0.000,0.000,3.142,0.000,0.000,0.000,0.000,0.000,0.000,0.000,0.000,0.000,0.000,0.000,3.142,6.283,0.000,2.100,1.897,1.799,4.285,0.398,1.000,4.711,0.000,0.000,-6.736,10.455,0.451,5.833,3.408,5.729,4.183,4.384,4.484,1.998,5.882,5.284,1.571,0.000,0.000,-6.457,10.628,0.451,5.864,3.457,5.598,
128.200,684.365,-6.483,10.359,2.126,0.000,0.008,1.693,0.000,1.180,1.679,1.365,0.000,0.000,2.955,2.000,0.000,0.000,3.142,0.000,0.000,0.000,0.000,0.000,0.000,0.000,0.000,0.000,0.000,0.000,3.142,6.283,0.000,2.100,1.897,1.799,4.285,0.398,1.000,4.711,0.000,0.000,-6.736,10.455,0.451,5.833,3.408,5.729,4.183,4.384,4.484,1.998,5.882,5.284,1.571,0.000,0.000,-6.457,10.628,0.451,5.864,3.457,5.598,
128.296,684.460,-6.483,10.359,2.126,0.000,0.008,1.693,0.000,1.180,1.679,1.365,0.000,0.000,2.955,2.000,0.000,0.000,3.142,0.000,0.000,0.000,0.000,0.000,0.000,0.000,0.000,0.000,0.000,0.000,3.142,6.283,0.000,2.100,1.897,1.799,4.285,0.398,1.000,4.711,0.000,0.000,-6.736,10.455,0.451,5.833,3.408,5.729,4.183,4.384,4.484,1.998,5.882,5.284,1.571,0.000,0.000,-6.457,10.628,0.451,5.864,3.457,5.598,
128.400,684.565,-6.483,10.359,2.126,0.000,0.008,1.693,0.000,1.180,1.679,1.365,0.000,0.000,2.955,2.000,0.000,0.000,3.142,0.000,0.000,0.000,0.000,0.000,0.000,0.000,0.000,0.000,0.000,0.000,3.142,6.283,0.000,2.100,1.897,1.799,4.285,0.398,1.000,4.711,0.000,0.000,-6.736,10.455,0.451,5.833,3.408,5.729,4.183,4.384,4.484,1.998,5.882,5.284,1.571,0.000,0.000,-6.457,10.628,0.451,5.864,3.457,5.598,
128.493,684.658,-6.483,10.359,2.126,0.000,0.008,1.693,0.000,1.180,1.679,1.365,0.000,0.000,2.955,2.000,0.000,0.000,3.142,0.000,0.000,0.000,0.000,0.000,0.000,0.000,0.000,0.000,0.000,0.000,3.142,6.283,0.000,2.100,1.897,1.799,4.285,0.398,1.000,4.711,0.000,0.000,-6.736,10.455,0.451,5.833,3.408,5.729,4.183,4.384,4.484,1.998,5.882,5.284,1.571,0.000,0.000,-6.457,10.628,0.451,5.864,3.457,5.598,
128.585,684.750,-6.483,10.359,2.126,0.000,0.008,1.693,0.000,1.180,1.679,1.365,0.000,0.000,2.955,2.000,0.000,0.000,3.142,0.000,0.000,0.000,0.000,0.000,0.000,0.000,0.000,0.000,0.000,0.000,3.142,6.283,0.000,2.100,1.897,1.799,4.285,0.398,1.000,4.711,0.000,0.000,-6.736,10.455,0.451,5.833,3.408,5.729,4.183,4.384,4.484,1.998,5.882,5.284,1.571,0.000,0.000,-6.457,10.628,0.451,5.864,3.457,5.598,
128.683,684.848,-6.483,10.359,2.126,0.000,0.008,1.693,0.000,1.180,1.679,1.365,0.000,0.000,2.955,2.000,0.000,0.000,3.142,0.000,0.000,0.000,0.000,0.000,0.000,0.000,0.000,0.000,0.000,0.000,3.142,6.283,0.000,2.100,1.897,1.799,4.285,0.398,1.000,4.711,0.000,0.000,-6.736,10.455,0.451,5.833,3.408,5.729,4.183,4.384,4.484,1.998,5.882,5.284,1.571,0.000,0.000,-6.457,10.628,0.451,5.864,3.457,5.598,
128.800,684.965,-6.483,10.359,2.126,0.000,0.008,1.693,0.000,1.180,1.679,1.365,0.000,0.000,2.955,2.000,0.000,0.000,3.142,0.000,0.000,0.000,0.000,0.000,0.000,0.000,0.000,0.000,0.000,0.000,3.142,6.283,0.000,2.100,1.897,1.799,4.285,0.398,1.000,4.711,0.000,0.000,-6.736,10.455,0.451,5.833,3.408,5.729,4.183,4.384,4.484,1.998,5.882,5.284,1.571,0.000,0.000,-6.457,10.628,0.451,5.864,3.457,5.598,
128.900,685.065,-6.483,10.359,2.126,0.000,0.008,1.693,0.000,1.180,1.679,1.365,0.000,0.000,2.955,2.000,0.000,0.000,3.142,0.000,0.000,0.000,0.000,0.000,0.000,0.000,0.000,0.000,0.000,0.000,3.142,6.283,0.000,2.100,1.897,1.799,4.285,0.398,1.000,4.711,0.000,0.000,-6.736,10.455,0.451,5.833,3.408,5.729,4.183,4.384,4.484,1.998,5.882,5.284,1.571,0.000,0.000,-6.457,10.628,0.451,5.864,3.457,5.598,
128.983,685.148,-6.483,10.359,2.126,0.000,0.008,1.693,0.000,1.180,1.679,1.365,0.000,0.000,2.955,2.000,0.000,0.000,3.142,0.000,0.000,0.000,0.000,0.000,0.000,0.000,0.000,0.000,0.000,0.000,3.142,6.283,0.000,2.100,1.897,1.799,4.285,0.398,1.000,4.711,0.000,0.000,-6.736,10.455,0.451,5.833,3.408,5.729,4.183,4.384,4.484,1.998,5.882,5.284,1.571,0.000,0.000,-6.457,10.628,0.451,5.864,3.457,5.598,
129.100,685.265,-6.483,10.359,2.126,0.000,0.008,1.693,0.000,1.180,1.679,1.365,0.000,0.000,2.955,2.000,0.000,0.000,3.142,0.000,0.000,0.000,0.000,0.000,0.000,0.000,0.000,0.000,0.000,0.000,3.142,6.283,0.000,2.100,1.897,1.799,4.285,0.398,1.000,4.711,0.000,0.000,-6.736,10.455,0.451,5.833,3.408,5.729,4.183,4.384,4.484,1.998,5.882,5.284,1.571,0.000,0.000,-6.457,10.628,0.451,5.864,3.457,5.598,
129.200,685.365,-6.483,10.359,2.126,0.000,0.008,1.693,0.000,1.180,1.679,1.365,0.000,0.000,2.955,2.000,0.000,0.000,3.142,0.000,0.000,0.000,0.000,0.000,0.000,0.000,0.000,0.000,0.000,0.000,3.142,6.283,0.000,2.100,1.897,1.799,4.285,0.398,1.000,4.711,0.000,0.000,-6.736,10.455,0.451,5.833,3.408,5.729,4.183,4.384,4.484,1.998,5.882,5.284,1.571,0.000,0.000,-6.457,10.628,0.451,5.864,3.457,5.598,
129.300,685.465,-6.483,10.359,2.126,0.000,0.008,1.693,0.000,1.180,1.679,1.365,0.000,0.000,2.955,2.000,0.000,0.000,3.142,0.000,0.000,0.000,0.000,0.000,0.000,0.000,0.000,0.000,0.000,0.000,3.142,6.283,0.000,2.100,1.897,1.799,4.285,0.398,1.000,4.711,0.000,0.000,-6.736,10.455,0.451,5.833,3.408,5.729,4.183,4.384,4.484,1.998,5.882,5.284,1.571,0.000,0.000,-6.457,10.628,0.451,5.864,3.457,5.598,
129.400,685.565,-6.483,10.359,2.126,0.000,0.008,1.693,0.000,1.180,1.679,1.365,0.000,0.000,2.955,2.000,0.000,0.000,3.142,0.000,0.000,0.000,0.000,0.000,0.000,0.000,0.000,0.000,0.000,0.000,3.142,6.283,0.000,2.100,1.897,1.799,4.285,0.398,1.000,4.711,0.000,0.000,-6.736,10.455,0.451,5.833,3.408,5.729,4.183,4.384,4.484,1.998,5.882,5.284,1.571,0.000,0.000,-6.457,10.628,0.451,5.864,3.457,5.598,
129.500,685.665,-6.483,10.359,2.126,0.000,0.008,1.693,0.000,1.180,1.679,1.365,0.000,0.000,2.955,2.000,0.000,0.000,3.142,0.000,0.000,0.000,0.000,0.000,0.000,0.000,0.000,0.000,0.000,0.000,3.142,6.283,0.000,2.100,1.897,1.799,4.285,0.398,1.000,4.711,0.000,0.000,-6.736,10.455,0.451,5.833,3.408,5.729,4.183,4.384,4.484,1.998,5.882,5.284,1.571,0.000,0.000,-6.457,10.628,0.451,5.864,3.457,5.598,
129.600,685.765,-6.483,10.359,2.126,0.000,0.008,1.693,0.000,1.180,1.679,1.365,0.000,0.000,2.955,2.000,0.000,0.000,3.142,0.000,0.000,0.000,0.000,0.000,0.000,0.000,0.000,0.000,0.000,0.000,3.142,6.283,0.000,2.100,1.897,1.799,4.285,0.398,1.000,4.711,0.000,0.000,-6.736,10.455,0.451,5.833,3.408,5.729,4.183,4.384,4.484,1.998,5.882,5.284,1.571,0.000,0.000,-6.457,10.628,0.451,5.864,3.457,5.598,
129.700,685.865,-6.483,10.359,2.126,0.000,0.008,1.693,0.000,1.180,1.679,1.365,0.000,0.000,2.955,2.000,0.000,0.000,3.142,0.000,0.000,0.000,0.000,0.000,0.000,0.000,0.000,0.000,0.000,0.000,3.142,6.283,0.000,2.100,1.897,1.799,4.285,0.398,1.000,4.711,0.000,0.000,-6.736,10.455,0.451,5.833,3.408,5.729,4.183,4.384,4.484,1.998,5.882,5.284,1.571,0.000,0.000,-6.457,10.628,0.451,5.864,3.457,5.598,
129.782,685.947,-6.483,10.359,2.126,0.000,0.008,1.693,0.000,1.180,1.679,1.365,0.000,0.000,2.955,2.000,0.000,0.000,3.142,0.000,0.000,0.000,0.000,0.000,0.000,0.000,0.000,0.000,0.000,0.000,3.142,6.283,0.000,2.100,1.897,1.799,4.285,0.398,1.000,4.711,0.000,0.000,-6.736,10.455,0.451,5.833,3.408,5.729,4.183,4.384,4.484,1.998,5.882,5.284,1.571,0.000,0.000,-6.457,10.628,0.451,5.864,3.457,5.598,
129.900,686.065,-6.483,10.359,2.126,0.000,0.008,1.693,0.000,1.180,1.679,1.365,0.000,0.000,2.955,2.000,0.000,0.000,3.142,0.000,0.000,0.000,0.000,0.000,0.000,0.000,0.000,0.000,0.000,0.000,3.142,6.283,0.000,2.100,1.897,1.799,4.285,0.398,1.000,4.711,0.000,0.000,-6.736,10.455,0.451,5.833,3.408,5.729,4.183,4.384,4.484,1.998,5.882,5.284,1.571,0.000,0.000,-6.457,10.628,0.451,5.864,3.457,5.598,
129.999,686.164,-6.483,10.359,2.126,0.000,0.008,1.693,0.000,1.180,1.679,1.365,0.000,0.000,2.955,2.000,0.000,0.000,3.142,0.000,0.000,0.000,0.000,0.000,0.000,0.000,0.000,0.000,0.000,0.000,3.142,6.283,0.000,2.100,1.897,1.799,4.285,0.398,1.000,4.711,0.000,0.000,-6.736,10.455,0.451,5.833,3.408,5.729,4.183,4.384,4.484,1.998,5.882,5.284,1.571,0.000,0.000,-6.457,10.628,0.451,5.864,3.457,5.598,
130.083,686.247,-6.483,10.359,2.126,0.000,0.008,1.693,0.000,1.180,1.679,1.365,0.000,0.000,2.955,2.000,0.000,0.000,3.142,0.000,0.000,0.000,0.000,0.000,0.000,0.000,0.000,0.000,0.000,0.000,3.142,6.283,0.000,2.100,1.897,1.799,4.285,0.398,1.000,4.711,0.000,0.000,-6.736,10.455,0.451,5.833,3.408,5.729,4.183,4.384,4.484,1.998,5.882,5.284,1.571,0.000,0.000,-6.457,10.628,0.451,5.864,3.457,5.598,
130.182,686.347,-6.483,10.359,2.126,0.000,0.008,1.693,0.000,1.180,1.679,1.365,0.000,0.000,2.955,2.000,0.000,0.000,3.142,0.000,0.000,0.000,0.000,0.000,0.000,0.000,0.000,0.000,0.000,0.000,3.142,6.283,0.000,2.100,1.897,1.799,4.285,0.398,1.000,4.711,0.000,0.000,-6.736,10.455,0.451,5.833,3.408,5.729,4.183,4.384,4.484,1.998,5.882,5.284,1.571,0.000,0.000,-6.457,10.628,0.451,5.864,3.457,5.598,
130.300,686.465,-6.483,10.359,2.126,0.000,0.008,1.693,0.000,1.180,1.679,1.365,0.000,0.000,2.955,2.000,0.000,0.000,3.142,0.000,0.000,0.000,0.000,0.000,0.000,0.000,0.000,0.000,0.000,0.000,3.142,6.283,0.000,2.100,1.897,1.799,4.285,0.398,1.000,4.711,0.000,0.000,-6.736,10.455,0.451,5.833,3.408,5.729,4.183,4.384,4.484,1.998,5.882,5.284,1.571,0.000,0.000,-6.457,10.628,0.451,5.864,3.457,5.598,
130.398,686.563,-6.483,10.359,2.126,0.000,0.008,1.693,0.000,1.180,1.679,1.365,0.000,0.000,2.955,2.000,0.000,0.000,3.142,0.000,0.000,0.000,0.000,0.000,0.000,0.000,0.000,0.000,0.000,0.000,3.142,6.283,0.000,2.100,1.897,1.799,4.285,0.398,1.000,4.711,0.000,0.000,-6.736,10.455,0.451,5.833,3.408,5.729,4.183,4.384,4.484,1.998,5.882,5.284,1.571,0.000,0.000,-6.457,10.628,0.451,5.864,3.457,5.598,
130.500,686.665,-6.483,10.359,2.126,0.000,0.008,1.693,0.000,1.180,1.679,1.365,0.000,0.000,2.955,2.000,0.000,0.000,3.142,0.000,0.000,0.000,0.000,0.000,0.000,0.000,0.000,0.000,0.000,0.000,3.142,6.283,0.000,2.100,1.897,1.799,4.285,0.398,1.000,4.711,0.000,0.000,-6.736,10.455,0.451,5.833,3.408,5.729,4.183,4.384,4.484,1.998,5.882,5.284,1.571,0.000,0.000,-6.457,10.628,0.451,5.864,3.457,5.598,
130.592,686.757,-6.483,10.359,2.126,0.000,0.008,1.693,0.000,1.180,1.679,1.365,0.000,0.000,2.955,2.000,0.000,0.000,3.142,0.000,0.000,0.000,0.000,0.000,0.000,0.000,0.000,0.000,0.000,0.000,3.142,6.283,0.000,2.100,1.897,1.799,4.285,0.398,1.000,4.711,0.000,0.000,-6.736,10.455,0.451,5.833,3.408,5.729,4.183,4.384,4.484,1.998,5.882,5.284,1.571,0.000,0.000,-6.457,10.628,0.451,5.864,3.457,5.598,
130.688,686.853,-6.483,10.359,2.126,0.000,0.008,1.693,0.000,1.180,1.679,1.365,0.000,0.000,2.955,2.000,0.000,0.000,3.142,0.000,0.000,0.000,0.000,0.000,0.000,0.000,0.000,0.000,0.000,0.000,3.142,6.283,0.000,2.100,1.897,1.799,4.285,0.398,1.000,4.711,0.000,0.000,-6.736,10.455,0.451,5.833,3.408,5.729,4.183,4.384,4.484,1.998,5.882,5.284,1.571,0.000,0.000,-6.457,10.628,0.451,5.864,3.457,5.598,
130.800,686.965,-6.483,10.359,2.126,0.000,0.008,1.693,0.000,1.180,1.679,1.365,0.000,0.000,2.955,2.000,0.000,0.000,3.142,0.000,0.000,0.000,0.000,0.000,0.000,0.000,0.000,0.000,0.000,0.000,3.142,6.283,0.000,2.100,1.897,1.799,4.285,0.398,1.000,4.711,0.000,0.000,-6.736,10.455,0.451,5.833,3.408,5.729,4.183,4.384,4.484,1.998,5.882,5.284,1.571,0.000,0.000,-6.457,10.628,0.451,5.864,3.457,5.598,
130.893,687.058,-6.483,10.359,2.126,0.000,0.008,1.693,0.000,1.180,1.679,1.365,0.000,0.000,2.955,2.000,0.000,0.000,3.142,0.000,0.000,0.000,0.000,0.000,0.000,0.000,0.000,0.000,0.000,0.000,3.142,6.283,0.000,2.100,1.897,1.799,4.285,0.398,1.000,4.711,0.000,0.000,-6.736,10.455,0.451,5.833,3.408,5.729,4.183,4.384,4.484,1.998,5.882,5.284,1.571,0.000,0.000,-6.457,10.628,0.451,5.864,3.457,5.598,
130.999,687.164,-6.483,10.359,2.126,0.000,0.008,1.693,0.000,1.180,1.679,1.365,0.000,0.000,2.955,2.000,0.000,0.000,3.142,0.000,0.000,0.000,0.000,0.000,0.000,0.000,0.000,0.000,0.000,0.000,3.142,6.283,0.000,2.100,1.897,1.799,4.285,0.398,1.000,4.711,0.000,0.000,-6.736,10.455,0.451,5.833,3.408,5.729,4.183,4.384,4.484,1.998,5.882,5.284,1.571,0.000,0.000,-6.457,10.628,0.451,5.864,3.457,5.598,
131.100,687.265,-6.483,10.359,2.126,0.000,0.008,1.693,0.000,1.180,1.679,1.365,0.000,0.000,2.955,2.000,0.000,0.000,3.142,0.000,0.000,0.000,0.000,0.000,0.000,0.000,0.000,0.000,0.000,0.000,3.142,6.283,0.000,2.100,1.897,1.799,4.285,0.398,1.000,4.711,0.000,0.000,-6.736,10.455,0.451,5.833,3.408,5.729,4.183,4.384,4.484,1.998,5.882,5.284,1.571,0.000,0.000,-6.457,10.628,0.451,5.864,3.457,5.598,
131.200,687.365,-6.483,10.359,2.126,0.000,0.008,1.693,0.000,1.180,1.679,1.365,0.000,0.000,2.955,2.000,0.000,0.000,3.142,0.000,0.000,0.000,0.000,0.000,0.000,0.000,0.000,0.000,0.000,0.000,3.142,6.283,0.000,2.100,1.897,1.799,4.285,0.398,1.000,4.711,0.000,0.000,-6.736,10.455,0.451,5.833,3.408,5.729,4.183,4.384,4.484,1.998,5.882,5.284,1.571,0.000,0.000,-6.457,10.628,0.451,5.864,3.457,5.598,
131.293,687.457,-6.483,10.359,2.126,0.000,0.008,1.693,0.000,1.180,1.679,1.365,0.000,0.000,2.955,2.000,0.000,0.000,3.142,0.000,0.000,0.000,0.000,0.000,0.000,0.000,0.000,0.000,0.000,0.000,3.142,6.283,0.000,2.100,1.897,1.799,4.285,0.398,1.000,4.711,0.000,0.000,-6.736,10.455,0.451,5.833,3.408,5.729,4.183,4.384,4.484,1.998,5.882,5.284,1.571,0.000,0.000,-6.457,10.628,0.451,5.864,3.457,5.598,
131.393,687.557,-6.483,10.359,2.126,0.000,0.008,1.693,0.000,1.180,1.679,1.365,0.000,0.000,2.955,2.000,0.000,0.000,3.142,0.000,0.000,0.000,0.000,0.000,0.000,0.000,0.000,0.000,0.000,0.000,3.142,6.283,0.000,2.100,1.897,1.799,4.285,0.398,1.000,4.711,0.000,0.000,-6.736,10.455,0.451,5.833,3.408,5.729,4.183,4.384,4.484,1.998,5.882,5.284,1.571,0.000,0.000,-6.457,10.628,0.451,5.864,3.457,5.598,
131.500,687.665,-6.483,10.359,2.126,0.000,0.008,1.693,0.000,1.180,1.679,1.365,0.000,0.000,2.955,2.000,0.000,0.000,3.142,0.000,0.000,0.000,0.000,0.000,0.000,0.000,0.000,0.000,0.000,0.000,3.142,6.283,0.000,2.100,1.897,1.799,4.285,0.398,1.000,4.711,0.000,0.000,-6.736,10.455,0.451,5.833,3.408,5.729,4.183,4.384,4.484,1.998,5.882,5.284,1.571,0.000,0.000,-6.457,10.628,0.451,5.864,3.457,5.598,
131.581,687.746,-6.483,10.359,2.126,0.000,0.008,1.693,0.000,1.180,1.679,1.365,0.000,0.000,2.955,2.000,0.000,0.000,3.142,0.000,0.000,0.000,0.000,0.000,0.000,0.000,0.000,0.000,0.000,0.000,3.142,6.283,0.000,2.100,1.897,1.799,4.285,0.398,1.000,4.711,0.000,0.000,-6.736,10.455,0.451,5.833,3.408,5.729,4.183,4.384,4.484,1.998,5.882,5.284,1.571,0.000,0.000,-6.457,10.628,0.451,5.864,3.457,5.598,
131.700,687.865,-6.483,10.359,2.126,0.000,0.008,1.693,0.000,1.180,1.679,1.365,0.000,0.000,2.955,2.000,0.000,0.000,3.142,0.000,0.000,0.000,0.000,0.000,0.000,0.000,0.000,0.000,0.000,0.000,3.142,6.283,0.000,2.100,1.897,1.799,4.285,0.398,1.000,4.711,0.000,0.000,-6.736,10.455,0.451,5.833,3.408,5.729,4.183,4.384,4.484,1.998,5.882,5.284,1.571,0.000,0.000,-6.457,10.628,0.451,5.864,3.457,5.598,
131.795,687.959,-6.483,10.359,2.126,0.000,0.008,1.693,0.000,1.180,1.679,1.365,0.000,0.000,2.955,2.000,0.000,0.000,3.142,0.000,0.000,0.000,0.000,0.000,0.000,0.000,0.000,0.000,0.000,0.000,3.142,6.283,0.000,2.100,1.897,1.799,4.285,0.398,1.000,4.711,0.000,0.000,-6.736,10.455,0.451,5.833,3.408,5.729,4.183,4.384,4.484,1.998,5.882,5.284,1.571,0.000,0.000,-6.457,10.628,0.451,5.864,3.457,5.598,
131.883,688.047,-6.483,10.359,2.126,0.000,0.008,1.693,0.000,1.180,1.679,1.365,0.000,0.000,2.955,2.000,0.000,0.000,3.142,0.000,0.000,0.000,0.000,0.000,0.000,0.000,0.000,0.000,0.000,0.000,3.142,6.283,0.000,2.100,1.897,1.799,4.285,0.398,1.000,4.711,0.000,0.000,-6.736,10.455,0.451,5.833,3.408,5.729,4.183,4.384,4.484,1.998,5.882,5.284,1.571,0.000,0.000,-6.457,10.628,0.451,5.864,3.457,5.598,
132.000,688.165,-6.483,10.359,2.126,0.000,0.008,1.693,0.000,1.180,1.679,1.365,0.000,0.000,2.955,2.000,0.000,0.000,3.142,0.000,0.000,0.000,0.000,0.000,0.000,0.000,0.000,0.000,0.000,0.000,3.142,6.283,0.000,2.100,1.897,1.799,4.285,0.398,1.000,4.711,0.000,0.000,-6.736,10.455,0.451,5.833,3.408,5.729,4.183,4.384,4.484,1.998,5.882,5.284,1.571,0.000,0.000,-6.457,10.628,0.451,5.864,3.457,5.598,
132.098,688.263,-6.483,10.359,2.126,0.000,0.008,1.693,0.000,1.180,1.679,1.365,0.000,0.000,2.955,2.000,0.000,0.000,3.142,0.000,0.000,0.000,0.000,0.000,0.000,0.000,0.000,0.000,0.000,0.000,3.142,6.283,0.000,2.100,1.897,1.799,4.285,0.398,1.000,4.711,0.000,0.000,-6.736,10.455,0.451,5.833,3.408,5.729,4.183,4.384,4.484,1.998,5.882,5.284,1.571,0.000,0.000,-6.457,10.628,0.451,5.864,3.457,5.598,
132.199,688.364,-6.483,10.359,2.126,0.000,0.008,1.693,0.000,1.180,1.679,1.365,0.000,0.000,2.955,2.000,0.000,0.000,3.142,0.000,0.000,0.000,0.000,0.000,0.000,0.000,0.000,0.000,0.000,0.000,3.142,6.283,0.000,2.100,1.897,1.799,4.285,0.398,1.000,4.711,0.000,0.000,-6.736,10.455,0.451,5.833,3.408,5.729,4.183,4.384,4.484,1.998,5.882,5.284,1.571,0.000,0.000,-6.457,10.628,0.451,5.864,3.457,5.598,
132.287,688.451,-6.483,10.359,2.126,0.000,0.008,1.693,0.000,1.180,1.679,1.365,0.000,0.000,2.955,2.000,0.000,0.000,3.142,0.000,0.000,0.000,0.000,0.000,0.000,0.000,0.000,0.000,0.000,0.000,3.142,6.283,0.000,2.100,1.897,1.799,4.285,0.398,1.000,4.711,0.000,0.000,-6.736,10.455,0.451,5.833,3.408,5.729,4.183,4.384,4.484,1.998,5.882,5.284,1.571,0.000,0.000,-6.457,10.628,0.451,5.864,3.457,5.598,
132.400,688.565,-6.483,10.359,2.126,0.000,0.008,1.693,0.000,1.180,1.679,1.365,0.000,0.000,2.955,2.000,0.000,0.000,3.142,0.000,0.000,0.000,0.000,0.000,0.000,0.000,0.000,0.000,0.000,0.000,3.142,6.283,0.000,2.100,1.897,1.799,4.285,0.398,1.000,4.711,0.000,0.000,-6.736,10.455,0.451,5.833,3.408,5.729,4.183,4.384,4.484,1.998,5.882,5.284,1.571,0.000,0.000,-6.457,10.628,0.451,5.864,3.457,5.598,
132.500,688.665,-6.483,10.359,2.126,0.000,0.008,1.693,0.000,1.180,1.679,1.365,0.000,0.000,2.955,2.000,0.000,0.000,3.142,0.000,0.000,0.000,0.000,0.000,0.000,0.000,0.000,0.000,0.000,0.000,3.142,6.283,0.000,2.100,1.897,1.799,4.285,0.398,1.000,4.711,0.000,0.000,-6.736,10.455,0.451,5.833,3.408,5.729,4.183,4.384,4.484,1.998,5.882,5.284,1.571,0.000,0.000,-6.457,10.628,0.451,5.864,3.457,5.598,
132.600,688.765,-6.483,10.359,2.126,0.000,0.008,1.693,0.000,1.180,1.679,1.365,0.000,0.000,2.955,2.000,0.000,0.000,3.142,0.000,0.000,0.000,0.000,0.000,0.000,0.000,0.000,0.000,0.000,0.000,3.142,6.283,0.000,2.100,1.897,1.799,4.285,0.398,1.000,4.711,0.000,0.000,-6.736,10.455,0.451,5.833,3.408,5.729,4.183,4.384,4.484,1.998,5.882,5.284,1.571,0.000,0.000,-6.457,10.628,0.451,5.864,3.457,5.598,
132.684,688.849,-6.483,10.359,2.126,0.000,0.008,1.693,0.000,1.180,1.679,1.365,0.000,0.000,2.955,2.000,0.000,0.000,3.142,0.000,0.000,0.000,0.000,0.000,0.000,0.000,0.000,0.000,0.000,0.000,3.142,6.283,0.000,2.100,1.897,1.799,4.285,0.398,1.000,4.711,0.000,0.000,-6.736,10.455,0.451,5.833,3.408,5.729,4.183,4.384,4.484,1.998,5.882,5.284,1.571,0.000,0.000,-6.457,10.628,0.451,5.864,3.457,5.598,
132.800,688.965,-6.483,10.359,2.126,0.000,0.008,1.693,0.000,1.180,1.679,1.365,0.000,0.000,2.955,2.000,0.000,0.000,3.142,0.000,0.000,0.000,0.000,0.000,0.000,0.000,0.000,0.000,0.000,0.000,3.142,6.283,0.000,2.100,1.897,1.799,4.285,0.398,1.000,4.711,0.000,0.000,-6.736,10.455,0.451,5.833,3.408,5.729,4.183,4.384,4.484,1.998,5.882,5.284,1.571,0.000,0.000,-6.457,10.628,0.451,5.864,3.457,5.598,
132.888,689.053,-6.483,10.359,2.126,0.000,0.008,1.693,0.000,1.180,1.679,1.365,0.000,0.000,2.955,2.000,0.000,0.000,3.142,0.000,0.000,0.000,0.000,0.000,0.000,0.000,0.000,0.000,0.000,0.000,3.142,6.283,0.000,2.100,1.897,1.799,4.285,0.398,1.000,4.711,0.000,0.000,-6.736,10.455,0.451,5.833,3.408,5.729,4.183,4.384,4.484,1.998,5.882,5.284,1.571,0.000,0.000,-6.457,10.628,0.451,5.864,3.457,5.598,
