deveshdatwani/Gopher/Assets/Data/07-13 17-41-03/Obstacle Handling_robot_value.csv
game_time,true_time,x,y,az,vx,vaz,dis_to_obs_0,dis_to_obs_36,dis_to_obs_72,dis_to_obs_108,dis_to_obs_144,dis_to_obs_180,dis_to_obs_-144,dis_to_obs_-108,dis_to_obs_-72,dis_to_obs_-36,dis_to_min_obs,direction_to_min_obs,dis_to_human_0,dis_to_human_36,dis_to_human_72,dis_to_human_108,dis_to_human_144,dis_to_human_180,dis_to_human_-144,dis_to_human_-108,dis_to_human_-72,dis_to_human_-36,dis_to_min_human,direction_to_min_human,main_cam_yaw,main_cam_pitch,left_joint_1,left_joint_2,left_joint_3,left_joint_4,left_joint_5,left_joint_6,left_joint_7,left_joint_gripper,left_is_grasping,left_end_x,left_end_y,left_end_z,left_end_ax,left_end_ay,left_end_az,right_joint_1,right_joint_2,right_joint_3,right_joint_4,right_joint_5,right_joint_6,right_joint_7,right_joint_gripper,right_is_grasping,right_end_x,right_end_y,right_end_z,right_end_ax,right_end_ay,right_end_az,
9.911,116.759,0.997,-9.923,1.576,1.014,6.265,3.424,0.000,2.134,1.257,2.119,4.989,3.368,2.098,1.696,4.174,0.000,3.036,0.000,0.000,0.000,0.000,0.000,0.000,0.000,0.000,0.000,0.000,0.000,3.142,6.282,0.000,1.004,1.569,1.569,4.085,6.281,1.199,4.712,0.000,0.000,0.666,-9.335,0.990,4.719,3.947,5.477,5.281,4.711,4.711,2.198,6.282,5.083,1.570,0.000,0.000,1.322,-9.332,0.990,4.719,3.998,5.426,
10.020,116.869,0.997,-9.844,1.576,0.996,6.265,3.345,0.000,1.713,1.257,2.119,0.000,3.368,2.098,1.697,4.077,0.000,3.142,0.000,0.000,0.000,0.000,0.000,0.000,0.000,0.000,0.000,0.000,0.000,3.142,6.282,0.000,1.004,1.569,1.569,4.085,6.281,1.199,4.712,0.000,0.000,0.665,-9.257,0.990,4.720,3.998,5.425,5.281,4.711,4.711,2.198,6.282,5.083,1.570,0.000,0.000,1.321,-9.253,0.990,4.720,4.036,5.388,
10.120,116.969,0.996,-9.726,1.577,1.011,6.265,3.227,0.000,1.652,1.284,2.119,0.000,3.366,2.098,1.698,3.393,0.000,3.142,0.000,0.000,0.000,0.000,0.000,0.000,0.000,0.000,0.000,0.000,0.000,3.142,6.282,0.000,1.004,1.569,1.569,4.085,6.281,1.199,4.712,0.000,0.000,0.664,-9.139,0.990,4.720,4.068,5.356,5.281,4.711,4.711,2.198,6.282,5.083,1.570,0.000,0.000,1.320,-9.135,0.990,4.720,4.087,5.337,
10.206,117.055,0.996,-9.626,1.577,1.019,6.265,3.127,0.000,1.600,1.362,2.119,0.000,3.366,2.099,0.000,3.315,0.000,3.142,0.000,0.000,0.000,0.000,0.000,0.000,0.000,0.000,0.000,0.000,0.000,3.142,6.282,0.000,1.004,1.569,1.569,4.085,6.281,1.199,4.712,0.000,0.000,0.663,-9.039,0.990,4.720,4.084,5.340,5.281,4.711,4.711,2.198,6.282,5.083,1.570,0.000,0.000,1.319,-9.034,0.990,4.720,4.111,5.313,
10.320,117.169,0.995,-9.546,1.577,1.013,6.265,3.047,0.000,1.559,1.423,2.119,0.000,3.365,2.099,0.000,3.710,0.000,3.142,0.000,0.000,0.000,0.000,0.000,0.000,0.000,0.000,0.000,0.000,0.000,3.142,6.282,0.000,1.004,1.569,1.569,4.085,6.281,1.199,4.712,0.000,0.000,0.662,-8.959,0.990,4.721,4.097,5.326,5.281,4.711,4.711,2.198,6.282,5.083,1.570,0.000,0.000,1.318,-8.954,0.990,4.721,4.129,5.295,
10.400,117.249,0.994,-9.427,1.578,1.007,6.266,2.928,0.000,1.497,1.515,2.119,0.000,3.364,2.100,0.000,3.564,0.000,3.142,0.000,0.000,0.000,0.000,0.000,0.000,0.000,0.000,0.000,0.000,0.000,3.142,6.282,0.000,1.004,1.569,1.569,4.085,6.281,1.199,4.712,0.000,0.000,0.661,-8.840,0.990,4.721,4.136,5.288,5.281,4.711,4.711,2.198,6.282,5.083,1.570,0.000,0.000,1.317,-8.835,0.990,4.721,4.161,5.263,
10.520,117.369,0.994,-9.347,1.578,1.011,6.265,2.848,3.218,1.658,1.577,2.119,0.000,3.364,2.100,0.000,3.467,0.000,3.142,0.000,0.000,0.000,0.000,0.000,0.000,0.000,0.000,0.000,0.000,0.000,3.142,6.282,0.000,1.004,1.569,1.569,4.085,6.281,1.199,4.712,0.000,0.000,0.660,-8.761,0.990,4.721,4.159,5.265,5.281,4.711,4.711,2.198,6.282,5.083,1.570,0.000,0.000,1.316,-8.756,0.990,4.721,4.181,5.243,
10.620,117.469,0.993,-9.228,1.579,1.014,6.266,2.729,3.069,2.085,1.669,2.119,0.000,3.363,2.101,0.000,3.320,0.000,3.142,0.000,0.000,0.000,0.000,0.000,0.000,0.000,0.000,0.000,0.000,0.000,3.142,6.282,0.000,1.004,1.569,1.569,4.085,6.281,1.199,4.712,0.000,0.000,0.659,-8.641,0.990,4.722,4.182,5.241,5.281,4.711,4.711,2.198,6.282,5.083,1.570,0.000,0.000,1.315,-8.636,0.990,4.722,4.206,5.218,
10.703,117.552,0.992,-9.128,1.579,1.011,6.266,2.629,2.944,0.000,1.745,2.119,0.000,3.363,1.685,0.000,3.198,0.000,3.142,0.000,0.000,0.000,0.000,0.000,0.000,0.000,0.000,0.000,0.000,0.000,3.142,6.282,0.000,1.004,1.569,1.569,4.085,6.281,1.199,4.712,0.000,0.000,0.658,-8.542,0.990,4.722,4.201,5.223,5.281,4.711,4.711,2.198,6.282,5.083,1.570,0.000,0.000,1.314,-8.536,0.990,4.722,4.225,5.199,
10.820,117.669,0.991,-9.049,1.579,1.010,6.265,2.550,2.844,0.000,1.807,2.119,0.000,3.362,1.685,0.000,3.100,0.000,3.142,0.000,0.000,0.000,0.000,0.000,0.000,0.000,0.000,0.000,0.000,0.000,3.142,6.282,0.000,1.004,1.569,1.569,4.085,6.281,1.199,4.712,0.000,0.000,0.657,-8.462,0.990,4.722,4.218,5.206,5.281,4.711,4.711,2.198,6.282,5.083,1.570,0.000,0.000,1.313,-8.457,0.990,4.722,4.240,5.184,
10.920,117.769,0.990,-8.929,1.580,1.012,6.266,2.430,2.694,0.000,1.898,2.118,0.000,3.362,1.686,0.000,2.954,0.000,3.142,0.000,0.000,0.000,0.000,0.000,0.000,0.000,0.000,0.000,0.000,0.000,3.142,6.282,0.000,1.004,1.569,1.569,4.085,6.281,1.199,4.712,0.000,0.000,0.656,-8.343,0.990,4.723,4.241,5.183,5.281,4.711,4.711,2.198,6.282,5.083,1.570,0.000,0.000,1.312,-8.337,0.990,4.723,4.261,5.163,
11.020,117.869,0.989,-8.830,1.580,1.012,6.266,2.331,2.392,0.000,1.975,2.118,0.000,3.362,1.687,0.000,2.833,0.000,3.142,0.000,0.000,0.000,0.000,0.000,0.000,0.000,0.000,0.000,0.000,0.000,3.142,6.282,0.000,1.004,1.569,1.569,4.085,6.281,1.199,4.712,0.000,0.000,0.655,-8.244,0.990,4.723,4.256,5.168,5.281,4.711,4.711,2.198,6.282,5.083,1.570,0.000,0.000,1.311,-8.237,0.990,4.723,4.276,5.148,
11.120,117.969,0.988,-8.737,1.593,0.850,0.555,2.239,2.299,0.000,1.750,2.159,0.000,3.305,1.681,0.000,2.696,0.000,3.142,0.000,0.000,0.000,0.000,0.000,0.000,0.000,0.000,0.000,0.000,0.000,3.142,0.002,0.000,1.002,1.571,1.573,4.088,6.281,1.200,4.712,0.000,0.000,0.649,-8.155,0.990,4.732,4.394,5.030,5.281,4.713,4.714,2.199,6.281,5.083,1.571,0.000,0.000,1.304,-8.141,0.991,4.732,4.526,4.898,
11.220,118.069,0.985,-8.660,1.683,0.765,1.382,2.178,2.573,0.000,2.018,2.512,0.000,2.975,2.054,4.060,2.464,0.000,3.142,0.000,0.000,0.000,0.000,0.000,0.000,0.000,0.000,0.000,0.000,0.000,3.142,0.002,0.000,1.003,1.571,1.571,4.086,6.281,1.199,4.712,0.000,0.000,0.594,-8.111,0.990,4.823,4.669,4.755,5.282,4.713,4.714,2.198,6.282,5.083,1.571,0.000,0.000,1.246,-8.038,0.991,4.822,4.685,4.739,
11.320,118.169,0.974,-8.582,1.804,0.856,1.212,2.149,0.000,4.230,2.000,3.255,0.000,2.663,0.000,3.934,2.243,0.000,3.142,0.000,0.000,0.000,0.000,0.000,0.000,0.000,0.000,0.000,0.000,0.000,3.142,0.001,0.000,1.004,1.569,1.569,4.084,6.282,1.199,4.712,0.000,0.000,0.517,-8.085,0.990,4.947,4.695,4.728,5.282,4.712,4.711,2.198,6.283,5.083,1.570,0.000,0.000,1.156,-7.933,0.991,4.946,4.698,4.726,
11.420,118.269,0.951,-8.498,1.891,0.896,0.857,2.117,4.792,4.203,2.015,4.159,4.496,2.515,0.000,3.324,2.087,0.000,3.071,0.000,0.000,0.000,0.000,0.000,0.000,0.000,0.000,0.000,0.000,0.000,3.142,0.001,0.000,1.004,1.570,1.569,4.085,6.282,1.199,4.712,0.000,0.000,0.454,-8.042,0.990,5.033,4.697,4.726,5.282,4.712,4.711,2.198,6.282,5.083,1.570,0.000,0.000,1.077,-7.835,0.991,5.033,4.701,4.722,
11.504,118.352,0.935,-8.448,1.959,0.079,0.670,2.120,4.568,1.965,2.026,0.000,4.577,1.956,0.000,2.978,1.546,0.000,3.001,0.000,0.000,0.000,0.000,0.000,0.000,0.000,0.000,0.000,0.000,0.000,3.142,0.005,0.001,0.998,1.572,1.573,4.094,6.281,1.200,4.712,0.000,0.000,0.409,-8.023,0.989,5.097,4.687,4.735,5.280,4.714,4.715,2.199,6.282,5.083,1.570,0.000,0.000,1.017,-7.778,0.990,5.097,4.701,4.723,
11.614,118.462,0.941,-8.461,2.008,-0.363,0.863,2.183,4.452,1.828,2.018,0.000,4.662,1.895,0.000,2.840,1.547,0.000,2.931,0.000,0.000,0.000,0.000,0.000,0.000,0.000,0.000,0.000,0.000,0.000,3.142,0.004,0.000,1.000,1.571,1.573,4.090,6.280,1.200,4.712,0.000,0.000,0.395,-8.064,0.990,5.146,4.697,4.726,5.280,4.713,4.715,2.200,6.281,5.083,1.570,0.000,0.000,0.990,-7.788,0.991,5.146,4.705,4.719,
11.720,118.569,0.953,-8.487,2.103,-0.141,1.296,2.330,0.000,1.617,2.017,0.000,4.033,1.795,0.000,2.628,1.993,0.000,2.861,0.000,0.000,0.000,0.000,0.000,0.000,0.000,0.000,0.000,0.000,0.000,3.142,0.000,6.283,1.004,1.569,1.569,4.083,6.281,1.199,4.712,0.000,0.000,0.371,-8.146,0.990,5.245,4.707,4.716,5.282,4.712,4.712,2.199,6.282,5.083,1.570,0.000,0.000,0.937,-7.813,0.991,5.244,4.708,4.715,
11.820,118.669,0.956,-8.491,2.152,0.000,6.278,2.410,0.000,1.538,2.027,0.000,3.725,1.823,0.000,2.531,1.992,0.000,2.791,0.000,0.000,0.000,0.000,0.000,0.000,0.000,0.000,0.000,0.000,0.000,3.142,6.283,0.000,1.003,1.569,1.568,4.085,6.281,1.199,4.712,0.000,0.000,0.357,-8.180,0.990,5.295,4.703,4.719,5.281,4.711,4.710,2.199,6.282,5.083,1.570,0.000,0.000,0.906,-7.820,0.990,5.295,4.705,4.717,
11.915,118.764,0.956,-8.491,2.152,-0.001,6.274,2.410,0.000,1.537,2.027,0.000,3.725,1.823,0.000,2.531,1.992,0.000,2.791,0.000,0.000,0.000,0.000,0.000,0.000,0.000,0.000,0.000,0.000,0.000,3.142,6.283,0.000,1.003,1.569,1.569,4.085,6.281,1.199,4.712,0.000,0.000,0.358,-8.179,0.990,5.293,4.703,4.719,5.281,4.711,4.712,2.198,6.282,5.083,1.570,0.000,0.000,0.907,-7.819,0.990,5.293,4.705,4.718,
12.020,118.869,0.956,-8.491,2.152,-0.001,6.274,2.410,0.000,1.537,2.027,0.000,3.725,1.823,0.000,2.531,1.992,0.000,2.791,0.000,0.000,0.000,0.000,0.000,0.000,0.000,0.000,0.000,0.000,0.000,3.142,6.283,0.000,1.003,1.569,1.569,4.085,6.281,1.199,4.712,0.000,0.000,0.358,-8.179,0.990,5.293,4.703,4.719,5.281,4.711,4.712,2.198,6.282,5.083,1.570,0.000,0.000,0.907,-7.819,0.990,5.293,4.705,4.718,
12.108,118.957,0.956,-8.491,2.152,-0.001,6.274,2.410,0.000,1.537,2.027,0.000,3.725,1.823,0.000,2.531,1.992,0.000,2.791,0.000,0.000,0.000,0.000,0.000,0.000,0.000,0.000,0.000,0.000,0.000,3.142,6.283,0.000,1.003,1.569,1.569,4.085,6.281,1.199,4.712,0.000,0.000,0.358,-8.179,0.990,5.293,4.703,4.719,5.281,4.711,4.712,2.198,6.282,5.083,1.570,0.000,0.000,0.907,-7.819,0.990,5.293,4.705,4.718,
12.220,119.069,0.956,-8.491,2.152,-0.001,6.274,2.410,0.000,1.537,2.027,0.000,3.725,1.823,0.000,2.531,1.992,0.000,2.791,0.000,0.000,0.000,0.000,0.000,0.000,0.000,0.000,0.000,0.000,0.000,3.142,6.283,0.000,1.003,1.569,1.569,4.085,6.281,1.199,4.712,0.000,0.000,0.358,-8.179,0.990,5.293,4.703,4.719,5.281,4.711,4.712,2.198,6.282,5.083,1.570,0.000,0.000,0.907,-7.819,0.990,5.293,4.705,4.718,
12.320,119.169,0.956,-8.491,2.152,-0.001,6.274,2.410,0.000,1.537,2.027,0.000,3.725,1.823,0.000,2.531,1.992,0.000,2.791,0.000,0.000,0.000,0.000,0.000,0.000,0.000,0.000,0.000,0.000,0.000,3.142,6.283,0.000,1.003,1.569,1.569,4.085,6.281,1.199,4.712,0.000,0.000,0.358,-8.179,0.990,5.293,4.703,4.719,5.281,4.711,4.712,2.198,6.282,5.083,1.570,0.000,0.000,0.907,-7.819,0.990,5.293,4.705,4.718,
12.400,119.249,0.956,-8.491,2.152,-0.001,6.274,2.410,0.000,1.537,2.027,0.000,3.725,1.823,0.000,2.531,1.992,0.000,2.791,0.000,0.000,0.000,0.000,0.000,0.000,0.000,0.000,0.000,0.000,0.000,3.142,6.283,0.000,1.003,1.569,1.569,4.085,6.281,1.199,4.712,0.000,0.000,0.358,-8.179,0.990,5.293,4.703,4.719,5.281,4.711,4.712,2.198,6.282,5.083,1.570,0.000,0.000,0.907,-7.819,0.990,5.293,4.705,4.718,
12.520,119.369,0.956,-8.491,2.152,-0.001,6.274,2.410,0.000,1.537,2.027,0.000,3.725,1.823,0.000,2.531,1.992,0.000,2.791,0.000,0.000,0.000,0.000,0.000,0.000,0.000,0.000,0.000,0.000,0.000,3.142,6.283,0.000,1.003,1.569,1.569,4.085,6.281,1.199,4.712,0.000,0.000,0.358,-8.179,0.990,5.293,4.703,4.719,5.281,4.711,4.712,2.198,6.282,5.083,1.570,0.000,0.000,0.907,-7.819,0.990,5.293,4.705,4.718,
12.620,119.469,0.956,-8.491,2.152,-0.001,6.274,2.410,0.000,1.537,2.027,0.000,3.725,1.823,0.000,2.531,1.992,0.000,2.791,0.000,0.000,0.000,0.000,0.000,0.000,0.000,0.000,0.000,0.000,0.000,3.142,6.283,0.000,1.003,1.569,1.569,4.085,6.281,1.199,4.712,0.000,0.000,0.358,-8.179,0.990,5.293,4.703,4.719,5.281,4.711,4.712,2.198,6.282,5.083,1.570,0.000,0.000,0.907,-7.819,0.990,5.293,4.705,4.718,
12.702,119.550,0.956,-8.491,2.152,-0.001,6.274,2.410,0.000,1.537,2.027,0.000,3.725,1.823,0.000,2.531,1.992,0.000,2.791,0.000,0.000,0.000,0.000,0.000,0.000,0.000,0.000,0.000,0.000,0.000,3.142,6.283,0.000,1.003,1.569,1.569,4.085,6.281,1.199,4.712,0.000,0.000,0.358,-8.179,0.990,5.293,4.703,4.719,5.281,4.711,4.712,2.198,6.282,5.083,1.570,0.000,0.000,0.907,-7.819,0.990,5.293,4.705,4.718,
12.820,119.669,0.956,-8.491,2.152,-0.001,6.274,2.410,0.000,1.537,2.027,0.000,3.725,1.823,0.000,2.531,1.992,0.000,2.791,0.000,0.000,0.000,0.000,0.000,0.000,0.000,0.000,0.000,0.000,0.000,3.142,6.283,0.000,1.003,1.569,1.569,4.085,6.281,1.199,4.712,0.000,0.000,0.358,-8.179,0.990,5.293,4.703,4.719,5.281,4.711,4.712,2.198,6.282,5.083,1.570,0.000,0.000,0.907,-7.819,0.990,5.293,4.705,4.718,
12.920,119.769,0.956,-8.491,2.152,-0.001,6.274,2.410,0.000,1.537,2.027,0.000,3.725,1.823,0.000,2.531,1.992,0.000,2.791,0.000,0.000,0.000,0.000,0.000,0.000,0.000,0.000,0.000,0.000,0.000,3.142,6.283,0.000,1.003,1.569,1.569,4.085,6.281,1.199,4.712,0.000,0.000,0.358,-8.179,0.990,5.293,4.703,4.719,5.281,4.711,4.712,2.198,6.282,5.083,1.570,0.000,0.000,0.907,-7.819,0.990,5.293,4.705,4.718,
13.001,119.850,0.956,-8.491,2.152,-0.001,6.274,2.410,0.000,1.537,2.027,0.000,3.725,1.823,0.000,2.531,1.992,0.000,2.791,0.000,0.000,0.000,0.000,0.000,0.000,0.000,0.000,0.000,0.000,0.000,3.142,6.283,0.000,1.003,1.569,1.569,4.085,6.281,1.199,4.712,0.000,0.000,0.358,-8.179,0.990,5.293,4.703,4.719,5.281,4.711,4.712,2.198,6.282,5.083,1.570,0.000,0.000,0.907,-7.819,0.990,5.293,4.705,4.718,
13.120,119.969,0.956,-8.491,2.152,-0.001,6.274,2.410,0.000,1.537,2.027,0.000,3.725,1.823,0.000,2.531,1.992,0.000,2.791,0.000,0.000,0.000,0.000,0.000,0.000,0.000,0.000,0.000,0.000,0.000,3.142,6.283,0.000,1.003,1.569,1.569,4.085,6.281,1.199,4.712,0.000,0.000,0.358,-8.179,0.990,5.293,4.703,4.719,5.281,4.711,4.712,2.198,6.282,5.083,1.570,0.000,0.000,0.907,-7.819,0.990,5.293,4.705,4.718,
13.220,120.069,0.956,-8.491,2.152,-0.001,6.274,2.410,0.000,1.537,2.027,0.000,3.725,1.823,0.000,2.531,1.992,0.000,2.791,0.000,0.000,0.000,0.000,0.000,0.000,0.000,0.000,0.000,0.000,0.000,3.142,6.283,0.000,1.003,1.569,1.569,4.085,6.281,1.199,4.712,0.000,0.000,0.358,-8.179,0.990,5.293,4.703,4.719,5.281,4.711,4.712,2.198,6.282,5.083,1.570,0.000,0.000,0.907,-7.819,0.990,5.293,4.705,4.718,
13.303,120.152,0.956,-8.491,2.152,-0.001,6.274,2.410,0.000,1.537,2.027,0.000,3.725,1.823,0.000,2.531,1.992,0.000,2.791,0.000,0.000,0.000,0.000,0.000,0.000,0.000,0.000,0.000,0.000,0.000,3.142,6.283,0.000,1.003,1.569,1.569,4.085,6.281,1.199,4.712,0.000,0.000,0.358,-8.179,0.990,5.293,4.703,4.719,5.281,4.711,4.712,2.198,6.282,5.083,1.570,0.000,0.000,0.907,-7.819,0.990,5.293,4.705,4.718,
13.420,120.269,0.956,-8.491,2.152,-0.001,6.274,2.410,0.000,1.537,2.027,0.000,3.725,1.823,0.000,2.531,1.992,0.000,2.791,0.000,0.000,0.000,0.000,0.000,0.000,0.000,0.000,0.000,0.000,0.000,3.142,6.283,0.000,1.003,1.569,1.569,4.085,6.281,1.199,4.712,0.000,0.000,0.358,-8.179,0.990,5.293,4.703,4.719,5.281,4.711,4.712,2.198,6.282,5.083,1.570,0.000,0.000,0.907,-7.819,0.990,5.293,4.705,4.718,
13.520,120.369,0.956,-8.491,2.152,-0.001,6.274,2.410,0.000,1.537,2.027,0.000,3.725,1.823,0.000,2.531,1.992,0.000,2.791,0.000,0.000,0.000,0.000,0.000,0.000,0.000,0.000,0.000,0.000,0.000,3.142,6.283,0.000,1.003,1.569,1.569,4.085,6.281,1.199,4.712,0.000,0.000,0.358,-8.179,0.990,5.293,4.703,4.719,5.281,4.711,4.712,2.198,6.282,5.083,1.570,0.000,0.000,0.907,-7.819,0.990,5.293,4.705,4.718,
13.620,120.469,0.956,-8.491,2.152,-0.001,6.274,2.410,0.000,1.537,2.027,0.000,3.725,1.823,0.000,2.531,1.992,0.000,2.791,0.000,0.000,0.000,0.000,0.000,0.000,0.000,0.000,0.000,0.000,0.000,3.142,6.283,0.000,1.003,1.569,1.569,4.085,6.281,1.199,4.712,0.000,0.000,0.358,-8.179,0.990,5.293,4.703,4.719,5.281,4.711,4.712,2.198,6.282,5.083,1.570,0.000,0.000,0.907,-7.819,0.990,5.293,4.705,4.718,
13.720,120.569,0.956,-8.491,2.152,-0.001,6.274,2.410,0.000,1.537,2.027,0.000,3.725,1.823,0.000,2.531,1.992,0.000,2.791,0.000,0.000,0.000,0.000,0.000,0.000,0.000,0.000,0.000,0.000,0.000,3.142,6.283,0.000,1.003,1.569,1.569,4.085,6.281,1.199,4.712,0.000,0.000,0.358,-8.179,0.990,5.293,4.703,4.719,5.281,4.711,4.712,2.198,6.282,5.083,1.570,0.000,0.000,0.907,-7.819,0.990,5.293,4.705,4.718,
13.809,120.658,0.956,-8.491,2.152,-0.001,6.274,2.410,0.000,1.537,2.027,0.000,3.725,1.823,0.000,2.531,1.992,0.000,2.791,0.000,0.000,0.000,0.000,0.000,0.000,0.000,0.000,0.000,0.000,0.000,3.142,6.283,0.000,1.003,1.569,1.569,4.085,6.281,1.199,4.712,0.000,0.000,0.358,-8.179,0.990,5.293,4.703,4.719,5.281,4.711,4.712,2.198,6.282,5.083,1.570,0.000,0.000,0.907,-7.819,0.990,5.293,4.705,4.718,
13.912,120.761,0.956,-8.491,2.152,-0.001,6.274,2.410,0.000,1.537,2.027,0.000,3.725,1.823,0.000,2.531,1.992,0.000,2.791,0.000,0.000,0.000,0.000,0.000,0.000,0.000,0.000,0.000,0.000,0.000,3.142,6.283,0.000,1.003,1.569,1.569,4.085,6.281,1.199,4.712,0.000,0.000,0.358,-8.179,0.990,5.293,4.703,4.719,5.281,4.711,4.712,2.198,6.282,5.083,1.570,0.000,0.000,0.907,-7.819,0.990,5.293,4.705,4.718,
14.020,120.869,0.956,-8.491,2.152,-0.001,6.274,2.410,0.000,1.537,2.027,0.000,3.725,1.823,0.000,2.531,1.992,0.000,2.791,0.000,0.000,0.000,0.000,0.000,0.000,0.000,0.000,0.000,0.000,0.000,3.142,6.283,0.000,1.003,1.569,1.569,4.085,6.281,1.199,4.712,0.000,0.000,0.358,-8.179,0.990,5.293,4.703,4.719,5.281,4.711,4.712,2.198,6.282,5.083,1.570,0.000,0.000,0.907,-7.819,0.990,5.293,4.705,4.718,
14.120,120.969,0.956,-8.491,2.152,-0.001,6.274,2.410,0.000,1.537,2.027,0.000,3.725,1.823,0.000,2.531,1.992,0.000,2.791,0.000,0.000,0.000,0.000,0.000,0.000,0.000,0.000,0.000,0.000,0.000,3.142,6.283,0.000,1.003,1.569,1.569,4.085,6.281,1.199,4.712,0.000,0.000,0.358,-8.179,0.990,5.293,4.703,4.719,5.281,4.711,4.712,2.198,6.282,5.083,1.570,0.000,0.000,0.907,-7.819,0.990,5.293,4.705,4.718,
14.215,121.064,0.956,-8.491,2.152,-0.001,6.274,2.410,0.000,1.537,2.027,0.000,3.725,1.823,0.000,2.531,1.992,0.000,2.791,0.000,0.000,0.000,0.000,0.000,0.000,0.000,0.000,0.000,0.000,0.000,3.142,6.283,0.000,1.003,1.569,1.569,4.085,6.281,1.199,4.712,0.000,0.000,0.358,-8.179,0.990,5.293,4.703,4.719,5.281,4.711,4.712,2.198,6.282,5.083,1.570,0.000,0.000,0.907,-7.819,0.990,5.293,4.705,4.718,
14.320,121.169,0.956,-8.491,2.152,-0.001,6.274,2.410,0.000,1.537,2.027,0.000,3.725,1.823,0.000,2.531,1.992,0.000,2.791,0.000,0.000,0.000,0.000,0.000,0.000,0.000,0.000,0.000,0.000,0.000,3.142,6.283,0.000,1.003,1.569,1.569,4.085,6.281,1.199,4.712,0.000,0.000,0.358,-8.179,0.990,5.293,4.703,4.719,5.281,4.711,4.712,2.198,6.282,5.083,1.570,0.000,0.000,0.907,-7.819,0.990,5.293,4.705,4.718,
14.420,121.269,0.956,-8.491,2.152,-0.001,6.274,2.410,0.000,1.537,2.027,0.000,3.725,1.823,0.000,2.531,1.992,0.000,2.791,0.000,0.000,0.000,0.000,0.000,0.000,0.000,0.000,0.000,0.000,0.000,3.142,6.283,0.000,1.003,1.569,1.569,4.085,6.281,1.199,4.712,0.000,0.000,0.358,-8.179,0.990,5.293,4.703,4.719,5.281,4.711,4.712,2.198,6.282,5.083,1.570,0.000,0.000,0.907,-7.819,0.990,5.293,4.705,4.718,
14.511,121.360,0.956,-8.491,2.152,-0.001,6.274,2.410,0.000,1.537,2.027,0.000,3.725,1.823,0.000,2.531,1.992,0.000,2.791,0.000,0.000,0.000,0.000,0.000,0.000,0.000,0.000,0.000,0.000,0.000,3.142,6.283,0.000,1.003,1.569,1.569,4.085,6.281,1.199,4.712,0.000,0.000,0.358,-8.179,0.990,5.293,4.703,4.719,5.281,4.711,4.712,2.198,6.282,5.083,1.570,0.000,0.000,0.907,-7.819,0.990,5.293,4.705,4.718,
14.620,121.469,0.956,-8.491,2.152,-0.001,6.274,2.410,0.000,1.537,2.027,0.000,3.725,1.823,0.000,2.531,1.992,0.000,2.791,0.000,0.000,0.000,0.000,0.000,0.000,0.000,0.000,0.000,0.000,0.000,3.142,6.283,0.000,1.003,1.569,1.569,4.085,6.281,1.199,4.712,0.000,0.000,0.358,-8.179,0.990,5.293,4.703,4.719,5.281,4.711,4.712,2.198,6.282,5.083,1.570,0.000,0.000,0.907,-7.819,0.990,5.293,4.705,4.718,
14.720,121.569,0.956,-8.491,2.152,-0.001,6.274,2.410,0.000,1.537,2.027,0.000,3.725,1.823,0.000,2.531,1.992,0.000,2.791,0.000,0.000,0.000,0.000,0.000,0.000,0.000,0.000,0.000,0.000,0.000,3.142,6.283,0.000,1.003,1.569,1.569,4.085,6.281,1.199,4.712,0.000,0.000,0.358,-8.179,0.990,5.293,4.703,4.719,5.281,4.711,4.712,2.198,6.282,5.083,1.570,0.000,0.000,0.907,-7.819,0.990,5.293,4.705,4.718,
14.800,121.649,0.956,-8.491,2.152,-0.001,6.274,2.410,0.000,1.537,2.027,0.000,3.725,1.823,0.000,2.531,1.992,0.000,2.791,0.000,0.000,0.000,0.000,0.000,0.000,0.000,0.000,0.000,0.000,0.000,3.142,6.283,0.000,1.003,1.569,1.569,4.085,6.281,1.199,4.712,0.000,0.000,0.358,-8.179,0.990,5.293,4.703,4.719,5.281,4.711,4.712,2.198,6.282,5.083,1.570,0.000,0.000,0.907,-7.819,0.990,5.293,4.705,4.718,
14.920,121.769,0.956,-8.491,2.152,-0.001,6.274,2.410,0.000,1.537,2.027,0.000,3.725,1.823,0.000,2.531,1.992,0.000,2.791,0.000,0.000,0.000,0.000,0.000,0.000,0.000,0.000,0.000,0.000,0.000,3.142,6.283,0.000,1.003,1.569,1.569,4.085,6.281,1.199,4.712,0.000,0.000,0.358,-8.179,0.990,5.293,4.703,4.719,5.281,4.711,4.712,2.198,6.282,5.083,1.570,0.000,0.000,0.907,-7.819,0.990,5.293,4.705,4.718,
15.020,121.869,0.956,-8.491,2.152,-0.001,6.274,2.410,0.000,1.537,2.027,0.000,3.725,1.823,0.000,2.531,1.992,0.000,2.791,0.000,0.000,0.000,0.000,0.000,0.000,0.000,0.000,0.000,0.000,0.000,3.142,6.283,0.000,1.003,1.569,1.569,4.085,6.281,1.199,4.712,0.000,0.000,0.358,-8.179,0.990,5.293,4.703,4.719,5.281,4.711,4.712,2.198,6.282,5.083,1.570,0.000,0.000,0.907,-7.819,0.990,5.293,4.705,4.718,
15.110,121.958,0.956,-8.491,2.152,-0.001,6.274,2.410,0.000,1.537,2.027,0.000,3.725,1.823,0.000,2.531,1.992,0.000,2.791,0.000,0.000,0.000,0.000,0.000,0.000,0.000,0.000,0.000,0.000,0.000,3.142,6.283,0.000,1.003,1.569,1.569,4.085,6.281,1.199,4.712,0.000,0.000,0.358,-8.179,0.990,5.293,4.703,4.719,5.281,4.711,4.712,2.198,6.282,5.083,1.570,0.000,0.000,0.907,-7.819,0.990,5.293,4.705,4.718,
15.220,122.069,0.956,-8.491,2.152,-0.001,6.274,2.410,0.000,1.537,2.027,0.000,3.725,1.823,0.000,2.531,1.992,0.000,2.791,0.000,0.000,0.000,0.000,0.000,0.000,0.000,0.000,0.000,0.000,0.000,3.142,6.283,0.000,1.003,1.569,1.569,4.085,6.281,1.199,4.712,0.000,0.000,0.358,-8.179,0.990,5.293,4.703,4.719,5.281,4.711,4.712,2.198,6.282,5.083,1.570,0.000,0.000,0.907,-7.819,0.990,5.293,4.705,4.718,
15.320,122.169,0.956,-8.491,2.152,-0.001,6.274,2.410,0.000,1.537,2.027,0.000,3.725,1.823,0.000,2.531,1.992,0.000,2.791,0.000,0.000,0.000,0.000,0.000,0.000,0.000,0.000,0.000,0.000,0.000,3.142,6.283,0.000,1.003,1.569,1.569,4.085,6.281,1.199,4.712,0.000,0.000,0.358,-8.179,0.990,5.293,4.703,4.719,5.281,4.711,4.712,2.198,6.282,5.083,1.570,0.000,0.000,0.907,-7.819,0.990,5.293,4.705,4.718,
15.406,122.254,0.956,-8.491,2.152,-0.001,6.274,2.410,0.000,1.537,2.027,0.000,3.725,1.823,0.000,2.531,1.992,0.000,2.791,0.000,0.000,0.000,0.000,0.000,0.000,0.000,0.000,0.000,0.000,0.000,3.142,6.283,0.000,1.003,1.569,1.569,4.085,6.281,1.199,4.712,0.000,0.000,0.358,-8.179,0.990,5.293,4.703,4.719,5.281,4.711,4.712,2.198,6.282,5.083,1.570,0.000,0.000,0.907,-7.819,0.990,5.293,4.705,4.718,
15.520,122.369,0.956,-8.491,2.152,-0.001,6.274,2.410,0.000,1.537,2.027,0.000,3.725,1.823,0.000,2.531,1.992,0.000,2.791,0.000,0.000,0.000,0.000,0.000,0.000,0.000,0.000,0.000,0.000,0.000,3.142,6.283,0.000,1.003,1.569,1.569,4.085,6.281,1.199,4.712,0.000,0.000,0.358,-8.179,0.990,5.293,4.703,4.719,5.281,4.711,4.712,2.198,6.282,5.083,1.570,0.000,0.000,0.907,-7.819,0.990,5.293,4.705,4.718,
15.620,122.469,0.956,-8.491,2.152,-0.001,6.274,2.410,0.000,1.537,2.027,0.000,3.725,1.823,0.000,2.531,1.992,0.000,2.791,0.000,0.000,0.000,0.000,0.000,0.000,0.000,0.000,0.000,0.000,0.000,3.142,6.283,0.000,1.003,1.569,1.569,4.085,6.281,1.199,4.712,0.000,0.000,0.358,-8.179,0.990,5.293,4.703,4.719,5.281,4.711,4.712,2.198,6.282,5.083,1.570,0.000,0.000,0.907,-7.819,0.990,5.293,4.705,4.718,
15.708,122.556,0.956,-8.491,2.152,-0.001,6.274,2.410,0.000,1.537,2.027,0.000,3.725,1.823,0.000,2.531,1.992,0.000,2.791,0.000,0.000,0.000,0.000,0.000,0.000,0.000,0.000,0.000,0.000,0.000,3.142,6.283,0.000,1.003,1.569,1.569,4.085,6.281,1.199,4.712,0.000,0.000,0.358,-8.179,0.990,5.293,4.703,4.719,5.281,4.711,4.712,2.198,6.282,5.083,1.570,0.000,0.000,0.907,-7.819,0.990,5.293,4.705,4.718,
15.820,122.669,0.956,-8.491,2.152,-0.001,6.274,2.410,0.000,1.537,2.027,0.000,3.725,1.823,0.000,2.531,1.992,0.000,2.791,0.000,0.000,0.000,0.000,0.000,0.000,0.000,0.000,0.000,0.000,0.000,3.142,6.283,0.000,1.003,1.569,1.569,4.085,6.281,1.199,4.712,0.000,0.000,0.358,-8.179,0.990,5.293,4.703,4.719,5.281,4.711,4.712,2.198,6.282,5.083,1.570,0.000,0.000,0.907,-7.819,0.990,5.293,4.705,4.718,
15.920,122.769,0.956,-8.491,2.152,-0.001,6.274,2.410,0.000,1.537,2.027,0.000,3.725,1.823,0.000,2.531,1.992,0.000,2.791,0.000,0.000,0.000,0.000,0.000,0.000,0.000,0.000,0.000,0.000,0.000,3.142,6.283,0.000,1.003,1.569,1.569,4.085,6.281,1.199,4.712,0.000,0.000,0.358,-8.179,0.990,5.293,4.703,4.719,5.281,4.711,4.712,2.198,6.282,5.083,1.570,0.000,0.000,0.907,-7.819,0.990,5.293,4.705,4.718,
16.006,122.854,0.956,-8.491,2.152,-0.001,6.274,2.410,0.000,1.537,2.027,0.000,3.725,1.823,0.000,2.531,1.992,0.000,2.791,0.000,0.000,0.000,0.000,0.000,0.000,0.000,0.000,0.000,0.000,0.000,3.142,6.283,0.000,1.003,1.569,1.569,4.085,6.281,1.199,4.712,0.000,0.000,0.358,-8.179,0.990,5.293,4.703,4.719,5.281,4.711,4.712,2.198,6.282,5.083,1.570,0.000,0.000,0.907,-7.819,0.990,5.293,4.705,4.718,
16.120,122.969,0.956,-8.491,2.152,-0.001,6.274,2.410,0.000,1.537,2.027,0.000,3.725,1.823,0.000,2.531,1.992,0.000,2.791,0.000,0.000,0.000,0.000,0.000,0.000,0.000,0.000,0.000,0.000,0.000,3.142,6.283,0.000,1.003,1.569,1.569,4.085,6.281,1.199,4.712,0.000,0.000,0.358,-8.179,0.990,5.293,4.703,4.719,5.281,4.711,4.712,2.198,6.282,5.083,1.570,0.000,0.000,0.907,-7.819,0.990,5.293,4.705,4.718,
16.220,123.069,0.956,-8.491,2.152,-0.001,6.274,2.410,0.000,1.537,2.027,0.000,3.725,1.823,0.000,2.531,1.992,0.000,2.791,0.000,0.000,0.000,0.000,0.000,0.000,0.000,0.000,0.000,0.000,0.000,3.142,6.283,0.000,1.003,1.569,1.569,4.085,6.281,1.199,4.712,0.000,0.000,0.358,-8.179,0.990,5.293,4.703,4.719,5.281,4.711,4.712,2.198,6.282,5.083,1.570,0.000,0.000,0.907,-7.819,0.990,5.293,4.705,4.718,
16.312,123.160,0.956,-8.491,2.152,-0.001,6.274,2.410,0.000,1.537,2.027,0.000,3.725,1.823,0.000,2.531,1.992,0.000,2.791,0.000,0.000,0.000,0.000,0.000,0.000,0.000,0.000,0.000,0.000,0.000,3.142,6.283,0.000,1.003,1.569,1.569,4.085,6.281,1.199,4.712,0.000,0.000,0.358,-8.179,0.990,5.293,4.703,4.719,5.281,4.711,4.712,2.198,6.282,5.083,1.570,0.000,0.000,0.907,-7.819,0.990,5.293,4.705,4.718,
16.420,123.269,0.956,-8.491,2.152,-0.001,6.274,2.410,0.000,1.537,2.027,0.000,3.725,1.823,0.000,2.531,1.992,0.000,2.791,0.000,0.000,0.000,0.000,0.000,0.000,0.000,0.000,0.000,0.000,0.000,3.142,6.283,0.000,1.003,1.569,1.569,4.085,6.281,1.199,4.712,0.000,0.000,0.358,-8.179,0.990,5.293,4.703,4.719,5.281,4.711,4.712,2.198,6.282,5.083,1.570,0.000,0.000,0.907,-7.819,0.990,5.293,4.705,4.718,
16.520,123.369,0.956,-8.491,2.152,-0.001,6.274,2.410,0.000,1.537,2.027,0.000,3.725,1.823,0.000,2.531,1.992,0.000,2.791,0.000,0.000,0.000,0.000,0.000,0.000,0.000,0.000,0.000,0.000,0.000,3.142,6.283,0.000,1.003,1.569,1.569,4.085,6.281,1.199,4.712,0.000,0.000,0.358,-8.179,0.990,5.293,4.703,4.719,5.281,4.711,4.712,2.198,6.282,5.083,1.570,0.000,0.000,0.907,-7.819,0.990,5.293,4.705,4.718,
16.620,123.469,0.956,-8.491,2.152,-0.001,6.274,2.410,0.000,1.537,2.027,0.000,3.725,1.823,0.000,2.531,1.992,0.000,2.791,0.000,0.000,0.000,0.000,0.000,0.000,0.000,0.000,0.000,0.000,0.000,3.142,6.283,0.000,1.003,1.569,1.569,4.085,6.281,1.199,4.712,0.000,0.000,0.358,-8.179,0.990,5.293,4.703,4.719,5.281,4.711,4.712,2.198,6.282,5.083,1.570,0.000,0.000,0.907,-7.819,0.990,5.293,4.705,4.718,
16.720,123.569,0.956,-8.491,2.152,-0.001,6.274,2.410,0.000,1.537,2.027,0.000,3.725,1.823,0.000,2.531,1.992,0.000,2.791,0.000,0.000,0.000,0.000,0.000,0.000,0.000,0.000,0.000,0.000,0.000,3.142,6.283,0.000,1.003,1.569,1.569,4.085,6.281,1.199,4.712,0.000,0.000,0.358,-8.179,0.990,5.293,4.703,4.719,5.281,4.711,4.712,2.198,6.282,5.083,1.570,0.000,0.000,0.907,-7.819,0.990,5.293,4.705,4.718,
16.809,123.657,0.956,-8.491,2.152,-0.001,6.274,2.410,0.000,1.537,2.027,0.000,3.725,1.823,0.000,2.531,1.992,0.000,2.791,0.000,0.000,0.000,0.000,0.000,0.000,0.000,0.000,0.000,0.000,0.000,3.142,6.283,0.000,1.003,1.569,1.569,4.085,6.281,1.199,4.712,0.000,0.000,0.358,-8.179,0.990,5.293,4.703,4.719,5.281,4.711,4.712,2.198,6.282,5.083,1.570,0.000,0.000,0.907,-7.819,0.990,5.293,4.705,4.718,
16.920,123.769,0.956,-8.491,2.152,-0.001,6.274,2.410,0.000,1.537,2.027,0.000,3.725,1.823,0.000,2.531,1.992,0.000,2.791,0.000,0.000,0.000,0.000,0.000,0.000,0.000,0.000,0.000,0.000,0.000,3.142,6.283,0.000,1.003,1.569,1.569,4.085,6.281,1.199,4.712,0.000,0.000,0.358,-8.179,0.990,5.293,4.703,4.719,5.281,4.711,4.712,2.198,6.282,5.083,1.570,0.000,0.000,0.907,-7.819,0.990,5.293,4.705,4.718,
17.020,123.869,0.956,-8.491,2.152,-0.001,6.274,2.410,0.000,1.537,2.027,0.000,3.725,1.823,0.000,2.531,1.992,0.000,2.791,0.000,0.000,0.000,0.000,0.000,0.000,0.000,0.000,0.000,0.000,0.000,3.142,6.283,0.000,1.003,1.569,1.569,4.085,6.281,1.199,4.712,0.000,0.000,0.358,-8.179,0.990,5.293,4.703,4.719,5.281,4.711,4.712,2.198,6.282,5.083,1.570,0.000,0.000,0.907,-7.819,0.990,5.293,4.705,4.718,
17.120,123.969,0.956,-8.491,2.152,-0.001,6.274,2.410,0.000,1.537,2.027,0.000,3.725,1.823,0.000,2.531,1.992,0.000,2.791,0.000,0.000,0.000,0.000,0.000,0.000,0.000,0.000,0.000,0.000,0.000,3.142,6.283,0.000,1.003,1.569,1.569,4.085,6.281,1.199,4.712,0.000,0.000,0.358,-8.179,0.990,5.293,4.703,4.719,5.281,4.711,4.712,2.198,6.282,5.083,1.570,0.000,0.000,0.907,-7.819,0.990,5.293,4.705,4.718,
17.220,124.069,0.956,-8.491,2.152,-0.001,6.274,2.410,0.000,1.537,2.027,0.000,3.725,1.823,0.000,2.531,1.992,0.000,2.791,0.000,0.000,0.000,0.000,0.000,0.000,0.000,0.000,0.000,0.000,0.000,3.142,6.283,0.000,1.003,1.569,1.569,4.085,6.281,1.199,4.712,0.000,0.000,0.358,-8.179,0.990,5.293,4.703,4.719,5.281,4.711,4.712,2.198,6.282,5.083,1.570,0.000,0.000,0.907,-7.819,0.990,5.293,4.705,4.718,
17.320,124.169,0.956,-8.491,2.152,-0.001,6.274,2.410,0.000,1.537,2.027,0.000,3.725,1.823,0.000,2.531,1.992,0.000,2.791,0.000,0.000,0.000,0.000,0.000,0.000,0.000,0.000,0.000,0.000,0.000,3.142,6.283,0.000,1.003,1.569,1.569,4.085,6.281,1.199,4.712,0.000,0.000,0.358,-8.179,0.990,5.293,4.703,4.719,5.281,4.711,4.712,2.198,6.282,5.083,1.570,0.000,0.000,0.907,-7.819,0.990,5.293,4.705,4.718,
17.401,124.249,0.956,-8.491,2.152,-0.001,6.274,2.410,0.000,1.537,2.027,0.000,3.725,1.823,0.000,2.531,1.992,0.000,2.791,0.000,0.000,0.000,0.000,0.000,0.000,0.000,0.000,0.000,0.000,0.000,3.142,6.283,0.000,1.003,1.569,1.569,4.085,6.281,1.199,4.712,0.000,0.000,0.358,-8.179,0.990,5.293,4.703,4.719,5.281,4.711,4.712,2.198,6.282,5.083,1.570,0.000,0.000,0.907,-7.819,0.990,5.293,4.705,4.718,
17.517,124.366,0.956,-8.491,2.152,-0.001,6.274,2.410,0.000,1.537,2.027,0.000,3.725,1.823,0.000,2.531,1.992,0.000,2.791,0.000,0.000,0.000,0.000,0.000,0.000,0.000,0.000,0.000,0.000,0.000,3.142,6.283,0.000,1.003,1.569,1.569,4.085,6.281,1.199,4.712,0.000,0.000,0.358,-8.179,0.990,5.293,4.703,4.719,5.281,4.711,4.712,2.198,6.282,5.083,1.570,0.000,0.000,0.907,-7.819,0.990,5.293,4.705,4.718,
17.620,124.469,0.956,-8.491,2.152,-0.001,6.274,2.410,0.000,1.537,2.027,0.000,3.725,1.823,0.000,2.531,1.992,0.000,2.791,0.000,0.000,0.000,0.000,0.000,0.000,0.000,0.000,0.000,0.000,0.000,3.142,6.283,0.000,1.003,1.569,1.569,4.085,6.281,1.199,4.712,0.000,0.000,0.358,-8.179,0.990,5.293,4.703,4.719,5.281,4.711,4.712,2.198,6.282,5.083,1.570,0.000,0.000,0.907,-7.819,0.990,5.293,4.705,4.718,
17.720,124.569,0.956,-8.491,2.152,-0.001,6.274,2.410,0.000,1.537,2.027,0.000,3.725,1.823,0.000,2.531,1.992,0.000,2.791,0.000,0.000,0.000,0.000,0.000,0.000,0.000,0.000,0.000,0.000,0.000,3.142,6.283,0.000,1.003,1.569,1.569,4.085,6.281,1.199,4.712,0.000,0.000,0.358,-8.179,0.990,5.293,4.703,4.719,5.281,4.711,4.712,2.198,6.282,5.083,1.570,0.000,0.000,0.907,-7.819,0.990,5.293,4.705,4.718,
17.816,124.665,0.956,-8.491,2.152,-0.001,6.274,2.410,0.000,1.537,2.027,0.000,3.725,1.823,0.000,2.531,1.992,0.000,2.791,0.000,0.000,0.000,0.000,0.000,0.000,0.000,0.000,0.000,0.000,0.000,3.142,6.283,0.000,1.003,1.569,1.569,4.085,6.281,1.199,4.712,0.000,0.000,0.358,-8.179,0.990,5.293,4.703,4.719,5.281,4.711,4.712,2.198,6.282,5.083,1.570,0.000,0.000,0.907,-7.819,0.990,5.293,4.705,4.718,
17.920,124.769,0.956,-8.491,2.152,-0.001,6.274,2.410,0.000,1.537,2.027,0.000,3.725,1.823,0.000,2.531,1.992,0.000,2.791,0.000,0.000,0.000,0.000,0.000,0.000,0.000,0.000,0.000,0.000,0.000,3.142,6.283,0.000,1.003,1.569,1.569,4.085,6.281,1.199,4.712,0.000,0.000,0.358,-8.179,0.990,5.293,4.703,4.719,5.281,4.711,4.712,2.198,6.282,5.083,1.570,0.000,0.000,0.907,-7.819,0.990,5.293,4.705,4.718,
18.020,124.869,0.956,-8.491,2.152,-0.001,6.274,2.410,0.000,1.537,2.027,0.000,3.725,1.823,0.000,2.531,1.992,0.000,2.791,0.000,0.000,0.000,0.000,0.000,0.000,0.000,0.000,0.000,0.000,0.000,3.142,6.283,0.000,1.003,1.569,1.569,4.085,6.281,1.199,4.712,0.000,0.000,0.358,-8.179,0.990,5.293,4.703,4.719,5.281,4.711,4.712,2.198,6.282,5.083,1.570,0.000,0.000,0.907,-7.819,0.990,5.293,4.705,4.718,
18.111,124.960,0.956,-8.491,2.152,-0.001,6.274,2.410,0.000,1.537,2.027,0.000,3.725,1.823,0.000,2.531,1.992,0.000,2.791,0.000,0.000,0.000,0.000,0.000,0.000,0.000,0.000,0.000,0.000,0.000,3.142,6.283,0.000,1.003,1.569,1.569,4.085,6.281,1.199,4.712,0.000,0.000,0.358,-8.179,0.990,5.293,4.703,4.719,5.281,4.711,4.712,2.198,6.282,5.083,1.570,0.000,0.000,0.907,-7.819,0.990,5.293,4.705,4.718,
18.220,125.069,0.956,-8.491,2.152,-0.001,6.274,2.410,0.000,1.537,2.027,0.000,3.725,1.823,0.000,2.531,1.992,0.000,2.791,0.000,0.000,0.000,0.000,0.000,0.000,0.000,0.000,0.000,0.000,0.000,3.142,6.283,0.000,1.003,1.569,1.569,4.085,6.281,1.199,4.712,0.000,0.000,0.358,-8.179,0.990,5.293,4.703,4.719,5.281,4.711,4.712,2.198,6.282,5.083,1.570,0.000,0.000,0.907,-7.819,0.990,5.293,4.705,4.718,
18.320,125.169,0.956,-8.491,2.152,-0.001,6.274,2.410,0.000,1.537,2.027,0.000,3.725,1.823,0.000,2.531,1.992,0.000,2.791,0.000,0.000,0.000,0.000,0.000,0.000,0.000,0.000,0.000,0.000,0.000,3.142,6.283,0.000,1.003,1.569,1.569,4.085,6.281,1.199,4.712,0.000,0.000,0.358,-8.179,0.990,5.293,4.703,4.719,5.281,4.711,4.712,2.198,6.282,5.083,1.570,0.000,0.000,0.907,-7.819,0.990,5.293,4.705,4.718,
18.412,125.260,0.956,-8.491,2.152,-0.001,6.274,2.410,0.000,1.537,2.027,0.000,3.725,1.823,0.000,2.531,1.992,0.000,2.791,0.000,0.000,0.000,0.000,0.000,0.000,0.000,0.000,0.000,0.000,0.000,3.142,6.283,0.000,1.003,1.569,1.569,4.085,6.281,1.199,4.712,0.000,0.000,0.358,-8.179,0.990,5.293,4.703,4.719,5.281,4.711,4.712,2.198,6.282,5.083,1.570,0.000,0.000,0.907,-7.819,0.990,5.293,4.705,4.718,
18.520,125.369,0.956,-8.491,2.152,-0.001,6.274,2.410,0.000,1.537,2.027,0.000,3.725,1.823,0.000,2.531,1.992,0.000,2.791,0.000,0.000,0.000,0.000,0.000,0.000,0.000,0.000,0.000,0.000,0.000,3.142,6.283,0.000,1.003,1.569,1.569,4.085,6.281,1.199,4.712,0.000,0.000,0.358,-8.179,0.990,5.293,4.703,4.719,5.281,4.711,4.712,2.198,6.282,5.083,1.570,0.000,0.000,0.907,-7.819,0.990,5.293,4.705,4.718,
18.620,125.469,0.956,-8.491,2.152,-0.001,6.274,2.410,0.000,1.537,2.027,0.000,3.725,1.823,0.000,2.531,1.992,0.000,2.791,0.000,0.000,0.000,0.000,0.000,0.000,0.000,0.000,0.000,0.000,0.000,3.142,6.283,0.000,1.003,1.569,1.569,4.085,6.281,1.199,4.712,0.000,0.000,0.358,-8.179,0.990,5.293,4.703,4.719,5.281,4.711,4.712,2.198,6.282,5.083,1.570,0.000,0.000,0.907,-7.819,0.990,5.293,4.705,4.718,
18.720,125.569,0.956,-8.491,2.152,-0.001,6.274,2.410,0.000,1.537,2.027,0.000,3.725,1.823,0.000,2.531,1.992,0.000,2.791,0.000,0.000,0.000,0.000,0.000,0.000,0.000,0.000,0.000,0.000,0.000,3.142,6.283,0.000,1.003,1.569,1.569,4.085,6.281,1.199,4.712,0.000,0.000,0.358,-8.179,0.990,5.293,4.703,4.719,5.281,4.711,4.712,2.198,6.282,5.083,1.570,0.000,0.000,0.907,-7.819,0.990,5.293,4.705,4.718,
18.820,125.669,0.956,-8.491,2.152,-0.001,6.274,2.410,0.000,1.537,2.027,0.000,3.725,1.823,0.000,2.531,1.992,0.000,2.791,0.000,0.000,0.000,0.000,0.000,0.000,0.000,0.000,0.000,0.000,0.000,3.142,6.283,0.000,1.003,1.569,1.569,4.085,6.281,1.199,4.712,0.000,0.000,0.358,-8.179,0.990,5.293,4.703,4.719,5.281,4.711,4.712,2.198,6.282,5.083,1.570,0.000,0.000,0.907,-7.819,0.990,5.293,4.705,4.718,
18.902,125.750,0.956,-8.491,2.152,-0.001,6.274,2.410,0.000,1.537,2.027,0.000,3.725,1.823,0.000,2.531,1.992,0.000,2.791,0.000,0.000,0.000,0.000,0.000,0.000,0.000,0.000,0.000,0.000,0.000,3.142,6.283,0.000,1.003,1.569,1.569,4.085,6.281,1.199,4.712,0.000,0.000,0.358,-8.179,0.990,5.293,4.703,4.719,5.281,4.711,4.712,2.198,6.282,5.083,1.570,0.000,0.000,0.907,-7.819,0.990,5.293,4.705,4.718,
19.020,125.869,0.956,-8.491,2.152,-0.001,6.274,2.410,0.000,1.537,2.027,0.000,3.725,1.823,0.000,2.531,1.992,0.000,2.791,0.000,0.000,0.000,0.000,0.000,0.000,0.000,0.000,0.000,0.000,0.000,3.142,6.283,0.000,1.003,1.569,1.569,4.085,6.281,1.199,4.712,0.000,0.000,0.358,-8.179,0.990,5.293,4.703,4.719,5.281,4.711,4.712,2.198,6.282,5.083,1.570,0.000,0.000,0.907,-7.819,0.990,5.293,4.705,4.718,
19.120,125.969,0.956,-8.491,2.152,-0.001,6.274,2.410,0.000,1.537,2.027,0.000,3.725,1.823,0.000,2.531,1.992,0.000,2.791,0.000,0.000,0.000,0.000,0.000,0.000,0.000,0.000,0.000,0.000,0.000,3.142,6.283,0.000,1.003,1.569,1.569,4.085,6.281,1.199,4.712,0.000,0.000,0.358,-8.179,0.990,5.293,4.703,4.719,5.281,4.711,4.712,2.198,6.282,5.083,1.570,0.000,0.000,0.907,-7.819,0.990,5.293,4.705,4.718,
19.220,126.069,0.956,-8.491,2.152,-0.001,6.274,2.410,0.000,1.537,2.027,0.000,3.725,1.823,0.000,2.531,1.992,0.000,2.791,0.000,0.000,0.000,0.000,0.000,0.000,0.000,0.000,0.000,0.000,0.000,3.142,6.283,0.000,1.003,1.569,1.569,4.085,6.281,1.199,4.712,0.000,0.000,0.358,-8.179,0.990,5.293,4.703,4.719,5.281,4.711,4.712,2.198,6.282,5.083,1.570,0.000,0.000,0.907,-7.819,0.990,5.293,4.705,4.718,
19.309,126.158,0.956,-8.491,2.152,-0.001,6.274,2.410,0.000,1.537,2.027,0.000,3.725,1.823,0.000,2.531,1.992,0.000,2.791,0.000,0.000,0.000,0.000,0.000,0.000,0.000,0.000,0.000,0.000,0.000,3.142,6.283,0.000,1.003,1.569,1.569,4.085,6.281,1.199,4.712,0.000,0.000,0.358,-8.179,0.990,5.293,4.703,4.719,5.281,4.711,4.712,2.198,6.282,5.083,1.570,0.000,0.000,0.907,-7.819,0.990,5.293,4.705,4.718,
19.420,126.269,0.956,-8.491,2.152,-0.001,6.274,2.410,0.000,1.537,2.027,0.000,3.725,1.823,0.000,2.531,1.992,0.000,2.791,0.000,0.000,0.000,0.000,0.000,0.000,0.000,0.000,0.000,0.000,0.000,3.142,6.283,0.000,1.003,1.569,1.569,4.085,6.281,1.199,4.712,0.000,0.000,0.358,-8.179,0.990,5.293,4.703,4.719,5.281,4.711,4.712,2.198,6.282,5.083,1.570,0.000,0.000,0.907,-7.819,0.990,5.293,4.705,4.718,
19.502,126.350,0.956,-8.491,2.152,-0.001,6.274,2.410,0.000,1.537,2.027,0.000,3.725,1.823,0.000,2.531,1.992,0.000,2.791,0.000,0.000,0.000,0.000,0.000,0.000,0.000,0.000,0.000,0.000,0.000,3.142,6.283,0.000,1.003,1.569,1.569,4.085,6.281,1.199,4.712,0.000,0.000,0.358,-8.179,0.990,5.293,4.703,4.719,5.281,4.711,4.712,2.198,6.282,5.083,1.570,0.000,0.000,0.907,-7.819,0.990,5.293,4.705,4.718,
19.620,126.469,0.956,-8.491,2.152,-0.001,6.274,2.410,0.000,1.537,2.027,0.000,3.725,1.823,0.000,2.531,1.992,0.000,2.791,0.000,0.000,0.000,0.000,0.000,0.000,0.000,0.000,0.000,0.000,0.000,3.142,6.283,0.000,1.003,1.569,1.569,4.085,6.281,1.199,4.712,0.000,0.000,0.358,-8.179,0.990,5.293,4.703,4.719,5.281,4.711,4.712,2.198,6.282,5.083,1.570,0.000,0.000,0.907,-7.819,0.990,5.293,4.705,4.718,
19.720,126.569,0.956,-8.491,2.152,-0.001,6.274,2.410,0.000,1.537,2.027,0.000,3.725,1.823,0.000,2.531,1.992,0.000,2.791,0.000,0.000,0.000,0.000,0.000,0.000,0.000,0.000,0.000,0.000,0.000,3.142,6.283,0.000,1.003,1.569,1.569,4.085,6.281,1.199,4.712,0.000,0.000,0.358,-8.179,0.990,5.293,4.703,4.719,5.281,4.711,4.712,2.198,6.282,5.083,1.570,0.000,0.000,0.907,-7.819,0.990,5.293,4.705,4.718,
19.820,126.669,0.939,-8.465,2.166,0.696,0.169,2.402,0.000,1.536,2.038,0.000,3.677,1.972,0.000,2.471,1.966,0.000,2.791,0.000,0.000,0.000,0.000,0.000,0.000,0.000,0.000,0.000,0.000,0.000,3.142,6.279,6.283,1.008,1.567,1.566,4.077,6.282,1.199,4.712,0.000,0.000,0.336,-8.165,0.991,5.312,4.712,4.712,5.282,4.710,4.709,2.198,6.282,5.083,1.570,0.000,0.000,0.878,-7.795,0.991,5.311,4.705,4.718,
19.920,126.768,0.881,-8.380,2.180,1.279,0.440,2.322,0.000,1.576,2.062,0.000,3.702,2.239,0.000,2.339,1.880,0.000,2.791,0.000,0.000,0.000,0.000,0.000,0.000,0.000,0.000,0.000,0.000,0.000,3.142,6.282,6.283,1.005,1.569,1.569,4.082,6.281,1.199,4.712,0.000,0.000,0.275,-8.086,0.990,5.322,4.707,4.716,5.281,4.711,4.712,2.199,6.282,5.083,1.571,0.000,0.000,0.813,-7.710,0.991,5.322,4.706,4.717,
20.020,126.869,0.824,-8.299,2.239,1.171,1.237,2.242,0.000,1.553,2.103,0.000,3.513,2.620,0.000,2.148,1.802,0.000,2.720,0.000,0.000,0.000,0.000,0.000,0.000,0.000,0.000,0.000,0.000,0.000,3.142,0.003,0.000,1.002,1.572,1.573,4.088,6.281,1.199,4.712,0.000,0.000,0.202,-8.037,0.990,5.376,4.702,4.720,5.281,4.714,4.715,2.199,6.282,5.083,1.571,0.000,0.000,0.718,-7.632,0.991,5.376,4.707,4.716,
20.110,126.958,0.752,-8.214,2.385,0.772,1.276,2.102,0.000,1.450,2.326,0.000,3.092,0.000,3.531,1.888,1.749,0.000,2.791,0.000,0.000,0.000,0.000,0.000,0.000,0.000,0.000,0.000,0.000,0.000,3.142,0.002,0.000,1.002,1.570,1.570,4.087,6.282,1.199,4.712,0.000,0.000,0.098,-8.048,0.990,5.526,4.705,4.716,5.282,4.713,4.713,2.198,6.283,5.083,1.570,0.000,0.000,0.549,-7.571,0.991,5.526,4.707,4.715,
20.220,127.069,0.706,-8.173,2.461,0.842,0.914,4.703,0.000,1.408,2.681,0.000,2.952,0.000,3.039,1.387,1.738,0.000,2.720,0.000,0.000,0.000,0.000,0.000,0.000,0.000,0.000,0.000,0.000,0.000,3.142,0.000,0.000,1.004,1.569,1.568,4.084,6.282,1.199,4.712,0.000,0.000,0.041,-8.058,0.990,5.604,4.708,4.714,5.282,4.711,4.711,2.198,6.283,5.083,1.570,0.000,0.000,0.454,-7.548,0.991,5.604,4.708,4.714,
20.306,127.154,0.616,-8.104,2.547,1.039,0.888,4.313,3.872,1.372,3.212,4.932,2.397,0.000,2.585,1.664,1.716,0.000,2.650,0.000,0.000,0.000,0.000,0.000,0.000,0.000,0.000,0.000,0.000,0.000,3.142,0.000,0.000,1.004,1.570,1.570,4.085,6.281,1.199,4.712,0.000,0.000,-0.056,-8.047,0.990,5.689,4.707,4.715,5.282,4.712,4.712,2.198,6.282,5.083,1.570,0.000,0.000,0.311,-7.503,0.991,5.689,4.708,4.714,
20.420,127.269,0.548,-8.060,2.615,0.996,1.054,4.064,3.827,1.346,3.992,0.000,2.376,0.000,2.321,1.592,1.716,0.000,2.580,0.000,0.000,0.000,0.000,0.000,0.000,0.000,0.000,0.000,0.000,0.000,3.142,0.002,0.000,1.003,1.571,1.571,4.086,6.281,1.199,4.712,0.000,0.000,-0.126,-8.046,0.990,5.755,4.706,4.715,5.282,4.713,4.713,2.198,6.282,5.083,1.571,0.000,0.000,0.204,-7.479,0.991,5.755,4.709,4.714,
20.502,127.351,0.500,-8.031,2.712,-0.120,0.738,3.820,3.842,1.684,0.000,4.829,2.638,0.000,2.067,1.539,1.771,0.000,2.510,0.000,0.000,0.000,0.000,0.000,0.000,0.000,0.000,0.000,0.000,0.000,3.142,0.006,0.001,0.998,1.572,1.573,4.095,6.281,1.200,4.712,0.000,0.000,-0.174,-8.080,0.989,5.849,4.702,4.716,5.280,4.714,4.715,2.199,6.282,5.083,1.570,0.000,0.000,0.103,-7.485,0.990,5.849,4.708,4.714,
20.620,127.469,0.523,-8.041,2.761,-0.435,0.847,3.882,3.654,2.034,0.000,4.431,2.668,0.000,1.995,1.544,1.837,0.000,2.440,0.000,0.000,0.000,0.000,0.000,0.000,0.000,0.000,0.000,0.000,0.000,3.142,0.003,0.000,1.001,1.570,1.571,4.088,6.281,1.199,4.712,0.000,0.000,-0.146,-8.125,0.990,5.900,4.706,4.714,5.281,4.712,4.713,2.200,6.282,5.083,1.570,0.000,0.000,0.099,-7.517,0.991,5.900,4.709,4.713,
20.707,127.555,0.548,-8.051,2.874,0.028,1.227,0.000,1.648,2.085,0.000,3.778,3.588,4.355,1.322,1.553,1.800,0.000,2.334,0.000,0.000,0.000,0.000,0.000,0.000,0.000,0.000,0.000,0.000,0.000,3.142,6.283,6.283,1.005,1.569,1.568,4.082,6.281,1.199,4.712,0.000,0.000,-0.107,-8.213,0.990,6.017,4.710,4.712,5.282,4.711,4.711,2.199,6.282,5.083,1.570,0.000,0.000,0.066,-7.579,0.991,6.016,4.710,4.712,
20.820,127.669,0.538,-8.048,2.959,0.162,1.269,0.000,1.547,2.130,0.000,3.459,0.000,2.610,1.754,1.564,1.748,0.000,3.142,0.000,0.000,0.000,0.000,0.000,0.000,0.000,0.000,0.000,0.000,0.000,3.142,0.001,0.000,1.003,1.569,1.569,4.085,6.281,1.199,4.712,0.000,0.000,-0.101,-8.265,0.990,6.101,4.708,4.712,5.282,4.712,4.712,2.198,6.282,5.083,1.570,0.000,0.000,0.018,-7.619,0.991,6.101,4.709,4.713,
20.910,127.759,0.529,-8.047,3.083,0.008,1.075,0.000,1.437,2.230,0.000,2.614,0.000,2.850,1.656,1.603,4.511,0.000,3.142,0.000,0.000,0.000,0.000,0.000,0.000,0.000,0.000,0.000,0.000,0.000,3.142,0.002,0.000,1.002,1.570,1.570,4.087,6.281,1.199,4.712,0.000,0.000,-0.079,-8.340,0.990,6.225,4.707,4.712,5.281,4.712,4.712,2.199,6.282,5.083,1.570,0.000,0.000,-0.040,-7.685,0.991,6.224,4.709,4.712,
21.020,127.869,0.531,-8.047,3.151,-0.058,0.993,3.783,1.395,2.591,0.000,2.487,0.000,2.585,1.618,1.637,4.292,0.000,3.142,0.000,0.000,0.000,0.000,0.000,0.000,0.000,0.000,0.000,0.000,0.000,3.142,0.002,0.000,1.003,1.570,1.570,4.086,6.281,1.199,4.712,0.000,0.000,-0.055,-8.381,0.990,0.009,4.707,4.711,5.281,4.712,4.712,2.199,6.282,5.083,1.570,0.000,0.000,-0.061,-7.724,0.991,0.009,4.709,4.712,
21.110,127.958,0.489,-8.049,3.224,0.793,0.328,3.758,1.334,3.278,0.000,2.426,0.000,2.364,1.588,1.686,4.048,0.000,3.142,0.000,0.000,0.000,0.000,0.000,0.000,0.000,0.000,0.000,0.000,0.000,3.142,6.279,6.283,1.008,1.566,1.563,4.077,6.282,1.198,4.711,0.000,0.000,-0.068,-8.429,0.990,0.090,4.712,4.711,5.282,4.709,4.706,2.198,6.282,5.083,1.570,0.000,0.000,-0.125,-7.774,0.991,0.089,4.709,4.711,
21.220,128.069,0.404,-8.056,3.236,1.315,0.274,3.677,1.278,3.027,0.000,2.509,0.000,2.344,1.592,1.703,3.923,0.000,3.142,0.000,0.000,0.000,0.000,0.000,0.000,0.000,0.000,0.000,0.000,0.000,3.142,6.281,6.283,1.006,1.569,1.568,4.081,6.281,1.199,4.712,0.000,0.000,-0.150,-8.439,0.990,0.096,4.710,4.711,5.281,4.711,4.710,2.198,6.282,5.083,1.570,0.000,0.000,-0.213,-7.786,0.991,0.095,4.709,4.711,
21.307,128.156,0.249,-8.073,3.323,1.136,1.325,3.569,1.155,4.001,0.000,2.618,0.000,2.166,1.585,1.745,3.745,0.000,3.142,0.000,0.000,0.000,0.000,0.000,0.000,0.000,0.000,0.000,0.000,0.000,3.142,0.004,0.001,1.001,1.572,1.573,4.089,6.281,1.199,4.712,0.000,0.000,-0.273,-8.499,0.990,0.176,4.706,4.711,5.281,4.714,4.716,2.199,6.282,5.083,1.571,0.000,0.000,-0.390,-7.854,0.991,0.176,4.709,4.712,
21.420,128.269,0.174,-8.087,3.400,0.852,0.705,3.351,1.088,0.000,0.000,2.996,4.597,2.043,1.589,1.544,4.554,0.000,3.106,0.000,0.000,0.000,0.000,0.000,0.000,0.000,0.000,0.000,0.000,0.000,3.142,0.002,0.001,1.002,1.570,1.568,4.087,6.282,1.199,4.712,0.000,0.000,-0.312,-8.557,0.990,0.260,4.707,4.709,5.281,4.712,4.711,2.198,6.283,5.083,1.570,0.000,0.000,-0.480,-7.922,0.991,0.259,4.708,4.710,
21.501,128.350,0.076,-8.114,3.413,0.954,6.276,3.209,1.013,0.000,0.000,3.086,0.000,2.055,1.615,1.591,4.658,0.000,3.142,0.000,0.000,0.000,0.000,0.000,0.000,0.000,0.000,0.000,0.000,0.000,3.142,6.281,0.000,1.005,1.569,1.568,4.083,6.281,1.199,4.712,0.000,0.000,-0.402,-8.590,0.990,0.273,4.709,4.710,5.282,4.711,4.710,2.197,6.282,5.083,1.570,0.000,0.000,-0.580,-7.958,0.990,0.273,4.707,4.710,
21.620,128.469,-0.003,-8.136,3.413,1.095,6.273,3.127,0.954,0.000,0.000,3.112,0.000,2.083,1.637,1.617,0.000,0.000,3.142,0.000,0.000,0.000,0.000,0.000,0.000,0.000,0.000,0.000,0.000,0.000,3.142,6.281,0.000,1.005,1.569,1.568,4.083,6.281,1.199,4.712,0.000,0.000,-0.481,-8.612,0.990,0.273,4.708,4.710,5.281,4.711,4.710,2.197,6.282,5.083,1.570,0.000,0.000,-0.658,-7.980,0.990,0.273,4.707,4.710,
21.720,128.569,-0.126,-8.171,3.413,1.039,6.273,2.998,0.862,3.210,0.000,3.003,0.000,2.127,1.672,3.961,0.000,0.000,3.142,0.000,0.000,0.000,0.000,0.000,0.000,0.000,0.000,0.000,0.000,0.000,3.142,6.282,0.001,1.003,1.569,1.569,4.085,6.281,1.199,4.712,0.000,0.000,-0.606,-8.645,0.990,0.272,4.707,4.710,5.281,4.711,4.711,2.197,6.282,5.083,1.570,0.000,0.000,-0.782,-8.013,0.990,0.272,4.707,4.710,
21.819,128.667,-0.220,-8.197,3.413,0.962,6.271,2.900,0.792,1.923,0.000,2.978,0.000,2.161,1.698,3.984,0.000,0.000,3.142,0.000,0.000,0.000,0.000,0.000,0.000,0.000,0.000,0.000,0.000,0.000,3.142,6.282,0.000,1.004,1.569,1.569,4.085,6.281,1.199,4.712,0.000,0.000,-0.700,-8.672,0.990,0.272,4.707,4.710,5.281,4.711,4.711,2.197,6.282,5.083,1.570,0.000,0.000,-0.876,-8.040,0.990,0.272,4.707,4.710,
21.903,128.751,-0.294,-8.217,3.413,0.987,6.271,2.823,0.737,1.831,0.000,3.056,0.000,2.187,1.718,4.009,0.000,0.000,3.142,0.000,0.000,0.000,0.000,0.000,0.000,0.000,0.000,0.000,0.000,0.000,3.142,6.282,0.000,1.004,1.569,1.569,4.084,6.281,1.199,4.712,0.000,0.000,-0.773,-8.692,0.990,0.272,4.708,4.710,5.281,4.711,4.711,2.197,6.282,5.083,1.570,0.000,0.000,-0.949,-8.061,0.990,0.272,4.708,4.710,
22.020,128.869,-0.390,-8.244,3.413,1.035,6.270,2.723,0.665,1.710,0.000,3.157,0.000,2.221,1.745,4.041,0.000,0.000,3.142,0.000,0.000,0.000,0.000,0.000,0.000,0.000,0.000,0.000,0.000,0.000,3.142,6.282,0.000,1.004,1.569,1.569,4.084,6.281,1.199,4.712,0.000,0.000,-0.869,-8.719,0.990,0.272,4.708,4.710,5.281,4.711,4.711,2.198,6.282,5.083,1.570,0.000,0.000,-1.045,-8.087,0.990,0.272,4.708,4.710,
22.120,128.969,-0.507,-8.277,3.413,1.017,6.269,2.601,0.577,0.655,0.000,3.281,0.000,2.262,1.340,4.081,0.000,0.000,3.142,0.000,0.000,0.000,0.000,0.000,0.000,0.000,0.000,0.000,0.000,0.000,3.142,6.282,0.000,1.004,1.569,1.569,4.085,6.281,1.199,4.712,0.000,0.000,-0.986,-8.752,0.990,0.272,4.707,4.710,5.281,4.711,4.711,2.198,6.282,5.083,1.570,0.000,0.000,-1.163,-8.120,0.990,0.272,4.708,4.710,
22.220,129.069,-0.602,-8.303,3.413,0.998,6.269,2.502,0.506,0.574,0.000,3.381,0.000,2.296,2.637,4.268,0.000,0.000,3.142,0.000,0.000,0.000,0.000,0.000,0.000,0.000,0.000,0.000,0.000,0.000,3.142,6.282,0.000,1.004,1.569,1.569,4.085,6.281,1.199,4.712,0.000,0.000,-1.081,-8.778,0.990,0.272,4.707,4.710,5.281,4.711,4.711,2.198,6.282,5.083,1.570,0.000,0.000,-1.258,-8.147,0.990,0.272,4.708,4.710,
22.301,129.150,-0.697,-8.330,3.415,0.942,0.463,2.404,0.435,0.494,0.000,3.480,0.000,2.327,1.533,4.091,0.000,0.000,3.142,0.000,0.000,0.000,0.000,0.000,0.000,0.000,0.000,0.000,0.000,0.000,3.142,6.282,6.283,1.017,1.572,1.566,4.070,6.282,1.199,4.712,0.000,0.000,-1.171,-8.804,0.988,0.275,4.709,4.707,5.281,4.712,4.712,2.199,6.282,5.083,1.570,0.000,0.000,-1.353,-8.173,0.990,0.273,4.708,4.711,
22.420,129.269,-0.749,-8.344,3.550,0.570,1.935,2.472,0.393,0.491,0.000,3.816,4.638,2.138,1.554,3.361,0.000,0.000,3.071,0.000,0.000,0.000,0.000,0.000,0.000,0.000,0.000,0.000,0.000,0.000,3.142,6.280,6.280,1.029,1.646,1.596,4.017,0.007,1.199,4.714,0.000,0.000,-1.154,-8.836,1.003,0.357,4.756,4.680,5.281,4.713,4.715,2.198,6.282,5.083,1.571,0.000,0.000,-1.421,-8.276,0.990,0.406,4.708,4.711,
22.520,129.369,-0.792,-8.362,3.725,0.116,0.755,0.395,0.363,0.521,4.744,0.000,3.378,1.986,0.000,2.934,2.459,0.000,2.896,0.000,0.000,0.000,0.000,0.000,0.000,0.000,0.000,0.000,0.000,0.000,3.142,0.002,6.282,1.018,1.753,1.592,4.064,0.004,1.200,4.713,0.000,0.000,-1.138,-8.889,0.994,0.474,4.725,4.576,5.282,4.710,4.708,2.196,6.283,5.083,1.570,0.000,0.000,-1.463,-8.416,0.990,0.588,4.706,4.708,
22.620,129.469,-0.792,-8.362,3.733,-0.026,6.250,0.393,0.363,0.525,4.718,0.000,3.340,1.981,0.000,2.916,2.458,0.000,2.896,0.000,0.000,0.000,0.000,0.000,0.000,0.000,0.000,0.000,0.000,0.000,3.142,0.000,6.283,1.014,1.759,1.585,4.075,0.001,1.200,4.712,0.000,0.000,-1.137,-8.893,0.992,0.480,4.716,4.563,5.282,4.711,4.711,2.197,6.282,5.083,1.570,0.000,0.000,-1.464,-8.420,0.990,0.592,4.707,4.709,
22.705,129.554,-0.789,-8.360,3.722,-0.046,6.227,0.400,0.366,0.524,4.754,0.000,3.394,1.987,0.000,2.946,2.463,0.000,2.896,0.000,0.000,0.000,0.000,0.000,0.000,0.000,0.000,0.000,0.000,0.000,3.142,6.283,6.283,1.013,1.749,1.586,4.075,0.001,1.200,4.713,0.000,0.000,-1.138,-8.890,0.992,0.473,4.717,4.572,5.282,4.711,4.711,2.197,6.282,5.083,1.570,0.000,0.000,-1.461,-8.410,0.991,0.581,4.707,4.709,
22.820,129.669,-0.786,-8.358,3.719,-0.042,0.023,0.403,0.369,0.527,4.759,0.000,3.404,1.987,0.000,2.998,2.466,0.000,2.896,0.000,0.000,0.000,0.000,0.000,0.000,0.000,0.000,0.000,0.000,0.000,3.142,6.283,6.283,1.010,1.737,1.585,4.075,0.001,1.200,4.712,0.000,0.000,-1.134,-8.892,0.993,0.478,4.719,4.583,5.282,4.710,4.710,2.197,6.282,5.083,1.570,0.000,0.000,-1.458,-8.407,0.990,0.579,4.707,4.709,
22.920,129.769,-0.782,-8.356,3.718,-0.032,0.028,0.408,0.373,0.532,4.759,0.000,3.405,1.985,0.000,2.990,2.470,0.000,2.896,0.000,0.000,0.000,0.000,0.000,0.000,0.000,0.000,0.000,0.000,0.000,3.142,6.283,6.283,1.007,1.719,1.586,4.074,0.001,1.200,4.713,0.000,0.000,-1.128,-8.895,0.995,0.485,4.722,4.601,5.282,4.710,4.710,2.197,6.282,5.083,1.570,0.000,0.000,-1.455,-8.404,0.990,0.578,4.707,4.709,
23.020,129.869,-0.780,-8.354,3.717,-0.024,0.026,0.411,0.375,0.535,4.760,0.000,3.409,1.984,0.000,2.983,2.472,0.000,2.896,0.000,0.000,0.000,0.000,0.000,0.000,0.000,0.000,0.000,0.000,0.000,3.142,0.000,6.283,1.005,1.707,1.585,4.074,0.001,1.200,4.713,0.000,0.000,-1.124,-8.897,0.995,0.491,4.723,4.611,5.282,4.710,4.710,2.197,6.282,5.083,1.570,0.000,0.000,-1.452,-8.401,0.990,0.577,4.707,4.709,
23.113,129.962,-0.778,-8.353,3.714,-0.020,6.230,1.446,0.377,0.536,4.769,0.000,3.423,1.985,0.000,2.969,2.474,0.000,2.896,0.000,0.000,0.000,0.000,0.000,0.000,0.000,0.000,0.000,0.000,0.000,3.142,0.000,6.283,1.005,1.698,1.584,4.073,0.001,1.200,4.712,0.000,0.000,-1.122,-8.899,0.995,0.494,4.723,4.617,5.282,4.710,4.710,2.197,6.282,5.083,1.570,0.000,0.000,-1.450,-8.398,0.990,0.574,4.707,4.709,
23.220,130.069,-0.776,-8.352,3.706,-0.029,6.218,1.465,0.378,0.534,4.796,0.000,3.463,1.990,0.000,2.939,2.477,0.000,2.931,0.000,0.000,0.000,0.000,0.000,0.000,0.000,0.000,0.000,0.000,0.000,3.142,0.000,6.283,1.005,1.693,1.584,4.072,0.001,1.200,4.713,0.000,0.000,-1.123,-8.896,0.995,0.489,4.724,4.622,5.282,4.710,4.710,2.197,6.282,5.083,1.570,0.000,0.000,-1.449,-8.391,0.990,0.566,4.707,4.709,
23.320,130.169,-0.773,-8.350,3.695,-0.032,6.209,2.646,0.381,0.533,4.835,0.000,3.522,1.997,0.000,2.896,2.481,0.000,2.931,0.000,0.000,0.000,0.000,0.000,0.000,0.000,0.000,0.000,0.000,0.000,3.142,0.000,6.283,1.005,1.685,1.584,4.072,0.001,1.200,4.713,0.000,0.000,-1.125,-8.893,0.995,0.482,4.723,4.629,5.282,4.710,4.710,2.197,6.282,5.083,1.570,0.000,0.000,-1.446,-8.382,0.990,0.554,4.707,4.709,
23.420,130.269,-0.770,-8.349,3.685,-0.032,6.201,2.633,0.383,0.532,4.870,0.000,3.576,2.003,0.000,2.922,2.486,0.000,2.931,0.000,0.000,0.000,0.000,0.000,0.000,0.000,0.000,0.000,0.000,0.000,3.142,0.000,6.283,1.005,1.679,1.584,4.072,0.001,1.200,4.713,0.000,0.000,-1.126,-8.890,0.995,0.476,4.723,4.634,5.282,4.710,4.710,2.197,6.282,5.083,1.570,0.000,0.000,-1.444,-8.374,0.990,0.545,4.707,4.709,
23.519,130.367,-0.768,-8.347,3.675,-0.031,6.200,2.620,0.385,0.530,4.907,0.000,3.633,2.010,0.000,2.951,2.490,0.000,2.931,0.000,0.000,0.000,0.000,0.000,0.000,0.000,0.000,0.000,0.000,0.000,3.142,0.000,6.283,1.005,1.672,1.584,4.072,0.001,1.200,4.713,0.000,0.000,-1.128,-8.887,0.995,0.469,4.723,4.639,5.282,4.710,4.710,2.197,6.282,5.083,1.570,0.000,0.000,-1.441,-8.366,0.990,0.535,4.707,4.709,
23.620,130.469,-0.766,-8.346,3.668,-0.028,6.241,2.611,0.387,0.530,4.933,0.000,3.674,2.015,0.000,2.972,2.494,0.000,2.966,0.000,0.000,0.000,0.000,0.000,0.000,0.000,0.000,0.000,0.000,0.000,3.142,6.283,6.283,1.005,1.667,1.584,4.073,0.001,1.200,4.713,0.000,0.000,-1.129,-8.886,0.995,0.465,4.721,4.643,5.282,4.710,4.710,2.197,6.282,5.083,1.570,0.000,0.000,-1.440,-8.360,0.990,0.527,4.707,4.709,
23.720,130.569,-0.776,-8.352,3.681,0.201,0.972,2.620,0.377,0.522,4.892,0.000,3.605,2.010,0.000,2.925,2.481,0.000,2.931,0.000,0.000,0.000,0.000,0.000,0.000,0.000,0.000,0.000,0.000,0.000,3.142,6.279,6.280,1.017,1.674,1.592,4.031,0.005,1.199,4.714,0.000,0.000,-1.122,-8.887,1.004,0.474,4.757,4.659,5.281,4.713,4.715,2.198,6.282,5.083,1.571,0.000,0.000,-1.451,-8.371,0.991,0.536,4.708,4.711,
23.820,130.669,-0.788,-8.358,3.727,0.007,0.207,0.401,0.368,0.530,4.732,0.000,3.361,1.981,0.000,2.934,2.463,0.000,2.896,0.000,0.000,0.000,0.000,0.000,0.000,0.000,0.000,0.000,0.000,0.000,3.142,6.279,6.281,1.016,1.703,1.589,4.036,0.004,1.199,4.713,0.000,0.000,-1.115,-8.901,1.004,0.507,4.755,4.633,5.281,4.710,4.710,2.197,6.282,5.083,1.570,0.000,0.000,-1.459,-8.413,0.990,0.589,4.706,4.708,
23.915,130.763,-0.778,-8.351,3.696,-0.317,5.527,2.642,0.378,0.529,4.836,0.000,3.516,1.997,0.000,2.902,2.476,0.000,2.931,0.000,0.000,0.000,0.000,0.000,0.000,0.000,0.000,0.000,0.000,0.000,3.142,6.281,6.282,1.012,1.680,1.586,4.048,0.003,1.200,4.713,0.000,0.000,-1.121,-8.893,1.001,0.488,4.743,4.644,5.280,4.711,4.711,2.198,6.282,5.083,1.570,0.000,0.000,-1.451,-8.383,0.990,0.555,4.706,4.708,
24.020,130.869,-0.743,-8.328,3.606,-0.748,5.001,2.548,0.411,0.536,0.000,0.000,4.081,2.055,1.549,3.180,0.000,0.000,3.001,0.000,0.000,0.000,0.000,0.000,0.000,0.000,0.000,0.000,0.000,0.000,3.142,0.001,0.001,1.001,1.593,1.576,4.090,6.280,1.200,4.712,0.000,0.000,-1.129,-8.876,0.989,0.446,4.705,4.692,5.281,4.712,4.712,2.198,6.282,5.083,1.570,0.000,0.000,-1.417,-8.299,0.990,0.463,4.708,4.709,
24.120,130.969,-0.623,-8.272,3.544,-1.348,0.022,2.604,0.519,0.645,0.000,3.770,4.524,2.062,1.481,3.576,0.000,0.000,3.071,0.000,0.000,0.000,0.000,0.000,0.000,0.000,0.000,0.000,0.000,0.000,3.142,0.001,0.000,1.002,1.572,1.574,4.088,6.280,1.200,4.712,0.000,0.000,-1.038,-8.803,0.990,0.397,4.706,4.710,5.281,4.713,4.715,2.199,6.281,5.083,1.571,0.000,0.000,-1.294,-8.199,0.990,0.398,4.708,4.711,
24.211,131.060,-0.510,-8.224,3.545,-1.067,6.271,2.728,0.617,1.865,0.000,4.040,4.391,2.005,1.433,3.742,0.000,0.000,3.071,0.000,0.000,0.000,0.000,0.000,0.000,0.000,0.000,0.000,0.000,0.000,3.142,6.282,6.283,1.005,1.569,1.568,4.083,6.281,1.199,4.712,0.000,0.000,-0.922,-8.758,0.990,0.405,4.709,4.710,5.281,4.711,4.711,2.199,6.282,5.083,1.570,0.000,0.000,-1.180,-8.155,0.991,0.404,4.708,4.710,
24.320,131.169,-0.442,-8.195,3.546,-0.847,6.272,2.803,0.676,1.976,0.000,4.200,4.313,1.971,1.591,3.841,0.000,0.000,3.071,0.000,0.000,0.000,0.000,0.000,0.000,0.000,0.000,0.000,0.000,0.000,3.142,6.283,0.000,1.004,1.569,1.569,4.085,6.281,1.199,4.712,0.000,0.000,-0.855,-8.729,0.990,0.404,4.708,4.709,5.280,4.711,4.711,2.199,6.282,5.083,1.570,0.000,0.000,-1.112,-8.126,0.990,0.404,4.708,4.710,
24.420,131.269,-0.346,-8.154,3.546,-0.987,6.270,2.909,0.759,0.000,4.925,4.434,4.200,1.922,1.222,3.982,0.000,0.000,3.071,0.000,0.000,0.000,0.000,0.000,0.000,0.000,0.000,0.000,0.000,0.000,3.142,0.001,0.000,1.002,1.570,1.571,4.088,6.281,1.200,4.712,0.000,0.000,-0.760,-8.688,0.990,0.403,4.706,4.709,5.280,4.712,4.713,2.199,6.282,5.083,1.570,0.000,0.000,-1.017,-8.084,0.990,0.403,4.708,4.710,
24.508,131.356,-0.250,-8.113,3.547,-1.101,6.271,3.016,0.843,0.000,4.780,4.562,4.089,1.873,1.621,4.122,0.000,0.000,3.036,0.000,0.000,0.000,0.000,0.000,0.000,0.000,0.000,0.000,0.000,0.000,3.142,0.001,0.000,1.003,1.570,1.570,4.087,6.281,1.199,4.712,0.000,0.000,-0.663,-8.647,0.990,0.404,4.706,4.709,5.280,4.712,4.712,2.199,6.282,5.083,1.570,0.000,0.000,-0.921,-8.044,0.990,0.405,4.708,4.710,
24.620,131.469,-0.172,-8.080,3.548,-1.044,6.272,3.102,0.911,0.000,4.662,4.593,3.999,1.834,1.587,4.237,0.000,0.000,3.036,0.000,0.000,0.000,0.000,0.000,0.000,0.000,0.000,0.000,0.000,0.000,3.142,6.283,0.000,1.003,1.570,1.570,4.085,6.281,1.199,4.712,0.000,0.000,-0.584,-8.614,0.990,0.406,4.707,4.709,5.280,4.711,4.712,2.199,6.282,5.083,1.570,0.000,0.000,-0.843,-8.011,0.990,0.406,4.708,4.710,
24.720,131.569,-0.065,-8.033,3.546,-0.965,6.147,3.218,1.005,0.000,4.511,0.000,3.894,1.782,1.541,4.405,0.000,0.000,3.036,0.000,0.000,0.000,0.000,0.000,0.000,0.000,0.000,0.000,0.000,0.000,3.142,6.282,0.000,1.004,1.569,1.569,4.085,6.281,1.199,4.712,0.000,0.000,-0.476,-8.568,0.990,0.406,4.707,4.709,5.281,4.711,4.711,2.198,6.282,5.083,1.570,0.000,0.000,-0.735,-7.965,0.990,0.406,4.707,4.710,
24.805,131.654,0.020,-7.998,3.493,-0.761,5.310,3.104,1.079,0.000,4.663,4.121,3.082,1.800,1.499,1.537,0.000,0.000,3.071,0.000,0.000,0.000,0.000,0.000,0.000,0.000,0.000,0.000,0.000,0.000,3.142,6.278,0.000,1.006,1.567,1.565,4.080,6.282,1.199,4.712,0.000,0.000,-0.417,-8.511,0.990,0.357,4.710,4.710,5.281,4.710,4.708,2.198,6.282,5.083,1.570,0.000,0.000,-0.645,-7.896,0.990,0.356,4.708,4.709,
24.920,131.769,0.046,-7.987,3.426,0.018,5.425,3.410,1.107,0.000,0.000,3.291,0.000,1.876,1.488,1.450,4.519,0.000,3.142,0.000,0.000,0.000,0.000,0.000,0.000,0.000,0.000,0.000,0.000,0.000,3.142,6.276,6.283,1.008,1.567,1.566,4.076,6.281,1.199,4.712,0.000,0.000,-0.423,-8.470,0.991,0.288,4.713,4.712,5.282,4.710,4.709,2.197,6.282,5.083,1.571,0.000,0.000,-0.611,-7.840,0.991,0.287,4.708,4.711,
25.020,131.869,0.013,-7.997,3.326,0.350,5.141,3.331,1.100,2.175,0.000,2.831,0.000,2.053,1.508,1.373,3.430,0.000,3.142,0.000,0.000,0.000,0.000,0.000,0.000,0.000,0.000,0.000,0.000,0.000,3.142,6.281,0.001,1.004,1.568,1.567,4.086,6.281,1.199,4.712,0.000,0.000,-0.506,-8.429,0.989,0.187,4.707,4.710,5.282,4.711,4.710,2.197,6.282,5.083,1.570,0.000,0.000,-0.627,-7.784,0.990,0.186,4.708,4.711,
25.120,131.969,-0.040,-8.005,3.223,0.851,5.364,3.225,1.096,1.965,0.000,3.037,0.000,1.631,1.544,1.162,3.436,0.000,3.142,0.000,0.000,0.000,0.000,0.000,0.000,0.000,0.000,0.000,0.000,0.000,3.142,6.277,6.283,1.008,1.568,1.566,4.079,6.281,1.199,4.712,0.000,0.000,-0.599,-8.383,0.990,0.085,4.711,4.711,5.283,4.710,4.709,2.197,6.282,5.083,1.571,0.000,0.000,-0.655,-7.728,0.991,0.084,4.709,4.711,
25.220,132.069,-0.153,-8.013,3.150,1.327,5.415,3.329,1.058,1.008,0.000,3.789,0.000,1.793,1.583,1.356,3.464,0.000,3.142,0.000,0.000,0.000,0.000,0.000,0.000,0.000,0.000,0.000,0.000,0.000,3.142,6.279,0.000,1.006,1.567,1.566,4.082,6.281,1.199,4.712,0.000,0.000,-0.738,-8.349,0.990,0.013,4.709,4.711,5.282,4.710,4.708,2.197,6.282,5.083,1.570,0.000,0.000,-0.745,-7.693,0.991,0.012,4.708,4.711,
25.320,132.169,-0.276,-8.012,3.064,1.100,5.222,0.000,3.240,0.929,0.000,4.193,0.000,2.871,1.631,1.304,3.536,0.000,3.142,0.000,0.000,0.000,0.000,0.000,0.000,0.000,0.000,0.000,0.000,0.000,3.142,6.282,0.001,1.003,1.569,1.568,4.088,6.281,1.199,4.712,0.000,0.000,-0.890,-8.295,0.989,6.207,4.706,4.711,5.281,4.711,4.711,2.198,6.282,5.083,1.570,0.000,0.000,-0.839,-7.641,0.990,6.206,4.708,4.712,
25.420,132.269,-0.369,-8.003,2.971,0.850,5.224,0.000,2.964,0.880,0.000,4.682,0.000,3.380,1.693,1.481,3.720,0.000,3.142,0.000,0.000,0.000,0.000,0.000,0.000,0.000,0.000,0.000,0.000,0.000,3.142,6.281,0.001,1.004,1.569,1.568,4.086,6.281,1.199,4.712,0.000,0.000,-1.006,-8.228,0.990,6.114,4.707,4.712,5.282,4.711,4.711,2.197,6.282,5.083,1.570,0.000,0.000,-0.894,-7.581,0.990,6.113,4.708,4.712,
25.520,132.369,-0.455,-7.987,2.881,0.974,5.280,0.000,2.750,0.850,2.112,0.000,3.930,4.100,1.763,4.297,3.971,0.000,2.580,0.000,0.000,0.000,0.000,0.000,0.000,0.000,0.000,0.000,0.000,0.000,3.142,6.280,0.000,1.005,1.568,1.567,4.083,6.281,1.199,4.712,0.000,0.000,-1.109,-8.154,0.990,6.025,4.708,4.712,5.282,4.711,4.709,2.197,6.282,5.083,1.570,0.000,0.000,-0.941,-7.519,0.991,6.024,4.708,4.712,
25.614,132.462,-0.555,-7.958,2.795,1.099,5.298,0.000,2.823,0.831,0.950,0.000,3.447,3.619,1.837,2.290,3.729,0.000,2.685,0.000,0.000,0.000,0.000,0.000,0.000,0.000,0.000,0.000,0.000,0.000,3.142,6.280,0.001,1.005,1.568,1.567,4.084,6.281,1.199,4.712,0.000,0.000,-1.221,-8.068,0.990,5.939,4.708,4.713,5.282,4.711,4.710,2.197,6.282,5.083,1.570,0.000,0.000,-0.998,-7.450,0.991,5.938,4.708,4.713,
25.720,132.569,-0.635,-7.928,2.725,1.052,5.282,3.679,2.688,1.615,0.901,0.000,3.539,0.000,1.905,1.475,3.531,0.000,2.791,0.000,0.000,0.000,0.000,0.000,0.000,0.000,0.000,0.000,0.000,0.000,3.142,6.281,0.001,1.004,1.569,1.568,4.086,6.281,1.199,4.712,0.000,0.000,-1.307,-7.991,0.990,5.869,4.707,4.713,5.282,4.711,4.710,2.197,6.282,5.083,1.570,0.000,0.000,-1.042,-7.391,0.991,5.868,4.708,4.713,
25.820,132.668,-0.741,-7.877,2.622,0.969,5.268,2.697,2.530,3.121,0.852,0.000,4.310,0.000,2.034,1.404,3.802,0.000,2.931,0.000,0.000,0.000,0.000,0.000,0.000,0.000,0.000,0.000,0.000,0.000,3.142,6.281,0.001,1.004,1.569,1.567,4.085,6.281,1.199,4.712,0.000,0.000,-1.417,-7.871,0.990,5.766,4.707,4.714,5.282,4.711,4.710,2.197,6.282,5.083,1.570,0.000,0.000,-1.091,-7.301,0.991,5.765,4.707,4.714,
25.920,132.769,-0.808,-7.838,2.550,0.994,5.250,2.610,0.000,2.842,0.833,0.000,4.587,0.000,2.149,1.388,0.000,0.000,3.001,0.000,0.000,0.000,0.000,0.000,0.000,0.000,0.000,0.000,0.000,0.000,3.142,6.280,0.001,1.005,1.568,1.567,4.084,6.281,1.199,4.712,0.000,0.000,-1.481,-7.784,0.990,5.694,4.707,4.714,5.282,4.711,4.710,2.197,6.282,5.083,1.570,0.000,0.000,-1.115,-7.239,0.991,5.693,4.707,4.714,
26.020,132.869,-0.906,-7.769,2.496,1.036,0.080,2.587,0.000,2.603,1.010,1.235,4.889,0.000,2.189,1.337,0.000,0.000,3.106,0.000,0.000,0.000,0.000,0.000,0.000,0.000,0.000,0.000,0.000,0.000,3.142,6.283,0.000,1.003,1.570,1.572,4.085,6.280,1.199,4.712,0.000,0.000,-1.574,-7.676,0.990,5.635,4.706,4.716,5.281,4.712,4.713,2.198,6.281,5.083,1.571,0.000,0.000,-1.179,-7.152,0.991,5.636,4.708,4.715,
26.103,132.952,-0.987,-7.709,2.543,1.012,1.074,2.409,0.000,2.593,1.218,1.324,4.828,0.000,1.960,0.946,0.000,0.000,3.071,0.000,0.000,0.000,0.000,0.000,0.000,0.000,0.000,0.000,0.000,0.000,3.142,0.002,0.000,1.003,1.571,1.572,4.086,6.281,1.199,4.712,0.000,0.000,-1.658,-7.646,0.990,5.680,4.706,4.716,5.282,4.713,4.714,2.199,6.281,5.083,1.571,0.000,0.000,-1.288,-7.104,0.991,5.681,4.709,4.714,
26.220,133.069,-1.053,-7.665,2.637,0.999,1.452,2.323,0.000,2.728,1.134,0.000,4.632,0.000,1.694,0.881,3.073,0.000,3.001,0.000,0.000,0.000,0.000,0.000,0.000,0.000,0.000,0.000,0.000,0.000,3.142,0.002,0.000,1.003,1.571,1.571,4.086,6.282,1.199,4.712,0.000,0.000,-1.728,-7.667,0.990,5.777,4.707,4.714,5.282,4.713,4.713,2.198,6.282,5.083,1.571,0.000,0.000,-1.410,-7.092,0.991,5.776,4.709,4.714,
26.308,133.157,-1.160,-7.611,2.716,1.022,6.267,2.803,2.198,2.808,1.218,0.000,4.129,0.000,0.971,3.713,3.145,0.000,2.966,0.000,0.000,0.000,0.000,0.000,0.000,0.000,0.000,0.000,0.000,0.000,3.142,6.282,0.000,1.004,1.568,1.566,4.085,6.282,1.199,4.711,0.000,0.000,-1.833,-7.670,0.990,5.863,4.707,4.713,5.281,4.710,4.708,2.198,6.283,5.083,1.570,0.000,0.000,-1.563,-7.072,0.990,5.862,4.708,4.713,
26.420,133.269,-1.233,-7.578,2.716,1.021,6.264,2.713,2.357,2.693,1.408,0.000,4.211,0.000,1.451,3.900,3.105,0.000,3.001,0.000,0.000,0.000,0.000,0.000,0.000,0.000,0.000,0.000,0.000,0.000,3.142,6.282,0.000,1.004,1.569,1.569,4.084,6.281,1.199,4.712,0.000,0.000,-1.905,-7.634,0.990,5.858,4.707,4.714,5.281,4.711,4.711,2.197,6.282,5.083,1.570,0.000,0.000,-1.635,-7.037,0.990,5.858,4.707,4.714,
26.520,133.369,-1.342,-7.529,2.715,1.006,6.274,2.586,4.965,2.526,1.634,1.677,4.332,0.000,0.983,3.850,3.280,0.000,3.036,0.000,0.000,0.000,0.000,0.000,0.000,0.000,0.000,0.000,0.000,0.000,3.142,6.282,0.000,1.004,1.569,1.569,4.084,6.281,1.199,4.712,0.000,0.000,-2.014,-7.585,0.990,5.858,4.707,4.714,5.281,4.711,4.711,2.197,6.282,5.083,1.570,0.000,0.000,-1.743,-6.987,0.990,5.858,4.707,4.714,
26.611,133.459,-1.432,-7.488,2.715,1.008,6.273,2.482,4.846,2.388,1.675,1.656,4.431,2.699,0.929,4.269,3.103,0.000,3.071,0.000,0.000,0.000,0.000,0.000,0.000,0.000,0.000,0.000,0.000,0.000,3.142,6.282,0.000,1.004,1.569,1.569,4.084,6.281,1.199,4.712,0.000,0.000,-2.104,-7.544,0.990,5.857,4.707,4.713,5.281,4.711,4.711,2.197,6.282,5.083,1.570,0.000,0.000,-1.833,-6.946,0.990,5.857,4.707,4.714,
26.720,133.569,-1.504,-7.455,2.715,1.014,6.272,2.399,4.752,2.154,1.709,1.639,4.511,2.752,0.884,4.684,2.960,0.000,3.071,0.000,0.000,0.000,0.000,0.000,0.000,0.000,0.000,0.000,0.000,0.000,3.142,6.282,0.000,1.004,1.569,1.569,4.084,6.281,1.199,4.712,0.000,0.000,-2.177,-7.510,0.990,5.857,4.707,4.713,5.281,4.711,4.711,2.197,6.282,5.083,1.570,0.000,0.000,-1.906,-6.913,0.990,5.857,4.707,4.714,
26.820,133.668,-1.603,-7.410,2.680,0.790,5.403,1.734,0.000,2.175,1.760,1.523,4.695,2.833,0.872,4.658,2.940,0.000,3.106,0.000,0.000,0.000,0.000,0.000,0.000,0.000,0.000,0.000,0.000,0.000,3.142,6.281,0.001,1.003,1.568,1.566,4.086,6.281,1.199,4.711,0.000,0.000,-2.278,-7.444,0.990,5.826,4.706,4.713,5.281,4.710,4.709,2.197,6.282,5.083,1.570,0.000,0.000,-1.986,-6.856,0.990,5.825,4.706,4.714,
26.902,133.751,-1.655,-7.383,2.596,0.729,4.885,1.679,0.000,2.152,3.942,1.333,0.000,0.000,0.889,3.777,2.709,0.000,3.142,0.000,0.000,0.000,0.000,0.000,0.000,0.000,0.000,0.000,0.000,0.000,3.142,6.280,0.001,1.004,1.568,1.566,4.085,6.281,1.199,4.712,0.000,0.000,-2.330,-7.361,0.990,5.741,4.707,4.714,5.282,4.711,4.709,2.197,6.282,5.083,1.570,0.000,0.000,-1.990,-6.799,0.991,5.740,4.707,4.714,
27.020,133.869,-1.718,-7.342,2.476,0.828,5.101,1.607,0.000,1.876,3.752,1.539,0.000,0.000,0.966,3.645,2.549,0.000,3.142,0.000,0.000,0.000,0.000,0.000,0.000,0.000,0.000,0.000,0.000,0.000,3.142,6.280,0.000,1.005,1.569,1.568,4.084,6.281,1.199,4.712,0.000,0.000,-2.385,-7.238,0.990,5.619,4.707,4.715,5.282,4.711,4.710,2.197,6.281,5.083,1.570,0.000,0.000,-1.980,-6.721,0.991,5.619,4.708,4.714,
27.119,133.968,-1.797,-7.277,2.377,0.876,5.465,1.640,4.433,1.671,2.934,1.923,0.000,0.000,1.000,3.095,2.902,0.000,3.142,0.000,0.000,0.000,0.000,0.000,0.000,0.000,0.000,0.000,0.000,0.000,3.142,6.281,0.001,1.004,1.569,1.568,4.085,6.281,1.199,4.712,0.000,0.000,-2.450,-7.106,0.990,5.520,4.706,4.716,5.282,4.711,4.711,2.197,6.282,5.083,1.570,0.000,0.000,-1.996,-6.633,0.991,5.519,4.706,4.716,
27.220,134.069,-1.845,-7.230,2.318,0.826,5.385,1.669,3.913,1.971,2.493,1.949,0.000,0.000,1.014,0.000,0.000,0.000,3.142,0.000,0.000,0.000,0.000,0.000,0.000,0.000,0.000,0.000,0.000,0.000,3.142,6.281,0.001,1.004,1.569,1.568,4.085,6.281,1.199,4.712,0.000,0.000,-2.487,-7.021,0.990,5.461,4.705,4.716,5.281,4.711,4.710,2.197,6.282,5.083,1.570,0.000,0.000,-2.005,-6.575,0.990,5.461,4.706,4.716,
27.320,134.169,-1.907,-7.159,2.212,0.798,5.206,1.785,2.384,4.602,2.212,2.001,2.131,0.000,1.098,0.000,4.217,0.000,2.440,0.000,0.000,0.000,0.000,0.000,0.000,0.000,0.000,0.000,0.000,0.000,3.142,6.280,0.001,1.004,1.568,1.567,4.085,6.281,1.199,4.712,0.000,0.000,-2.524,-6.884,0.990,5.356,4.704,4.717,5.282,4.711,4.710,2.197,6.282,5.083,1.570,0.000,0.000,-1.998,-6.491,0.991,5.356,4.705,4.717,
27.410,134.258,-1.948,-7.102,2.121,0.446,5.340,1.958,1.242,4.804,2.074,0.000,1.823,0.000,1.264,0.000,3.640,0.000,2.545,0.000,0.000,0.000,0.000,0.000,0.000,0.000,0.000,0.000,0.000,0.000,3.142,0.001,0.001,1.001,1.570,1.570,4.092,6.281,1.199,4.712,0.000,0.000,-2.536,-6.769,0.989,5.260,4.696,4.725,5.281,4.712,4.713,2.198,6.281,5.083,1.570,0.000,0.000,-1.976,-6.428,0.990,5.260,4.703,4.719,
27.520,134.369,-1.952,-7.096,2.060,-0.200,5.406,2.158,1.270,0.000,1.928,0.000,1.724,0.000,3.286,2.042,3.791,0.000,2.615,0.000,0.000,0.000,0.000,0.000,0.000,0.000,0.000,0.000,0.000,0.000,3.142,0.001,0.001,1.000,1.570,1.571,4.091,6.281,1.200,4.712,0.000,0.000,-2.518,-6.728,0.989,5.199,4.696,4.726,5.280,4.712,4.713,2.198,6.282,5.083,1.570,0.000,0.000,-1.939,-6.422,0.990,5.200,4.702,4.721,
27.617,134.466,-1.937,-7.127,1.947,-0.209,5.116,2.767,1.243,0.000,1.745,3.866,1.831,0.000,3.134,1.231,3.994,0.000,2.720,0.000,0.000,0.000,0.000,0.000,0.000,0.000,0.000,0.000,0.000,0.000,3.142,6.280,0.000,1.004,1.569,1.568,4.083,6.281,1.199,4.712,0.000,0.000,-2.460,-6.701,0.990,5.091,4.704,4.719,5.282,4.711,4.710,2.198,6.282,5.083,1.570,0.000,0.000,-1.850,-6.459,0.991,5.090,4.703,4.721,
27.720,134.569,-1.936,-7.131,1.868,0.055,5.188,2.347,1.312,0.000,1.638,3.608,1.956,0.000,0.000,1.155,3.613,0.000,2.791,0.000,0.000,0.000,0.000,0.000,0.000,0.000,0.000,0.000,0.000,0.000,3.142,6.279,0.000,1.005,1.568,1.568,4.083,6.281,1.199,4.712,0.000,0.000,-2.423,-6.665,0.990,5.012,4.700,4.723,5.282,4.711,4.710,2.197,6.282,5.083,1.570,0.000,0.000,-1.796,-6.472,0.991,5.011,4.698,4.725,
27.820,134.669,-1.938,-7.122,1.750,0.085,5.182,2.265,1.440,4.288,1.963,2.620,2.069,0.000,0.000,1.075,3.415,0.000,2.861,0.000,0.000,0.000,0.000,0.000,0.000,0.000,0.000,0.000,0.000,0.000,3.142,6.281,0.001,1.004,1.569,1.568,4.085,6.281,1.199,4.712,0.000,0.000,-2.367,-6.601,0.990,4.893,4.685,4.738,5.282,4.711,4.711,2.198,6.282,5.083,1.570,0.000,0.000,-1.722,-6.483,0.991,4.892,4.689,4.735,
27.920,134.769,-1.939,-7.118,1.661,-0.009,5.285,0.000,1.574,3.739,4.490,2.187,2.048,0.000,0.000,1.030,3.050,0.000,3.001,0.000,0.000,0.000,0.000,0.000,0.000,0.000,0.000,0.000,0.000,0.000,3.142,6.281,0.001,1.003,1.569,1.569,4.086,6.281,1.199,4.712,0.000,0.000,-2.320,-6.560,0.990,4.803,4.656,4.768,5.281,4.712,4.712,2.198,6.282,5.083,1.570,0.000,0.000,-1.666,-6.501,0.990,4.803,4.661,4.762,
28.020,134.869,-1.939,-7.121,1.568,-0.047,5.140,4.140,1.761,2.154,4.498,2.276,2.036,2.110,0.000,1.022,0.000,0.000,3.106,0.000,0.000,0.000,0.000,0.000,0.000,0.000,0.000,0.000,2.305,0.000,3.142,6.281,0.001,1.004,1.569,1.568,4.085,6.281,1.199,4.712,0.000,0.000,-2.267,-6.531,0.990,4.717,2.805,0.335,5.281,4.711,4.711,2.198,6.282,5.083,1.570,0.000,0.000,-1.610,-6.533,0.991,4.717,2.652,0.489,
28.120,134.969,-1.940,-7.124,1.472,0.003,5.183,3.708,2.025,1.259,4.888,2.046,0.000,1.740,0.000,2.779,2.125,0.000,3.142,0.000,0.000,0.000,0.000,0.000,0.000,0.000,0.000,0.000,0.000,0.000,3.142,6.281,0.000,1.004,1.569,1.568,4.084,6.281,1.199,4.712,0.000,0.000,-2.210,-6.505,0.990,4.809,1.617,1.524,5.282,4.711,4.711,2.198,6.282,5.083,1.570,0.000,0.000,-1.556,-6.569,0.991,4.810,1.615,1.526,
28.202,135.051,-1.940,-7.122,1.375,0.017,5.175,4.549,2.418,1.335,0.000,1.841,3.851,1.757,0.000,1.441,1.302,0.000,1.983,0.000,0.000,0.000,0.000,0.000,0.000,0.000,0.000,0.000,0.000,0.000,3.142,6.281,0.001,1.004,1.569,1.568,4.085,6.281,1.199,4.712,0.000,0.000,-2.148,-6.481,0.990,4.907,1.595,1.546,5.282,4.711,4.711,2.198,6.282,5.083,1.570,0.000,0.000,-1.504,-6.608,0.991,4.907,1.593,1.548,
28.320,135.169,-1.940,-7.121,1.298,0.005,5.189,3.732,2.389,1.254,0.000,1.715,3.935,1.864,0.000,4.836,1.216,0.000,2.053,0.000,0.000,0.000,0.000,0.000,0.000,0.000,0.000,0.000,0.000,0.000,3.142,6.281,0.001,1.004,1.569,1.569,4.085,6.281,1.199,4.712,0.000,0.000,-2.098,-6.465,0.990,4.985,1.589,1.552,5.281,4.711,4.711,2.198,6.282,5.083,1.570,0.000,0.000,-1.465,-6.642,0.991,4.985,1.587,1.555,
28.405,135.254,-1.940,-7.122,1.215,-0.004,6.089,3.397,2.321,1.327,4.260,1.687,3.047,2.116,0.000,0.000,1.143,0.000,2.124,0.000,0.000,0.000,0.000,0.000,0.000,0.000,0.000,0.000,0.000,0.000,3.142,6.282,0.000,1.003,1.571,1.572,4.085,6.280,1.199,4.712,0.000,0.000,-2.041,-6.456,0.990,5.072,1.584,1.559,5.281,4.712,4.714,2.198,6.281,5.083,1.571,0.000,0.000,-1.426,-6.684,0.990,5.071,1.583,1.560,
28.520,135.369,-1.933,-7.104,1.214,0.529,0.002,0.000,2.302,1.336,4.267,1.720,3.057,2.133,0.000,0.000,1.135,0.000,2.159,2.178,0.000,0.000,0.000,0.000,0.000,0.000,0.000,0.000,0.000,0.000,3.142,6.278,6.283,1.008,1.567,1.565,4.077,6.282,1.199,4.712,0.000,0.000,-2.040,-6.439,0.991,5.064,1.572,1.569,5.282,4.709,4.708,2.197,6.282,5.083,1.570,0.000,0.000,-1.423,-6.665,0.991,5.064,1.583,1.558,
28.600,135.449,-1.893,-6.996,1.215,1.310,6.266,0.000,2.190,1.386,4.307,1.905,3.176,2.039,0.000,0.000,1.086,0.000,2.159,1.866,0.000,0.000,0.000,0.000,0.000,0.000,0.000,0.000,0.000,0.000,3.142,6.280,0.000,1.006,1.568,1.567,4.081,6.281,1.199,4.712,0.000,0.000,-1.998,-6.330,0.990,5.066,1.579,1.562,5.281,4.710,4.710,2.198,6.282,5.083,1.570,0.000,0.000,-1.382,-6.557,0.990,5.066,1.584,1.558,
28.720,135.569,-1.858,-6.901,1.215,1.164,6.265,0.000,2.091,1.429,4.342,2.068,3.280,2.062,0.000,0.000,1.044,0.000,2.194,1.734,0.000,0.000,0.000,0.000,0.000,0.000,0.000,0.000,0.000,0.000,3.142,0.001,0.001,1.002,1.570,1.570,4.088,6.281,1.200,4.712,0.000,0.000,-1.960,-6.234,0.990,5.070,1.589,1.553,5.281,4.712,4.712,2.198,6.282,5.083,1.570,0.000,0.000,-1.345,-6.463,0.990,5.069,1.584,1.558,
28.820,135.669,-1.821,-6.801,1.216,0.728,6.265,0.000,1.987,1.475,4.380,2.238,3.392,2.086,0.000,3.012,0.999,0.000,2.229,1.628,0.000,0.000,0.000,0.000,0.000,0.000,0.000,0.000,0.000,0.000,3.142,0.000,0.001,1.003,1.570,1.570,4.087,6.281,1.199,4.712,0.000,0.000,-1.924,-6.134,0.990,5.068,1.587,1.554,5.281,4.712,4.712,2.198,6.282,5.083,1.570,0.000,0.000,-1.309,-6.363,0.990,5.068,1.584,1.558,
28.920,135.769,-1.795,-6.731,1.216,0.860,6.266,0.000,1.913,1.507,4.406,2.358,3.471,2.102,0.000,0.798,0.968,0.000,2.229,1.634,0.000,0.000,0.000,0.000,0.000,0.000,0.000,0.000,0.000,0.000,3.142,6.281,0.000,1.005,1.569,1.568,4.083,6.281,1.199,4.712,0.000,0.000,-1.899,-6.065,0.990,5.065,1.581,1.560,5.281,4.711,4.710,2.198,6.282,5.083,1.570,0.000,0.000,-1.284,-6.292,0.990,5.066,1.584,1.558,
29.013,135.861,-1.767,-6.657,1.217,0.551,6.266,2.903,2.002,1.541,1.338,4.950,3.555,2.120,0.000,0.771,1.538,0.000,2.404,0.000,0.000,0.000,0.000,0.000,0.000,0.000,0.000,0.000,0.000,0.000,3.142,0.002,0.001,1.001,1.571,1.572,4.090,6.281,1.200,4.712,0.000,0.000,-1.869,-5.989,0.989,5.070,1.593,1.550,5.281,4.712,4.714,2.198,6.282,5.083,1.570,0.000,0.000,-1.254,-6.218,0.990,5.069,1.585,1.557,
29.120,135.969,-1.757,-6.629,1.217,0.240,6.265,2.874,2.034,1.553,1.348,4.942,3.588,2.126,0.000,0.761,1.526,0.000,2.404,0.000,0.000,0.000,0.000,0.000,0.000,0.000,0.000,0.000,0.000,0.000,3.142,0.001,0.001,1.002,1.570,1.570,4.088,6.281,1.200,4.712,0.000,0.000,-1.861,-5.962,0.990,5.067,1.589,1.553,5.281,4.712,4.712,2.198,6.282,5.083,1.570,0.000,0.000,-1.246,-6.190,0.990,5.067,1.584,1.558,
29.209,136.058,-1.753,-6.618,1.218,0.025,6.269,2.861,2.044,1.558,1.352,4.944,3.606,2.128,0.000,0.756,1.522,0.000,2.404,0.000,0.000,0.000,0.000,0.000,0.000,0.000,0.000,0.000,0.000,0.000,3.142,6.283,0.001,1.003,1.570,1.570,4.086,6.281,1.199,4.712,0.000,0.000,-1.857,-5.951,0.990,5.066,1.587,1.555,5.281,4.711,4.712,2.198,6.282,5.083,1.570,0.000,0.000,-1.242,-6.178,0.990,5.066,1.584,1.558,
29.320,136.169,-1.753,-6.618,1.218,0.001,6.264,2.861,2.044,1.558,1.352,4.945,3.608,2.127,0.000,0.756,1.522,0.000,2.404,0.000,0.000,0.000,0.000,0.000,0.000,0.000,0.000,0.000,0.000,0.000,3.142,6.283,0.000,1.003,1.569,1.569,4.085,6.281,1.199,4.712,0.000,0.000,-1.858,-5.951,0.990,5.065,1.585,1.556,5.281,4.711,4.712,2.198,6.282,5.083,1.570,0.000,0.000,-1.242,-6.178,0.990,5.065,1.583,1.559,
29.400,136.249,-1.753,-6.618,1.218,0.001,6.264,2.861,2.044,1.558,1.352,4.945,3.608,2.127,0.000,0.756,1.522,0.000,2.404,0.000,0.000,0.000,0.000,0.000,0.000,0.000,0.000,0.000,0.000,0.000,3.142,6.283,0.000,1.003,1.569,1.569,4.085,6.281,1.199,4.712,0.000,0.000,-1.858,-5.951,0.990,5.065,1.585,1.556,5.281,4.711,4.712,2.198,6.282,5.083,1.570,0.000,0.000,-1.242,-6.178,0.990,5.065,1.583,1.559,
29.520,136.369,-1.753,-6.618,1.218,0.001,6.264,2.861,2.044,1.558,1.352,4.945,3.608,2.127,0.000,0.756,1.522,0.000,2.404,0.000,0.000,0.000,0.000,0.000,0.000,0.000,0.000,0.000,0.000,0.000,3.142,6.283,0.000,1.003,1.569,1.569,4.085,6.281,1.199,4.712,0.000,0.000,-1.858,-5.951,0.990,5.065,1.585,1.556,5.281,4.711,4.712,2.198,6.282,5.083,1.570,0.000,0.000,-1.242,-6.178,0.990,5.065,1.583,1.559,
29.610,136.459,-1.753,-6.618,1.218,0.001,6.264,2.861,2.044,1.558,1.352,4.945,3.608,2.127,0.000,0.756,1.522,0.000,2.404,0.000,0.000,0.000,0.000,0.000,0.000,0.000,0.000,0.000,0.000,0.000,3.142,6.283,0.000,1.003,1.569,1.569,4.085,6.281,1.199,4.712,0.000,0.000,-1.858,-5.951,0.990,5.065,1.585,1.556,5.281,4.711,4.712,2.198,6.282,5.083,1.570,0.000,0.000,-1.242,-6.178,0.990,5.065,1.583,1.559,
29.720,136.569,-1.753,-6.618,1.218,0.001,6.264,2.861,2.044,1.558,1.352,4.945,3.608,2.127,0.000,0.756,1.522,0.000,2.404,0.000,0.000,0.000,0.000,0.000,0.000,0.000,0.000,0.000,0.000,0.000,3.142,6.283,0.000,1.003,1.569,1.569,4.085,6.281,1.199,4.712,0.000,0.000,-1.858,-5.951,0.990,5.065,1.585,1.556,5.281,4.711,4.712,2.198,6.282,5.083,1.570,0.000,0.000,-1.242,-6.178,0.990,5.065,1.583,1.559,
29.804,136.653,-1.753,-6.618,1.218,0.001,6.264,2.861,2.044,1.558,1.352,4.945,3.608,2.127,0.000,0.756,1.522,0.000,2.404,0.000,0.000,0.000,0.000,0.000,0.000,0.000,0.000,0.000,0.000,0.000,3.142,6.283,0.000,1.003,1.569,1.569,4.085,6.281,1.199,4.712,0.000,0.000,-1.858,-5.951,0.990,5.065,1.585,1.556,5.281,4.711,4.712,2.198,6.282,5.083,1.570,0.000,0.000,-1.242,-6.178,0.990,5.065,1.583,1.559,
29.920,136.769,-1.753,-6.618,1.218,0.001,6.264,2.861,2.044,1.558,1.352,4.945,3.608,2.127,0.000,0.756,1.522,0.000,2.404,0.000,0.000,0.000,0.000,0.000,0.000,0.000,0.000,0.000,0.000,0.000,3.142,6.283,0.000,1.003,1.569,1.569,4.085,6.281,1.199,4.712,0.000,0.000,-1.858,-5.951,0.990,5.065,1.585,1.556,5.281,4.711,4.712,2.198,6.282,5.083,1.570,0.000,0.000,-1.242,-6.178,0.990,5.065,1.583,1.559,
30.020,136.869,-1.753,-6.618,1.218,0.001,6.264,0.000,2.044,1.558,1.352,4.945,3.608,2.127,0.000,0.756,1.522,0.000,2.404,1.507,0.000,0.000,0.000,0.000,0.000,0.000,0.000,0.000,0.000,0.000,3.142,6.283,0.000,1.003,1.569,1.569,4.085,6.281,1.199,4.712,0.000,0.000,-1.858,-5.951,0.990,5.065,1.585,1.556,5.281,4.711,4.712,2.198,6.282,5.083,1.570,0.000,0.000,-1.242,-6.178,0.990,5.065,1.583,1.559,
30.120,136.969,-1.753,-6.618,1.218,0.001,6.264,0.000,2.044,1.558,1.352,4.945,3.608,2.127,0.000,0.756,1.522,0.000,2.404,1.449,0.000,0.000,0.000,0.000,0.000,0.000,0.000,0.000,0.000,0.000,3.142,6.283,0.000,1.003,1.569,1.569,4.085,6.281,1.199,4.712,0.000,0.000,-1.858,-5.951,0.990,5.065,1.585,1.556,5.281,4.711,4.712,2.198,6.282,5.083,1.570,0.000,0.000,-1.242,-6.178,0.990,5.065,1.583,1.559,
30.220,137.069,-1.753,-6.618,1.218,0.001,6.264,0.000,2.044,1.558,1.352,4.945,3.608,2.127,0.000,0.756,1.522,0.000,2.404,1.445,0.000,0.000,0.000,0.000,0.000,0.000,0.000,0.000,0.000,0.000,3.142,6.283,0.000,1.003,1.569,1.569,4.085,6.281,1.199,4.712,0.000,0.000,-1.858,-5.951,0.990,5.065,1.585,1.556,5.281,4.711,4.712,2.198,6.282,5.083,1.570,0.000,0.000,-1.242,-6.178,0.990,5.065,1.583,1.559,
30.320,137.169,-1.753,-6.618,1.218,0.001,6.264,0.000,2.044,1.558,1.352,4.945,3.608,2.127,0.000,0.756,1.522,0.000,2.404,1.461,0.000,0.000,0.000,0.000,0.000,0.000,0.000,0.000,0.000,0.000,3.142,6.283,0.000,1.003,1.569,1.569,4.085,6.281,1.199,4.712,0.000,0.000,-1.858,-5.951,0.990,5.065,1.585,1.556,5.281,4.711,4.712,2.198,6.282,5.083,1.570,0.000,0.000,-1.242,-6.178,0.990,5.065,1.583,1.559,
30.407,137.255,-1.753,-6.618,1.218,0.001,6.264,0.000,2.044,1.558,1.352,4.945,3.608,2.127,0.000,0.756,1.522,0.000,2.404,1.579,0.000,0.000,0.000,0.000,0.000,0.000,0.000,0.000,0.000,0.000,3.142,6.283,0.000,1.003,1.569,1.569,4.085,6.281,1.199,4.712,0.000,0.000,-1.858,-5.951,0.990,5.065,1.585,1.556,5.281,4.711,4.712,2.198,6.282,5.083,1.570,0.000,0.000,-1.242,-6.178,0.990,5.065,1.583,1.559,
30.520,137.369,-1.753,-6.618,1.218,0.001,6.264,2.861,2.044,1.558,1.352,4.945,3.608,2.127,0.000,0.756,1.522,0.000,2.404,0.000,0.000,0.000,0.000,0.000,0.000,0.000,0.000,0.000,0.000,0.000,3.142,6.283,0.000,1.003,1.569,1.569,4.085,6.281,1.199,4.712,0.000,0.000,-1.858,-5.951,0.990,5.065,1.585,1.556,5.281,4.711,4.712,2.198,6.282,5.083,1.570,0.000,0.000,-1.242,-6.178,0.990,5.065,1.583,1.559,
30.620,137.469,-1.753,-6.618,1.218,0.001,6.264,2.861,2.044,1.558,1.352,4.945,3.608,2.127,0.000,0.756,1.522,0.000,2.404,0.000,0.000,0.000,0.000,0.000,0.000,0.000,0.000,0.000,0.000,0.000,3.142,6.283,0.000,1.003,1.569,1.569,4.085,6.281,1.199,4.712,0.000,0.000,-1.858,-5.951,0.990,5.065,1.585,1.556,5.281,4.711,4.712,2.198,6.282,5.083,1.570,0.000,0.000,-1.242,-6.178,0.990,5.065,1.583,1.559,
30.720,137.569,-1.753,-6.618,1.218,0.001,6.264,2.861,2.044,1.558,1.352,4.945,3.608,2.127,0.000,0.756,1.522,0.000,2.404,0.000,0.000,0.000,0.000,0.000,0.000,0.000,0.000,0.000,0.000,0.000,3.142,6.283,0.000,1.003,1.569,1.569,4.085,6.281,1.199,4.712,0.000,0.000,-1.858,-5.951,0.990,5.065,1.585,1.556,5.281,4.711,4.712,2.198,6.282,5.083,1.570,0.000,0.000,-1.242,-6.178,0.990,5.065,1.583,1.559,
30.806,137.655,-1.753,-6.618,1.218,0.001,6.264,2.861,2.044,1.558,1.352,4.945,3.608,2.127,0.000,0.756,1.522,0.000,2.404,0.000,0.000,0.000,0.000,0.000,0.000,0.000,0.000,0.000,0.000,0.000,3.142,6.283,0.000,1.003,1.569,1.569,4.085,6.281,1.199,4.712,0.000,0.000,-1.858,-5.951,0.990,5.065,1.585,1.556,5.281,4.711,4.712,2.198,6.282,5.083,1.570,0.000,0.000,-1.242,-6.178,0.990,5.065,1.583,1.559,
30.920,137.769,-1.753,-6.618,1.218,0.001,6.264,2.861,2.044,1.558,1.352,4.945,3.608,2.127,0.000,0.756,1.522,0.000,2.404,0.000,0.000,0.000,0.000,0.000,0.000,0.000,0.000,0.000,0.000,0.000,3.142,6.283,0.000,1.003,1.569,1.569,4.085,6.281,1.199,4.712,0.000,0.000,-1.858,-5.951,0.990,5.065,1.585,1.556,5.281,4.711,4.712,2.198,6.282,5.083,1.570,0.000,0.000,-1.242,-6.178,0.990,5.065,1.583,1.559,
31.017,137.866,-1.753,-6.618,1.218,0.001,6.264,2.861,2.044,1.558,1.352,4.945,3.608,2.127,0.000,0.756,1.522,0.000,2.404,0.000,0.000,0.000,0.000,0.000,0.000,0.000,0.000,0.000,0.000,0.000,3.142,6.283,0.000,1.003,1.569,1.569,4.085,6.281,1.199,4.712,0.000,0.000,-1.858,-5.951,0.990,5.065,1.585,1.556,5.281,4.711,4.712,2.198,6.282,5.083,1.570,0.000,0.000,-1.242,-6.178,0.990,5.065,1.583,1.559,
31.120,137.969,-1.753,-6.618,1.218,0.001,6.264,2.861,2.044,1.558,1.352,4.945,3.608,2.127,0.000,0.756,1.522,0.000,2.404,0.000,0.000,0.000,0.000,0.000,0.000,0.000,0.000,0.000,0.000,0.000,3.142,6.283,0.000,1.003,1.569,1.569,4.085,6.281,1.199,4.712,0.000,0.000,-1.858,-5.951,0.990,5.065,1.585,1.556,5.281,4.711,4.712,2.198,6.282,5.083,1.570,0.000,0.000,-1.242,-6.178,0.990,5.065,1.583,1.559,
31.220,138.068,-1.753,-6.618,1.218,0.001,6.264,2.861,2.044,1.558,1.352,4.945,3.608,2.127,0.000,0.756,1.522,0.000,2.404,0.000,0.000,0.000,0.000,0.000,0.000,0.000,0.000,0.000,0.000,0.000,3.142,6.283,0.000,1.003,1.569,1.569,4.085,6.281,1.199,4.712,0.000,0.000,-1.858,-5.951,0.990,5.065,1.585,1.556,5.281,4.711,4.712,2.198,6.282,5.083,1.570,0.000,0.000,-1.242,-6.178,0.990,5.065,1.583,1.559,
31.320,138.169,-1.753,-6.618,1.218,0.001,6.264,2.861,2.044,1.558,1.352,4.945,3.608,2.127,0.000,0.756,1.522,0.000,2.404,0.000,0.000,0.000,0.000,0.000,0.000,0.000,0.000,0.000,0.000,0.000,3.142,6.283,0.000,1.003,1.569,1.569,4.085,6.281,1.199,4.712,0.000,0.000,-1.858,-5.951,0.990,5.065,1.585,1.556,5.281,4.711,4.712,2.198,6.282,5.083,1.570,0.000,0.000,-1.242,-6.178,0.990,5.065,1.583,1.559,
31.420,138.269,-1.753,-6.618,1.218,0.001,6.264,2.861,2.044,1.558,1.352,4.945,3.608,2.127,0.000,0.756,1.522,0.000,2.404,0.000,0.000,0.000,0.000,0.000,0.000,0.000,0.000,0.000,0.000,0.000,3.142,6.283,0.000,1.003,1.569,1.569,4.085,6.281,1.199,4.712,0.000,0.000,-1.858,-5.951,0.990,5.065,1.585,1.556,5.281,4.711,4.712,2.198,6.282,5.083,1.570,0.000,0.000,-1.242,-6.178,0.990,5.065,1.583,1.559,
31.520,138.369,-1.753,-6.618,1.218,0.001,6.264,2.861,2.044,1.558,1.352,4.945,3.608,2.127,0.000,0.756,1.522,0.000,2.404,0.000,0.000,0.000,0.000,0.000,0.000,0.000,0.000,0.000,0.000,0.000,3.142,6.283,0.000,1.003,1.569,1.569,4.085,6.281,1.199,4.712,0.000,0.000,-1.858,-5.951,0.990,5.065,1.585,1.556,5.281,4.711,4.712,2.198,6.282,5.083,1.570,0.000,0.000,-1.242,-6.178,0.990,5.065,1.583,1.559,
31.613,138.462,-1.753,-6.618,1.218,0.001,6.264,2.861,2.044,1.558,1.352,4.945,3.608,2.127,0.000,0.756,1.522,0.000,2.404,0.000,0.000,0.000,0.000,0.000,0.000,0.000,0.000,0.000,0.000,0.000,3.142,6.283,0.000,1.003,1.569,1.569,4.085,6.281,1.199,4.712,0.000,0.000,-1.858,-5.951,0.990,5.065,1.585,1.556,5.281,4.711,4.712,2.198,6.282,5.083,1.570,0.000,0.000,-1.242,-6.178,0.990,5.065,1.583,1.559,
31.720,138.569,-1.753,-6.618,1.218,0.001,6.264,2.861,2.044,1.558,1.352,4.945,3.608,2.127,0.000,0.756,1.522,0.000,2.404,0.000,0.000,0.000,0.000,0.000,0.000,0.000,0.000,0.000,0.000,0.000,3.142,6.283,0.000,1.003,1.569,1.569,4.085,6.281,1.199,4.712,0.000,0.000,-1.858,-5.951,0.990,5.065,1.585,1.556,5.281,4.711,4.712,2.198,6.282,5.083,1.570,0.000,0.000,-1.242,-6.178,0.990,5.065,1.583,1.559,
31.811,138.660,-1.753,-6.618,1.218,0.001,6.264,2.861,2.044,1.558,1.352,4.945,3.608,2.127,0.000,0.756,1.522,0.000,2.404,0.000,0.000,0.000,0.000,0.000,0.000,0.000,0.000,0.000,0.000,0.000,3.142,6.283,0.000,1.003,1.569,1.569,4.085,6.281,1.199,4.712,0.000,0.000,-1.858,-5.951,0.990,5.065,1.585,1.556,5.281,4.711,4.712,2.198,6.282,5.083,1.570,0.000,0.000,-1.242,-6.178,0.990,5.065,1.583,1.559,
31.920,138.769,-1.753,-6.618,1.218,0.001,6.264,2.861,2.044,1.558,1.352,4.945,3.608,2.127,0.000,0.756,1.522,0.000,2.404,0.000,0.000,0.000,0.000,0.000,0.000,0.000,0.000,0.000,0.000,0.000,3.142,6.283,0.000,1.003,1.569,1.569,4.085,6.281,1.199,4.712,0.000,0.000,-1.858,-5.951,0.990,5.065,1.585,1.556,5.281,4.711,4.712,2.198,6.282,5.083,1.570,0.000,0.000,-1.242,-6.178,0.990,5.065,1.583,1.559,
32.010,138.859,-1.753,-6.618,1.218,0.001,6.264,2.861,2.044,1.558,1.352,4.945,3.608,2.127,0.000,0.756,1.522,0.000,2.404,0.000,0.000,0.000,0.000,0.000,0.000,0.000,0.000,0.000,0.000,0.000,3.142,6.283,0.000,1.003,1.569,1.569,4.085,6.281,1.199,4.712,0.000,0.000,-1.858,-5.951,0.990,5.065,1.585,1.556,5.281,4.711,4.712,2.198,6.282,5.083,1.570,0.000,0.000,-1.242,-6.178,0.990,5.065,1.583,1.559,
32.120,138.969,-1.753,-6.618,1.218,0.001,6.264,2.861,2.044,1.558,1.352,4.945,3.608,2.127,0.000,0.756,1.522,0.000,2.404,0.000,0.000,0.000,0.000,0.000,0.000,0.000,0.000,0.000,0.000,0.000,3.142,6.283,0.000,1.003,1.569,1.569,4.085,6.281,1.199,4.712,0.000,0.000,-1.858,-5.951,0.990,5.065,1.585,1.556,5.281,4.711,4.712,2.198,6.282,5.083,1.570,0.000,0.000,-1.242,-6.178,0.990,5.065,1.583,1.559,
32.219,139.067,-1.753,-6.618,1.218,0.001,6.264,2.861,2.044,1.558,1.352,4.945,3.608,2.127,0.000,0.756,1.522,0.000,2.404,0.000,0.000,0.000,0.000,0.000,0.000,0.000,0.000,0.000,0.000,0.000,3.142,6.283,0.000,1.003,1.569,1.569,4.085,6.281,1.199,4.712,0.000,0.000,-1.858,-5.951,0.990,5.065,1.585,1.556,5.281,4.711,4.712,2.198,6.282,5.083,1.570,0.000,0.000,-1.242,-6.178,0.990,5.065,1.583,1.559,
32.320,139.169,-1.753,-6.618,1.218,0.001,6.264,2.861,2.044,1.558,1.352,4.945,3.608,2.127,0.000,0.756,1.522,0.000,2.404,0.000,0.000,0.000,0.000,0.000,0.000,0.000,0.000,0.000,0.000,0.000,3.142,6.283,0.000,1.003,1.569,1.569,4.085,6.281,1.199,4.712,0.000,0.000,-1.858,-5.951,0.990,5.065,1.585,1.556,5.281,4.711,4.712,2.198,6.282,5.083,1.570,0.000,0.000,-1.242,-6.178,0.990,5.065,1.583,1.559,
32.418,139.266,-1.753,-6.618,1.218,0.001,6.264,2.861,2.044,1.558,1.352,4.945,3.608,2.127,0.000,0.756,1.522,0.000,2.404,0.000,0.000,0.000,0.000,0.000,0.000,0.000,0.000,0.000,0.000,0.000,3.142,6.283,0.000,1.003,1.569,1.569,4.085,6.281,1.199,4.712,0.000,0.000,-1.858,-5.951,0.990,5.065,1.585,1.556,5.281,4.711,4.712,2.198,6.282,5.083,1.570,0.000,0.000,-1.242,-6.178,0.990,5.065,1.583,1.559,
32.520,139.369,-1.753,-6.618,1.218,0.001,6.264,2.861,2.044,1.558,1.352,4.945,3.608,2.127,0.000,0.756,1.522,0.000,2.404,0.000,0.000,0.000,0.000,0.000,0.000,0.000,0.000,0.000,0.000,0.000,3.142,6.283,0.000,1.003,1.569,1.569,4.085,6.281,1.199,4.712,0.000,0.000,-1.858,-5.951,0.990,5.065,1.585,1.556,5.281,4.711,4.712,2.198,6.282,5.083,1.570,0.000,0.000,-1.242,-6.178,0.990,5.065,1.583,1.559,
32.614,139.463,-1.753,-6.618,1.218,0.001,6.264,2.861,2.044,1.558,1.352,4.945,3.608,2.127,0.000,0.756,1.522,0.000,2.404,0.000,0.000,0.000,0.000,0.000,0.000,0.000,0.000,0.000,0.000,0.000,3.142,6.283,0.000,1.003,1.569,1.569,4.085,6.281,1.199,4.712,0.000,0.000,-1.858,-5.951,0.990,5.065,1.585,1.556,5.281,4.711,4.712,2.198,6.282,5.083,1.570,0.000,0.000,-1.242,-6.178,0.990,5.065,1.583,1.559,
32.720,139.569,-1.753,-6.618,1.218,0.001,6.264,2.861,2.044,1.558,1.352,4.945,3.608,2.127,0.000,0.756,1.522,0.000,2.404,0.000,0.000,0.000,0.000,0.000,0.000,0.000,0.000,0.000,0.000,0.000,3.142,6.283,0.000,1.003,1.569,1.569,4.085,6.281,1.199,4.712,0.000,0.000,-1.858,-5.951,0.990,5.065,1.585,1.556,5.281,4.711,4.712,2.198,6.282,5.083,1.570,0.000,0.000,-1.242,-6.178,0.990,5.065,1.583,1.559,
32.810,139.658,-1.753,-6.618,1.218,0.001,6.264,2.861,2.044,1.558,1.352,4.945,3.608,2.127,0.000,0.756,1.522,0.000,2.404,0.000,0.000,0.000,0.000,0.000,0.000,0.000,0.000,0.000,0.000,0.000,3.142,6.283,0.000,1.003,1.569,1.569,4.085,6.281,1.199,4.712,0.000,0.000,-1.858,-5.951,0.990,5.065,1.585,1.556,5.281,4.711,4.712,2.198,6.282,5.083,1.570,0.000,0.000,-1.242,-6.178,0.990,5.065,1.583,1.559,
32.920,139.769,-1.753,-6.618,1.218,0.001,6.264,2.861,2.044,1.558,1.352,4.945,3.608,2.127,0.000,0.756,1.522,0.000,2.404,0.000,0.000,0.000,0.000,0.000,0.000,0.000,0.000,0.000,0.000,0.000,3.142,6.283,0.000,1.003,1.569,1.569,4.085,6.281,1.199,4.712,0.000,0.000,-1.858,-5.951,0.990,5.065,1.585,1.556,5.281,4.711,4.712,2.198,6.282,5.083,1.570,0.000,0.000,-1.242,-6.178,0.990,5.065,1.583,1.559,
33.013,139.862,-1.753,-6.618,1.218,0.001,6.264,2.861,2.044,1.558,1.352,4.945,3.608,2.127,0.000,0.756,1.522,0.000,2.404,0.000,0.000,0.000,0.000,0.000,0.000,0.000,0.000,0.000,0.000,0.000,3.142,6.283,0.000,1.003,1.569,1.569,4.085,6.281,1.199,4.712,0.000,0.000,-1.858,-5.951,0.990,5.065,1.585,1.556,5.281,4.711,4.712,2.198,6.282,5.083,1.570,0.000,0.000,-1.242,-6.178,0.990,5.065,1.583,1.559,
33.120,139.969,-1.753,-6.618,1.218,0.001,6.264,2.861,2.044,1.558,1.352,4.945,3.608,2.127,0.000,0.756,1.522,0.000,2.404,0.000,0.000,0.000,0.000,0.000,0.000,0.000,0.000,0.000,0.000,0.000,3.142,6.283,0.000,1.003,1.569,1.569,4.085,6.281,1.199,4.712,0.000,0.000,-1.858,-5.951,0.990,5.065,1.585,1.556,5.281,4.711,4.712,2.198,6.282,5.083,1.570,0.000,0.000,-1.242,-6.178,0.990,5.065,1.583,1.559,
33.220,140.068,-1.753,-6.618,1.218,0.001,6.264,2.861,2.044,1.558,1.352,4.945,3.608,2.127,0.000,0.756,1.522,0.000,2.404,0.000,0.000,0.000,0.000,0.000,0.000,0.000,0.000,0.000,0.000,0.000,3.142,6.283,0.000,1.003,1.569,1.569,4.085,6.281,1.199,4.712,0.000,0.000,-1.858,-5.951,0.990,5.065,1.585,1.556,5.281,4.711,4.712,2.198,6.282,5.083,1.570,0.000,0.000,-1.242,-6.178,0.990,5.065,1.583,1.559,
33.320,140.169,-1.753,-6.618,1.218,0.001,6.264,2.861,2.044,1.558,1.352,4.945,3.608,2.127,0.000,0.756,1.522,0.000,2.404,0.000,0.000,0.000,0.000,0.000,0.000,0.000,0.000,0.000,0.000,0.000,3.142,6.283,0.000,1.003,1.569,1.569,4.085,6.281,1.199,4.712,0.000,0.000,-1.858,-5.951,0.990,5.065,1.585,1.556,5.281,4.711,4.712,2.198,6.282,5.083,1.570,0.000,0.000,-1.242,-6.178,0.990,5.065,1.583,1.559,
33.415,140.263,-1.753,-6.618,1.218,0.001,6.264,2.861,2.044,1.558,1.352,4.945,3.608,2.127,0.000,0.756,1.522,0.000,2.404,0.000,0.000,0.000,0.000,0.000,0.000,0.000,0.000,0.000,0.000,0.000,3.142,6.283,0.000,1.003,1.569,1.569,4.085,6.281,1.199,4.712,0.000,0.000,-1.858,-5.951,0.990,5.065,1.585,1.556,5.281,4.711,4.712,2.198,6.282,5.083,1.570,0.000,0.000,-1.242,-6.178,0.990,5.065,1.583,1.559,
33.520,140.369,-1.753,-6.618,1.218,0.001,6.264,2.861,2.044,1.558,1.352,4.945,3.608,2.127,0.000,0.756,1.522,0.000,2.404,0.000,0.000,0.000,0.000,0.000,0.000,0.000,0.000,0.000,0.000,0.000,3.142,6.283,0.000,1.003,1.569,1.569,4.085,6.281,1.199,4.712,0.000,0.000,-1.858,-5.951,0.990,5.065,1.585,1.556,5.281,4.711,4.712,2.198,6.282,5.083,1.570,0.000,0.000,-1.242,-6.178,0.990,5.065,1.583,1.559,
33.620,140.469,-1.753,-6.618,1.218,0.001,6.264,2.861,2.044,1.558,1.352,4.945,3.608,2.127,0.000,0.756,1.522,0.000,2.404,0.000,0.000,0.000,0.000,0.000,0.000,0.000,0.000,0.000,0.000,0.000,3.142,6.283,0.000,1.003,1.569,1.569,4.085,6.281,1.199,4.712,0.000,0.000,-1.858,-5.951,0.990,5.065,1.585,1.556,5.281,4.711,4.712,2.198,6.282,5.083,1.570,0.000,0.000,-1.242,-6.178,0.990,5.065,1.583,1.559,
33.703,140.552,-1.753,-6.618,1.218,0.001,6.264,2.861,2.044,1.558,1.352,4.945,3.608,2.127,0.000,0.756,1.522,0.000,2.404,0.000,0.000,0.000,0.000,0.000,0.000,0.000,0.000,0.000,0.000,0.000,3.142,6.283,0.000,1.003,1.569,1.569,4.085,6.281,1.199,4.712,0.000,0.000,-1.858,-5.951,0.990,5.065,1.585,1.556,5.281,4.711,4.712,2.198,6.282,5.083,1.570,0.000,0.000,-1.242,-6.178,0.990,5.065,1.583,1.559,
33.820,140.669,-1.753,-6.618,1.218,0.001,6.264,2.861,2.044,1.558,1.352,4.945,3.608,2.127,0.000,0.756,1.522,0.000,2.404,0.000,0.000,0.000,0.000,0.000,0.000,0.000,0.000,0.000,0.000,0.000,3.142,6.283,0.000,1.003,1.569,1.569,4.085,6.281,1.199,4.712,0.000,0.000,-1.858,-5.951,0.990,5.065,1.585,1.556,5.281,4.711,4.712,2.198,6.282,5.083,1.570,0.000,0.000,-1.242,-6.178,0.990,5.065,1.583,1.559,
33.901,140.750,-1.753,-6.618,1.218,0.001,6.264,2.861,2.044,1.558,1.352,4.945,3.608,2.127,0.000,0.756,1.522,0.000,2.404,0.000,0.000,0.000,0.000,0.000,0.000,0.000,0.000,0.000,0.000,0.000,3.142,6.283,0.000,1.003,1.569,1.569,4.085,6.281,1.199,4.712,0.000,0.000,-1.858,-5.951,0.990,5.065,1.585,1.556,5.281,4.711,4.712,2.198,6.282,5.083,1.570,0.000,0.000,-1.242,-6.178,0.990,5.065,1.583,1.559,
34.020,140.869,-1.753,-6.618,1.218,0.001,6.264,2.861,2.044,1.558,1.352,4.945,3.608,2.127,0.000,0.756,1.522,0.000,2.404,0.000,0.000,0.000,0.000,0.000,0.000,0.000,0.000,0.000,0.000,0.000,3.142,6.283,0.000,1.003,1.569,1.569,4.085,6.281,1.199,4.712,0.000,0.000,-1.858,-5.951,0.990,5.065,1.585,1.556,5.281,4.711,4.712,2.198,6.282,5.083,1.570,0.000,0.000,-1.242,-6.178,0.990,5.065,1.583,1.559,
34.120,140.969,-1.753,-6.618,1.218,0.001,6.264,2.861,2.044,1.558,1.352,4.945,3.608,2.127,0.000,0.756,1.522,0.000,2.404,0.000,0.000,0.000,0.000,0.000,0.000,0.000,0.000,0.000,0.000,0.000,3.142,6.283,0.000,1.003,1.569,1.569,4.085,6.281,1.199,4.712,0.000,0.000,-1.858,-5.951,0.990,5.065,1.585,1.556,5.281,4.711,4.712,2.198,6.282,5.083,1.570,0.000,0.000,-1.242,-6.178,0.990,5.065,1.583,1.559,
34.220,141.069,-1.753,-6.618,1.218,0.001,6.264,2.861,2.044,1.558,1.352,4.945,3.608,2.127,0.000,0.756,1.522,0.000,2.404,0.000,0.000,0.000,0.000,0.000,0.000,0.000,0.000,0.000,0.000,0.000,3.142,6.283,0.000,1.003,1.569,1.569,4.085,6.281,1.199,4.712,0.000,0.000,-1.858,-5.951,0.990,5.065,1.585,1.556,5.281,4.711,4.712,2.198,6.282,5.083,1.570,0.000,0.000,-1.242,-6.178,0.990,5.065,1.583,1.559,
34.320,141.169,-1.753,-6.618,1.218,0.001,6.264,2.861,2.044,1.558,1.352,4.945,3.608,2.127,0.000,0.756,1.522,0.000,2.404,0.000,0.000,0.000,0.000,0.000,0.000,0.000,0.000,0.000,0.000,0.000,3.142,6.283,0.000,1.003,1.569,1.569,4.085,6.281,1.199,4.712,0.000,0.000,-1.858,-5.951,0.990,5.065,1.585,1.556,5.281,4.711,4.712,2.198,6.282,5.083,1.570,0.000,0.000,-1.242,-6.178,0.990,5.065,1.583,1.559,
34.420,141.269,-1.753,-6.618,1.218,0.001,6.264,2.861,2.044,1.558,1.352,4.945,3.608,2.127,0.000,0.756,1.522,0.000,2.404,0.000,0.000,0.000,0.000,0.000,0.000,0.000,0.000,0.000,0.000,0.000,3.142,6.283,0.000,1.003,1.569,1.569,4.085,6.281,1.199,4.712,0.000,0.000,-1.858,-5.951,0.990,5.065,1.585,1.556,5.281,4.711,4.712,2.198,6.282,5.083,1.570,0.000,0.000,-1.242,-6.178,0.990,5.065,1.583,1.559,
34.520,141.369,-1.753,-6.618,1.218,0.001,6.264,2.861,2.044,1.558,1.352,4.945,3.608,2.127,0.000,0.756,1.522,0.000,2.404,0.000,0.000,0.000,0.000,0.000,0.000,0.000,0.000,0.000,0.000,0.000,3.142,6.283,0.000,1.003,1.569,1.569,4.085,6.281,1.199,4.712,0.000,0.000,-1.858,-5.951,0.990,5.065,1.585,1.556,5.281,4.711,4.712,2.198,6.282,5.083,1.570,0.000,0.000,-1.242,-6.178,0.990,5.065,1.583,1.559,
34.620,141.469,-1.753,-6.618,1.218,0.001,6.264,2.861,2.044,1.558,1.352,4.945,3.608,2.127,0.000,0.756,1.522,0.000,2.404,0.000,0.000,0.000,0.000,0.000,0.000,0.000,0.000,0.000,0.000,0.000,3.142,6.283,0.000,1.003,1.569,1.569,4.085,6.281,1.199,4.712,0.000,0.000,-1.858,-5.951,0.990,5.065,1.585,1.556,5.281,4.711,4.712,2.198,6.282,5.083,1.570,0.000,0.000,-1.242,-6.178,0.990,5.065,1.583,1.559,
34.720,141.569,-1.753,-6.618,1.218,0.001,6.264,2.861,2.044,1.558,1.352,4.945,3.608,2.127,0.000,0.756,1.522,0.000,2.404,0.000,0.000,0.000,0.000,0.000,0.000,0.000,0.000,0.000,0.000,0.000,3.142,6.283,0.000,1.003,1.569,1.569,4.085,6.281,1.199,4.712,0.000,0.000,-1.858,-5.951,0.990,5.065,1.585,1.556,5.281,4.711,4.712,2.198,6.282,5.083,1.570,0.000,0.000,-1.242,-6.178,0.990,5.065,1.583,1.559,
34.820,141.669,-1.753,-6.618,1.218,0.001,6.264,2.861,2.044,1.558,1.352,4.945,3.608,2.127,0.000,0.756,1.522,0.000,2.404,0.000,0.000,0.000,0.000,0.000,0.000,0.000,0.000,0.000,0.000,0.000,3.142,6.283,0.000,1.003,1.569,1.569,4.085,6.281,1.199,4.712,0.000,0.000,-1.858,-5.951,0.990,5.065,1.585,1.556,5.281,4.711,4.712,2.198,6.282,5.083,1.570,0.000,0.000,-1.242,-6.178,0.990,5.065,1.583,1.559,
34.920,141.769,-1.753,-6.618,1.218,0.001,6.264,2.861,2.044,1.558,1.352,4.945,3.608,2.127,0.000,0.756,1.522,0.000,2.404,0.000,0.000,0.000,0.000,0.000,0.000,0.000,0.000,0.000,0.000,0.000,3.142,6.283,0.000,1.003,1.569,1.569,4.085,6.281,1.199,4.712,0.000,0.000,-1.858,-5.951,0.990,5.065,1.585,1.556,5.281,4.711,4.712,2.198,6.282,5.083,1.570,0.000,0.000,-1.242,-6.178,0.990,5.065,1.583,1.559,
35.020,141.869,-1.753,-6.618,1.218,0.001,6.264,2.861,2.044,1.558,1.352,4.945,3.608,2.127,0.000,0.756,1.522,0.000,2.404,0.000,0.000,0.000,0.000,0.000,0.000,0.000,0.000,0.000,0.000,0.000,3.142,6.283,0.000,1.003,1.569,1.569,4.085,6.281,1.199,4.712,0.000,0.000,-1.858,-5.951,0.990,5.065,1.585,1.556,5.281,4.711,4.712,2.198,6.282,5.083,1.570,0.000,0.000,-1.242,-6.178,0.990,5.065,1.583,1.559,
35.120,141.969,-1.753,-6.618,1.218,0.001,6.264,2.861,2.044,1.558,1.352,4.945,3.608,2.127,0.000,0.756,1.522,0.000,2.404,0.000,0.000,0.000,0.000,0.000,0.000,0.000,0.000,0.000,0.000,0.000,3.142,6.283,0.000,1.003,1.569,1.569,4.085,6.281,1.199,4.712,0.000,0.000,-1.858,-5.951,0.990,5.065,1.585,1.556,5.281,4.711,4.712,2.198,6.282,5.083,1.570,0.000,0.000,-1.242,-6.178,0.990,5.065,1.583,1.559,
35.220,142.069,-1.753,-6.618,1.218,0.001,6.264,2.861,2.044,1.558,1.352,4.945,3.608,2.127,0.000,0.756,1.522,0.000,2.404,0.000,0.000,0.000,0.000,0.000,0.000,0.000,0.000,0.000,0.000,0.000,3.142,6.283,0.000,1.003,1.569,1.569,4.085,6.281,1.199,4.712,0.000,0.000,-1.858,-5.951,0.990,5.065,1.585,1.556,5.281,4.711,4.712,2.198,6.282,5.083,1.570,0.000,0.000,-1.242,-6.178,0.990,5.065,1.583,1.559,
35.320,142.169,-1.753,-6.618,1.218,0.001,6.264,2.861,2.044,1.558,1.352,4.945,3.608,2.127,0.000,0.756,1.522,0.000,2.404,0.000,0.000,0.000,0.000,0.000,0.000,0.000,0.000,0.000,0.000,0.000,3.142,6.283,0.000,1.003,1.569,1.569,4.085,6.281,1.199,4.712,0.000,0.000,-1.858,-5.951,0.990,5.065,1.585,1.556,5.281,4.711,4.712,2.198,6.282,5.083,1.570,0.000,0.000,-1.242,-6.178,0.990,5.065,1.583,1.559,
35.420,142.269,-1.753,-6.618,1.218,0.001,6.264,2.861,2.044,1.558,1.352,4.945,3.608,2.127,0.000,0.756,1.522,0.000,2.404,0.000,0.000,0.000,0.000,0.000,0.000,0.000,0.000,0.000,0.000,0.000,3.142,6.283,0.000,1.003,1.569,1.569,4.085,6.281,1.199,4.712,0.000,0.000,-1.858,-5.951,0.990,5.065,1.585,1.556,5.281,4.711,4.712,2.198,6.282,5.083,1.570,0.000,0.000,-1.242,-6.178,0.990,5.065,1.583,1.559,
