deveshdatwani/Gopher/Assets/Data/07-13 17-41-03/Reading_robot_value.csv
game_time,true_time,x,y,az,vx,vaz,dis_to_obs_0,dis_to_obs_36,dis_to_obs_72,dis_to_obs_108,dis_to_obs_144,dis_to_obs_180,dis_to_obs_-144,dis_to_obs_-108,dis_to_obs_-72,dis_to_obs_-36,dis_to_min_obs,direction_to_min_obs,dis_to_human_0,dis_to_human_36,dis_to_human_72,dis_to_human_108,dis_to_human_144,dis_to_human_180,dis_to_human_-144,dis_to_human_-108,dis_to_human_-72,dis_to_human_-36,dis_to_min_human,direction_to_min_human,main_cam_yaw,main_cam_pitch,left_joint_1,left_joint_2,left_joint_3,left_joint_4,left_joint_5,left_joint_6,left_joint_7,left_joint_gripper,left_is_grasping,left_end_x,left_end_y,left_end_z,left_end_ax,left_end_ay,left_end_az,right_joint_1,right_joint_2,right_joint_3,right_joint_4,right_joint_5,right_joint_6,right_joint_7,right_joint_gripper,right_is_grasping,right_end_x,right_end_y,right_end_z,right_end_ax,right_end_ay,right_end_az,
199.840,756.022,-5.320,9.304,5.396,0.658,0.032,1.438,0.000,2.284,3.035,0.000,0.000,3.891,1.016,1.424,0.000,0.000,3.142,0.000,0.000,0.000,0.000,0.000,0.000,0.000,0.000,0.000,0.000,0.000,3.142,0.002,0.001,2.097,1.897,1.799,4.286,0.397,1.002,4.713,0.000,0.000,-5.057,9.241,0.451,0.414,2.818,2.453,4.184,4.382,4.485,1.999,5.881,5.284,1.571,0.000,0.000,-5.312,9.033,0.452,0.378,2.774,2.326,
199.935,756.117,-5.292,9.269,5.396,0.390,0.001,1.393,0.000,2.374,3.076,0.000,0.000,3.921,1.046,1.382,0.000,0.000,3.142,0.000,0.000,0.000,0.000,0.000,0.000,0.000,0.000,0.000,0.000,0.000,3.142,6.283,0.000,2.100,1.897,1.798,4.285,0.398,1.000,4.711,0.000,0.000,-5.028,9.207,0.451,0.413,2.818,2.451,4.183,4.384,4.484,1.998,5.882,5.283,1.570,0.000,0.000,-5.283,8.999,0.451,0.376,2.775,2.324,
200.040,756.222,-5.262,9.232,5.395,0.616,6.169,1.346,0.000,2.340,3.122,0.000,0.000,3.953,1.078,1.340,0.000,0.000,3.142,0.000,0.000,0.000,0.000,0.000,0.000,0.000,0.000,0.000,0.000,0.000,3.142,6.280,0.000,2.103,1.898,1.797,4.285,0.399,0.998,4.710,0.000,0.000,-4.999,9.171,0.451,0.411,2.818,2.451,4.183,4.385,4.483,1.997,5.883,5.283,1.570,0.000,0.000,-5.253,8.963,0.451,0.375,2.775,2.324,
200.136,756.318,-5.225,9.187,5.343,0.408,5.182,1.343,0.000,2.255,2.854,2.715,0.000,4.907,1.097,1.331,0.000,0.000,3.142,0.000,0.000,0.000,0.000,0.000,0.000,0.000,0.000,0.000,0.000,0.000,3.142,6.283,0.001,2.098,1.896,1.799,4.285,0.397,1.001,4.712,0.000,0.000,-4.965,9.110,0.451,0.430,2.841,2.508,4.183,4.382,4.485,1.999,5.881,5.283,1.570,0.000,0.000,-5.231,8.916,0.452,0.396,2.795,2.379,
200.240,756.422,-5.221,9.183,5.233,-0.213,4.830,4.096,0.000,2.179,2.466,2.285,0.000,0.000,1.068,1.447,0.000,0.000,3.142,0.000,0.000,0.000,0.000,0.000,0.000,0.000,0.000,0.000,0.000,0.000,3.142,0.000,0.001,2.097,1.896,1.800,4.286,0.397,1.001,4.712,0.000,0.000,-4.972,9.077,0.451,0.461,2.891,2.626,4.182,4.382,4.485,1.999,5.881,5.284,1.571,0.000,0.000,-5.257,8.915,0.452,0.431,2.842,2.494,
200.338,756.520,-5.232,9.203,5.113,-0.177,5.088,4.053,0.000,2.145,2.192,1.868,0.000,0.000,1.966,1.273,0.000,0.000,3.142,0.000,0.000,0.000,0.000,0.000,0.000,0.000,0.000,0.000,0.000,0.000,3.142,6.280,0.000,2.101,1.897,1.799,4.285,0.398,0.999,4.711,0.000,0.000,-4.997,9.070,0.451,0.485,2.951,2.755,4.182,4.384,4.484,1.998,5.882,5.283,1.571,0.000,0.000,-5.300,8.942,0.451,0.461,2.897,2.620,
200.440,756.622,-5.235,9.210,5.081,-0.043,6.230,4.005,0.000,2.141,2.133,1.898,0.000,0.000,2.655,1.235,0.000,0.000,3.142,0.000,0.000,0.000,0.000,0.000,0.000,0.000,0.000,0.000,0.000,0.000,3.142,6.282,0.000,2.101,1.897,1.799,4.285,0.398,0.999,4.711,0.000,0.000,-5.004,9.069,0.451,0.492,2.968,2.791,4.182,4.384,4.485,1.998,5.882,5.283,1.571,0.000,0.000,-5.311,8.951,0.451,0.469,2.913,2.655,
200.523,756.705,-5.235,9.210,5.081,0.001,6.280,4.005,0.000,2.142,2.134,1.898,0.000,0.000,2.663,1.234,0.000,0.000,3.142,0.000,0.000,0.000,0.000,0.000,0.000,0.000,0.000,0.000,0.000,0.000,3.142,6.283,0.000,2.100,1.897,1.799,4.285,0.398,1.000,4.711,0.000,0.000,-5.004,9.069,0.451,0.491,2.968,2.791,4.183,4.384,4.484,1.998,5.882,5.283,1.571,0.000,0.000,-5.311,8.951,0.451,0.469,2.912,2.655,
200.640,756.822,-5.235,9.210,5.081,0.001,6.280,4.005,0.000,2.142,2.134,1.898,0.000,0.000,2.663,1.234,0.000,0.000,3.142,0.000,0.000,0.000,0.000,0.000,0.000,0.000,0.000,0.000,0.000,0.000,3.142,6.283,0.000,2.100,1.897,1.799,4.285,0.398,1.000,4.711,0.000,0.000,-5.004,9.069,0.451,0.491,2.968,2.791,4.183,4.384,4.484,1.998,5.882,5.283,1.571,0.000,0.000,-5.311,8.951,0.451,0.469,2.912,2.655,
200.740,756.922,-5.235,9.210,5.080,0.002,6.164,4.004,0.000,2.141,2.132,1.899,0.000,0.000,2.703,1.233,0.000,0.000,3.142,0.000,0.000,0.000,0.000,0.000,0.000,0.000,0.000,0.000,0.000,0.000,3.142,6.282,0.000,2.101,1.898,1.798,4.286,0.398,0.999,4.711,0.000,0.000,-5.004,9.069,0.451,0.491,2.968,2.791,4.183,4.384,4.484,1.998,5.882,5.283,1.570,0.000,0.000,-5.311,8.951,0.451,0.469,2.912,2.655,
200.840,757.022,-5.235,9.211,5.047,0.000,6.281,3.953,0.000,2.137,2.073,1.942,0.000,0.000,4.667,1.201,0.000,0.000,3.142,0.000,0.000,0.000,0.000,0.000,0.000,0.000,0.000,0.000,0.000,0.000,3.142,6.282,0.000,2.100,1.897,1.799,4.285,0.398,1.000,4.711,0.000,0.000,-5.009,9.061,0.451,0.498,2.986,2.830,4.182,4.384,4.485,1.998,5.882,5.283,1.571,0.000,0.000,-5.320,8.954,0.451,0.476,2.930,2.693,
200.940,757.122,-5.235,9.211,5.047,0.000,0.002,3.953,0.000,2.137,2.073,1.942,0.000,0.000,4.667,1.201,0.000,0.000,3.142,0.000,0.000,0.000,0.000,0.000,0.000,0.000,0.000,0.000,0.000,0.000,3.142,6.283,0.000,2.100,1.897,1.799,4.285,0.398,1.000,4.711,0.000,0.000,-5.009,9.062,0.451,0.497,2.986,2.830,4.183,4.384,4.484,1.998,5.882,5.284,1.571,0.000,0.000,-5.320,8.954,0.451,0.477,2.929,2.693,
201.031,757.213,-5.235,9.211,5.047,0.000,0.002,3.953,0.000,2.137,2.073,1.942,0.000,0.000,4.667,1.201,0.000,0.000,3.142,0.000,0.000,0.000,0.000,0.000,0.000,0.000,0.000,0.000,0.000,0.000,3.142,6.283,0.000,2.100,1.897,1.799,4.285,0.398,1.000,4.711,0.000,0.000,-5.009,9.062,0.451,0.497,2.986,2.830,4.183,4.384,4.484,1.998,5.882,5.284,1.571,0.000,0.000,-5.320,8.954,0.451,0.477,2.929,2.693,
201.140,757.322,-5.235,9.211,5.047,0.000,0.002,3.953,0.000,2.137,2.073,1.942,0.000,0.000,4.667,1.201,0.000,0.000,3.142,0.000,0.000,0.000,0.000,0.000,0.000,0.000,0.000,0.000,0.000,0.000,3.142,6.283,0.000,2.100,1.897,1.799,4.285,0.398,1.000,4.711,0.000,0.000,-5.009,9.062,0.451,0.497,2.986,2.830,4.183,4.384,4.484,1.998,5.882,5.284,1.571,0.000,0.000,-5.320,8.954,0.451,0.477,2.929,2.693,
201.240,757.422,-5.235,9.211,5.047,0.000,0.002,3.953,0.000,2.137,2.073,1.942,0.000,0.000,4.667,1.201,0.000,0.000,3.142,0.000,0.000,0.000,0.000,0.000,0.000,0.000,0.000,0.000,0.000,0.000,3.142,6.283,0.000,2.100,1.897,1.799,4.285,0.398,1.000,4.711,0.000,0.000,-5.009,9.062,0.451,0.497,2.986,2.830,4.183,4.384,4.484,1.998,5.882,5.284,1.571,0.000,0.000,-5.320,8.954,0.451,0.477,2.929,2.693,
201.329,757.511,-5.235,9.211,5.047,0.000,0.002,3.953,0.000,2.137,2.073,1.942,0.000,0.000,4.667,1.201,0.000,0.000,3.142,0.000,0.000,0.000,0.000,0.000,0.000,0.000,0.000,0.000,0.000,0.000,3.142,6.283,0.000,2.100,1.897,1.799,4.285,0.398,1.000,4.711,0.000,0.000,-5.009,9.062,0.451,0.497,2.986,2.830,4.183,4.384,4.484,1.998,5.882,5.284,1.571,0.000,0.000,-5.320,8.954,0.451,0.477,2.929,2.693,
201.440,757.622,-5.235,9.211,5.047,0.000,0.002,3.953,0.000,2.137,2.073,1.942,0.000,0.000,4.667,1.201,0.000,0.000,3.142,0.000,0.000,0.000,0.000,0.000,0.000,0.000,0.000,0.000,0.000,0.000,3.142,6.283,0.000,2.100,1.897,1.799,4.285,0.398,1.000,4.711,0.000,0.000,-5.009,9.062,0.451,0.497,2.986,2.830,4.183,4.384,4.484,1.998,5.882,5.284,1.571,0.000,0.000,-5.320,8.954,0.451,0.477,2.929,2.693,
201.540,757.722,-5.235,9.211,5.047,0.000,0.002,3.953,0.000,2.137,2.073,1.942,0.000,0.000,4.667,1.201,0.000,0.000,3.142,0.000,0.000,0.000,0.000,0.000,0.000,0.000,0.000,0.000,0.000,0.000,3.142,6.283,0.000,2.100,1.897,1.799,4.285,0.398,1.000,4.711,0.000,0.000,-5.009,9.062,0.451,0.497,2.986,2.830,4.183,4.384,4.484,1.998,5.882,5.284,1.571,0.000,0.000,-5.320,8.954,0.451,0.477,2.929,2.693,
201.640,757.822,-5.235,9.211,5.047,0.000,0.002,3.953,0.000,2.137,2.073,1.942,0.000,0.000,4.667,1.201,0.000,0.000,3.142,0.000,0.000,0.000,0.000,0.000,0.000,0.000,0.000,0.000,0.000,0.000,3.142,6.283,0.000,2.100,1.897,1.799,4.285,0.398,1.000,4.711,0.000,0.000,-5.009,9.062,0.451,0.497,2.986,2.830,4.183,4.384,4.484,1.998,5.882,5.284,1.571,0.000,0.000,-5.320,8.954,0.451,0.477,2.929,2.693,
201.740,757.922,-5.235,9.211,5.047,0.000,0.002,3.953,0.000,2.137,2.073,1.942,0.000,0.000,4.667,1.201,0.000,0.000,3.142,0.000,0.000,0.000,0.000,0.000,0.000,0.000,0.000,0.000,0.000,0.000,3.142,6.283,0.000,2.100,1.897,1.799,4.285,0.398,1.000,4.711,0.000,0.000,-5.009,9.062,0.451,0.497,2.986,2.830,4.183,4.384,4.484,1.998,5.882,5.284,1.571,0.000,0.000,-5.320,8.954,0.451,0.477,2.929,2.693,
201.838,758.020,-5.235,9.211,5.047,0.000,0.002,3.953,0.000,2.137,2.073,1.942,0.000,0.000,4.667,1.201,0.000,0.000,3.142,0.000,0.000,0.000,0.000,0.000,0.000,0.000,0.000,0.000,0.000,0.000,3.142,6.283,0.000,2.100,1.897,1.799,4.285,0.398,1.000,4.711,0.000,0.000,-5.009,9.062,0.451,0.497,2.986,2.830,4.183,4.384,4.484,1.998,5.882,5.284,1.571,0.000,0.000,-5.320,8.954,0.451,0.477,2.929,2.693,
201.940,758.122,-5.235,9.211,5.047,0.000,0.002,3.953,0.000,2.137,2.073,1.942,0.000,0.000,4.667,1.201,0.000,0.000,3.142,0.000,0.000,0.000,0.000,0.000,0.000,0.000,0.000,0.000,0.000,0.000,3.142,6.283,0.000,2.100,1.897,1.799,4.285,0.398,1.000,4.711,0.000,0.000,-5.009,9.062,0.451,0.497,2.986,2.830,4.183,4.384,4.484,1.998,5.882,5.284,1.571,0.000,0.000,-5.320,8.954,0.451,0.477,2.929,2.693,
202.029,758.210,-5.235,9.211,5.047,0.000,0.002,0.000,0.000,2.137,2.073,1.942,0.000,0.000,4.667,1.201,0.000,0.000,3.142,2.418,0.000,0.000,0.000,0.000,0.000,0.000,0.000,0.000,0.000,0.000,3.142,6.283,0.000,2.100,1.897,1.799,4.285,0.398,1.000,4.711,0.000,0.000,-5.009,9.062,0.451,0.497,2.986,2.830,4.183,4.384,4.484,1.998,5.882,5.284,1.571,0.000,0.000,-5.320,8.954,0.451,0.477,2.929,2.693,
202.140,758.322,-5.235,9.211,5.047,0.000,0.002,0.000,0.000,2.137,2.073,1.942,0.000,0.000,4.667,1.201,0.000,0.000,3.142,2.372,0.000,0.000,0.000,0.000,0.000,0.000,0.000,0.000,0.000,0.000,3.142,6.283,0.000,2.100,1.897,1.799,4.285,0.398,1.000,4.711,0.000,0.000,-5.009,9.062,0.451,0.497,2.986,2.830,4.183,4.384,4.484,1.998,5.882,5.284,1.571,0.000,0.000,-5.320,8.954,0.451,0.477,2.929,2.693,
202.240,758.422,-5.235,9.211,5.047,0.000,0.002,0.000,0.000,2.137,2.073,1.942,0.000,0.000,4.667,1.201,0.000,0.000,3.142,2.396,0.000,0.000,0.000,0.000,0.000,0.000,0.000,0.000,0.000,0.000,3.142,6.283,0.000,2.100,1.897,1.799,4.285,0.398,1.000,4.711,0.000,0.000,-5.009,9.062,0.451,0.497,2.986,2.830,4.183,4.384,4.484,1.998,5.882,5.284,1.571,0.000,0.000,-5.320,8.954,0.451,0.477,2.929,2.693,
202.332,758.514,-5.235,9.211,5.047,0.000,0.002,0.000,0.000,2.137,2.073,1.942,0.000,0.000,4.667,1.201,0.000,0.000,3.142,2.514,0.000,0.000,0.000,0.000,0.000,0.000,0.000,0.000,0.000,0.000,3.142,6.283,0.000,2.100,1.897,1.799,4.285,0.398,1.000,4.711,0.000,0.000,-5.009,9.062,0.451,0.497,2.986,2.830,4.183,4.384,4.484,1.998,5.882,5.284,1.571,0.000,0.000,-5.320,8.954,0.451,0.477,2.929,2.693,
202.440,758.622,-5.235,9.211,5.047,0.000,0.002,3.953,0.000,2.137,2.073,1.942,0.000,0.000,4.667,1.201,0.000,0.000,3.142,0.000,0.000,0.000,0.000,0.000,0.000,0.000,0.000,0.000,0.000,0.000,3.142,6.283,0.000,2.100,1.897,1.799,4.285,0.398,1.000,4.711,0.000,0.000,-5.009,9.062,0.451,0.497,2.986,2.830,4.183,4.384,4.484,1.998,5.882,5.284,1.571,0.000,0.000,-5.320,8.954,0.451,0.477,2.929,2.693,
202.540,758.722,-5.235,9.211,5.047,0.000,0.002,3.953,0.000,2.137,2.073,1.942,0.000,0.000,4.667,1.201,0.000,0.000,3.142,0.000,0.000,0.000,0.000,0.000,0.000,0.000,0.000,0.000,0.000,0.000,3.142,6.283,0.000,2.100,1.897,1.799,4.285,0.398,1.000,4.711,0.000,0.000,-5.009,9.062,0.451,0.497,2.986,2.830,4.183,4.384,4.484,1.998,5.882,5.284,1.571,0.000,0.000,-5.320,8.954,0.451,0.477,2.929,2.693,
202.640,758.822,-5.235,9.211,5.047,0.000,0.002,3.953,0.000,2.137,2.073,1.942,0.000,0.000,4.667,1.201,0.000,0.000,3.142,0.000,0.000,0.000,0.000,0.000,0.000,0.000,0.000,0.000,0.000,0.000,3.142,6.283,0.000,2.100,1.897,1.799,4.285,0.398,1.000,4.711,0.000,0.000,-5.009,9.062,0.451,0.497,2.986,2.830,4.183,4.384,4.484,1.998,5.882,5.284,1.571,0.000,0.000,-5.320,8.954,0.451,0.477,2.929,2.693,
202.740,758.922,-5.235,9.211,5.047,0.000,0.002,3.953,0.000,2.137,2.073,1.942,0.000,0.000,4.667,1.201,0.000,0.000,3.142,0.000,0.000,0.000,0.000,0.000,0.000,0.000,0.000,0.000,0.000,0.000,3.142,6.283,0.000,2.100,1.897,1.799,4.285,0.398,1.000,4.711,0.000,0.000,-5.009,9.062,0.451,0.497,2.986,2.830,4.183,4.384,4.484,1.998,5.882,5.284,1.571,0.000,0.000,-5.320,8.954,0.451,0.477,2.929,2.693,
202.829,759.011,-5.235,9.211,5.047,0.000,0.002,3.953,0.000,2.137,2.073,1.942,0.000,0.000,4.667,1.201,0.000,0.000,3.142,0.000,0.000,0.000,0.000,0.000,0.000,0.000,0.000,0.000,0.000,0.000,3.142,6.283,0.000,2.100,1.897,1.799,4.285,0.398,1.000,4.711,0.000,0.000,-5.009,9.062,0.451,0.497,2.986,2.830,4.183,4.384,4.484,1.998,5.882,5.284,1.571,0.000,0.000,-5.320,8.954,0.451,0.477,2.929,2.693,
202.940,759.122,-5.235,9.211,5.047,0.000,0.002,3.953,0.000,2.137,2.073,1.942,0.000,0.000,4.667,1.201,0.000,0.000,3.142,0.000,0.000,0.000,0.000,0.000,0.000,0.000,0.000,0.000,0.000,0.000,3.142,6.283,0.000,2.100,1.897,1.799,4.285,0.398,1.000,4.711,0.000,0.000,-5.009,9.062,0.451,0.497,2.986,2.830,4.183,4.384,4.484,1.998,5.882,5.284,1.571,0.000,0.000,-5.320,8.954,0.451,0.477,2.929,2.693,
203.040,759.222,-5.235,9.211,5.047,0.000,0.002,3.953,0.000,2.137,2.073,1.942,0.000,0.000,4.667,1.201,0.000,0.000,3.142,0.000,0.000,0.000,0.000,0.000,0.000,0.000,0.000,0.000,0.000,0.000,3.142,6.283,0.000,2.100,1.897,1.799,4.285,0.398,1.000,4.711,0.000,0.000,-5.009,9.062,0.451,0.497,2.986,2.830,4.183,4.384,4.484,1.998,5.882,5.284,1.571,0.000,0.000,-5.320,8.954,0.451,0.477,2.929,2.693,
203.140,759.322,-5.252,9.258,5.040,-0.892,6.240,3.994,0.000,2.153,2.084,1.890,0.000,0.000,4.649,1.174,0.000,0.000,3.142,0.000,0.000,0.000,0.000,0.000,0.000,0.000,0.000,0.000,0.000,0.000,3.142,0.004,0.001,2.094,1.896,1.801,4.286,0.396,1.004,4.714,0.000,0.000,-5.027,9.105,0.452,0.501,2.992,2.843,4.184,4.381,4.487,1.999,5.881,5.284,1.571,0.000,0.000,-5.339,9.001,0.452,0.481,2.934,2.705,
203.240,759.422,-5.290,9.372,5.039,-1.417,0.004,4.114,0.000,2.192,2.132,1.743,0.000,0.000,4.610,1.124,0.000,0.000,3.142,0.000,0.000,0.000,0.000,0.000,0.000,0.000,0.000,0.000,0.000,0.000,3.142,0.001,0.000,2.098,1.897,1.800,4.285,0.397,1.001,4.712,0.000,0.000,-5.066,9.221,0.451,0.499,2.991,2.840,4.183,4.383,4.485,1.998,5.881,5.284,1.571,0.000,0.000,-5.377,9.116,0.451,0.479,2.934,2.703,
203.340,759.522,-5.331,9.493,5.039,-1.080,0.012,4.242,0.000,2.233,2.184,1.619,0.000,0.000,3.755,1.174,0.000,0.000,3.142,0.000,0.000,0.000,0.000,0.000,0.000,0.000,0.000,0.000,0.000,0.000,3.142,6.281,6.283,2.103,1.897,1.798,4.285,0.399,0.998,4.710,0.000,0.000,-5.106,9.344,0.450,0.496,2.989,2.837,4.182,4.385,4.483,1.997,5.882,5.283,1.571,0.000,0.000,-5.418,9.238,0.451,0.477,2.933,2.700,
203.440,759.622,-5.360,9.577,5.039,-0.803,0.013,4.331,0.000,2.261,2.220,1.615,0.000,0.000,0.000,1.138,0.000,0.000,3.142,0.000,0.000,0.000,0.000,0.000,0.000,0.000,0.000,0.000,0.000,0.000,3.142,6.283,0.000,2.101,1.897,1.799,4.285,0.398,1.000,4.711,0.000,0.000,-5.135,9.426,0.451,0.498,2.990,2.839,4.182,4.384,4.484,1.998,5.882,5.284,1.571,0.000,0.000,-5.446,9.321,0.451,0.478,2.933,2.701,
203.540,759.722,-5.381,9.640,5.039,-0.932,0.005,4.398,0.000,2.283,2.247,0.000,0.000,0.000,0.000,1.111,0.000,0.000,3.142,0.000,0.000,0.000,0.000,0.000,0.000,0.000,0.000,0.000,0.000,0.000,3.142,0.001,0.000,2.099,1.897,1.799,4.285,0.397,1.001,4.712,0.000,0.000,-5.156,9.488,0.451,0.499,2.991,2.840,4.183,4.383,4.485,1.998,5.881,5.284,1.571,0.000,0.000,-5.468,9.383,0.451,0.479,2.934,2.703,
203.640,759.822,-5.421,9.758,5.039,-1.121,0.005,4.523,0.000,2.322,2.298,1.608,3.849,3.033,3.665,1.257,0.000,0.000,0.755,0.000,0.000,0.000,0.000,0.000,0.000,0.000,0.000,0.000,0.000,0.000,3.142,0.000,0.000,2.100,1.897,1.799,4.285,0.398,1.000,4.712,0.000,0.000,-5.196,9.607,0.451,0.498,2.990,2.839,4.182,4.383,4.485,1.998,5.882,5.284,1.571,0.000,0.000,-5.508,9.502,0.451,0.479,2.933,2.702,
203.740,759.922,-5.449,9.839,5.039,-1.051,0.005,4.610,0.000,2.350,2.334,1.605,3.763,2.891,3.637,1.392,0.000,0.000,0.755,0.000,0.000,0.000,0.000,0.000,0.000,0.000,0.000,0.000,0.000,0.000,3.142,6.283,0.000,2.101,1.897,1.799,4.285,0.398,1.000,4.711,0.000,0.000,-5.224,9.689,0.451,0.498,2.990,2.838,4.182,4.384,4.484,1.998,5.882,5.284,1.571,0.000,0.000,-5.535,9.583,0.451,0.478,2.933,2.701,
203.840,760.022,-5.486,9.950,5.039,-0.957,0.006,4.727,0.000,2.388,2.381,1.600,3.646,2.699,3.600,2.142,0.000,0.000,0.755,0.000,0.000,0.000,0.000,0.000,0.000,0.000,0.000,0.000,0.000,0.000,3.142,0.000,0.000,2.100,1.897,1.799,4.285,0.398,1.000,4.711,0.000,0.000,-5.261,9.799,0.451,0.498,2.990,2.839,4.182,4.383,4.485,1.998,5.882,5.284,1.571,0.000,0.000,-5.573,9.694,0.451,0.478,2.933,2.701,
203.940,760.122,-5.510,10.022,5.039,-0.994,0.005,4.804,0.000,2.412,2.413,1.949,3.570,2.573,3.576,2.111,0.000,0.000,0.755,0.000,0.000,0.000,0.000,0.000,0.000,0.000,0.000,0.000,0.000,0.000,3.142,0.000,0.000,2.100,1.897,1.799,4.285,0.398,1.000,4.712,0.000,0.000,-5.286,9.871,0.451,0.498,2.990,2.839,4.182,4.383,4.485,1.998,5.882,5.284,1.571,0.000,0.000,-5.597,9.766,0.451,0.479,2.933,2.702,
204.039,760.221,-5.549,10.137,5.039,-1.041,0.005,4.926,0.000,1.933,2.462,1.830,3.449,2.374,3.537,2.063,0.000,0.000,0.755,0.000,0.000,0.000,0.000,0.000,0.000,0.000,0.000,0.000,0.000,0.000,3.142,0.000,0.000,2.100,1.897,1.799,4.285,0.398,1.000,4.711,0.000,0.000,-5.324,9.986,0.451,0.498,2.990,2.839,4.182,4.383,4.485,1.998,5.882,5.284,1.571,0.000,0.000,-5.636,9.881,0.451,0.478,2.933,2.701,
204.140,760.322,-5.575,10.214,5.039,-1.021,0.006,0.000,0.000,1.959,1.688,1.750,3.368,2.241,3.511,2.030,0.000,0.000,0.755,0.000,0.000,0.000,0.000,0.000,0.000,0.000,0.000,0.000,0.000,0.000,3.142,0.000,0.000,2.100,1.897,1.799,4.285,0.398,1.000,4.711,0.000,0.000,-5.351,10.063,0.451,0.498,2.990,2.838,4.182,4.383,4.484,1.998,5.882,5.284,1.571,0.000,0.000,-5.662,9.958,0.451,0.478,2.933,2.701,
204.240,760.422,-5.613,10.326,5.039,-0.998,0.006,0.000,0.000,1.997,1.311,1.633,3.249,2.183,3.473,2.109,0.000,0.000,0.755,0.000,0.000,0.000,0.000,0.000,0.000,0.000,0.000,0.000,0.000,0.000,3.142,0.000,0.000,2.100,1.897,1.799,4.285,0.398,1.000,4.711,0.000,0.000,-5.389,10.175,0.451,0.498,2.990,2.838,4.182,4.383,4.485,1.998,5.882,5.284,1.571,0.000,0.000,-5.700,10.070,0.451,0.478,2.933,2.701,
204.340,760.522,-5.639,10.401,5.040,-1.008,0.006,0.000,0.000,2.022,1.061,1.556,3.171,2.152,4.262,2.232,0.000,0.000,0.755,0.000,0.000,0.000,0.000,0.000,0.000,0.000,0.000,0.000,0.000,0.000,3.142,0.000,0.000,2.100,1.897,1.799,4.285,0.398,1.000,4.712,0.000,0.000,-5.414,10.250,0.451,0.498,2.990,2.839,4.182,4.383,4.485,1.998,5.882,5.284,1.571,0.000,0.000,-5.725,10.144,0.451,0.478,2.933,2.701,
204.440,760.622,-5.675,10.508,5.040,-0.710,0.013,0.000,0.000,2.059,0.965,1.444,3.057,2.107,4.226,0.000,0.000,0.000,0.755,0.000,0.000,0.000,0.000,0.000,0.000,0.000,0.000,0.000,0.000,0.000,3.142,6.280,6.283,2.104,1.898,1.797,4.285,0.399,0.998,4.710,0.000,0.000,-5.450,10.360,0.450,0.495,2.989,2.835,4.181,4.385,4.483,1.997,5.883,5.283,1.570,0.000,0.000,-5.762,10.253,0.451,0.476,2.932,2.698,
204.534,760.716,-5.689,10.550,5.039,-0.262,0.013,0.000,0.000,2.073,0.963,1.401,3.013,2.090,4.211,0.000,0.000,0.000,0.790,0.000,0.000,0.000,0.000,0.000,0.000,0.000,0.000,0.000,0.000,0.000,3.142,6.282,6.283,2.102,1.897,1.798,4.285,0.398,0.999,4.711,0.000,0.000,-5.465,10.400,0.451,0.497,2.989,2.837,4.182,4.384,4.484,1.997,5.882,5.284,1.571,0.000,0.000,-5.776,10.294,0.451,0.477,2.933,2.700,
204.640,760.822,-5.693,10.561,5.039,-0.088,0.012,0.000,0.000,2.077,0.963,1.389,3.001,2.085,4.208,2.497,0.000,0.000,0.755,0.000,0.000,0.000,0.000,0.000,0.000,0.000,0.000,0.000,0.000,0.000,3.142,6.282,0.000,2.101,1.897,1.798,4.285,0.398,0.999,4.711,0.000,0.000,-5.468,10.411,0.451,0.497,2.990,2.838,4.182,4.384,4.484,1.998,5.882,5.284,1.571,0.000,0.000,-5.780,10.305,0.451,0.478,2.933,2.701,
204.740,760.922,-5.694,10.563,5.039,0.001,6.281,0.000,0.000,2.077,0.963,1.387,2.999,2.085,4.207,2.501,0.000,0.000,0.755,0.000,0.000,0.000,0.000,0.000,0.000,0.000,0.000,0.000,0.000,0.000,3.142,6.283,0.000,2.100,1.897,1.799,4.285,0.398,1.000,4.711,0.000,0.000,-5.469,10.413,0.451,0.498,2.990,2.838,4.183,4.384,4.484,1.998,5.882,5.284,1.571,0.000,0.000,-5.781,10.307,0.451,0.478,2.933,2.701,
204.840,761.022,-5.694,10.563,5.039,0.001,6.280,0.000,0.000,2.077,0.963,1.387,2.999,2.085,4.207,2.501,0.000,0.000,0.755,0.000,0.000,0.000,0.000,0.000,0.000,0.000,0.000,0.000,0.000,0.000,3.142,6.283,0.000,2.100,1.897,1.799,4.285,0.398,1.000,4.711,0.000,0.000,-5.469,10.413,0.451,0.498,2.990,2.838,4.183,4.384,4.484,1.998,5.882,5.283,1.571,0.000,0.000,-5.781,10.307,0.451,0.478,2.933,2.701,
204.940,761.122,-5.694,10.563,5.039,0.001,6.280,0.000,0.000,2.077,0.963,1.387,2.999,2.085,4.207,2.501,0.000,0.000,0.755,0.000,0.000,0.000,0.000,0.000,0.000,0.000,0.000,0.000,0.000,0.000,3.142,6.283,0.000,2.100,1.897,1.799,4.285,0.398,1.000,4.711,0.000,0.000,-5.469,10.413,0.451,0.498,2.990,2.838,4.183,4.384,4.484,1.998,5.882,5.283,1.571,0.000,0.000,-5.781,10.307,0.451,0.478,2.933,2.701,
205.020,761.202,-5.694,10.563,5.039,0.001,6.280,0.000,0.000,2.077,0.963,1.387,2.999,2.085,4.207,2.501,0.000,0.000,0.755,0.000,0.000,0.000,0.000,0.000,0.000,0.000,0.000,0.000,0.000,0.000,3.142,6.283,0.000,2.100,1.897,1.799,4.285,0.398,1.000,4.711,0.000,0.000,-5.469,10.413,0.451,0.498,2.990,2.838,4.183,4.384,4.484,1.998,5.882,5.283,1.571,0.000,0.000,-5.781,10.307,0.451,0.478,2.933,2.701,
205.140,761.322,-5.694,10.563,5.039,0.001,6.280,0.000,0.000,2.077,0.963,1.387,2.999,2.085,4.207,2.501,0.000,0.000,0.755,0.000,0.000,0.000,0.000,0.000,0.000,0.000,0.000,0.000,0.000,0.000,3.142,6.283,0.000,2.100,1.897,1.799,4.285,0.398,1.000,4.711,0.000,0.000,-5.469,10.413,0.451,0.498,2.990,2.838,4.183,4.384,4.484,1.998,5.882,5.283,1.571,0.000,0.000,-5.781,10.307,0.451,0.478,2.933,2.701,
205.240,761.422,-5.694,10.563,5.039,0.001,6.280,0.000,0.000,2.077,0.963,1.387,2.999,2.085,4.207,2.501,0.000,0.000,0.755,0.000,0.000,0.000,0.000,0.000,0.000,0.000,0.000,0.000,0.000,0.000,3.142,6.283,0.000,2.100,1.897,1.799,4.285,0.398,1.000,4.711,0.000,0.000,-5.469,10.413,0.451,0.498,2.990,2.838,4.183,4.384,4.484,1.998,5.882,5.283,1.571,0.000,0.000,-5.781,10.307,0.451,0.478,2.933,2.701,
205.340,761.522,-5.694,10.563,5.039,0.001,6.280,0.000,0.000,2.077,0.963,1.387,2.999,2.085,4.207,2.501,0.000,0.000,0.755,0.000,0.000,0.000,0.000,0.000,0.000,0.000,0.000,0.000,0.000,0.000,3.142,6.283,0.000,2.100,1.897,1.799,4.285,0.398,1.000,4.711,0.000,0.000,-5.469,10.413,0.451,0.498,2.990,2.838,4.183,4.384,4.484,1.998,5.882,5.283,1.571,0.000,0.000,-5.781,10.307,0.451,0.478,2.933,2.701,
205.440,761.622,-5.694,10.563,5.039,0.001,6.280,0.000,0.000,2.077,0.963,1.387,2.999,2.085,4.207,2.501,0.000,0.000,0.755,0.000,0.000,0.000,0.000,0.000,0.000,0.000,0.000,0.000,0.000,0.000,3.142,6.283,0.000,2.100,1.897,1.799,4.285,0.398,1.000,4.711,0.000,0.000,-5.469,10.413,0.451,0.498,2.990,2.838,4.183,4.384,4.484,1.998,5.882,5.283,1.571,0.000,0.000,-5.781,10.307,0.451,0.478,2.933,2.701,
205.540,761.722,-5.694,10.563,5.039,0.001,6.280,0.000,0.000,2.077,0.963,1.387,2.999,2.085,4.207,2.501,0.000,0.000,0.755,0.000,0.000,0.000,0.000,0.000,0.000,0.000,0.000,0.000,0.000,0.000,3.142,6.283,0.000,2.100,1.897,1.799,4.285,0.398,1.000,4.711,0.000,0.000,-5.469,10.413,0.451,0.498,2.990,2.838,4.183,4.384,4.484,1.998,5.882,5.283,1.571,0.000,0.000,-5.781,10.307,0.451,0.478,2.933,2.701,
205.640,761.822,-5.694,10.563,5.039,0.001,6.280,0.000,0.000,2.077,0.963,1.387,2.999,2.085,4.207,2.501,0.000,0.000,0.755,0.000,0.000,0.000,0.000,0.000,0.000,0.000,0.000,0.000,0.000,0.000,3.142,6.283,0.000,2.100,1.897,1.799,4.285,0.398,1.000,4.711,0.000,0.000,-5.469,10.413,0.451,0.498,2.990,2.838,4.183,4.384,4.484,1.998,5.882,5.283,1.571,0.000,0.000,-5.781,10.307,0.451,0.478,2.933,2.701,
205.731,761.913,-5.694,10.563,5.039,0.001,6.280,0.000,0.000,2.077,0.963,1.387,2.999,2.085,4.207,2.501,0.000,0.000,0.755,0.000,0.000,0.000,0.000,0.000,0.000,0.000,0.000,0.000,0.000,0.000,3.142,6.283,0.000,2.100,1.897,1.799,4.285,0.398,1.000,4.711,0.000,0.000,-5.469,10.413,0.451,0.498,2.990,2.838,4.183,4.384,4.484,1.998,5.882,5.283,1.571,0.000,0.000,-5.781,10.307,0.451,0.478,2.933,2.701,
205.840,762.022,-5.694,10.563,5.039,0.001,6.280,0.000,0.000,2.077,0.963,1.387,2.999,2.085,4.207,2.501,0.000,0.000,0.755,0.000,0.000,0.000,0.000,0.000,0.000,0.000,0.000,0.000,0.000,0.000,3.142,6.283,0.000,2.100,1.897,1.799,4.285,0.398,1.000,4.711,0.000,0.000,-5.469,10.413,0.451,0.498,2.990,2.838,4.183,4.384,4.484,1.998,5.882,5.283,1.571,0.000,0.000,-5.781,10.307,0.451,0.478,2.933,2.701,
205.940,762.122,-5.694,10.563,5.039,0.001,6.280,0.000,0.000,2.077,0.963,1.387,2.999,2.085,4.207,2.501,0.000,0.000,0.755,0.000,0.000,0.000,0.000,0.000,0.000,0.000,0.000,0.000,0.000,0.000,3.142,6.283,0.000,2.100,1.897,1.799,4.285,0.398,1.000,4.711,0.000,0.000,-5.469,10.413,0.451,0.498,2.990,2.838,4.183,4.384,4.484,1.998,5.882,5.283,1.571,0.000,0.000,-5.781,10.307,0.451,0.478,2.933,2.701,
206.040,762.222,-5.694,10.563,5.039,0.001,6.280,0.000,0.000,2.077,0.963,1.387,2.999,2.085,4.207,2.501,0.000,0.000,0.755,0.000,0.000,0.000,0.000,0.000,0.000,0.000,0.000,0.000,0.000,0.000,3.142,6.283,0.000,2.100,1.897,1.799,4.285,0.398,1.000,4.711,0.000,0.000,-5.469,10.413,0.451,0.498,2.990,2.838,4.183,4.384,4.484,1.998,5.882,5.283,1.571,0.000,0.000,-5.781,10.307,0.451,0.478,2.933,2.701,
206.140,762.322,-5.694,10.563,5.039,0.001,6.280,0.000,0.000,2.077,0.963,1.387,2.999,2.085,4.207,2.501,0.000,0.000,0.755,0.000,0.000,0.000,0.000,0.000,0.000,0.000,0.000,0.000,0.000,0.000,3.142,6.283,0.000,2.100,1.897,1.799,4.285,0.398,1.000,4.711,0.000,0.000,-5.469,10.413,0.451,0.498,2.990,2.838,4.183,4.384,4.484,1.998,5.882,5.283,1.571,0.000,0.000,-5.781,10.307,0.451,0.478,2.933,2.701,
206.229,762.411,-5.694,10.563,5.039,0.001,6.280,0.000,0.000,2.077,0.963,1.387,2.999,2.085,4.207,2.501,0.000,0.000,0.755,0.000,0.000,0.000,0.000,0.000,0.000,0.000,0.000,0.000,0.000,0.000,3.142,6.283,0.000,2.100,1.897,1.799,4.285,0.398,1.000,4.711,0.000,0.000,-5.469,10.413,0.451,0.498,2.990,2.838,4.183,4.384,4.484,1.998,5.882,5.283,1.571,0.000,0.000,-5.781,10.307,0.451,0.478,2.933,2.701,
206.340,762.522,-5.694,10.563,5.039,0.001,6.280,0.000,0.000,2.077,0.963,1.387,2.999,2.085,4.207,2.501,0.000,0.000,0.755,0.000,0.000,0.000,0.000,0.000,0.000,0.000,0.000,0.000,0.000,0.000,3.142,6.283,0.000,2.100,1.897,1.799,4.285,0.398,1.000,4.711,0.000,0.000,-5.469,10.413,0.451,0.498,2.990,2.838,4.183,4.384,4.484,1.998,5.882,5.283,1.571,0.000,0.000,-5.781,10.307,0.451,0.478,2.933,2.701,
206.440,762.622,-5.694,10.563,5.039,0.001,6.280,0.000,0.000,2.077,0.963,1.387,2.999,2.085,4.207,2.501,0.000,0.000,0.755,0.000,0.000,0.000,0.000,0.000,0.000,0.000,0.000,0.000,0.000,0.000,3.142,6.283,0.000,2.100,1.897,1.799,4.285,0.398,1.000,4.711,0.000,0.000,-5.469,10.413,0.451,0.498,2.990,2.838,4.183,4.384,4.484,1.998,5.882,5.283,1.571,0.000,0.000,-5.781,10.307,0.451,0.478,2.933,2.701,
206.522,762.704,-5.694,10.563,5.039,0.001,6.280,0.000,0.000,2.077,0.963,1.387,2.999,2.085,4.207,2.501,0.000,0.000,0.755,0.000,0.000,0.000,0.000,0.000,0.000,0.000,0.000,0.000,0.000,0.000,3.142,6.283,0.000,2.100,1.897,1.799,4.285,0.398,1.000,4.711,0.000,0.000,-5.469,10.413,0.451,0.498,2.990,2.838,4.183,4.384,4.484,1.998,5.882,5.283,1.571,0.000,0.000,-5.781,10.307,0.451,0.478,2.933,2.701,
206.640,762.822,-5.694,10.563,5.039,0.001,6.280,0.000,0.000,2.077,0.963,1.387,2.999,2.085,4.207,2.501,0.000,0.000,0.755,0.000,0.000,0.000,0.000,0.000,0.000,0.000,0.000,0.000,0.000,0.000,3.142,6.283,0.000,2.100,1.897,1.799,4.285,0.398,1.000,4.711,0.000,0.000,-5.469,10.413,0.451,0.498,2.990,2.838,4.183,4.384,4.484,1.998,5.882,5.283,1.571,0.000,0.000,-5.781,10.307,0.451,0.478,2.933,2.701,
206.729,762.911,-5.691,10.553,5.038,0.390,0.019,0.000,0.000,2.074,0.964,1.398,3.008,2.089,4.210,2.488,0.000,0.000,0.755,0.000,0.000,0.000,0.000,0.000,0.000,0.000,0.000,0.000,0.000,0.000,3.142,6.279,6.283,2.106,1.898,1.796,4.285,0.400,0.997,4.709,0.000,0.000,-5.466,10.406,0.450,0.495,2.988,2.834,4.182,4.386,4.481,1.997,5.883,5.283,1.570,0.000,0.000,-5.777,10.299,0.451,0.476,2.932,2.698,
206.840,763.022,-5.666,10.476,5.041,1.208,0.069,0.000,0.000,2.049,0.967,1.476,3.092,2.117,4.235,2.353,0.000,0.000,0.790,0.000,0.000,0.000,0.000,0.000,0.000,0.000,0.000,0.000,0.000,0.000,3.142,6.278,6.283,2.105,1.898,1.797,4.285,0.399,0.996,4.709,0.000,0.000,-5.440,10.329,0.450,0.495,2.987,2.832,4.182,4.386,4.482,1.997,5.883,5.283,1.570,0.000,0.000,-5.751,10.221,0.451,0.476,2.931,2.695,
206.940,763.122,-5.622,10.348,5.041,1.357,0.000,0.000,0.000,2.005,1.230,1.609,3.227,2.170,3.464,2.142,0.000,0.000,0.755,0.000,0.000,0.000,0.000,0.000,0.000,0.000,0.000,0.000,0.000,0.000,3.142,0.000,0.000,2.099,1.897,1.799,4.285,0.398,1.000,4.712,0.000,0.000,-5.397,10.198,0.451,0.498,2.989,2.837,4.183,4.383,4.484,1.998,5.882,5.283,1.571,0.000,0.000,-5.708,10.092,0.451,0.479,2.932,2.699,
207.040,763.222,-5.592,10.261,5.041,0.982,6.283,0.000,0.000,1.976,1.523,1.700,3.320,2.206,3.494,2.011,0.000,0.000,0.755,0.000,0.000,0.000,0.000,0.000,0.000,0.000,0.000,0.000,0.000,0.000,3.142,0.002,0.001,2.097,1.897,1.800,4.285,0.397,1.001,4.712,0.000,0.000,-5.367,10.109,0.452,0.500,2.990,2.838,4.184,4.383,4.485,1.998,5.881,5.284,1.571,0.000,0.000,-5.678,10.003,0.452,0.480,2.932,2.700,
207.140,763.322,-5.560,10.167,5.041,0.836,6.283,4.961,0.000,1.944,2.479,1.798,3.419,2.328,3.526,2.052,0.000,0.000,0.755,0.000,0.000,0.000,0.000,0.000,0.000,0.000,0.000,0.000,0.000,0.000,3.142,6.282,0.000,2.101,1.897,1.798,4.285,0.398,0.999,4.711,0.000,0.000,-5.335,10.017,0.451,0.497,2.988,2.835,4.183,4.384,4.484,1.998,5.882,5.283,1.570,0.000,0.000,-5.646,9.910,0.451,0.478,2.932,2.698,
207.222,763.404,-5.530,10.078,5.041,1.071,6.283,4.866,0.000,2.432,2.440,1.890,3.513,2.482,2.071,2.090,0.000,0.000,0.755,0.000,0.000,0.000,0.000,0.000,0.000,0.000,0.000,0.000,0.000,0.000,3.142,6.281,0.000,2.102,1.898,1.798,4.285,0.398,0.999,4.711,0.000,0.000,-5.305,9.928,0.451,0.497,2.988,2.835,4.183,4.384,4.483,1.997,5.882,5.283,1.570,0.000,0.000,-5.616,9.822,0.451,0.477,2.932,2.698,
207.340,763.522,-5.495,9.974,5.041,1.099,6.283,4.756,0.000,2.396,2.395,1.997,3.622,2.662,3.592,2.134,0.000,0.000,0.755,0.000,0.000,0.000,0.000,0.000,0.000,0.000,0.000,0.000,0.000,0.000,3.142,6.283,0.000,2.100,1.897,1.798,4.285,0.398,1.000,4.711,0.000,0.000,-5.269,9.824,0.451,0.498,2.989,2.836,4.183,4.384,4.484,1.998,5.882,5.283,1.571,0.000,0.000,-5.581,9.718,0.451,0.478,2.932,2.699,
207.428,763.610,-5.462,9.878,5.041,0.978,0.000,4.653,0.000,2.363,2.353,1.607,3.724,2.831,3.624,1.452,0.000,0.000,0.755,0.000,0.000,0.000,0.000,0.000,0.000,0.000,0.000,0.000,0.000,0.000,3.142,6.283,0.000,2.100,1.897,1.799,4.285,0.398,1.000,4.711,0.000,0.000,-5.236,9.727,0.451,0.498,2.989,2.836,4.183,4.383,4.484,1.998,5.882,5.283,1.571,0.000,0.000,-5.548,9.621,0.451,0.478,2.932,2.699,
207.540,763.722,-5.431,9.788,5.041,0.966,6.283,4.558,0.000,2.333,2.314,1.610,3.819,2.986,3.655,1.305,0.000,0.000,0.755,0.000,0.000,0.000,0.000,0.000,0.000,0.000,0.000,0.000,0.000,0.000,3.142,6.282,0.000,2.101,1.897,1.798,4.285,0.398,0.999,4.711,0.000,0.000,-5.206,9.638,0.451,0.498,2.989,2.836,4.183,4.384,4.484,1.998,5.882,5.283,1.570,0.000,0.000,-5.517,9.532,0.451,0.478,2.932,2.699,
207.640,763.822,-5.406,9.715,5.041,1.018,6.283,4.480,0.000,2.308,2.282,1.613,3.897,3.115,3.680,1.184,0.000,0.000,0.755,0.000,0.000,0.000,0.000,0.000,0.000,0.000,0.000,0.000,0.000,0.000,3.142,6.282,0.000,2.101,1.897,1.798,4.285,0.398,0.999,4.711,0.000,0.000,-5.181,9.565,0.451,0.497,2.989,2.836,4.183,4.384,4.484,1.998,5.882,5.283,1.570,0.000,0.000,-5.492,9.458,0.451,0.478,2.932,2.699,
207.740,763.922,-5.366,9.599,5.070,1.033,0.913,4.405,0.000,2.272,2.285,1.687,4.061,3.462,3.724,1.157,0.000,0.000,0.755,0.000,0.000,0.000,0.000,0.000,0.000,0.000,0.000,0.000,0.000,0.000,3.142,0.001,0.000,2.100,1.897,1.800,4.286,0.398,1.000,4.711,0.000,0.000,-5.138,9.455,0.451,0.494,2.974,2.805,4.183,4.384,4.485,1.998,5.882,5.284,1.571,0.000,0.000,-5.446,9.340,0.451,0.472,2.919,2.668,
207.840,764.022,-5.337,9.524,5.157,1.004,1.455,4.497,0.000,2.264,2.436,1.946,4.848,0.000,3.470,1.180,0.000,0.000,0.755,0.000,0.000,0.000,0.000,0.000,0.000,0.000,0.000,0.000,0.000,0.000,3.142,0.002,0.000,2.100,1.898,1.800,4.286,0.399,1.000,4.711,0.000,0.000,-5.097,9.400,0.451,0.477,2.929,2.707,4.182,4.385,4.485,1.999,5.883,5.284,1.571,0.000,0.000,-5.394,9.259,0.451,0.451,2.876,2.573,
207.928,764.110,-5.284,9.422,5.275,0.872,0.431,1.587,0.000,2.267,2.694,2.479,3.971,4.965,1.970,1.425,0.000,0.000,0.755,0.000,0.000,0.000,0.000,0.000,0.000,0.000,0.000,0.000,0.000,0.000,3.142,0.001,0.001,2.100,1.898,1.799,4.286,0.398,1.000,4.712,0.000,0.000,-5.030,9.328,0.451,0.448,2.872,2.580,4.183,4.384,4.484,1.999,5.882,5.283,1.571,0.000,0.000,-5.308,9.152,0.452,0.418,2.822,2.449,
208.040,764.222,-5.252,9.372,5.278,0.646,0.002,1.521,0.000,2.237,2.655,2.529,4.007,4.992,1.475,1.637,0.000,0.000,0.755,0.000,0.000,0.000,0.000,0.000,0.000,0.000,0.000,0.000,0.000,0.000,3.142,0.000,0.001,2.099,1.897,1.799,4.285,0.398,1.000,4.712,0.000,0.000,-4.998,9.279,0.451,0.448,2.869,2.576,4.183,4.383,4.484,1.998,5.882,5.283,1.570,0.000,0.000,-5.275,9.103,0.452,0.416,2.821,2.445,
208.127,764.309,-5.213,9.311,5.278,0.665,0.001,1.452,0.000,2.196,2.590,2.590,4.083,0.000,1.238,1.559,0.000,0.000,3.036,0.000,0.000,0.000,0.000,0.000,0.000,0.000,0.000,0.000,0.000,0.000,3.142,6.281,0.000,2.101,1.898,1.798,4.285,0.398,0.999,4.711,0.000,0.000,-4.959,9.219,0.451,0.447,2.870,2.575,4.183,4.384,4.483,1.998,5.882,5.283,1.570,0.000,0.000,-5.237,9.042,0.451,0.415,2.822,2.444,
208.240,764.422,-5.183,9.263,5.277,0.782,0.001,1.397,0.000,2.164,2.540,2.638,4.143,0.000,1.119,1.498,0.000,0.000,3.036,0.000,0.000,0.000,0.000,0.000,0.000,0.000,0.000,0.000,0.000,0.000,3.142,6.282,0.000,2.101,1.898,1.798,4.285,0.398,0.999,4.711,0.000,0.000,-4.929,9.171,0.451,0.447,2.870,2.575,4.183,4.384,4.483,1.998,5.882,5.283,1.570,0.000,0.000,-5.206,8.994,0.451,0.415,2.822,2.445,
208.327,764.509,-5.154,9.218,5.277,0.234,0.000,1.344,0.000,2.134,2.493,2.684,4.196,0.000,1.149,1.439,0.000,0.000,3.036,0.000,0.000,0.000,0.000,0.000,0.000,0.000,0.000,0.000,0.000,0.000,3.142,0.001,0.001,2.098,1.897,1.799,4.285,0.397,1.001,4.712,0.000,0.000,-4.900,9.123,0.451,0.449,2.870,2.578,4.183,4.383,4.485,1.998,5.882,5.284,1.571,0.000,0.000,-5.178,8.948,0.452,0.417,2.822,2.447,
208.440,764.622,-5.148,9.209,5.277,0.072,0.004,1.334,0.000,2.128,2.484,2.693,4.207,0.000,1.155,1.427,0.000,0.000,3.036,0.000,0.000,0.000,0.000,0.000,0.000,0.000,0.000,0.000,0.000,0.000,3.142,0.000,0.000,2.099,1.897,1.799,4.285,0.398,1.000,4.712,0.000,0.000,-4.894,9.115,0.451,0.448,2.870,2.577,4.183,4.383,4.484,1.998,5.882,5.283,1.571,0.000,0.000,-5.172,8.939,0.451,0.416,2.822,2.446,
208.527,764.709,-5.148,9.208,5.277,0.000,0.009,1.333,0.000,2.128,2.483,2.694,4.208,0.000,1.155,1.426,0.000,0.000,3.036,0.000,0.000,0.000,0.000,0.000,0.000,0.000,0.000,0.000,0.000,0.000,3.142,6.283,0.000,2.100,1.897,1.799,4.285,0.398,1.000,4.711,0.000,0.000,-4.894,9.114,0.451,0.448,2.870,2.577,4.183,4.384,4.484,1.998,5.882,5.284,1.571,0.000,0.000,-5.171,8.938,0.451,0.416,2.822,2.446,
208.640,764.822,-5.148,9.208,5.277,0.000,0.009,1.333,0.000,2.128,2.483,2.694,4.208,0.000,1.155,1.426,0.000,0.000,3.036,0.000,0.000,0.000,0.000,0.000,0.000,0.000,0.000,0.000,0.000,0.000,3.142,6.283,0.000,2.100,1.897,1.799,4.285,0.398,1.000,4.711,0.000,0.000,-4.894,9.114,0.451,0.448,2.870,2.577,4.183,4.384,4.484,1.998,5.882,5.284,1.571,0.000,0.000,-5.171,8.938,0.451,0.416,2.822,2.446,
208.728,764.910,-5.148,9.208,5.277,0.000,0.009,1.333,0.000,2.128,2.483,2.694,4.208,0.000,1.155,1.426,0.000,0.000,3.036,0.000,0.000,0.000,0.000,0.000,0.000,0.000,0.000,0.000,0.000,0.000,3.142,6.283,0.000,2.100,1.897,1.799,4.285,0.398,1.000,4.711,0.000,0.000,-4.894,9.114,0.451,0.448,2.870,2.577,4.183,4.384,4.484,1.998,5.882,5.284,1.571,0.000,0.000,-5.171,8.938,0.451,0.416,2.822,2.446,
208.840,765.022,-5.148,9.208,5.277,0.000,0.009,1.333,0.000,2.128,2.483,2.694,4.208,0.000,1.155,1.426,0.000,0.000,3.036,0.000,0.000,0.000,0.000,0.000,0.000,0.000,0.000,0.000,0.000,0.000,3.142,6.283,0.000,2.100,1.897,1.799,4.285,0.398,1.000,4.711,0.000,0.000,-4.894,9.114,0.451,0.448,2.870,2.577,4.183,4.384,4.484,1.998,5.882,5.284,1.571,0.000,0.000,-5.171,8.938,0.451,0.416,2.822,2.446,
208.931,765.113,-5.148,9.208,5.277,0.000,0.009,1.333,0.000,2.128,2.483,2.694,4.208,0.000,1.155,1.426,0.000,0.000,3.036,0.000,0.000,0.000,0.000,0.000,0.000,0.000,0.000,0.000,0.000,0.000,3.142,6.283,0.000,2.100,1.897,1.799,4.285,0.398,1.000,4.711,0.000,0.000,-4.894,9.114,0.451,0.448,2.870,2.577,4.183,4.384,4.484,1.998,5.882,5.284,1.571,0.000,0.000,-5.171,8.938,0.451,0.416,2.822,2.446,
209.040,765.222,-5.148,9.208,5.277,0.000,0.009,1.333,0.000,2.128,2.483,2.694,4.208,0.000,1.155,1.426,0.000,0.000,3.036,0.000,0.000,0.000,0.000,0.000,0.000,0.000,0.000,0.000,0.000,0.000,3.142,6.283,0.000,2.100,1.897,1.799,4.285,0.398,1.000,4.711,0.000,0.000,-4.894,9.114,0.451,0.448,2.870,2.577,4.183,4.384,4.484,1.998,5.882,5.284,1.571,0.000,0.000,-5.171,8.938,0.451,0.416,2.822,2.446,
209.133,765.315,-5.148,9.208,5.277,0.000,0.009,1.333,0.000,2.128,2.483,2.694,4.208,0.000,1.155,1.426,0.000,0.000,3.036,0.000,0.000,0.000,0.000,0.000,0.000,0.000,0.000,0.000,0.000,0.000,3.142,6.283,0.000,2.100,1.897,1.799,4.285,0.398,1.000,4.711,0.000,0.000,-4.894,9.114,0.451,0.448,2.870,2.577,4.183,4.384,4.484,1.998,5.882,5.284,1.571,0.000,0.000,-5.171,8.938,0.451,0.416,2.822,2.446,
209.240,765.422,-5.148,9.208,5.277,0.000,0.009,1.333,0.000,2.128,2.483,2.694,4.208,0.000,1.155,1.426,0.000,0.000,3.036,0.000,0.000,0.000,0.000,0.000,0.000,0.000,0.000,0.000,0.000,0.000,3.142,6.283,0.000,2.100,1.897,1.799,4.285,0.398,1.000,4.711,0.000,0.000,-4.894,9.114,0.451,0.448,2.870,2.577,4.183,4.384,4.484,1.998,5.882,5.284,1.571,0.000,0.000,-5.171,8.938,0.451,0.416,2.822,2.446,
209.335,765.517,-5.148,9.208,5.277,0.000,0.009,1.333,0.000,2.128,2.483,2.694,4.208,0.000,1.155,1.426,0.000,0.000,3.036,0.000,0.000,0.000,0.000,0.000,0.000,0.000,0.000,0.000,0.000,0.000,3.142,6.283,0.000,2.100,1.897,1.799,4.285,0.398,1.000,4.711,0.000,0.000,-4.894,9.114,0.451,0.448,2.870,2.577,4.183,4.384,4.484,1.998,5.882,5.284,1.571,0.000,0.000,-5.171,8.938,0.451,0.416,2.822,2.446,
209.440,765.622,-5.148,9.208,5.277,0.000,0.009,1.333,0.000,2.128,2.483,2.694,4.208,0.000,1.155,1.426,0.000,0.000,3.036,0.000,0.000,0.000,0.000,0.000,0.000,0.000,0.000,0.000,0.000,0.000,3.142,6.283,0.000,2.100,1.897,1.799,4.285,0.398,1.000,4.711,0.000,0.000,-4.894,9.114,0.451,0.448,2.870,2.577,4.183,4.384,4.484,1.998,5.882,5.284,1.571,0.000,0.000,-5.171,8.938,0.451,0.416,2.822,2.446,
209.535,765.717,-5.148,9.208,5.277,0.000,0.009,1.333,0.000,2.128,2.483,2.694,4.208,0.000,1.155,1.426,0.000,0.000,3.036,0.000,0.000,0.000,0.000,0.000,0.000,0.000,0.000,0.000,0.000,0.000,3.142,6.283,0.000,2.100,1.897,1.799,4.285,0.398,1.000,4.711,0.000,0.000,-4.894,9.114,0.451,0.448,2.870,2.577,4.183,4.384,4.484,1.998,5.882,5.284,1.571,0.000,0.000,-5.171,8.938,0.451,0.416,2.822,2.446,
209.640,765.822,-5.148,9.208,5.277,0.000,0.009,1.333,0.000,2.128,2.483,2.694,4.208,0.000,1.155,1.426,0.000,0.000,3.036,0.000,0.000,0.000,0.000,0.000,0.000,0.000,0.000,0.000,0.000,0.000,3.142,6.283,0.000,2.100,1.897,1.799,4.285,0.398,1.000,4.711,0.000,0.000,-4.894,9.114,0.451,0.448,2.870,2.577,4.183,4.384,4.484,1.998,5.882,5.284,1.571,0.000,0.000,-5.171,8.938,0.451,0.416,2.822,2.446,
209.734,765.916,-5.148,9.208,5.277,0.000,0.009,1.333,0.000,2.128,2.483,2.694,4.208,0.000,1.155,1.426,0.000,0.000,3.036,0.000,0.000,0.000,0.000,0.000,0.000,0.000,0.000,0.000,0.000,0.000,3.142,6.283,0.000,2.100,1.897,1.799,4.285,0.398,1.000,4.711,0.000,0.000,-4.894,9.114,0.451,0.448,2.870,2.577,4.183,4.384,4.484,1.998,5.882,5.284,1.571,0.000,0.000,-5.171,8.938,0.451,0.416,2.822,2.446,
209.840,766.022,-5.148,9.208,5.277,0.000,0.009,1.333,0.000,2.128,2.483,2.694,4.208,0.000,1.155,1.426,0.000,0.000,3.036,0.000,0.000,0.000,0.000,0.000,0.000,0.000,0.000,0.000,0.000,0.000,3.142,6.283,0.000,2.100,1.897,1.799,4.285,0.398,1.000,4.711,0.000,0.000,-4.894,9.114,0.451,0.448,2.870,2.577,4.183,4.384,4.484,1.998,5.882,5.284,1.571,0.000,0.000,-5.171,8.938,0.451,0.416,2.822,2.446,
209.940,766.122,-5.148,9.208,5.277,0.000,0.009,1.333,0.000,2.128,2.483,2.694,4.208,0.000,1.155,1.426,0.000,0.000,3.036,0.000,0.000,0.000,0.000,0.000,0.000,0.000,0.000,0.000,0.000,0.000,3.142,6.283,0.000,2.100,1.897,1.799,4.285,0.398,1.000,4.711,0.000,0.000,-4.894,9.114,0.451,0.448,2.870,2.577,4.183,4.384,4.484,1.998,5.882,5.284,1.571,0.000,0.000,-5.171,8.938,0.451,0.416,2.822,2.446,
210.040,766.222,-5.148,9.208,5.277,0.000,0.009,1.333,0.000,2.128,2.483,2.694,4.208,0.000,1.155,1.426,0.000,0.000,3.036,0.000,0.000,0.000,0.000,0.000,0.000,0.000,0.000,0.000,0.000,0.000,3.142,6.283,0.000,2.100,1.897,1.799,4.285,0.398,1.000,4.711,0.000,0.000,-4.894,9.114,0.451,0.448,2.870,2.577,4.183,4.384,4.484,1.998,5.882,5.284,1.571,0.000,0.000,-5.171,8.938,0.451,0.416,2.822,2.446,
210.130,766.312,-5.148,9.208,5.277,0.000,0.009,1.333,0.000,2.128,2.483,2.694,4.208,0.000,1.155,1.426,0.000,0.000,3.036,0.000,0.000,0.000,0.000,0.000,0.000,0.000,0.000,0.000,0.000,0.000,3.142,6.283,0.000,2.100,1.897,1.799,4.285,0.398,1.000,4.711,0.000,0.000,-4.894,9.114,0.451,0.448,2.870,2.577,4.183,4.384,4.484,1.998,5.882,5.284,1.571,0.000,0.000,-5.171,8.938,0.451,0.416,2.822,2.446,
210.236,766.418,-5.148,9.208,5.277,0.000,0.009,1.333,0.000,2.128,2.483,2.694,4.208,0.000,1.155,1.426,0.000,0.000,3.036,0.000,0.000,0.000,0.000,0.000,0.000,0.000,0.000,0.000,0.000,0.000,3.142,6.283,0.000,2.100,1.897,1.799,4.285,0.398,1.000,4.711,0.000,0.000,-4.894,9.114,0.451,0.448,2.870,2.577,4.183,4.384,4.484,1.998,5.882,5.284,1.571,0.000,0.000,-5.171,8.938,0.451,0.416,2.822,2.446,
210.340,766.522,-5.148,9.208,5.273,0.000,5.928,1.342,0.000,2.125,2.468,2.694,4.239,0.000,1.154,1.431,0.000,0.000,3.036,0.000,0.000,0.000,0.000,0.000,0.000,0.000,0.000,0.000,0.000,0.000,3.142,6.282,0.000,2.101,1.898,1.798,4.285,0.398,0.999,4.711,0.000,0.000,-4.894,9.114,0.451,0.448,2.872,2.580,4.183,4.384,4.483,1.998,5.882,5.283,1.570,0.000,0.000,-5.172,8.938,0.451,0.417,2.823,2.449,
210.425,766.607,-5.148,9.208,5.170,-0.004,4.696,4.021,0.000,2.077,2.195,1.843,0.000,0.000,1.417,1.572,0.000,0.000,3.142,0.000,0.000,0.000,0.000,0.000,0.000,0.000,0.000,0.000,0.000,0.000,3.142,6.280,0.000,2.101,1.897,1.798,4.285,0.398,0.999,4.711,0.000,0.000,-4.905,9.089,0.451,0.473,2.922,2.692,4.182,4.384,4.484,1.999,5.882,5.283,1.570,0.000,0.000,-5.200,8.943,0.452,0.447,2.869,2.558,
210.540,766.722,-5.147,9.209,5.037,-0.007,4.868,3.937,0.000,1.362,1.947,1.994,4.426,3.978,4.753,1.302,0.000,0.000,0.755,0.000,0.000,0.000,0.000,0.000,0.000,0.000,0.000,0.000,0.000,0.000,3.142,6.281,0.000,2.100,1.897,1.799,4.285,0.398,0.999,4.711,0.000,0.000,-4.923,9.058,0.451,0.498,2.991,2.840,4.182,4.384,4.484,1.999,5.881,5.283,1.570,0.000,0.000,-5.235,8.953,0.451,0.479,2.935,2.703,
210.640,766.822,-5.147,9.209,4.959,-0.020,5.220,3.842,0.000,1.303,1.839,2.119,3.475,3.588,3.945,1.232,0.000,0.000,0.755,0.000,0.000,0.000,0.000,0.000,0.000,0.000,0.000,0.000,0.000,0.000,3.142,6.281,0.000,2.101,1.897,1.798,4.285,0.398,1.000,4.711,0.000,0.000,-4.935,9.041,0.451,0.508,3.034,2.929,4.182,4.384,4.484,1.998,5.882,5.283,1.570,0.000,0.000,-5.254,8.961,0.451,0.493,2.975,2.790,
210.740,766.922,-5.147,9.210,4.861,0.009,5.261,0.000,0.000,1.245,2.064,2.321,4.742,3.222,3.988,1.165,0.000,0.000,0.755,0.000,0.000,0.000,0.000,0.000,0.000,0.000,0.000,0.000,0.000,0.000,3.142,6.281,0.000,2.101,1.897,1.798,4.285,0.398,0.999,4.711,0.000,0.000,-4.953,9.022,0.451,0.516,3.089,3.041,4.182,4.384,4.484,1.998,5.882,5.283,1.570,0.000,0.000,-5.278,8.974,0.451,0.507,3.028,2.900,
210.840,767.022,-5.147,9.209,4.769,0.004,5.082,0.000,0.000,1.205,2.221,2.974,2.695,3.546,4.065,1.194,0.000,0.000,0.755,0.000,0.000,0.000,0.000,0.000,0.000,0.000,0.000,0.000,0.000,0.000,3.142,6.281,0.000,2.101,1.897,1.798,4.285,0.398,0.999,4.711,0.000,0.000,-4.970,9.004,0.451,0.518,3.141,3.146,4.182,4.384,4.484,1.998,5.882,5.283,1.570,0.000,0.000,-5.299,8.985,0.451,0.515,3.079,3.005,
210.922,767.104,-5.147,9.210,4.665,-0.013,5.053,0.000,0.000,1.176,2.139,2.547,2.236,4.082,0.000,1.163,0.000,0.000,0.755,0.000,0.000,0.000,0.000,0.000,0.000,0.000,0.000,0.000,0.000,0.000,3.142,6.281,0.000,2.101,1.897,1.798,4.285,0.398,0.999,4.711,0.000,0.000,-4.992,8.988,0.451,0.516,3.200,3.265,4.182,4.384,4.484,1.998,5.882,5.283,1.570,0.000,0.000,-5.321,9.004,0.451,0.519,3.138,3.124,
211.040,767.222,-5.146,9.211,4.569,0.005,5.147,3.690,0.000,1.160,2.088,2.267,1.839,4.800,0.000,1.192,0.000,0.000,0.755,0.000,0.000,0.000,0.000,0.000,0.000,0.000,0.000,0.000,0.000,0.000,3.142,6.281,0.000,2.101,1.897,1.798,4.285,0.398,0.999,4.711,0.000,0.000,-5.014,8.975,0.451,0.507,3.254,3.375,4.182,4.384,4.484,1.998,5.882,5.283,1.570,0.000,0.000,-5.340,9.022,0.451,0.516,3.193,3.235,
211.140,767.322,-5.146,9.210,4.496,0.005,5.169,3.785,0.000,1.155,2.063,2.103,1.920,0.000,0.000,2.055,0.000,0.000,0.755,0.000,0.000,0.000,0.000,0.000,0.000,0.000,0.000,0.000,0.000,0.000,3.142,6.281,0.000,2.101,1.897,1.798,4.285,0.398,0.999,4.711,0.000,0.000,-5.032,8.965,0.451,0.498,3.294,3.458,4.182,4.384,4.484,1.998,5.882,5.283,1.570,0.000,0.000,-5.353,9.036,0.451,0.511,3.234,3.319,
211.240,767.422,-5.146,9.210,4.385,-0.006,5.139,3.213,0.000,1.160,1.345,1.915,2.079,4.395,3.865,4.754,0.000,0.000,0.755,0.000,0.000,0.000,0.000,0.000,0.000,0.000,0.000,0.000,0.000,0.000,3.142,6.281,0.000,2.101,1.897,1.798,4.285,0.398,0.999,4.711,0.000,0.000,-5.059,8.954,0.451,0.478,3.352,3.581,4.182,4.384,4.484,1.998,5.882,5.283,1.570,0.000,0.000,-5.371,9.060,0.451,0.497,3.295,3.445,
211.340,767.522,-5.146,9.211,4.310,-0.006,5.113,1.222,0.000,1.171,1.291,1.817,2.218,3.753,3.516,3.951,0.000,0.000,0.755,0.000,0.000,0.000,0.000,0.000,0.000,0.000,0.000,0.000,0.000,0.000,3.142,6.281,0.000,2.101,1.897,1.798,4.285,0.398,0.999,4.711,0.000,0.000,-5.078,8.949,0.451,0.461,3.389,3.663,4.182,4.384,4.484,1.998,5.882,5.283,1.570,0.000,0.000,-5.381,9.077,0.451,0.485,3.334,3.528,
211.440,767.622,-5.145,9.211,4.196,0.001,5.112,1.208,0.000,1.202,1.229,2.197,3.092,2.768,3.316,4.013,0.000,0.000,0.755,0.000,0.000,0.000,0.000,0.000,0.000,0.000,0.000,0.000,0.000,0.000,3.142,6.281,0.000,2.101,1.897,1.798,4.285,0.398,0.999,4.711,0.000,0.000,-5.108,8.943,0.451,0.430,3.441,3.785,4.182,4.384,4.484,1.998,5.882,5.283,1.570,0.000,0.000,-5.394,9.105,0.451,0.460,3.391,3.653,
211.540,767.722,-5.145,9.211,4.100,-0.001,5.058,1.341,0.000,1.242,1.192,2.186,2.655,2.690,3.722,4.959,0.000,0.000,0.790,0.000,0.000,0.000,0.000,0.000,0.000,0.000,0.000,0.000,0.000,0.000,3.142,6.281,0.000,2.101,1.897,1.798,4.285,0.398,0.999,4.711,0.000,0.000,-5.134,8.940,0.451,0.399,3.481,3.885,4.182,4.384,4.484,1.998,5.882,5.283,1.570,0.000,0.000,-5.403,9.129,0.451,0.434,3.436,3.756,
211.640,767.822,-5.145,9.211,4.022,-0.004,5.128,1.420,0.000,1.310,1.172,2.130,2.399,2.174,4.155,0.000,0.000,0.000,0.860,0.000,0.000,0.000,0.000,0.000,0.000,0.000,0.000,0.000,0.000,0.000,3.142,6.281,0.000,2.101,1.897,1.798,4.285,0.398,0.999,4.711,0.000,0.000,-5.154,8.940,0.451,0.373,3.511,3.963,4.182,4.384,4.484,1.998,5.882,5.283,1.570,0.000,0.000,-5.408,9.150,0.451,0.410,3.469,3.837,
211.740,767.922,-5.145,9.211,3.911,-0.003,5.113,1.569,0.000,3.995,1.156,2.075,2.125,1.867,0.000,0.000,0.000,0.000,0.965,0.000,0.000,0.000,0.000,0.000,0.000,0.000,0.000,0.000,0.000,0.000,3.142,6.281,0.000,2.101,1.897,1.798,4.285,0.398,0.999,4.711,0.000,0.000,-5.184,8.943,0.451,0.330,3.549,4.073,4.182,4.384,4.484,1.998,5.882,5.283,1.570,0.000,0.000,-5.413,9.180,0.451,0.372,3.512,3.950,
211.840,768.022,-5.144,9.211,3.834,-0.002,5.102,1.371,0.000,4.033,1.153,2.054,1.983,1.959,4.524,0.000,0.000,0.000,1.035,0.000,0.000,0.000,0.000,0.000,0.000,0.000,0.000,0.000,0.000,0.000,3.142,6.281,0.000,2.101,1.897,1.798,4.285,0.398,0.999,4.711,0.000,0.000,-5.204,8.947,0.451,0.299,3.572,4.147,4.182,4.384,4.484,1.998,5.882,5.283,1.570,0.000,0.000,-5.414,9.200,0.451,0.343,3.539,4.027,
211.940,768.122,-5.144,9.211,3.718,-0.002,5.093,1.255,0.000,3.869,1.163,1.316,1.820,2.141,3.479,3.689,0.000,0.000,1.176,0.000,0.000,0.000,0.000,0.000,0.000,0.000,0.000,0.000,0.000,0.000,3.142,6.281,0.000,2.101,1.897,1.798,4.285,0.398,0.999,4.711,0.000,0.000,-5.234,8.956,0.451,0.249,3.601,4.256,4.182,4.384,4.484,1.998,5.882,5.283,1.570,0.000,0.000,-5.413,9.231,0.451,0.296,3.574,4.138,
212.040,768.222,-5.144,9.211,3.641,-0.003,5.142,1.197,0.000,3.743,1.178,1.266,2.028,2.300,4.479,3.372,0.000,0.000,1.246,0.000,0.000,0.000,0.000,0.000,0.000,0.000,0.000,0.000,0.000,0.000,3.142,6.281,0.000,2.101,1.897,1.798,4.285,0.398,0.999,4.711,0.000,0.000,-5.253,8.963,0.451,0.214,3.617,4.326,4.182,4.384,4.484,1.998,5.882,5.283,1.570,0.000,0.000,-5.411,9.252,0.451,0.263,3.594,4.211,
212.140,768.322,-5.143,9.211,3.523,-0.002,5.082,1.147,0.000,0.000,1.215,1.209,2.202,2.884,2.697,3.477,0.000,0.000,1.351,0.000,0.000,0.000,0.000,0.000,0.000,0.000,0.000,0.000,0.000,0.000,3.142,6.281,0.000,2.101,1.897,1.798,4.285,0.398,0.999,4.711,0.000,0.000,-5.281,8.978,0.451,0.159,3.637,4.432,4.182,4.384,4.484,1.998,5.882,5.283,1.570,0.000,0.000,-5.404,9.283,0.451,0.210,3.619,4.319,
212.240,768.422,-5.143,9.211,3.445,-0.005,5.149,1.182,0.000,0.000,1.251,1.183,2.141,2.569,2.689,3.840,0.000,0.000,1.457,0.000,0.000,0.000,0.000,0.000,0.000,0.000,0.000,0.000,0.000,0.000,3.142,6.281,0.000,2.101,1.897,1.798,4.285,0.398,0.999,4.711,0.000,0.000,-5.298,8.989,0.451,0.122,3.647,4.502,4.182,4.384,4.484,1.998,5.882,5.283,1.570,0.000,0.000,-5.397,9.303,0.451,0.174,3.633,4.389,
212.340,768.522,-5.142,9.211,3.337,0.006,5.205,1.149,0.000,0.000,1.421,1.160,2.082,2.251,1.930,4.544,0.000,0.000,1.562,0.000,0.000,0.000,0.000,0.000,0.000,0.000,0.000,0.000,0.000,0.000,3.142,6.281,0.000,2.101,1.897,1.798,4.285,0.398,0.999,4.711,0.000,0.000,-5.320,9.007,0.451,0.069,3.656,4.596,4.182,4.384,4.484,1.998,5.882,5.283,1.570,0.000,0.000,-5.384,9.330,0.451,0.122,3.647,4.485,
212.440,768.622,-5.143,9.210,3.265,0.008,5.138,1.527,0.000,3.711,4.084,1.153,2.058,2.095,1.883,4.742,0.000,0.000,1.632,0.000,0.000,0.000,0.000,0.000,0.000,0.000,0.000,0.000,0.000,0.000,3.142,6.281,0.000,2.101,1.897,1.798,4.285,0.398,0.999,4.711,0.000,0.000,-5.335,9.020,0.451,0.034,3.659,4.659,4.182,4.384,4.484,1.998,5.882,5.283,1.570,0.000,0.000,-5.376,9.347,0.451,0.087,3.653,4.548,
212.521,768.703,-5.143,9.210,3.143,-0.007,5.071,4.758,0.000,3.192,3.940,1.154,1.331,1.891,2.046,4.426,0.000,0.000,1.738,0.000,0.000,0.000,0.000,0.000,0.000,0.000,0.000,0.000,0.000,0.000,3.142,6.281,0.000,2.101,1.897,1.798,4.285,0.398,0.999,4.711,0.000,0.000,-5.357,9.045,0.451,6.256,3.660,4.765,4.182,4.384,4.484,1.998,5.882,5.283,1.570,0.000,0.000,-5.357,9.374,0.451,0.027,3.660,4.655,
212.634,768.816,-5.142,9.210,3.050,-0.005,5.183,3.954,0.000,1.243,3.829,1.166,1.267,1.890,2.213,3.713,0.000,0.000,1.843,0.000,0.000,0.000,0.000,0.000,0.000,0.000,0.000,0.000,0.000,0.000,3.142,6.281,0.000,2.101,1.897,1.798,4.285,0.398,0.999,4.711,0.000,0.000,-5.370,9.065,0.451,6.210,3.655,4.846,4.182,4.384,4.484,1.998,5.882,5.283,1.570,0.000,0.000,-5.341,9.393,0.451,6.264,3.660,4.736,
212.740,768.922,-5.142,9.210,2.958,0.001,5.132,3.999,0.000,1.191,0.000,1.190,1.220,2.246,3.051,4.737,0.000,0.000,1.913,0.000,0.000,0.000,0.000,0.000,0.000,0.000,0.000,0.000,0.000,0.000,3.142,6.281,0.000,2.101,1.897,1.798,4.285,0.398,0.999,4.711,0.000,0.000,-5.383,9.087,0.451,6.165,3.648,4.927,4.182,4.384,4.484,1.998,5.882,5.283,1.570,0.000,0.000,-5.323,9.410,0.451,6.219,3.657,4.816,
212.832,769.014,-5.142,9.209,2.863,-0.002,5.125,4.081,0.000,1.316,0.000,1.226,1.186,2.177,2.758,2.694,0.000,0.000,2.018,0.000,0.000,0.000,0.000,0.000,0.000,0.000,0.000,0.000,0.000,0.000,3.142,6.281,0.000,2.101,1.897,1.798,4.285,0.398,0.999,4.711,0.000,0.000,-5.393,9.110,0.451,6.120,3.636,5.011,4.182,4.384,4.484,1.998,5.882,5.283,1.570,0.000,0.000,-5.303,9.426,0.451,6.172,3.649,4.899,
212.940,769.122,-5.142,9.209,2.769,-0.005,5.127,0.000,0.000,1.406,0.000,1.285,1.164,2.112,2.424,2.220,0.000,0.000,2.124,0.000,0.000,0.000,0.000,0.000,0.000,0.000,0.000,0.000,0.000,0.000,3.142,6.281,0.000,2.101,1.897,1.798,4.285,0.398,0.999,4.711,0.000,0.000,-5.401,9.134,0.451,6.076,3.620,5.096,4.182,4.384,4.484,1.998,5.882,5.283,1.570,0.000,0.000,-5.282,9.440,0.451,6.127,3.638,4.982,
213.027,769.209,-5.142,9.209,2.675,-0.004,5.124,0.000,0.000,1.524,3.687,4.053,1.152,2.070,2.180,1.841,0.000,0.000,2.194,0.000,0.000,0.000,0.000,0.000,0.000,0.000,0.000,0.000,0.000,0.000,3.142,6.281,0.000,2.101,1.897,1.798,4.285,0.398,0.999,4.711,0.000,0.000,-5.407,9.158,0.451,6.034,3.601,5.181,4.182,4.384,4.484,1.998,5.882,5.283,1.570,0.000,0.000,-5.259,9.452,0.451,6.083,3.623,5.066,
213.137,769.319,-5.142,9.209,2.581,-0.003,5.117,0.000,0.000,1.387,3.499,4.050,1.151,2.047,1.997,1.948,0.000,0.000,2.299,0.000,0.000,0.000,0.000,0.000,0.000,0.000,0.000,0.000,0.000,0.000,3.142,6.281,0.000,2.101,1.897,1.798,4.285,0.398,0.999,4.711,0.000,0.000,-5.411,9.183,0.451,5.993,3.577,5.270,4.182,4.384,4.484,1.998,5.882,5.283,1.570,0.000,0.000,-5.236,9.462,0.451,6.040,3.604,5.152,
213.224,769.406,-5.142,9.208,2.482,-0.003,5.109,3.830,0.000,1.283,3.219,3.900,1.160,1.307,1.851,2.095,0.000,0.000,2.404,0.000,0.000,0.000,0.000,0.000,0.000,0.000,0.000,0.000,0.000,0.000,3.142,6.281,0.000,2.101,1.897,1.798,4.285,0.398,0.999,4.711,0.000,0.000,-5.412,9.209,0.451,5.952,3.548,5.364,4.182,4.384,4.484,1.998,5.882,5.283,1.570,0.000,0.000,-5.211,9.470,0.451,5.997,3.580,5.244,
213.339,769.521,-5.142,9.208,2.389,-0.004,5.146,3.420,0.000,1.208,1.161,3.750,1.180,1.250,1.991,2.278,0.000,0.000,2.510,0.000,0.000,0.000,0.000,0.000,0.000,0.000,0.000,0.000,0.000,0.000,3.142,6.281,0.000,2.101,1.897,1.798,4.285,0.398,0.999,4.711,0.000,0.000,-5.411,9.234,0.451,5.917,3.517,5.456,4.182,4.384,4.484,1.998,5.882,5.283,1.570,0.000,0.000,-5.186,9.475,0.451,5.959,3.553,5.333,
213.431,769.613,-5.142,9.208,2.295,-0.004,5.107,3.342,0.000,1.150,1.208,0.000,1.212,1.207,2.233,3.105,0.000,0.000,2.580,0.000,0.000,0.000,0.000,0.000,0.000,0.000,0.000,0.000,0.000,0.000,3.142,6.281,0.000,2.101,1.897,1.798,4.285,0.398,0.999,4.711,0.000,0.000,-5.407,9.259,0.451,5.884,3.482,5.551,4.182,4.384,4.484,1.998,5.882,5.283,1.570,0.000,0.000,-5.161,9.477,0.451,5.922,3.523,5.425,
213.535,769.717,-5.142,9.207,2.198,-0.004,5.092,3.758,0.000,1.190,1.343,0.000,1.259,1.176,2.151,2.626,0.000,0.000,2.685,0.000,0.000,0.000,0.000,0.000,0.000,0.000,0.000,0.000,0.000,0.000,3.142,6.281,0.000,2.101,1.897,1.798,4.285,0.398,0.999,4.711,0.000,0.000,-5.401,9.284,0.451,5.853,3.441,5.652,4.182,4.384,4.484,1.998,5.882,5.283,1.570,0.000,0.000,-5.135,9.478,0.451,5.888,3.486,5.523,
213.639,769.821,-5.142,9.207,2.102,-0.003,5.124,4.331,0.000,1.157,1.444,0.000,1.436,1.157,2.094,2.324,0.000,0.000,2.791,0.000,0.000,0.000,0.000,0.000,0.000,0.000,0.000,0.000,0.000,0.000,3.142,6.281,0.000,2.101,1.897,1.798,4.285,0.398,0.999,4.711,0.000,0.000,-5.392,9.308,0.451,5.827,3.397,5.754,4.182,4.384,4.484,1.998,5.882,5.283,1.570,0.000,0.000,-5.109,9.475,0.451,5.857,3.447,5.622,
213.740,769.922,-5.132,9.189,2.036,-0.552,5.738,4.891,0.000,1.151,1.508,3.671,4.069,1.133,2.057,2.149,0.000,0.000,2.861,0.000,0.000,0.000,0.000,0.000,0.000,0.000,0.000,0.000,0.000,0.000,3.142,0.003,0.001,2.094,1.896,1.802,4.286,0.396,1.003,4.714,0.000,0.000,-5.375,9.311,0.452,5.807,3.363,5.832,4.183,4.381,4.488,2.000,5.880,5.284,1.571,0.000,0.000,-5.080,9.456,0.452,5.835,3.414,5.698,
213.840,770.022,-5.090,9.105,2.016,-1.311,6.234,0.000,0.000,1.189,1.418,3.596,3.995,1.054,2.009,2.050,0.000,0.000,2.861,0.000,0.000,0.000,0.000,0.000,0.000,0.000,0.000,0.000,0.000,0.000,3.142,0.003,0.001,2.095,1.896,1.801,4.286,0.396,1.003,4.713,0.000,0.000,-5.331,9.230,0.452,5.804,3.354,5.852,4.183,4.382,4.487,1.999,5.881,5.284,1.571,0.000,0.000,-5.034,9.370,0.452,5.831,3.407,5.717,
213.940,770.122,-5.021,8.960,2.016,-1.188,0.013,0.000,0.000,1.259,1.215,0.000,3.834,0.922,1.168,1.954,0.000,0.000,2.861,0.000,0.000,0.000,0.000,0.000,0.000,0.000,0.000,0.000,0.000,0.000,3.142,6.281,6.283,2.103,1.897,1.798,4.285,0.399,0.999,4.710,0.000,0.000,-5.262,9.082,0.450,5.808,3.355,5.847,4.182,4.385,4.483,1.997,5.882,5.283,1.571,0.000,0.000,-4.965,9.224,0.451,5.834,3.408,5.713,
214.040,770.222,-4.987,8.889,2.016,-0.852,0.013,0.000,0.000,1.212,1.044,0.000,3.755,0.857,1.085,1.906,0.000,0.000,2.861,0.000,0.000,0.000,0.000,0.000,0.000,0.000,0.000,0.000,0.000,0.000,3.142,6.282,6.283,2.102,1.897,1.798,4.285,0.398,0.999,4.711,0.000,0.000,-5.228,9.011,0.451,5.808,3.355,5.847,4.182,4.384,4.484,1.997,5.882,5.283,1.571,0.000,0.000,-4.931,9.153,0.451,5.834,3.408,5.713,
214.140,770.322,-4.952,8.816,2.016,-0.878,0.006,0.000,0.000,1.247,0.941,0.000,3.674,0.790,1.000,1.963,0.000,0.000,2.826,0.000,0.000,0.000,0.000,0.000,0.000,0.000,0.000,0.000,0.000,0.000,3.142,0.001,0.000,2.099,1.897,1.799,4.285,0.397,1.001,4.712,0.000,0.000,-5.193,8.940,0.451,5.806,3.354,5.850,4.183,4.383,4.485,1.998,5.882,5.284,1.571,0.000,0.000,-4.896,9.081,0.451,5.832,3.407,5.715,
214.225,770.407,-4.901,8.708,2.016,-1.116,0.005,0.000,0.000,1.299,0.997,0.000,3.554,0.691,0.875,2.118,0.000,0.000,2.826,0.000,0.000,0.000,0.000,0.000,0.000,0.000,0.000,0.000,0.000,0.000,3.142,0.001,0.000,2.099,1.897,1.799,4.285,0.398,1.001,4.712,0.000,0.000,-5.142,8.832,0.451,5.806,3.354,5.850,4.183,4.383,4.485,1.998,5.882,5.284,1.571,0.000,0.000,-4.845,8.973,0.451,5.832,3.407,5.715,
214.334,770.516,-4.854,8.610,2.016,-1.053,0.006,0.000,0.000,1.346,2.044,0.000,3.446,0.602,0.762,2.259,0.000,0.000,2.826,0.000,0.000,0.000,0.000,0.000,0.000,0.000,0.000,0.000,0.000,0.000,3.142,6.283,0.000,2.101,1.897,1.799,4.285,0.398,1.000,4.711,0.000,0.000,-5.095,8.733,0.451,5.807,3.355,5.848,4.182,4.384,4.484,1.998,5.882,5.284,1.571,0.000,0.000,-4.798,8.875,0.451,5.833,3.408,5.714,
214.428,770.610,-4.812,8.522,2.015,-0.958,0.006,0.000,0.000,1.389,4.267,0.000,3.348,0.521,0.660,2.383,0.000,0.000,2.826,0.000,0.000,0.000,0.000,0.000,0.000,0.000,0.000,0.000,0.000,0.000,3.142,6.283,0.000,2.100,1.897,1.799,4.285,0.398,1.000,4.711,0.000,0.000,-5.053,8.645,0.451,5.807,3.355,5.849,4.182,4.384,4.484,1.998,5.882,5.284,1.571,0.000,0.000,-4.756,8.786,0.451,5.833,3.407,5.715,
214.540,770.722,-4.771,8.436,2.016,-0.992,0.005,0.000,0.000,2.176,4.146,0.000,3.253,0.443,0.561,2.326,0.000,0.000,2.791,0.000,0.000,0.000,0.000,0.000,0.000,0.000,0.000,0.000,0.000,0.000,3.142,0.000,0.000,2.100,1.897,1.799,4.285,0.398,1.000,4.712,0.000,0.000,-5.012,8.559,0.451,5.806,3.354,5.849,4.182,4.383,4.485,1.998,5.882,5.284,1.571,0.000,0.000,-4.715,8.701,0.451,5.832,3.407,5.715,
214.637,770.819,-4.728,8.346,2.016,-1.024,0.141,0.000,0.000,1.589,4.018,0.000,3.152,0.360,0.456,2.266,0.000,0.000,2.791,0.000,0.000,0.000,0.000,0.000,0.000,0.000,0.000,0.000,0.000,0.000,3.142,0.000,0.000,2.100,1.897,1.799,4.285,0.398,1.000,4.712,0.000,0.000,-4.969,8.469,0.451,5.806,3.354,5.849,4.187,4.385,4.483,1.995,5.882,5.284,1.571,0.000,0.000,-4.673,8.612,0.451,5.831,3.410,5.711,
214.740,770.922,-4.696,8.282,2.143,-0.553,1.657,4.864,0.000,0.945,2.692,0.000,0.000,0.305,0.427,2.432,2.864,0.000,3.142,0.000,0.000,0.000,0.000,0.000,0.000,0.000,0.000,0.000,0.000,0.000,3.142,0.002,0.004,2.095,1.896,1.795,4.287,0.393,1.005,4.714,0.000,0.000,-4.952,8.374,0.450,5.840,3.414,5.711,4.296,4.301,4.537,1.975,5.881,5.279,1.567,0.000,0.000,-4.718,8.598,0.475,5.816,3.516,5.640,
214.840,771.022,-4.694,8.250,2.248,-0.168,1.154,4.232,0.000,1.647,2.465,0.000,0.000,0.292,0.451,2.294,2.792,0.000,3.142,0.000,0.000,0.000,0.000,0.000,0.000,0.000,0.000,0.000,0.000,0.000,3.142,0.006,0.002,2.092,1.894,1.800,4.288,0.392,1.005,4.714,0.000,0.000,-4.957,8.317,0.451,5.865,3.459,5.606,4.313,4.274,4.521,1.992,5.880,5.284,1.570,0.000,0.000,-4.771,8.566,0.495,5.841,3.614,5.533,
214.940,771.122,-4.701,8.224,2.340,-0.196,1.336,4.643,0.000,1.684,2.708,2.714,0.000,0.294,0.499,2.361,3.721,0.000,3.142,0.000,0.000,0.000,0.000,0.000,0.000,0.000,0.000,0.000,0.000,0.000,3.142,0.007,0.002,2.092,1.893,1.800,4.288,0.393,1.005,4.714,0.000,0.000,-4.970,8.266,0.451,5.896,3.497,5.511,4.307,4.278,4.521,1.996,5.880,5.284,1.570,0.000,0.000,-4.803,8.532,0.495,5.882,3.647,5.444,
215.040,771.222,-4.707,8.186,2.472,-0.224,1.437,0.000,0.000,4.678,2.784,2.816,0.372,0.296,0.598,3.220,4.574,0.000,3.106,0.000,0.000,0.000,0.000,0.000,0.000,0.000,0.000,0.000,0.000,0.000,3.142,0.007,0.002,2.092,1.893,1.800,4.288,0.393,1.005,4.714,0.000,0.000,-4.979,8.193,0.451,5.945,3.544,5.380,4.302,4.281,4.533,1.996,5.881,5.284,1.570,0.000,0.000,-4.841,8.481,0.491,5.945,3.677,5.330,
215.140,771.322,-4.708,8.145,2.615,-0.236,1.559,0.000,0.000,3.863,0.000,2.934,0.339,0.299,0.793,3.833,0.000,0.000,3.071,0.000,0.000,0.000,0.000,0.000,0.000,0.000,0.000,0.000,0.000,0.000,3.142,0.007,0.002,2.092,1.893,1.800,4.288,0.393,1.005,4.714,0.000,0.000,-4.978,8.113,0.451,6.003,3.585,5.244,4.300,4.282,4.534,1.996,5.880,5.284,1.570,0.000,0.000,-4.881,8.417,0.489,6.021,3.711,5.203,
215.223,771.405,-4.704,8.093,2.795,-0.158,1.647,1.564,0.000,2.416,0.000,0.000,0.308,0.309,2.632,3.028,4.706,0.000,3.001,0.000,0.000,0.000,0.000,4.654,0.000,0.000,0.000,0.000,0.000,0.000,3.142,0.007,0.002,2.093,1.894,1.800,4.288,0.394,1.005,4.714,0.000,0.000,-4.964,8.013,0.451,6.085,3.625,5.078,4.288,4.289,4.528,1.998,5.881,5.284,1.570,0.000,0.000,-4.918,8.328,0.486,6.124,3.736,5.044,
215.325,771.507,-4.705,8.050,2.946,-0.055,1.589,1.503,0.000,2.564,2.527,0.000,0.296,0.335,2.433,3.883,4.766,0.000,3.001,0.000,0.000,0.000,0.000,0.000,0.000,0.000,0.000,0.000,0.000,0.000,3.142,0.008,0.002,2.092,1.894,1.800,4.288,0.394,1.005,4.714,0.000,0.000,-4.950,7.931,0.451,6.156,3.646,4.943,4.255,4.339,4.515,1.998,5.882,5.284,1.570,0.000,0.000,-4.927,8.259,0.472,6.200,3.718,4.872,
215.427,771.609,-4.702,8.010,3.083,-0.041,1.374,0.903,0.000,2.618,2.615,0.000,0.288,0.373,3.030,4.775,0.000,0.000,2.966,0.000,0.000,0.000,0.000,0.000,0.000,0.000,0.000,0.000,0.000,0.000,3.142,0.007,0.001,2.094,1.895,1.799,4.287,0.396,1.005,4.715,0.000,0.000,-4.928,7.859,0.451,6.226,3.658,4.823,4.216,4.367,4.505,1.998,5.883,5.284,1.571,0.000,0.000,-4.926,8.191,0.459,6.272,3.687,4.731,
215.540,771.722,-4.700,7.994,3.142,-0.016,0.242,0.905,0.000,0.000,2.648,0.000,0.285,0.396,3.582,0.000,0.000,0.000,2.966,0.000,0.000,0.000,0.000,0.000,0.000,0.000,0.000,0.000,0.000,0.000,3.142,0.005,0.001,2.096,1.893,1.799,4.286,0.395,1.004,4.713,0.000,0.000,-4.915,7.829,0.451,6.255,3.659,4.771,4.199,4.373,4.495,1.997,5.881,5.285,1.571,0.000,0.000,-4.924,8.159,0.455,0.023,3.673,4.670,
215.640,771.822,-4.698,7.988,3.165,-0.015,0.303,0.907,0.000,0.000,2.664,4.998,0.284,0.407,3.859,0.000,0.000,0.000,2.966,0.000,0.000,0.000,0.000,0.000,0.000,0.000,0.000,0.000,0.000,0.000,3.142,0.005,0.000,2.096,1.896,1.802,4.287,0.396,1.003,4.713,0.000,0.000,-4.911,7.820,0.451,6.264,3.661,4.751,4.191,4.374,4.498,1.999,5.881,5.285,1.572,0.000,0.000,-4.922,8.150,0.453,0.031,3.665,4.652,
215.740,771.922,-4.706,7.984,3.231,0.154,1.732,1.935,0.000,0.000,2.735,0.000,0.292,0.500,4.011,0.000,0.000,0.000,2.931,0.000,0.000,0.000,0.000,0.000,0.000,0.000,0.000,0.000,0.000,0.000,3.142,0.002,6.283,2.100,1.896,1.799,4.285,0.398,1.000,4.711,0.000,0.000,-4.905,7.801,0.451,0.017,3.661,4.690,4.182,4.383,4.485,1.997,5.882,5.284,1.571,0.000,0.000,-4.934,8.128,0.451,0.071,3.655,4.579,
215.832,772.014,-4.736,7.981,3.418,0.434,2.018,1.484,0.000,0.000,0.000,0.000,0.334,1.332,3.140,4.709,0.000,0.000,2.755,0.000,0.000,0.000,0.000,0.000,0.000,0.000,0.000,0.000,0.000,0.000,3.142,0.001,6.283,2.102,1.898,1.798,4.285,0.400,0.999,4.710,0.000,0.000,-4.896,7.763,0.451,0.110,3.649,4.525,4.182,4.385,4.484,1.999,5.883,5.283,1.570,0.000,0.000,-4.987,8.080,0.451,0.162,3.637,4.413,
215.940,772.122,-4.778,7.967,3.538,0.445,0.787,1.594,0.000,0.000,0.000,0.000,0.394,2.587,3.949,4.705,0.000,0.000,2.685,0.000,0.000,0.000,3.854,0.000,0.000,0.000,0.000,0.000,0.000,0.000,3.142,0.001,0.000,2.101,1.898,1.798,4.286,0.399,1.000,4.711,0.000,0.000,-4.912,7.732,0.451,0.166,3.635,4.420,4.183,4.384,4.484,1.999,5.882,5.283,1.570,0.000,0.000,-5.040,8.035,0.452,0.218,3.617,4.306,
216.031,772.213,-4.811,7.952,3.592,0.306,0.753,1.646,0.000,2.592,0.000,0.000,0.441,2.543,3.988,4.968,0.000,0.000,2.650,0.000,0.000,0.000,3.771,0.000,0.000,0.000,0.000,0.000,0.000,0.000,3.142,0.001,0.000,2.099,1.897,1.799,4.285,0.398,1.000,4.712,0.000,0.000,-4.933,7.711,0.451,0.192,3.627,4.373,4.183,4.383,4.485,1.998,5.882,5.284,1.571,0.000,0.000,-5.076,8.007,0.451,0.241,3.606,4.257,
216.140,772.322,-4.835,7.940,3.677,0.299,1.188,4.649,0.000,2.464,0.000,0.000,0.511,3.097,0.000,0.000,0.000,0.000,2.615,0.000,0.000,0.000,3.778,0.000,0.000,0.000,0.000,0.000,0.000,0.000,3.142,0.001,0.000,2.100,1.898,1.799,4.286,0.398,1.000,4.711,0.000,0.000,-4.936,7.689,0.451,0.230,3.611,4.295,4.182,4.384,4.485,1.998,5.882,5.284,1.571,0.000,0.000,-5.104,7.972,0.451,0.279,3.585,4.178,
216.228,772.409,-4.863,7.922,3.780,0.375,1.163,3.969,0.000,2.578,0.000,1.841,0.668,4.164,0.000,1.707,0.000,0.000,2.510,0.000,0.000,0.000,0.000,0.000,0.000,0.000,0.000,0.000,0.000,0.000,3.142,0.001,0.000,2.101,1.898,1.799,4.285,0.399,0.999,4.711,0.000,0.000,-4.937,7.663,0.451,0.277,3.586,4.198,4.182,4.384,4.484,1.998,5.882,5.283,1.571,0.000,0.000,-5.133,7.926,0.451,0.322,3.556,4.079,
216.340,772.522,-4.892,7.899,3.872,0.382,1.017,3.527,0.000,2.653,0.000,0.481,0.895,3.464,0.000,1.486,0.000,0.000,2.404,0.000,0.000,0.000,0.000,0.000,0.000,0.000,0.000,0.000,0.000,0.000,3.142,0.001,0.000,2.100,1.897,1.799,4.286,0.398,1.000,4.711,0.000,0.000,-4.942,7.634,0.451,0.315,3.561,4.112,4.183,4.384,4.485,1.999,5.882,5.284,1.571,0.000,0.000,-5.161,7.879,0.451,0.358,3.526,3.990,
216.440,772.622,-4.917,7.876,3.959,0.338,1.041,2.327,0.000,2.750,0.000,0.515,1.269,3.313,0.000,1.394,0.000,0.000,2.334,0.000,0.000,0.000,0.000,0.000,0.000,0.000,0.000,0.000,0.000,0.000,3.142,0.001,0.000,2.100,1.897,1.799,4.285,0.398,1.000,4.711,0.000,0.000,-4.944,7.607,0.451,0.349,3.534,4.027,4.183,4.384,4.485,1.998,5.882,5.284,1.571,0.000,0.000,-5.184,7.831,0.451,0.389,3.495,3.903,
216.540,772.722,-4.934,7.857,4.031,0.328,1.087,2.167,0.000,2.856,0.000,0.542,2.912,3.217,4.483,0.716,0.000,0.000,2.264,0.000,0.000,0.000,0.000,0.000,0.000,0.000,0.000,0.000,0.000,0.000,3.142,0.001,0.000,2.100,1.897,1.799,4.285,0.398,1.000,4.711,0.000,0.000,-4.941,7.587,0.451,0.376,3.508,3.955,4.183,4.384,4.485,1.998,5.882,5.284,1.571,0.000,0.000,-5.197,7.794,0.451,0.413,3.466,3.829,
216.640,772.822,-4.956,7.826,4.144,0.348,1.123,1.966,0.000,0.000,0.000,0.590,2.795,4.082,4.788,0.668,0.000,0.000,2.159,0.000,0.000,0.000,0.000,0.000,0.000,0.000,0.000,0.000,0.000,0.000,3.142,0.001,0.000,2.100,1.898,1.799,4.285,0.398,1.000,4.711,0.000,0.000,-4.933,7.557,0.451,0.414,3.463,3.840,4.183,4.384,4.484,1.998,5.882,5.284,1.571,0.000,0.000,-5.211,7.733,0.451,0.446,3.416,3.710,
216.725,772.907,-4.974,7.797,4.240,0.355,1.107,2.107,0.000,0.000,0.000,0.638,2.977,0.000,0.000,1.375,0.000,0.000,2.053,0.000,0.000,0.000,0.000,0.000,0.000,0.000,0.000,0.000,0.000,0.000,3.142,0.001,0.000,2.100,1.897,1.799,4.285,0.398,1.000,4.711,0.000,0.000,-4.925,7.531,0.451,0.442,3.422,3.740,4.183,4.384,4.484,1.998,5.882,5.284,1.571,0.000,0.000,-5.218,7.681,0.451,0.470,3.370,3.607,
216.840,773.022,-4.986,7.772,4.313,0.357,1.065,2.448,0.000,0.000,0.000,0.680,3.520,0.000,1.681,3.063,0.000,0.000,1.983,0.000,0.000,0.000,0.000,0.000,0.000,0.000,0.000,0.000,0.000,0.000,3.142,0.001,0.000,2.100,1.897,1.799,4.285,0.398,1.000,4.711,0.000,0.000,-4.917,7.511,0.451,0.461,3.387,3.661,4.183,4.384,4.484,1.998,5.882,5.284,1.571,0.000,0.000,-5.221,7.638,0.451,0.486,3.333,3.526,
216.940,773.122,-5.001,7.732,4.415,0.489,0.756,2.270,0.000,0.000,0.000,0.800,4.359,0.000,0.734,1.401,0.000,0.000,1.913,0.000,0.000,0.000,0.000,0.000,0.000,0.000,0.000,0.000,0.000,0.000,3.142,6.282,6.283,2.103,1.898,1.798,4.285,0.399,0.998,4.710,0.000,0.000,-4.905,7.480,0.451,0.483,3.335,3.547,4.183,4.385,4.483,1.998,5.883,5.283,1.570,0.000,0.000,-5.220,7.575,0.451,0.502,3.278,3.409,
217.025,773.207,-5.022,7.659,4.434,1.033,0.002,2.183,0.000,0.000,0.000,0.788,4.411,0.000,0.699,1.141,0.000,0.000,1.913,0.000,0.000,0.000,0.000,0.000,0.000,0.000,0.000,0.000,0.000,0.000,3.142,6.280,6.283,2.104,1.898,1.797,4.285,0.399,0.998,4.710,0.000,0.000,-4.921,7.409,0.450,0.486,3.324,3.525,4.182,4.385,4.483,1.997,5.883,5.283,1.570,0.000,0.000,-5.238,7.498,0.451,0.504,3.267,3.387,
217.140,773.322,-5.051,7.556,4.434,1.038,0.001,2.077,0.000,0.000,0.000,0.829,4.518,0.000,0.712,1.122,0.000,0.000,1.913,0.000,0.000,0.000,0.000,0.000,0.000,0.000,0.000,0.000,0.000,0.000,3.142,6.283,0.000,2.099,1.897,1.799,4.285,0.398,1.000,4.712,0.000,0.000,-4.952,7.304,0.451,0.488,3.327,3.529,4.183,4.383,4.484,1.998,5.882,5.283,1.571,0.000,0.000,-5.269,7.395,0.451,0.505,3.269,3.391,
217.240,773.422,-5.075,7.472,4.434,0.760,0.000,1.990,0.000,4.474,0.000,0.861,4.606,0.000,0.954,1.129,0.000,0.000,1.948,0.000,0.000,0.000,0.000,0.000,0.000,0.000,0.000,0.000,0.000,0.000,3.142,0.000,0.000,2.099,1.897,1.799,4.285,0.398,1.000,4.712,0.000,0.000,-4.977,7.220,0.451,0.488,3.328,3.530,4.183,4.383,4.485,1.998,5.882,5.283,1.571,0.000,0.000,-5.293,7.311,0.452,0.505,3.269,3.391,
217.340,773.522,-5.091,7.417,4.434,0.739,0.000,1.933,0.000,0.000,0.000,0.881,4.663,0.000,1.054,1.133,0.000,0.000,1.948,0.000,0.000,0.000,0.000,0.000,0.000,0.000,0.000,0.000,0.000,0.000,3.142,6.282,0.000,2.101,1.897,1.798,4.285,0.398,0.999,4.711,0.000,0.000,-4.992,7.166,0.451,0.487,3.326,3.528,4.183,4.384,4.484,1.998,5.882,5.283,1.570,0.000,0.000,-5.308,7.256,0.451,0.504,3.268,3.390,
217.440,773.622,-5.118,7.324,4.433,0.907,0.000,1.836,0.000,0.000,0.000,0.978,4.760,0.000,1.222,1.141,0.000,0.000,1.983,0.000,0.000,0.000,0.000,0.000,0.000,0.000,0.000,0.000,0.000,0.000,3.142,6.282,0.000,2.101,1.897,1.798,4.285,0.398,0.999,4.711,0.000,0.000,-5.018,7.072,0.451,0.487,3.326,3.528,4.183,4.384,4.484,1.998,5.882,5.283,1.570,0.000,0.000,-5.335,7.163,0.451,0.504,3.268,3.389,
217.533,773.715,-5.143,7.237,4.433,0.901,0.000,1.747,0.000,4.556,0.000,1.113,4.851,0.000,1.379,1.147,0.000,0.000,1.983,0.000,0.000,0.000,0.000,0.000,0.000,0.000,0.000,0.000,0.000,0.000,3.142,6.283,0.000,2.100,1.897,1.798,4.285,0.398,1.000,4.711,0.000,0.000,-5.044,6.985,0.451,0.488,3.327,3.529,4.183,4.384,4.484,1.998,5.882,5.283,1.570,0.000,0.000,-5.360,7.076,0.451,0.504,3.269,3.390,
217.640,773.822,-5.162,7.172,4.433,0.838,0.000,1.679,0.000,0.000,0.000,1.294,4.919,0.000,1.497,0.000,0.000,0.000,1.983,0.000,0.000,0.000,0.000,0.000,0.000,0.000,0.000,0.000,0.000,0.000,3.142,6.283,0.000,2.100,1.897,1.798,4.285,0.398,1.000,4.711,0.000,0.000,-5.063,6.920,0.451,0.488,3.327,3.529,4.183,4.384,4.484,1.998,5.882,5.283,1.570,0.000,0.000,-5.379,7.010,0.451,0.505,3.269,3.391,
217.740,773.922,-5.187,7.084,4.463,0.728,0.921,1.736,0.000,0.000,0.000,1.382,4.970,1.119,1.735,0.000,0.000,0.000,3.106,0.000,0.000,0.000,0.000,0.000,0.000,0.000,0.000,0.000,0.000,0.000,3.142,0.001,0.000,2.099,1.897,1.800,4.286,0.398,1.000,4.712,0.000,0.000,-5.081,6.835,0.451,0.493,3.313,3.498,4.183,4.384,4.486,1.998,5.882,5.284,1.571,0.000,0.000,-5.400,6.916,0.451,0.508,3.254,3.358,
217.840,774.022,-5.200,7.028,4.550,0.732,1.425,0.000,0.000,0.000,0.000,1.271,4.189,1.034,1.085,0.000,0.000,0.000,3.036,0.000,0.000,0.000,0.000,0.000,0.000,0.000,0.000,0.000,0.000,0.000,3.142,0.001,0.000,2.100,1.898,1.799,4.286,0.399,0.999,4.711,0.000,0.000,-5.073,6.790,0.451,0.505,3.265,3.398,4.182,4.385,4.485,1.999,5.883,5.283,1.571,0.000,0.000,-5.397,6.843,0.451,0.515,3.205,3.258,
217.940,774.122,-5.210,6.938,4.677,0.795,0.970,0.000,0.000,4.971,3.517,1.347,4.529,1.283,1.098,3.538,0.000,0.000,2.931,0.000,0.000,0.000,0.000,0.000,0.000,0.000,0.000,0.000,0.000,0.000,3.142,0.001,0.000,2.101,1.898,1.799,4.286,0.399,0.999,4.711,0.000,0.000,-5.054,6.718,0.451,0.516,3.194,3.253,4.182,4.384,4.484,1.999,5.883,5.283,1.571,0.000,0.000,-5.383,6.730,0.451,0.519,3.132,3.112,
218.040,774.222,-5.212,6.876,4.737,0.791,0.882,0.000,0.000,0.000,3.134,1.473,0.000,1.419,1.121,3.608,0.000,0.000,3.142,0.000,0.000,0.000,0.000,0.000,0.000,0.000,0.000,0.000,0.000,0.000,3.142,0.001,0.000,2.100,1.898,1.799,4.286,0.398,1.000,4.711,0.000,0.000,-5.042,6.665,0.451,0.518,3.160,3.184,4.183,4.384,4.485,1.999,5.882,5.284,1.571,0.000,0.000,-5.371,6.657,0.451,0.518,3.098,3.043,
218.140,774.322,-5.210,6.831,4.828,-0.082,0.822,4.622,0.000,0.000,2.643,3.779,0.000,1.594,3.860,1.597,0.000,0.000,3.142,0.000,0.000,0.000,0.000,0.000,0.000,0.000,0.000,0.000,0.000,0.000,3.142,0.006,0.001,2.094,1.896,1.801,4.286,0.397,1.003,4.714,0.000,0.000,-5.023,6.634,0.452,0.521,3.110,3.084,4.183,4.381,4.487,2.000,5.881,5.284,1.571,0.000,0.000,-5.350,6.598,0.452,0.513,3.048,2.943,
218.225,774.407,-5.214,6.856,4.908,-0.320,1.130,4.713,0.000,0.000,2.233,4.087,0.000,1.690,3.759,1.421,0.000,0.000,3.142,0.000,0.000,0.000,0.000,0.000,0.000,0.000,0.000,0.000,0.000,0.000,3.142,0.002,6.283,2.099,1.896,1.800,4.285,0.398,1.000,4.711,0.000,0.000,-5.011,6.677,0.451,0.514,3.062,2.989,4.182,4.383,4.485,1.998,5.882,5.284,1.571,0.000,0.000,-5.334,6.614,0.451,0.501,3.002,2.849,
218.340,774.522,-5.217,6.870,4.991,-0.059,1.231,0.000,0.000,0.000,1.943,0.000,0.000,1.171,0.000,1.271,0.000,0.000,3.142,0.000,0.000,0.000,0.000,0.000,0.000,0.000,0.000,0.000,0.000,0.000,3.142,0.000,6.283,2.102,1.897,1.798,4.285,0.399,0.999,4.710,0.000,0.000,-5.000,6.710,0.451,0.504,3.016,2.892,4.182,4.384,4.484,1.998,5.883,5.284,1.571,0.000,0.000,-5.316,6.619,0.451,0.487,2.957,2.754,
218.440,774.622,-5.214,6.862,5.106,0.127,1.144,3.558,0.000,0.000,1.696,4.469,1.178,1.142,0.000,1.083,0.000,0.000,3.036,0.000,0.000,3.540,0.000,0.000,0.000,0.000,0.000,0.000,0.000,0.000,3.142,0.002,0.000,2.100,1.897,1.799,4.285,0.398,1.000,4.711,0.000,0.000,-4.980,6.727,0.451,0.487,2.955,2.765,4.182,4.383,4.485,1.998,5.882,5.284,1.571,0.000,0.000,-5.284,6.601,0.451,0.464,2.900,2.629,
218.540,774.722,-5.212,6.857,5.185,0.030,1.163,3.175,0.000,0.000,1.572,4.281,1.227,1.132,3.836,0.988,0.000,0.000,2.931,0.000,0.000,0.000,0.000,0.000,0.000,0.000,0.000,0.000,0.000,0.000,3.142,0.002,0.000,2.099,1.897,1.799,4.285,0.398,1.000,4.712,0.000,0.000,-4.968,6.740,0.451,0.471,2.915,2.678,4.182,4.383,4.485,1.999,5.882,5.284,1.571,0.000,0.000,-5.261,6.591,0.452,0.444,2.863,2.545,
218.640,774.822,-5.213,6.860,5.297,-0.055,1.103,1.588,0.000,3.929,1.364,0.000,1.367,1.122,3.523,1.117,0.000,0.000,2.826,0.000,0.000,0.000,0.000,0.000,0.000,0.000,0.000,0.000,0.000,0.000,3.142,0.002,0.000,2.100,1.897,1.799,4.285,0.398,1.000,4.711,0.000,0.000,-4.958,6.771,0.451,0.443,2.861,2.557,4.182,4.383,4.485,1.998,5.882,5.284,1.571,0.000,0.000,-5.232,6.590,0.451,0.410,2.814,2.427,
218.740,774.922,-5.215,6.862,5.389,0.000,1.164,1.772,0.000,3.014,1.523,0.000,1.460,1.124,3.770,1.270,0.000,0.000,2.755,0.000,0.000,0.000,0.000,0.000,0.000,0.000,0.000,0.000,0.000,0.000,3.142,0.002,0.000,2.100,1.897,1.799,4.285,0.398,1.000,4.711,0.000,0.000,-4.953,6.798,0.451,0.415,2.821,2.459,4.182,4.384,4.485,1.998,5.882,5.284,1.571,0.000,0.000,-5.209,6.592,0.451,0.379,2.778,2.332,
218.840,775.022,-5.214,6.861,5.464,0.030,1.150,1.895,0.000,2.554,3.738,0.000,1.560,3.853,3.163,1.546,0.000,0.000,2.650,0.000,0.000,0.000,0.000,0.000,0.000,0.000,0.000,0.000,0.000,0.000,3.142,0.002,0.000,2.100,1.897,1.799,4.286,0.398,1.000,4.711,0.000,0.000,-4.947,6.816,0.451,0.390,2.791,2.382,4.182,4.383,4.485,1.999,5.882,5.284,1.571,0.000,0.000,-5.188,6.592,0.451,0.351,2.751,2.258,
218.936,775.118,-5.212,6.859,5.583,0.013,1.206,2.154,0.000,2.080,4.547,0.000,1.770,0.000,1.328,1.407,0.000,0.000,2.545,0.000,0.000,0.000,0.000,0.000,0.000,0.000,0.000,0.000,0.000,0.000,3.142,0.002,0.000,2.100,1.897,1.799,4.286,0.398,1.000,4.711,0.000,0.000,-4.942,6.846,0.451,0.348,2.748,2.264,4.182,4.383,4.485,1.999,5.882,5.284,1.571,0.000,0.000,-5.154,6.595,0.451,0.304,2.714,2.143,
219.040,775.222,-5.213,6.859,5.657,-0.016,1.113,2.378,0.000,1.872,0.000,1.160,1.167,0.000,1.191,1.371,0.000,0.000,2.475,0.000,0.000,0.000,0.000,0.000,0.000,0.000,0.000,0.000,0.000,0.000,3.142,0.002,0.000,2.100,1.897,1.799,4.286,0.398,1.000,4.711,0.000,0.000,-4.942,6.866,0.451,0.318,2.724,2.192,4.182,4.383,4.485,1.999,5.882,5.284,1.571,0.000,0.000,-5.135,6.600,0.451,0.273,2.694,2.073,
219.138,775.320,-5.180,6.837,5.748,0.755,0.379,2.365,0.000,1.714,4.482,1.229,1.182,0.000,1.032,0.000,0.000,0.000,2.404,0.000,0.000,0.000,0.000,0.000,0.000,0.000,0.000,0.000,0.000,0.000,3.142,6.280,6.283,2.106,1.898,1.797,4.286,0.400,0.996,4.709,0.000,0.000,-4.913,6.871,0.450,0.276,2.701,2.102,4.182,4.386,4.482,1.997,5.883,5.283,1.570,0.000,0.000,-5.079,6.587,0.451,0.230,2.673,1.985,
219.240,775.422,-5.113,6.798,5.776,1.141,0.722,2.723,0.000,1.720,4.478,1.290,1.253,0.000,1.082,0.000,0.000,0.000,2.404,0.000,0.000,0.000,0.000,0.000,0.000,0.000,0.000,0.000,0.000,0.000,3.142,6.282,6.283,2.102,1.898,1.799,4.286,0.399,0.999,4.710,0.000,0.000,-4.846,6.838,0.451,0.268,2.693,2.078,4.182,4.385,4.484,1.998,5.882,5.284,1.571,0.000,0.000,-5.006,6.550,0.451,0.219,2.668,1.961,
219.340,775.522,-5.003,6.741,5.898,0.843,1.350,4.826,0.000,1.613,4.319,1.514,1.361,3.711,1.405,0.000,0.000,0.000,2.334,0.000,0.000,0.000,0.000,0.000,0.000,0.000,0.000,0.000,0.000,0.000,3.142,0.003,0.000,2.098,1.898,1.801,4.286,0.398,1.001,4.712,0.000,0.000,-4.741,6.811,0.452,0.216,2.664,1.968,4.183,4.384,4.486,2.000,5.882,5.284,1.571,0.000,0.000,-4.866,6.506,0.452,0.165,2.646,1.854,
219.440,775.622,-4.950,6.720,5.982,0.640,1.060,4.635,0.000,1.541,0.000,1.637,1.419,1.755,1.426,4.471,0.000,0.000,2.299,0.000,0.000,0.000,0.000,0.000,0.000,0.000,0.000,0.000,0.000,0.000,3.142,0.002,0.000,2.099,1.898,1.799,4.286,0.399,1.000,4.712,0.000,0.000,-4.696,6.813,0.451,0.175,2.650,1.891,4.183,4.384,4.485,1.999,5.882,5.284,1.571,0.000,0.000,-4.794,6.499,0.452,0.123,2.635,1.778,
219.540,775.722,-4.872,6.699,6.075,0.804,0.913,0.000,0.000,1.481,0.000,1.806,4.219,1.334,1.449,4.479,0.000,0.000,2.229,0.000,0.000,0.000,0.000,0.000,0.000,0.000,0.000,0.000,0.000,0.000,3.142,0.000,6.283,2.102,1.898,1.799,4.286,0.399,0.999,4.711,0.000,0.000,-4.628,6.816,0.451,0.129,2.639,1.807,4.183,4.385,4.484,1.998,5.883,5.283,1.571,0.000,0.000,-4.695,6.494,0.451,0.076,2.628,1.695,
219.633,775.815,-4.787,6.683,6.160,0.900,1.079,0.000,0.000,1.383,0.000,1.997,0.000,1.274,0.000,0.000,0.000,0.000,3.142,0.000,0.000,0.000,0.000,0.000,0.000,0.000,0.000,0.000,0.000,0.000,3.142,0.001,0.000,2.101,1.898,1.799,4.286,0.398,1.000,4.711,0.000,0.000,-4.554,6.820,0.451,0.089,2.630,1.733,4.182,4.384,4.485,1.999,5.882,5.284,1.571,0.000,0.000,-4.594,6.493,0.451,0.035,2.624,1.622,
219.740,775.922,-4.719,6.676,6.235,0.833,1.097,0.000,0.000,1.351,0.000,2.202,0.000,1.415,0.000,1.187,0.000,0.000,3.142,0.000,0.000,0.000,0.000,0.000,0.000,0.000,0.000,0.000,0.000,0.000,3.142,0.002,0.000,2.100,1.898,1.800,4.286,0.398,1.000,4.711,0.000,0.000,-4.497,6.829,0.451,0.052,2.625,1.668,4.182,4.384,4.485,1.999,5.882,5.284,1.571,0.000,0.000,-4.513,6.501,0.452,6.282,2.622,1.558,
219.840,776.022,-4.627,6.675,0.059,0.766,1.019,0.000,0.000,1.310,0.000,1.768,0.000,1.844,0.000,1.267,0.000,0.000,3.142,4.728,0.000,0.000,0.000,0.000,0.000,0.000,0.000,0.000,0.000,0.000,3.142,0.001,0.000,2.100,1.898,1.799,4.286,0.398,1.000,4.711,0.000,0.000,-4.422,6.851,0.451,6.282,2.623,1.574,4.183,4.384,4.485,1.999,5.882,5.284,1.571,0.000,0.000,-4.403,6.523,0.451,6.228,2.625,1.464,
219.940,776.122,-4.569,6.679,0.128,0.584,1.035,0.000,0.000,1.288,0.000,1.802,4.066,1.639,0.000,1.311,0.000,0.000,3.106,0.000,0.000,0.000,0.000,0.000,0.000,0.000,0.000,0.000,0.000,0.000,3.142,0.003,0.001,2.098,1.897,1.800,4.286,0.398,1.002,4.712,0.000,0.000,-4.376,6.869,0.451,6.249,2.623,1.517,4.183,4.383,4.486,1.999,5.882,5.284,1.571,0.000,0.000,-4.335,6.542,0.452,6.195,2.628,1.406,
220.040,776.222,-4.558,6.680,0.224,-0.287,0.945,0.000,0.000,4.589,0.000,1.800,4.147,1.567,4.445,1.383,0.000,0.000,3.001,0.000,0.000,0.000,0.000,0.000,0.000,0.000,0.000,0.000,0.000,0.000,3.142,0.004,0.000,2.096,1.896,1.801,4.286,0.397,1.002,4.713,0.000,0.000,-4.383,6.888,0.452,6.201,2.626,1.434,4.183,4.382,4.486,1.999,5.881,5.284,1.571,0.000,0.000,-4.312,6.567,0.452,6.148,2.638,1.322,
220.140,776.322,-4.581,6.674,0.293,-0.265,1.140,4.335,0.000,4.461,1.723,1.781,1.812,1.667,4.424,1.440,0.000,0.000,2.931,0.000,0.000,0.000,0.000,0.000,0.000,0.000,0.000,0.000,0.000,0.000,3.142,0.001,6.283,2.100,1.897,1.799,4.286,0.398,0.999,4.711,0.000,0.000,-4.424,6.893,0.451,6.166,2.635,1.370,4.182,4.384,4.485,1.998,5.882,5.284,1.571,0.000,0.000,-4.329,6.578,0.451,6.114,2.649,1.258,
220.240,776.422,-4.587,6.672,0.413,0.109,1.137,3.181,0.000,0.000,1.824,4.488,1.433,0.000,0.000,1.584,0.000,0.000,2.826,0.000,0.000,0.000,0.000,0.000,0.000,0.000,0.000,0.000,0.000,0.000,3.142,0.001,6.283,2.102,1.897,1.798,4.285,0.398,0.999,4.711,0.000,0.000,-4.457,6.909,0.451,6.109,2.651,1.263,4.182,4.384,4.484,1.998,5.882,5.284,1.571,0.000,0.000,-4.325,6.608,0.451,6.058,2.670,1.149,
220.340,776.522,-4.579,6.676,0.489,0.112,1.114,2.727,0.000,0.000,1.965,0.000,1.497,0.000,1.145,1.713,0.000,0.000,2.720,0.000,0.000,0.000,0.000,0.000,0.000,0.000,0.000,0.000,0.000,0.000,3.142,0.002,0.000,2.100,1.897,1.799,4.285,0.398,1.000,4.711,0.000,0.000,-4.467,6.922,0.451,6.074,2.663,1.196,4.182,4.383,4.485,1.999,5.882,5.284,1.571,0.000,0.000,-4.312,6.632,0.452,6.024,2.686,1.080,
220.435,776.617,-4.576,6.678,0.601,-0.047,1.140,2.281,0.000,0.000,2.252,0.000,1.605,0.000,1.178,1.681,0.000,0.000,2.615,0.000,0.000,0.000,0.000,0.000,0.000,0.000,0.000,0.000,0.000,0.000,3.142,0.002,0.000,2.099,1.897,1.800,4.286,0.398,1.001,4.712,0.000,0.000,-4.491,6.935,0.451,6.023,2.687,1.094,4.182,4.383,4.485,1.999,5.882,5.284,1.571,0.000,0.000,-4.306,6.663,0.452,5.977,2.715,0.975,
220.540,776.722,-4.580,6.675,0.698,-0.047,1.185,2.020,0.000,0.000,1.810,4.427,1.827,0.000,1.270,4.780,0.000,0.000,2.510,0.000,0.000,0.000,0.000,0.000,0.000,0.000,0.000,0.000,0.000,0.000,3.142,0.002,0.000,2.100,1.897,1.799,4.285,0.398,1.000,4.711,0.000,0.000,-4.521,6.939,0.451,5.982,2.713,1.001,4.182,4.383,4.485,1.998,5.882,5.284,1.571,0.000,0.000,-4.310,6.686,0.451,5.938,2.746,0.881,
220.640,776.822,-4.581,6.674,0.795,0.025,1.142,1.827,0.000,0.000,1.786,4.101,1.575,0.000,1.329,3.673,0.000,0.000,2.440,0.000,0.000,0.000,0.000,0.000,0.000,0.000,0.000,0.000,0.000,0.000,3.142,0.002,0.000,2.100,1.897,1.799,4.285,0.398,1.000,4.711,0.000,0.000,-4.548,6.942,0.451,5.943,2.742,0.908,4.182,4.383,4.485,1.998,5.882,5.284,1.571,0.000,0.000,-4.313,6.712,0.451,5.902,2.780,0.784,
220.740,776.922,-4.579,6.676,0.869,0.031,1.155,1.709,0.000,0.000,1.781,1.957,1.559,4.437,1.389,4.388,0.000,0.000,2.369,0.000,0.000,0.000,0.000,0.000,0.000,0.000,0.000,0.000,0.000,0.000,3.142,0.002,0.000,2.100,1.897,1.799,4.286,0.398,1.000,4.711,0.000,0.000,-4.566,6.946,0.451,5.915,2.767,0.835,4.182,4.383,4.485,1.999,5.882,5.284,1.571,0.000,0.000,-4.315,6.734,0.451,5.877,2.809,0.709,
220.821,777.003,-4.578,6.677,0.981,-0.014,1.088,1.574,0.000,1.653,4.561,1.426,0.000,4.431,1.506,4.491,0.000,0.000,3.142,0.000,0.000,0.000,0.000,0.000,0.000,0.000,0.000,0.000,0.000,0.000,3.142,0.002,0.000,2.100,1.897,1.799,4.286,0.398,1.000,4.711,0.000,0.000,-4.595,6.947,0.451,5.876,2.810,0.722,4.182,4.383,4.485,1.999,5.882,5.284,1.571,0.000,0.000,-4.322,6.764,0.451,5.843,2.857,0.592,
220.940,777.122,-4.579,6.676,1.075,-0.011,1.207,1.492,0.000,1.873,4.423,1.488,0.000,0.000,1.634,0.000,0.000,0.000,3.142,0.000,0.000,0.000,0.000,0.000,0.000,0.000,0.000,0.000,0.000,0.000,3.142,0.002,0.000,2.100,1.897,1.799,4.286,0.398,1.000,4.711,0.000,0.000,-4.621,6.943,0.451,5.847,2.850,0.624,4.182,4.383,4.485,1.999,5.882,5.284,1.571,0.000,0.000,-4.332,6.786,0.451,5.819,2.901,0.491,
221.040,777.222,-4.579,6.676,1.156,0.006,1.232,1.436,0.000,2.045,0.000,1.558,0.000,1.152,1.694,0.000,0.000,0.000,3.142,0.000,0.000,0.000,0.000,0.000,0.000,0.000,0.000,0.000,0.000,0.000,3.142,0.002,0.000,2.100,1.897,1.799,4.286,0.398,1.000,4.711,0.000,0.000,-4.643,6.938,0.451,5.826,2.888,0.537,4.182,4.383,4.485,1.999,5.882,5.284,1.571,0.000,0.000,-4.342,6.806,0.451,5.801,2.942,0.402,
221.140,777.322,-4.578,6.677,1.250,0.016,1.177,1.386,0.000,2.308,0.000,1.664,0.000,1.236,1.720,0.000,0.000,0.000,3.142,0.000,0.000,0.000,0.000,0.000,0.000,0.000,0.000,0.000,0.000,0.000,3.142,0.002,0.000,2.100,1.897,1.799,4.286,0.398,1.000,4.711,0.000,0.000,-4.667,6.933,0.451,5.804,2.934,0.435,4.182,4.383,4.485,1.999,5.882,5.284,1.571,0.000,0.000,-4.355,6.829,0.451,5.785,2.991,0.297,
221.221,777.403,-4.577,6.684,1.369,0.235,1.187,1.288,0.000,1.799,4.065,1.625,0.000,1.303,3.789,0.000,0.000,0.000,3.142,0.000,0.000,0.000,0.000,0.000,0.000,0.000,0.000,0.000,0.000,0.000,3.142,6.283,6.283,2.103,1.898,1.798,4.285,0.399,0.998,4.710,0.000,0.000,-4.696,6.926,0.451,5.784,2.999,0.298,4.182,4.385,4.483,1.998,5.883,5.283,1.571,0.000,0.000,-4.373,6.861,0.451,5.771,3.059,0.159,
221.328,777.510,-4.568,6.733,1.466,0.746,1.082,4.576,0.000,1.773,4.149,1.575,0.000,1.426,4.185,0.000,0.000,0.000,3.142,0.000,0.000,0.000,0.000,0.000,0.000,0.000,0.000,0.000,0.000,0.000,3.142,6.282,6.283,2.103,1.899,1.798,4.286,0.399,0.998,4.710,0.000,0.000,-4.710,6.962,0.450,5.774,3.051,0.189,4.182,4.386,4.484,1.998,5.883,5.283,1.570,0.000,0.000,-4.382,6.929,0.451,5.766,3.113,0.049,
221.435,777.617,-4.562,6.809,1.553,0.709,0.996,4.339,0.000,1.753,2.067,1.775,4.560,1.602,4.287,3.942,0.000,0.000,3.036,0.000,0.000,0.000,0.000,0.000,0.000,0.000,0.000,0.000,0.000,0.000,3.142,0.002,0.000,2.099,1.898,1.800,4.286,0.398,1.000,4.712,0.000,0.000,-4.722,7.027,0.451,5.766,3.099,0.092,4.183,4.384,4.485,1.999,5.882,5.284,1.571,0.000,0.000,-4.394,7.021,0.452,5.764,3.161,6.234,
221.540,777.722,-4.563,6.864,1.639,0.443,1.030,4.293,0.000,1.746,1.788,0.000,4.625,1.784,0.000,2.966,0.000,0.000,2.966,0.000,0.000,0.000,0.000,0.000,0.000,0.000,0.000,0.000,0.000,0.000,3.142,0.002,0.000,2.099,1.897,1.800,4.286,0.398,1.000,4.712,0.000,0.000,-4.741,7.068,0.451,5.764,3.148,6.276,4.183,4.383,4.485,1.999,5.882,5.284,1.571,0.000,0.000,-4.413,7.090,0.452,5.768,3.210,6.135,
221.640,777.822,-4.566,6.897,1.711,0.443,1.063,0.000,0.000,1.753,1.609,0.000,1.360,1.803,0.000,2.460,0.000,0.000,3.106,0.000,0.000,0.000,0.000,0.000,0.000,0.000,0.000,0.000,0.000,0.000,3.142,0.001,0.000,2.101,1.898,1.799,4.286,0.399,0.999,4.711,0.000,0.000,-4.758,7.086,0.451,5.767,3.190,6.192,4.182,4.384,4.484,1.998,5.882,5.283,1.571,0.000,0.000,-4.433,7.132,0.451,5.775,3.251,6.052,
221.740,777.922,-4.576,6.952,1.788,0.818,0.520,0.000,0.000,4.386,1.563,0.000,1.436,1.946,0.000,2.032,0.000,0.000,2.826,0.000,0.000,0.000,0.000,0.000,0.000,0.000,0.000,0.000,0.000,0.000,3.142,6.281,6.283,2.104,1.898,1.797,4.285,0.400,0.997,4.709,0.000,0.000,-4.783,7.124,0.450,5.775,3.235,6.100,4.182,4.386,4.482,1.998,5.883,5.283,1.570,0.000,0.000,-4.462,7.197,0.451,5.786,3.295,5.961,
221.840,778.022,-4.599,7.057,1.796,1.282,0.002,0.000,0.000,1.700,1.688,0.000,1.546,0.000,0.000,1.805,0.000,0.000,3.001,0.000,0.000,0.000,0.000,0.000,0.000,0.000,0.000,0.000,0.000,0.000,3.142,6.281,0.000,2.102,1.898,1.797,4.285,0.399,0.998,4.710,0.000,0.000,-4.808,7.229,0.451,5.774,3.238,6.093,4.182,4.385,4.483,1.997,5.882,5.283,1.570,0.000,0.000,-4.487,7.303,0.451,5.787,3.298,5.954,
221.922,778.104,-4.631,7.196,1.796,1.036,0.001,0.000,0.000,1.619,1.948,0.000,1.689,2.564,0.000,1.539,0.000,0.000,3.036,0.000,0.000,0.000,0.000,0.000,0.000,0.000,0.000,0.000,0.000,0.000,3.142,0.001,0.001,2.098,1.897,1.799,4.285,0.398,1.001,4.712,0.000,0.000,-4.839,7.370,0.451,5.771,3.237,6.097,4.183,4.383,4.485,1.998,5.882,5.283,1.571,0.000,0.000,-4.519,7.443,0.452,5.785,3.297,5.957,
222.027,778.209,-4.651,7.284,1.796,0.867,0.001,0.000,0.000,1.568,2.112,0.000,1.779,0.000,0.000,1.370,0.000,0.000,3.036,0.000,0.000,0.000,0.000,0.000,0.000,0.000,0.000,0.000,0.000,0.000,3.142,6.283,0.000,2.100,1.897,1.798,4.285,0.398,1.000,4.711,0.000,0.000,-4.860,7.457,0.451,5.772,3.238,6.095,4.183,4.384,4.484,1.998,5.882,5.283,1.570,0.000,0.000,-4.539,7.531,0.451,5.786,3.297,5.956,
222.131,778.313,-4.671,7.373,1.795,1.002,0.000,0.000,0.000,1.516,2.277,0.000,1.870,0.000,0.000,1.202,0.000,0.000,3.036,0.000,0.000,0.000,0.000,0.000,0.000,0.000,0.000,0.000,0.000,0.000,3.142,6.282,0.000,2.102,1.898,1.798,4.285,0.398,0.999,4.711,0.000,0.000,-4.880,7.545,0.451,5.773,3.238,6.094,4.183,4.384,4.483,1.997,5.882,5.283,1.570,0.000,0.000,-4.559,7.619,0.451,5.787,3.297,5.955,
222.234,778.416,-4.695,7.474,1.795,1.085,0.000,0.000,0.000,1.457,3.679,0.000,1.974,0.000,0.000,1.007,0.000,0.000,3.036,0.000,0.000,0.000,0.000,0.000,0.000,0.000,0.000,0.000,0.000,0.000,3.142,6.282,0.000,2.101,1.897,1.798,4.285,0.398,0.999,4.711,0.000,0.000,-4.903,7.647,0.451,5.773,3.237,6.095,4.183,4.384,4.484,1.998,5.882,5.283,1.570,0.000,0.000,-4.582,7.720,0.451,5.786,3.297,5.956,
222.340,778.522,-4.718,7.576,1.795,1.014,0.001,0.000,0.000,1.661,3.868,2.384,2.078,0.000,0.000,0.813,0.000,0.000,3.036,0.000,0.000,0.000,0.000,0.000,0.000,0.000,0.000,0.000,0.000,0.000,3.142,6.283,0.000,2.100,1.897,1.799,4.285,0.398,1.000,4.711,0.000,0.000,-4.926,7.749,0.451,5.772,3.237,6.096,4.183,4.384,4.484,1.998,5.882,5.283,1.570,0.000,0.000,-4.606,7.822,0.451,5.786,3.297,5.956,
222.440,778.622,-4.735,7.652,1.795,0.973,0.001,0.000,0.000,1.895,4.010,2.336,2.156,0.000,0.000,0.572,0.000,0.000,3.036,0.000,0.000,0.000,0.000,0.000,0.000,0.000,0.000,0.000,0.000,0.000,3.142,6.283,0.000,2.100,1.897,1.798,4.285,0.398,1.000,4.711,0.000,0.000,-4.943,7.824,0.451,5.772,3.237,6.096,4.183,4.384,4.484,1.998,5.882,5.283,1.570,0.000,0.000,-4.623,7.898,0.451,5.786,3.297,5.956,
222.540,778.722,-4.757,7.746,1.795,1.001,0.000,0.000,0.000,3.879,4.186,2.358,2.252,0.000,0.000,0.401,0.000,0.000,3.036,0.000,0.000,0.000,0.000,0.000,0.000,0.000,0.000,0.000,0.000,0.000,3.142,6.282,0.000,2.101,1.897,1.798,4.285,0.398,0.999,4.711,0.000,0.000,-4.965,7.918,0.451,5.773,3.237,6.096,4.183,4.384,4.484,1.998,5.882,5.283,1.570,0.000,0.000,-4.644,7.992,0.451,5.786,3.297,5.956,
222.640,778.822,-4.779,7.844,1.794,1.031,6.200,0.000,0.000,2.355,4.374,2.464,2.352,4.604,0.000,0.427,0.000,0.000,3.036,0.000,0.000,0.000,0.000,0.000,0.000,0.000,0.000,0.000,0.000,0.000,3.142,6.282,0.000,2.101,1.898,1.798,4.285,0.398,0.999,4.711,0.000,0.000,-4.987,8.016,0.451,5.773,3.237,6.096,4.183,4.384,4.483,1.998,5.882,5.283,1.570,0.000,0.000,-4.667,8.090,0.451,5.786,3.297,5.956,
222.740,778.922,-4.801,7.942,1.745,1.015,5.139,0.000,0.000,0.809,4.372,2.677,2.429,0.000,0.000,0.445,0.000,0.000,3.106,0.000,0.000,0.000,0.000,0.000,0.000,0.000,0.000,0.000,0.000,0.000,3.142,6.281,0.001,2.101,1.897,1.797,4.285,0.398,0.999,4.711,0.000,0.000,-5.001,8.125,0.451,5.769,3.210,6.151,4.183,4.383,4.483,1.998,5.882,5.283,1.570,0.000,0.000,-4.677,8.182,0.452,5.779,3.271,6.011,
222.821,779.003,-4.817,8.060,1.604,0.995,4.952,3.221,0.000,1.413,1.447,2.259,0.000,0.000,0.000,0.463,0.000,0.000,3.142,0.000,0.000,0.000,0.000,0.000,0.000,0.000,0.000,0.000,0.000,0.000,3.142,6.280,0.000,2.101,1.897,1.798,4.285,0.398,0.999,4.711,0.000,0.000,-4.990,8.269,0.451,5.765,3.130,0.031,4.182,4.383,4.483,1.998,5.882,5.283,1.570,0.000,0.000,-4.661,8.280,0.451,5.767,3.191,6.173,
222.922,779.104,-4.819,8.158,1.547,1.012,6.265,2.903,0.000,1.435,1.580,2.469,0.000,0.000,0.427,0.508,0.000,0.000,3.142,0.000,0.000,0.000,0.000,0.000,0.000,0.000,0.000,0.000,0.000,0.000,3.142,6.282,0.000,2.100,1.897,1.799,4.285,0.398,0.999,4.711,0.000,0.000,-4.978,8.377,0.451,5.765,3.096,0.098,4.182,4.384,4.484,1.998,5.882,5.283,1.570,0.000,0.000,-4.649,8.369,0.451,5.765,3.158,6.240,
223.040,779.222,-4.817,8.238,1.562,1.021,0.635,2.808,0.000,1.431,0.833,2.541,0.000,0.000,0.423,0.574,0.000,0.000,3.142,0.000,0.000,0.000,0.000,0.000,0.000,0.000,0.000,0.000,0.000,0.000,3.142,0.001,0.000,2.100,1.897,1.800,4.285,0.398,1.000,4.711,0.000,0.000,-4.979,8.455,0.451,5.765,3.104,0.082,4.183,4.384,4.485,1.998,5.882,5.284,1.571,0.000,0.000,-4.650,8.452,0.451,5.765,3.166,6.224,
223.140,779.322,-4.818,8.339,1.659,1.009,1.435,3.581,0.000,1.394,0.865,2.506,0.000,0.000,0.456,0.733,0.000,0.000,3.142,0.000,0.000,0.000,0.000,0.000,0.000,0.000,0.000,0.000,0.000,0.000,3.142,0.002,0.000,2.100,1.898,1.800,4.286,0.399,1.000,4.711,0.000,0.000,-5.000,8.538,0.451,5.764,3.159,6.253,4.182,4.385,4.485,1.999,5.883,5.284,1.571,0.000,0.000,-4.672,8.567,0.451,5.770,3.221,6.112,
223.240,779.422,-4.830,8.438,1.773,1.011,1.064,0.000,0.000,1.360,0.906,2.787,2.948,0.560,0.541,0.995,0.000,0.000,3.071,0.000,0.000,0.000,0.000,0.000,0.000,0.000,0.000,0.000,0.000,0.000,3.142,0.001,0.000,2.101,1.898,1.799,4.286,0.399,0.999,4.711,0.000,0.000,-5.034,8.615,0.451,5.771,3.225,6.120,4.182,4.385,4.485,1.999,5.883,5.283,1.571,0.000,0.000,-4.711,8.681,0.452,5.782,3.285,5.981,
223.340,779.522,-4.852,8.536,1.848,1.023,0.829,4.221,0.000,1.332,0.924,3.197,3.156,0.568,0.639,2.126,0.000,0.000,3.001,0.000,0.000,0.000,0.000,0.000,0.000,0.000,0.000,0.000,0.000,0.000,3.142,0.001,0.000,2.100,1.898,1.799,4.286,0.398,1.000,4.711,0.000,0.000,-5.069,8.697,0.451,5.779,3.266,6.036,4.183,4.384,4.485,1.999,5.882,5.284,1.571,0.000,0.000,-4.752,8.787,0.451,5.794,3.325,5.897,
223.420,779.602,-4.888,8.650,1.946,1.009,1.093,0.000,0.000,1.301,0.951,3.178,3.386,0.652,0.785,2.338,0.000,0.000,2.896,0.000,0.000,0.000,0.000,0.000,0.000,0.000,0.000,0.000,0.000,0.000,3.142,0.001,0.000,2.100,1.898,1.800,4.286,0.399,1.000,4.711,0.000,0.000,-5.119,8.790,0.451,5.793,3.318,5.926,4.182,4.384,4.485,1.999,5.882,5.284,1.571,0.000,0.000,-4.814,8.911,0.451,5.815,3.374,5.790,
223.535,779.717,-4.927,8.742,2.040,1.007,1.055,0.000,0.000,1.278,0.984,0.000,3.579,0.732,0.944,2.019,0.000,0.000,2.826,0.000,0.000,0.000,0.000,0.000,0.000,0.000,0.000,0.000,0.000,0.000,3.142,0.001,0.000,2.101,1.898,1.799,4.286,0.399,1.000,4.711,0.000,0.000,-5.170,8.859,0.451,5.812,3.367,5.822,4.182,4.385,4.485,1.999,5.883,5.283,1.571,0.000,0.000,-4.877,9.008,0.451,5.839,3.419,5.688,
223.637,779.819,-4.974,8.830,2.126,1.017,0.976,4.479,0.000,1.254,1.010,0.000,0.000,0.824,1.137,2.127,0.000,0.000,3.142,0.000,0.000,0.000,0.000,0.000,0.000,0.000,0.000,0.000,0.000,0.000,3.142,0.001,0.000,2.100,1.898,1.799,4.286,0.399,1.000,4.711,0.000,0.000,-5.227,8.926,0.451,5.833,3.408,5.729,4.183,4.384,4.485,1.999,5.882,5.284,1.571,0.000,0.000,-4.947,9.099,0.451,5.863,3.457,5.598,
223.740,779.922,-5.029,8.914,2.210,1.015,1.032,3.882,0.000,1.230,1.036,0.000,1.029,0.928,2.041,2.475,0.000,0.000,2.650,0.000,0.000,0.000,0.000,0.000,0.000,0.000,0.000,0.000,0.000,0.000,3.142,0.001,0.000,2.100,1.898,1.799,4.286,0.399,1.000,4.711,0.000,0.000,-5.289,8.988,0.451,5.856,3.446,5.639,4.183,4.384,4.485,1.999,5.882,5.284,1.571,0.000,0.000,-5.025,9.185,0.451,5.891,3.491,5.511,
223.840,780.022,-5.090,8.993,2.299,1.011,1.051,3.416,0.000,1.208,1.072,0.000,1.050,1.049,2.181,2.976,0.000,0.000,2.966,0.000,0.000,0.000,0.000,0.000,0.000,0.000,0.000,0.000,0.000,0.000,3.142,0.001,0.000,2.100,1.898,1.799,4.286,0.399,1.000,4.711,0.000,0.000,-5.356,9.044,0.451,5.885,3.483,5.547,4.183,4.384,4.485,1.999,5.882,5.284,1.571,0.000,0.000,-5.110,9.263,0.451,5.923,3.524,5.422,
223.940,780.122,-5.144,9.051,2.371,1.011,1.035,3.580,0.000,1.192,1.107,3.713,1.107,1.158,2.320,3.158,0.000,0.000,2.896,0.000,0.000,0.000,0.000,0.000,0.000,0.000,0.000,0.000,0.000,0.000,3.142,0.001,0.000,2.100,1.898,1.799,4.286,0.399,1.000,4.711,0.000,0.000,-5.412,9.083,0.451,5.909,3.510,5.475,4.183,4.384,4.485,1.999,5.882,5.284,1.571,0.000,0.000,-5.183,9.319,0.451,5.950,3.548,5.352,
224.040,780.222,-5.208,9.112,2.458,0.560,0.815,3.868,0.000,1.181,1.185,3.770,1.174,1.301,1.952,2.227,0.000,0.000,2.826,0.000,0.000,0.000,0.000,0.000,0.000,0.000,0.000,0.000,0.000,0.000,3.142,0.005,0.001,2.095,1.896,1.801,4.286,0.397,1.003,4.714,0.000,0.000,-5.480,9.122,0.452,5.939,3.541,5.392,4.183,4.381,4.487,2.000,5.881,5.284,1.571,0.000,0.000,-5.271,9.376,0.452,5.984,3.574,5.271,
224.140,780.322,-5.212,9.116,2.515,-0.322,0.755,0.000,0.000,1.226,3.089,3.846,1.170,1.349,1.983,2.121,0.000,0.000,2.791,0.000,0.000,0.000,0.000,0.000,0.000,0.000,0.000,0.000,0.000,0.000,3.142,0.005,0.001,2.095,1.896,1.801,4.286,0.396,1.003,4.713,0.000,0.000,-5.484,9.110,0.452,5.962,3.560,5.337,4.183,4.381,4.487,1.999,5.881,5.285,1.571,0.000,0.000,-5.290,9.376,0.452,6.008,3.589,5.217,
224.240,780.422,-5.156,9.076,2.543,-1.068,6.234,0.000,0.000,1.325,3.025,3.843,1.099,1.291,1.954,2.147,0.000,0.000,2.720,0.000,0.000,0.000,0.000,0.000,0.000,0.000,0.000,0.000,0.000,0.000,3.142,0.005,0.001,2.095,1.895,1.800,4.286,0.396,1.003,4.714,0.000,0.000,-5.427,9.063,0.452,5.974,3.567,5.311,4.183,4.381,4.487,1.999,5.881,5.284,1.571,0.000,0.000,-5.241,9.334,0.452,6.020,3.597,5.191,
224.340,780.522,-5.028,8.989,2.543,-1.319,0.004,0.000,0.000,1.409,3.436,3.749,0.944,1.109,1.935,2.303,0.000,0.000,2.334,0.000,0.000,0.000,0.000,0.000,0.000,0.000,0.000,0.000,0.000,0.000,3.142,6.283,0.000,2.101,1.897,1.798,4.285,0.398,1.000,4.711,0.000,0.000,-5.298,8.973,0.451,5.977,3.566,5.307,4.182,4.384,4.484,1.998,5.882,5.284,1.571,0.000,0.000,-5.112,9.245,0.451,6.023,3.595,5.188,
224.440,780.622,-4.938,8.927,2.543,-0.903,0.012,0.000,0.000,1.312,3.543,3.683,0.835,0.981,2.034,2.412,0.000,0.000,2.299,0.000,0.000,0.000,0.000,0.000,0.000,0.000,0.000,0.000,0.000,0.000,3.142,6.282,6.283,2.102,1.897,1.798,4.285,0.398,0.999,4.710,0.000,0.000,-5.207,8.911,0.450,5.978,3.566,5.306,4.182,4.384,4.484,1.997,5.882,5.284,1.571,0.000,0.000,-5.022,9.183,0.451,6.024,3.595,5.187,
224.540,780.722,-4.870,8.881,2.543,-0.857,0.005,0.000,0.000,1.159,3.444,3.634,0.753,0.884,2.109,2.494,0.000,0.000,2.299,0.000,0.000,0.000,0.000,0.000,0.000,0.000,0.000,0.000,0.000,0.000,3.142,0.001,0.000,2.099,1.897,1.799,4.285,0.397,1.001,4.712,0.000,0.000,-5.140,8.866,0.451,5.976,3.567,5.308,4.182,4.383,4.485,1.998,5.882,5.284,1.571,0.000,0.000,-4.954,9.138,0.451,6.022,3.595,5.189,
224.640,780.822,-4.791,8.827,2.543,-1.072,0.005,0.000,0.000,1.074,3.388,3.576,0.658,0.773,2.149,3.192,0.000,0.000,2.264,0.000,0.000,0.000,0.000,0.000,0.000,0.000,0.000,0.000,0.000,0.000,3.142,0.001,0.000,2.099,1.897,1.799,4.285,0.397,1.001,4.712,0.000,0.000,-5.062,8.813,0.451,5.976,3.567,5.308,4.183,4.383,4.485,1.998,5.881,5.284,1.571,0.000,0.000,-4.876,9.084,0.451,6.022,3.596,5.189,
224.738,780.920,-4.726,8.783,2.543,-0.386,0.104,0.000,0.000,1.133,3.394,0.848,0.578,0.679,2.066,3.238,0.000,0.000,2.264,0.000,0.000,0.000,0.000,0.000,0.000,0.000,0.000,0.000,0.000,0.000,3.142,6.278,6.283,2.107,1.898,1.796,4.285,0.400,0.996,4.709,0.000,0.000,-4.994,8.765,0.450,5.981,3.566,5.303,4.181,4.386,4.482,1.996,5.883,5.283,1.570,0.000,0.000,-4.810,9.038,0.450,6.027,3.594,5.184,
224.837,781.019,-4.728,8.784,2.531,0.312,5.765,0.000,0.000,1.119,3.354,0.881,0.582,0.678,2.050,3.247,0.000,0.000,2.264,0.000,0.000,0.000,0.000,0.000,0.000,0.000,0.000,0.000,0.000,0.000,3.142,6.279,0.000,2.104,1.898,1.796,4.285,0.399,0.997,4.710,0.000,0.000,-4.998,8.770,0.450,5.975,3.563,5.314,4.183,4.385,4.482,1.997,5.883,5.283,1.570,0.000,0.000,-4.810,9.041,0.451,6.020,3.593,5.195,
224.934,781.115,-4.781,8.822,2.507,1.031,0.043,0.000,0.000,1.116,3.418,3.523,0.649,0.743,2.079,3.232,0.000,0.000,2.299,0.000,0.000,0.000,0.000,0.000,0.000,0.000,0.000,0.000,0.000,0.000,3.142,6.278,6.283,2.106,1.899,1.797,4.285,0.400,0.996,4.709,0.000,0.000,-5.050,8.815,0.450,5.965,3.556,5.337,4.182,4.386,4.482,1.997,5.883,5.283,1.570,0.000,0.000,-4.856,9.081,0.450,6.010,3.586,5.218,
225.030,781.212,-4.883,8.898,2.506,1.376,0.001,0.000,0.000,1.325,3.549,3.602,0.775,0.888,2.185,3.153,0.000,0.000,2.334,0.000,0.000,0.000,0.000,0.000,0.000,0.000,0.000,0.000,0.000,0.000,3.142,6.282,0.000,2.101,1.897,1.798,4.285,0.398,0.999,4.711,0.000,0.000,-5.154,8.892,0.451,5.962,3.556,5.341,4.183,4.384,4.484,1.998,5.882,5.283,1.570,0.000,0.000,-4.959,9.157,0.451,6.008,3.587,5.221,
225.128,781.310,-4.979,8.968,2.506,0.993,0.000,0.000,0.000,1.443,3.187,3.677,0.894,1.024,2.066,2.412,0.000,0.000,2.334,0.000,0.000,0.000,0.000,0.000,0.000,0.000,0.000,0.000,0.000,0.000,3.142,0.001,0.001,2.098,1.897,1.799,4.285,0.397,1.001,4.712,0.000,0.000,-5.250,8.964,0.452,5.960,3.557,5.343,4.184,4.383,4.485,1.998,5.882,5.284,1.571,0.000,0.000,-5.055,9.228,0.452,6.006,3.587,5.223,
225.226,781.408,-5.047,9.019,2.506,0.824,0.000,0.000,0.000,1.527,2.997,3.730,0.979,1.121,1.980,2.322,0.000,0.000,2.369,0.000,0.000,0.000,0.000,0.000,0.000,0.000,0.000,0.000,0.000,0.000,3.142,6.282,0.000,2.100,1.897,1.798,4.285,0.398,1.000,4.711,0.000,0.000,-5.318,9.014,0.451,5.962,3.556,5.341,4.183,4.384,4.484,1.998,5.882,5.283,1.570,0.000,0.000,-5.123,9.278,0.451,6.007,3.587,5.222,
225.324,781.506,-5.120,9.072,2.508,1.025,0.176,0.000,0.000,1.335,3.051,3.789,1.069,1.226,1.884,2.224,0.000,0.000,2.755,0.000,0.000,0.000,0.000,0.000,0.000,0.000,0.000,0.000,0.000,0.000,3.142,6.282,6.283,2.101,1.897,1.798,4.285,0.398,0.999,4.711,0.000,0.000,-5.390,9.066,0.451,5.963,3.556,5.340,4.182,4.384,4.484,1.998,5.882,5.284,1.571,0.000,0.000,-5.195,9.331,0.451,6.008,3.586,5.220,
