deveshdatwani/Gopher/Assets/Data/07-21 10-44-46/Obstacle Handling_robot_value.csv
game_time,true_time,x,y,az,vx,vaz,dis_to_obs_0,dis_to_obs_36,dis_to_obs_72,dis_to_obs_108,dis_to_obs_144,dis_to_obs_180,dis_to_obs_-144,dis_to_obs_-108,dis_to_obs_-72,dis_to_obs_-36,dis_to_min_obs,direction_to_min_obs,dis_to_human_0,dis_to_human_36,dis_to_human_72,dis_to_human_108,dis_to_human_144,dis_to_human_180,dis_to_human_-144,dis_to_human_-108,dis_to_human_-72,dis_to_human_-36,dis_to_min_human,direction_to_min_human,main_cam_yaw,main_cam_pitch,left_joint_1,left_joint_2,left_joint_3,left_joint_4,left_joint_5,left_joint_6,left_joint_7,left_joint_gripper,left_is_grasping,left_end_x,left_end_y,left_end_z,left_end_ax,left_end_ay,left_end_az,right_joint_1,right_joint_2,right_joint_3,right_joint_4,right_joint_5,right_joint_6,right_joint_7,right_joint_gripper,right_is_grasping,right_end_x,right_end_y,right_end_z,right_end_ax,right_end_ay,right_end_az,
7.671,13.295,0.996,-9.902,1.577,1.007,6.265,3.403,0.000,1.743,1.256,2.121,0.000,3.364,2.098,1.698,4.144,0.000,3.142,0.000,0.000,0.000,0.000,0.000,0.000,0.000,0.000,0.000,0.000,0.000,3.142,6.282,0.000,1.004,1.569,1.569,4.085,6.281,1.199,4.712,0.000,0.000,0.663,-9.315,0.990,4.721,4.067,5.357,5.281,4.711,4.711,2.198,6.282,5.083,1.570,0.000,0.000,1.319,-9.310,0.990,4.721,4.113,5.311,
7.780,13.404,0.995,-9.784,1.578,0.999,6.265,3.285,0.000,1.682,1.259,2.121,0.000,3.363,2.099,1.699,3.462,0.000,3.142,0.000,0.000,0.000,0.000,0.000,0.000,0.000,0.000,0.000,0.000,0.000,3.142,6.282,0.000,1.004,1.569,1.569,4.085,6.281,1.199,4.712,0.000,0.000,0.662,-9.197,0.990,4.721,4.138,5.286,5.281,4.711,4.711,2.198,6.282,5.083,1.570,0.000,0.000,1.318,-9.192,0.990,4.721,4.159,5.266,
7.880,13.504,0.994,-9.685,1.590,1.016,0.534,3.187,0.000,1.635,1.307,2.160,0.000,3.309,2.092,0.000,3.381,0.000,3.142,0.000,0.000,0.000,0.000,0.000,0.000,0.000,0.000,0.000,0.000,0.000,3.142,0.001,0.000,1.003,1.570,1.572,4.086,6.281,1.199,4.712,0.000,0.000,0.656,-9.102,0.990,4.730,4.415,5.009,5.281,4.712,4.714,2.199,6.281,5.083,1.571,0.000,0.000,1.312,-9.089,0.991,4.729,4.507,4.917,
7.980,13.604,0.991,-9.585,1.678,1.018,1.384,3.109,0.000,1.623,1.334,2.502,0.000,2.982,2.050,0.000,3.528,0.000,3.142,0.000,0.000,0.000,0.000,0.000,0.000,0.000,0.000,0.000,0.000,0.000,3.142,0.002,0.000,1.003,1.571,1.572,4.086,6.281,1.199,4.712,0.000,0.000,0.602,-9.034,0.990,4.818,4.668,4.756,5.282,4.713,4.714,2.198,6.282,5.083,1.571,0.000,0.000,1.255,-8.963,0.991,4.817,4.685,4.739,
8.080,13.704,0.977,-9.485,1.800,1.011,1.224,3.079,0.000,1.641,1.381,3.232,0.000,2.667,1.630,0.000,3.221,0.000,3.142,0.000,3.262,0.000,0.000,0.000,0.000,0.000,0.000,0.000,0.000,0.000,3.142,0.001,0.000,1.003,1.570,1.569,4.085,6.282,1.199,4.712,0.000,0.000,0.523,-8.986,0.990,4.942,4.693,4.730,5.282,4.712,4.712,2.198,6.283,5.083,1.570,0.000,0.000,1.162,-8.837,0.991,4.942,4.698,4.726,
8.172,13.796,0.957,-9.408,1.871,1.016,0.875,3.062,0.000,1.903,1.427,3.914,4.882,2.543,1.644,4.968,3.057,0.000,3.106,0.000,3.112,0.000,0.000,0.000,0.000,0.000,0.000,0.000,0.000,0.000,3.142,0.001,0.000,1.003,1.570,1.569,4.085,6.282,1.199,4.712,0.000,0.000,0.469,-8.943,0.990,5.014,4.697,4.726,5.282,4.712,4.711,2.198,6.282,5.083,1.570,0.000,0.000,1.096,-8.748,0.991,5.013,4.701,4.723,
8.280,13.904,0.919,-9.294,1.957,1.015,0.912,3.039,0.000,1.831,1.479,0.000,3.747,2.445,1.688,4.281,2.868,0.000,3.036,0.000,0.000,0.000,0.000,0.000,0.000,0.000,0.000,0.000,0.000,0.000,3.142,0.001,0.000,1.003,1.570,1.570,4.086,6.281,1.199,4.712,0.000,0.000,0.393,-8.872,0.990,5.098,4.699,4.724,5.282,4.712,4.712,2.198,6.282,5.083,1.570,0.000,0.000,1.001,-8.625,0.991,5.098,4.703,4.720,
8.378,14.002,0.888,-9.221,2.026,1.011,1.071,3.256,0.000,1.773,1.536,0.000,3.857,2.386,0.000,3.868,2.308,0.000,2.966,0.000,0.000,0.000,0.000,0.000,0.000,0.000,0.000,0.000,0.000,0.000,3.142,0.001,0.000,1.003,1.570,1.570,4.086,6.282,1.199,4.712,0.000,0.000,0.334,-8.836,0.990,5.167,4.702,4.721,5.282,4.712,4.713,2.198,6.282,5.083,1.571,0.000,0.000,0.923,-8.547,0.991,5.167,4.705,4.718,
8.480,14.104,0.832,-9.115,2.139,1.012,1.042,2.780,0.000,1.692,1.656,0.000,4.032,2.327,0.000,3.359,2.618,0.000,2.861,0.000,0.000,0.000,0.000,0.000,0.000,0.000,0.000,0.000,0.000,0.000,3.142,0.001,0.000,1.003,1.570,1.570,4.085,6.282,1.199,4.712,0.000,0.000,0.238,-8.795,0.990,5.280,4.704,4.719,5.282,4.712,4.712,2.198,6.282,5.083,1.570,0.000,0.000,0.791,-8.442,0.991,5.280,4.706,4.717,
8.580,14.204,0.788,-9.049,2.209,1.015,0.990,2.838,0.000,1.650,1.746,0.000,3.716,1.900,0.000,3.106,2.549,0.000,2.826,0.000,0.000,0.000,0.000,0.000,0.000,0.000,0.000,0.000,0.000,0.000,3.142,0.001,0.000,1.003,1.570,1.570,4.085,6.282,1.199,4.712,0.000,0.000,0.173,-8.771,0.990,5.350,4.705,4.718,5.282,4.712,4.712,2.198,6.282,5.083,1.570,0.000,0.000,0.700,-8.380,0.991,5.350,4.707,4.716,
8.664,14.288,0.713,-8.954,2.311,1.015,0.997,0.000,1.776,1.597,1.914,0.000,3.391,1.927,0.000,2.806,2.474,0.000,2.720,0.000,0.000,0.000,0.000,0.000,0.000,0.000,0.000,0.000,0.000,0.000,3.142,0.001,0.000,1.003,1.570,1.570,4.085,6.282,1.199,4.712,0.000,0.000,0.074,-8.741,0.990,5.452,4.705,4.717,5.282,4.712,4.712,2.198,6.282,5.083,1.570,0.000,0.000,0.558,-8.298,0.991,5.452,4.707,4.715,
8.780,14.404,0.644,-8.882,2.398,1.013,1.027,0.000,1.498,1.558,2.123,0.000,3.200,2.228,4.792,2.608,2.438,0.000,2.650,2.730,0.000,0.000,0.000,0.000,0.000,0.000,0.000,0.000,0.000,0.000,3.142,0.001,0.000,1.003,1.570,1.570,4.086,6.281,1.199,4.712,0.000,0.000,-0.012,-8.725,0.990,5.540,4.706,4.716,5.282,4.712,4.712,2.198,6.282,5.083,1.570,0.000,0.000,0.432,-8.242,0.991,5.539,4.708,4.715,
8.880,14.504,0.585,-8.829,2.469,1.013,1.029,0.000,1.335,1.530,2.371,0.000,3.088,3.647,4.181,2.008,2.426,0.000,2.580,2.696,0.000,0.000,0.000,0.000,0.000,0.000,0.000,0.000,0.000,0.000,3.142,0.001,0.000,1.003,1.570,1.570,4.085,6.281,1.199,4.712,0.000,0.000,-0.081,-8.719,0.990,5.610,4.706,4.715,5.282,4.712,4.712,2.198,6.282,5.083,1.570,0.000,0.000,0.328,-8.206,0.991,5.610,4.708,4.714,
8.980,14.604,0.489,-8.758,2.570,1.014,0.776,4.226,1.156,1.493,2.962,4.380,2.986,0.000,3.538,2.328,2.436,0.000,2.475,0.000,0.000,0.000,0.000,0.000,0.000,0.000,0.000,0.000,0.000,0.000,3.142,0.001,0.000,1.004,1.570,1.568,4.085,6.282,1.199,4.712,0.000,0.000,-0.185,-8.716,0.990,5.713,4.707,4.714,5.282,4.712,4.711,2.198,6.282,5.083,1.570,0.000,0.000,0.170,-8.164,0.991,5.712,4.708,4.714,
9.080,14.704,0.404,-8.705,2.593,1.013,6.251,4.069,1.125,1.469,2.880,4.459,3.042,0.000,3.361,2.261,2.518,0.000,2.475,0.000,0.000,0.000,0.000,0.000,0.000,0.000,0.000,0.000,0.000,0.000,3.142,6.282,0.000,1.004,1.569,1.568,4.085,6.281,1.199,4.712,0.000,0.000,-0.271,-8.679,0.990,5.737,4.707,4.714,5.281,4.711,4.710,2.198,6.282,5.083,1.570,0.000,0.000,0.071,-8.119,0.990,5.737,4.707,4.714,
9.180,14.804,0.319,-8.653,2.594,1.009,6.269,3.970,1.128,1.445,2.466,4.562,3.141,0.000,3.281,2.208,1.886,0.000,2.475,0.000,0.000,0.000,0.000,0.000,0.000,0.000,0.000,0.000,0.000,0.000,3.142,6.282,0.000,1.004,1.569,1.569,4.085,6.281,1.199,4.712,0.000,0.000,-0.355,-8.627,0.990,5.736,4.707,4.714,5.281,4.711,4.711,2.198,6.282,5.083,1.570,0.000,0.000,-0.014,-8.067,0.990,5.736,4.707,4.715,
9.276,14.900,0.251,-8.612,2.590,1.010,6.031,3.900,1.138,1.427,2.096,4.766,3.228,0.000,3.232,2.167,1.821,0.000,2.510,0.000,0.000,0.000,0.000,0.000,0.000,0.000,0.000,0.000,0.000,0.000,3.142,6.281,0.001,1.004,1.568,1.567,4.084,6.281,1.199,4.712,0.000,0.000,-0.423,-8.584,0.990,5.734,4.707,4.714,5.281,4.710,4.710,2.197,6.282,5.083,1.570,0.000,0.000,-0.080,-8.025,0.990,5.734,4.706,4.715,
9.380,15.004,0.150,-8.547,2.503,1.013,4.972,3.874,3.401,0.726,1.584,0.000,3.549,0.000,3.499,2.152,2.388,0.000,2.615,0.000,0.000,0.000,0.000,0.000,0.000,0.000,0.000,0.000,0.000,0.000,3.142,6.280,0.001,1.005,1.568,1.565,4.084,6.281,1.199,4.711,0.000,0.000,-0.520,-8.462,0.990,5.649,4.706,4.714,5.282,4.710,4.708,2.197,6.282,5.083,1.570,0.000,0.000,-0.129,-7.935,0.991,5.648,4.707,4.714,
9.473,15.097,0.087,-8.499,2.405,1.010,4.936,0.000,3.350,0.773,1.501,0.000,3.932,4.321,3.973,2.181,2.048,0.000,2.896,2.312,0.000,0.000,0.000,0.000,0.000,0.000,0.000,0.000,0.000,0.000,3.142,6.280,0.001,1.004,1.568,1.567,4.085,6.281,1.199,4.712,0.000,0.000,-0.571,-8.348,0.990,5.549,4.706,4.715,5.282,4.711,4.710,2.197,6.282,5.083,1.570,0.000,0.000,-0.131,-7.861,0.991,5.548,4.707,4.715,
9.580,15.204,0.002,-8.417,2.336,0.997,6.262,0.000,0.000,0.839,1.461,0.000,4.328,3.376,3.335,2.162,1.939,0.000,3.001,2.155,0.000,0.000,0.000,0.000,0.000,0.000,0.000,0.000,0.000,0.000,3.142,6.282,0.000,1.003,1.570,1.571,4.085,6.280,1.199,4.712,0.000,0.000,-0.643,-8.219,0.990,5.475,4.705,4.717,5.281,4.712,4.713,2.198,6.281,5.083,1.571,0.000,0.000,-0.170,-7.764,0.991,5.475,4.706,4.717,
9.680,15.304,-0.053,-8.360,2.337,0.996,6.271,0.000,0.000,0.864,1.463,0.000,4.401,3.727,3.283,2.097,1.882,0.000,3.001,2.181,0.000,0.000,0.000,0.000,0.000,0.000,0.000,0.000,0.000,0.000,3.142,6.283,0.000,1.003,1.569,1.569,4.085,6.281,1.199,4.712,0.000,0.000,-0.698,-8.164,0.990,5.479,4.705,4.716,5.281,4.711,4.711,2.198,6.282,5.083,1.570,0.000,0.000,-0.226,-7.709,0.990,5.479,4.706,4.716,
9.780,15.404,-0.135,-8.276,2.339,1.003,6.266,4.052,0.000,0.902,0.762,0.000,4.513,4.256,3.993,2.000,1.797,0.000,3.036,0.000,0.000,0.000,0.000,0.000,0.000,0.000,0.000,0.000,0.000,0.000,3.142,6.283,0.000,1.003,1.569,1.569,4.085,6.281,1.199,4.712,0.000,0.000,-0.780,-8.080,0.990,5.480,4.705,4.716,5.281,4.711,4.711,2.198,6.282,5.083,1.570,0.000,0.000,-0.308,-7.624,0.990,5.480,4.706,4.716,
9.871,15.495,-0.203,-8.205,2.340,1.003,6.260,3.951,0.000,0.934,0.789,0.000,4.607,4.496,3.826,1.919,1.725,0.000,3.036,0.000,0.000,0.000,0.000,0.000,0.000,0.000,0.000,0.000,0.000,0.000,3.142,6.283,0.000,1.003,1.569,1.569,4.085,6.281,1.199,4.712,0.000,0.000,-0.849,-8.010,0.990,5.481,4.705,4.716,5.281,4.711,4.711,2.198,6.282,5.083,1.570,0.000,0.000,-0.378,-7.553,0.990,5.481,4.706,4.716,
9.980,15.604,-0.272,-8.134,2.340,1.000,6.261,3.851,0.000,3.076,0.816,0.000,4.701,0.000,3.662,1.839,1.210,0.000,3.071,0.000,0.000,0.000,0.000,0.000,0.000,0.000,0.000,0.000,0.000,0.000,3.142,6.283,0.000,1.003,1.569,1.569,4.085,6.281,1.199,4.712,0.000,0.000,-0.918,-7.939,0.990,5.482,4.705,4.716,5.281,4.711,4.711,2.198,6.282,5.083,1.570,0.000,0.000,-0.447,-7.483,0.990,5.482,4.706,4.716,
10.080,15.704,-0.327,-8.077,2.341,1.000,6.261,3.772,0.000,3.015,0.837,0.000,4.777,0.000,3.531,1.775,1.153,0.000,3.071,0.000,0.000,0.000,0.000,0.000,0.000,0.000,0.000,0.000,0.000,0.000,3.142,6.283,0.000,1.004,1.569,1.569,4.085,6.281,1.199,4.712,0.000,0.000,-0.973,-7.884,0.990,5.483,4.705,4.716,5.281,4.711,4.711,2.198,6.282,5.083,1.570,0.000,0.000,-0.502,-7.427,0.990,5.483,4.706,4.716,
10.180,15.804,-0.409,-7.993,2.343,1.004,0.069,3.649,0.000,2.925,0.870,0.000,4.887,0.000,3.330,1.678,1.210,0.000,3.106,0.000,0.000,0.000,0.000,0.000,0.000,0.000,0.000,0.000,0.000,0.000,3.142,6.283,0.000,1.003,1.570,1.570,4.086,6.281,1.199,4.712,0.000,0.000,-1.055,-7.800,0.990,5.484,4.705,4.717,5.281,4.712,4.712,2.199,6.282,5.083,1.570,0.000,0.000,-0.585,-7.342,0.990,5.484,4.707,4.716,
10.280,15.904,-0.479,-7.922,2.386,1.015,1.038,3.407,0.000,2.916,0.900,0.000,4.777,0.000,2.014,1.565,1.147,0.000,3.071,0.000,0.000,0.000,0.000,0.000,0.000,0.000,0.000,0.000,0.000,0.000,3.142,0.001,0.000,1.003,1.571,1.572,4.086,6.281,1.199,4.712,0.000,0.000,-1.131,-7.756,0.990,5.524,4.705,4.717,5.282,4.713,4.714,2.199,6.281,5.083,1.571,0.000,0.000,-0.682,-7.278,0.991,5.525,4.708,4.715,
10.361,15.986,-0.553,-7.855,2.469,1.020,0.598,3.085,0.000,2.983,0.932,0.000,4.542,0.000,2.431,1.441,1.101,0.000,3.001,0.000,0.000,0.000,0.000,0.000,0.000,0.000,0.000,0.000,0.000,0.000,3.142,0.000,0.000,1.004,1.569,1.567,4.085,6.282,1.199,4.712,0.000,0.000,-1.220,-7.746,0.990,5.614,4.707,4.714,5.282,4.711,4.710,2.198,6.283,5.083,1.570,0.000,0.000,-0.811,-7.233,0.991,5.613,4.708,4.714,
10.480,16.104,-0.632,-7.793,2.481,1.012,6.274,2.960,0.000,2.910,0.949,0.000,4.601,0.000,2.282,1.370,1.040,0.000,3.036,0.000,0.000,0.000,0.000,0.000,0.000,0.000,0.000,0.000,0.000,0.000,3.142,6.282,0.000,1.004,1.569,1.569,4.085,6.281,1.199,4.712,0.000,0.000,-1.299,-7.691,0.990,5.623,4.706,4.715,5.281,4.711,4.711,2.197,6.282,5.083,1.570,0.000,0.000,-0.896,-7.173,0.990,5.623,4.706,4.715,
10.577,16.201,-0.695,-7.745,2.481,1.006,6.271,2.882,0.000,2.833,0.960,0.000,4.680,0.000,2.196,1.318,0.989,0.000,3.036,0.000,0.000,0.000,0.000,0.000,0.000,0.000,0.000,0.000,0.000,0.000,3.142,6.282,0.000,1.004,1.569,1.569,4.085,6.281,1.199,4.712,0.000,0.000,-1.361,-7.643,0.990,5.623,4.706,4.715,5.281,4.711,4.711,2.197,6.282,5.083,1.570,0.000,0.000,-0.959,-7.125,0.990,5.623,4.706,4.715,
10.680,16.304,-0.788,-7.672,2.481,1.011,6.270,2.764,0.000,2.718,0.977,0.000,4.799,0.000,2.067,0.842,0.000,0.000,3.071,0.000,0.000,0.000,0.000,0.000,0.000,0.000,0.000,0.000,0.000,0.000,3.142,6.282,0.000,1.004,1.569,1.569,4.085,6.281,1.199,4.712,0.000,0.000,-1.455,-7.570,0.990,5.623,4.707,4.715,5.281,4.711,4.711,2.198,6.282,5.083,1.570,0.000,0.000,-1.053,-7.052,0.990,5.623,4.706,4.715,
10.780,16.404,-0.867,-7.610,2.481,1.014,6.269,2.666,0.000,2.526,1.309,0.000,4.899,0.000,1.959,1.176,0.000,0.000,3.106,0.000,0.000,0.000,0.000,0.000,0.000,0.000,0.000,0.000,0.000,0.000,3.142,6.282,0.000,1.004,1.569,1.569,4.085,6.281,1.199,4.712,0.000,0.000,-1.534,-7.509,0.990,5.623,4.706,4.715,5.281,4.711,4.711,2.198,6.282,5.083,1.570,0.000,0.000,-1.132,-6.990,0.990,5.623,4.706,4.715,
10.870,16.495,-0.946,-7.549,2.481,1.011,6.268,2.567,0.000,2.525,1.693,1.468,4.998,0.000,1.850,0.796,0.000,0.000,3.106,0.000,0.000,0.000,0.000,0.000,0.000,0.000,0.000,0.000,0.000,0.000,3.142,6.282,0.000,1.004,1.569,1.569,4.085,6.281,1.199,4.712,0.000,0.000,-1.613,-7.448,0.990,5.623,4.706,4.715,5.281,4.711,4.711,2.198,6.282,5.083,1.570,0.000,0.000,-1.211,-6.929,0.990,5.623,4.706,4.715,
10.980,16.604,-1.024,-7.488,2.481,1.010,6.268,2.469,0.000,2.599,1.757,1.489,0.000,0.000,1.742,0.731,0.000,0.000,3.142,0.000,0.000,0.000,0.000,0.000,0.000,0.000,0.000,0.000,0.000,0.000,3.142,6.282,0.000,1.004,1.569,1.569,4.085,6.281,1.199,4.712,0.000,0.000,-1.691,-7.387,0.990,5.623,4.706,4.715,5.281,4.711,4.711,2.198,6.282,5.083,1.570,0.000,0.000,-1.289,-6.868,0.990,5.623,4.707,4.715,
11.080,16.704,-1.087,-7.440,2.472,1.012,5.866,2.406,0.000,2.717,1.814,1.491,0.000,0.000,1.678,0.681,0.000,0.000,3.142,0.000,0.000,0.000,0.000,0.000,0.000,0.000,0.000,0.000,0.000,0.000,3.142,6.281,0.001,1.004,1.568,1.566,4.084,6.281,1.199,4.712,0.000,0.000,-1.754,-7.334,0.990,5.617,4.707,4.714,5.281,4.710,4.709,2.197,6.282,5.083,1.570,0.000,0.000,-1.348,-6.818,0.990,5.617,4.706,4.716,
11.180,16.804,-1.180,-7.363,2.369,1.012,4.911,2.500,0.000,2.370,1.974,1.373,0.000,0.000,1.831,0.627,4.444,0.000,3.142,0.000,0.000,0.000,0.000,0.000,0.000,0.000,0.000,0.000,0.000,0.000,3.142,6.280,0.001,1.005,1.568,1.566,4.085,6.281,1.199,4.712,0.000,0.000,-1.832,-7.189,0.990,5.515,4.706,4.715,5.282,4.710,4.709,2.197,6.282,5.083,1.570,0.000,0.000,-1.374,-6.719,0.991,5.513,4.706,4.715,
11.280,16.904,-1.249,-7.292,2.249,1.007,5.056,2.731,3.084,2.162,3.349,1.329,0.000,0.000,2.184,0.586,3.952,0.000,3.142,0.000,0.000,0.000,0.000,0.000,0.000,0.000,0.000,0.000,0.000,0.000,3.142,6.280,0.001,1.004,1.569,1.568,4.085,6.281,1.199,4.712,0.000,0.000,-1.875,-7.040,0.990,5.392,4.705,4.717,5.282,4.711,4.710,2.198,6.282,5.083,1.570,0.000,0.000,-1.365,-6.628,0.991,5.392,4.707,4.716,
11.380,17.004,-1.298,-7.230,2.194,1.009,5.970,2.847,1.920,0.000,2.991,1.588,0.000,0.000,2.348,0.531,3.980,0.000,3.142,0.000,0.000,0.000,0.000,0.000,0.000,0.000,0.000,0.000,0.000,0.000,3.142,6.282,0.000,1.004,1.570,1.571,4.085,6.280,1.199,4.712,0.000,0.000,-1.908,-6.942,0.990,5.333,4.704,4.719,5.282,4.712,4.713,2.198,6.281,5.083,1.571,0.000,0.000,-1.375,-6.559,0.991,5.333,4.706,4.718,
11.480,17.104,-1.368,-7.133,2.193,1.014,6.270,2.735,1.818,0.000,2.863,1.800,0.000,0.000,2.044,0.634,3.846,0.000,3.142,0.000,0.000,0.000,0.000,0.000,0.000,0.000,0.000,0.000,0.000,0.000,3.142,6.283,0.000,1.003,1.569,1.569,4.085,6.281,1.199,4.712,0.000,0.000,-1.978,-6.845,0.990,5.334,4.704,4.718,5.281,4.711,4.711,2.198,6.282,5.083,1.570,0.000,0.000,-1.445,-6.463,0.990,5.334,4.705,4.718,
11.580,17.204,-1.426,-7.052,2.194,1.012,6.264,2.634,1.757,0.000,2.765,2.106,0.000,0.000,0.817,0.735,3.730,0.000,3.142,0.000,0.000,0.000,0.000,0.000,0.000,0.000,0.000,0.000,0.000,0.000,3.142,6.283,0.000,1.003,1.569,1.569,4.085,6.281,1.199,4.712,0.000,0.000,-2.037,-6.765,0.990,5.335,4.704,4.718,5.281,4.711,4.711,2.198,6.282,5.083,1.570,0.000,0.000,-1.504,-6.382,0.990,5.335,4.705,4.718,
11.664,17.288,-1.484,-6.971,2.185,1.011,5.876,2.566,1.590,4.929,2.632,2.186,0.000,0.000,0.571,0.825,3.633,0.000,3.142,0.000,0.000,0.000,0.000,0.000,0.000,0.000,0.000,0.000,0.000,0.000,3.142,6.281,0.001,1.004,1.568,1.566,4.084,6.281,1.199,4.712,0.000,0.000,-2.094,-6.681,0.990,5.331,4.705,4.717,5.281,4.710,4.709,2.197,6.282,5.083,1.570,0.000,0.000,-1.558,-6.302,0.990,5.330,4.703,4.719,
11.780,17.404,-1.540,-6.889,2.106,1.012,4.983,2.338,1.575,0.000,2.744,2.272,0.000,0.000,0.558,0.833,4.338,0.000,3.142,0.000,0.000,0.000,0.000,0.000,0.000,0.000,0.000,0.000,0.000,0.000,3.142,6.280,0.001,1.005,1.568,1.565,4.084,6.281,1.199,4.711,0.000,0.000,-2.126,-6.552,0.990,5.253,4.703,4.718,5.282,4.710,4.708,2.197,6.282,5.083,1.570,0.000,0.000,-1.562,-6.216,0.990,5.252,4.703,4.719,
11.874,17.498,-1.589,-6.802,1.985,1.009,4.987,2.094,1.614,0.000,2.284,4.750,2.214,4.842,0.596,0.801,3.167,0.000,1.597,0.000,0.000,0.000,0.000,0.000,0.000,0.000,0.000,0.000,0.000,0.000,3.142,6.280,0.001,1.004,1.569,1.567,4.085,6.281,1.199,4.712,0.000,0.000,-2.128,-6.396,0.990,5.129,4.700,4.722,5.282,4.711,4.710,2.197,6.282,5.083,1.570,0.000,0.000,-1.527,-6.131,0.991,5.128,4.703,4.720,
11.980,17.604,-1.627,-6.710,1.887,1.010,5.334,2.204,1.669,4.575,2.270,4.360,2.052,0.000,0.630,0.786,3.151,0.000,1.702,0.000,0.000,0.000,0.000,0.000,0.000,0.000,0.000,0.000,0.000,0.000,3.142,6.281,0.001,1.004,1.569,1.568,4.085,6.281,1.199,4.712,0.000,0.000,-2.123,-6.253,0.990,5.030,4.697,4.726,5.282,4.711,4.711,2.197,6.282,5.083,1.570,0.000,0.000,-1.500,-6.048,0.991,5.030,4.699,4.724,
12.080,17.704,-1.651,-6.634,1.826,1.017,5.419,2.595,1.716,1.455,4.922,4.027,2.041,0.000,0.655,0.782,3.275,0.000,1.808,0.000,0.000,0.000,0.000,0.000,0.000,0.000,0.000,0.000,0.000,0.000,3.142,6.281,0.001,1.004,1.569,1.568,4.085,6.281,1.199,4.712,0.000,0.000,-2.119,-6.147,0.990,4.969,4.694,4.729,5.282,4.711,4.710,2.197,6.282,5.083,1.570,0.000,0.000,-1.484,-5.981,0.991,4.969,4.695,4.728,
12.180,17.804,-1.678,-6.517,1.728,1.014,5.279,4.443,1.831,1.333,0.000,2.831,2.408,0.000,0.689,0.769,2.670,0.000,2.053,0.000,0.000,0.000,0.000,0.000,0.000,0.000,0.000,0.000,0.000,0.000,3.142,6.281,0.001,1.004,1.568,1.567,4.085,6.281,1.199,4.712,0.000,0.000,-2.097,-5.987,0.990,4.872,4.682,4.741,5.282,4.711,4.710,2.197,6.282,5.083,1.570,0.000,0.000,-1.448,-5.884,0.990,4.871,4.684,4.739,
12.280,17.904,-1.692,-6.418,1.637,1.009,5.235,3.411,1.994,1.341,0.000,2.993,2.745,0.000,0.716,1.289,2.275,0.000,2.931,0.000,0.000,0.000,0.000,0.000,0.000,0.000,0.000,0.000,0.000,0.000,3.142,6.280,0.001,1.004,1.568,1.567,4.085,6.281,1.199,4.712,0.000,0.000,-2.060,-5.853,0.990,4.781,4.642,4.781,5.282,4.711,4.710,2.197,6.282,5.083,1.570,0.000,0.000,-1.405,-5.809,0.991,4.780,4.648,4.775,
12.363,17.987,-1.697,-6.319,1.580,1.013,6.105,2.952,1.795,1.356,0.000,2.803,2.838,0.000,0.732,1.267,2.240,0.000,3.001,0.000,0.000,0.000,0.000,0.000,0.000,0.000,0.000,0.000,0.000,0.000,3.142,6.282,0.000,1.004,1.570,1.571,4.085,6.281,1.199,4.712,0.000,0.000,-2.030,-5.733,0.990,4.721,4.129,5.295,5.282,4.712,4.713,2.198,6.281,5.083,1.571,0.000,0.000,-1.374,-5.727,0.991,4.721,4.219,5.206,
12.480,18.104,-1.698,-6.219,1.580,1.011,6.262,2.849,1.669,1.355,0.000,2.801,2.938,0.000,0.733,1.268,2.119,0.000,3.001,0.000,0.000,0.000,0.000,0.000,0.000,0.000,0.000,0.000,0.000,0.000,3.142,6.283,0.000,1.003,1.569,1.569,4.085,6.281,1.199,4.712,0.000,0.000,-2.032,-5.633,0.990,4.723,4.247,5.177,5.281,4.711,4.711,2.198,6.282,5.083,1.570,0.000,0.000,-1.376,-5.627,0.990,4.723,4.290,5.134,
12.571,18.195,-1.699,-6.140,1.576,1.011,6.027,2.748,1.563,1.356,1.496,2.784,3.017,0.000,0.735,1.267,2.028,0.000,3.001,0.000,0.000,0.000,0.000,0.000,0.000,0.000,0.000,0.000,0.000,0.000,3.142,6.281,0.001,1.004,1.568,1.567,4.084,6.281,1.199,4.712,0.000,0.000,-2.032,-5.553,0.990,4.722,4.215,5.209,5.281,4.710,4.709,2.197,6.282,5.083,1.570,0.000,0.000,-1.376,-5.548,0.990,4.722,4.147,5.277,
12.680,18.304,-1.697,-6.020,1.489,1.012,4.967,2.664,1.329,1.398,1.348,2.672,3.147,0.000,0.757,1.234,2.012,0.000,3.106,0.000,0.000,0.000,0.000,0.000,0.000,0.000,0.000,0.000,0.000,0.000,3.142,6.280,0.001,1.005,1.568,1.565,4.084,6.281,1.199,4.711,0.000,0.000,-1.979,-5.406,0.990,4.790,1.632,1.508,5.282,4.710,4.708,2.197,6.282,5.083,1.570,0.000,0.000,-1.325,-5.459,0.991,4.791,1.628,1.512,
12.780,18.404,-1.687,-5.921,1.388,1.010,5.646,3.361,1.473,1.474,1.330,0.000,0.000,0.000,0.782,1.199,4.394,0.000,3.142,0.000,0.000,0.000,0.000,0.000,0.000,0.000,0.000,0.000,0.000,0.000,3.142,6.281,0.000,1.004,1.570,1.570,4.085,6.280,1.199,4.712,0.000,0.000,-1.902,-5.283,0.990,4.897,1.599,1.543,5.282,4.712,4.713,2.198,6.281,5.083,1.571,0.000,0.000,-1.257,-5.401,0.991,4.897,1.591,1.551,
12.879,18.503,-1.672,-5.843,1.378,1.011,6.267,3.095,1.539,1.499,1.343,0.000,0.000,0.000,0.769,1.182,4.330,0.000,3.142,0.000,0.000,0.000,0.000,0.000,0.000,0.000,0.000,0.000,0.000,0.000,3.142,6.283,0.000,1.003,1.570,1.570,4.085,6.281,1.199,4.712,0.000,0.000,-1.881,-5.202,0.990,4.907,1.596,1.545,5.281,4.712,4.712,2.198,6.282,5.083,1.570,0.000,0.000,-1.237,-5.328,0.990,4.906,1.593,1.549,
12.980,18.604,-1.649,-5.726,1.379,1.012,6.267,2.976,1.586,1.524,1.366,0.000,0.000,0.000,0.903,1.109,4.153,0.000,3.142,0.000,0.000,0.000,0.000,0.000,0.000,0.000,0.000,0.000,0.000,0.000,3.142,6.283,0.000,1.003,1.569,1.569,4.085,6.281,1.199,4.712,0.000,0.000,-1.860,-5.085,0.990,4.904,1.597,1.545,5.281,4.711,4.711,2.198,6.282,5.083,1.570,0.000,0.000,-1.216,-5.210,0.990,4.904,1.593,1.548,
13.080,18.704,-1.634,-5.648,1.380,1.012,6.264,2.896,1.617,1.540,1.382,0.000,0.000,0.000,1.068,0.000,1.690,0.000,3.142,0.000,0.000,0.000,0.000,0.000,0.000,0.000,0.000,3.367,0.000,0.000,3.142,6.283,0.000,1.003,1.569,1.569,4.085,6.281,1.199,4.712,0.000,0.000,-1.845,-5.007,0.990,4.903,1.597,1.544,5.281,4.711,4.711,2.198,6.282,5.083,1.570,0.000,0.000,-1.201,-5.131,0.990,4.903,1.594,1.548,
13.180,18.804,-1.612,-5.531,1.381,1.012,6.260,2.780,3.130,1.367,1.405,0.000,0.000,0.000,1.264,0.000,1.519,0.000,3.142,0.000,0.000,0.000,0.000,0.000,0.000,0.000,0.000,3.694,0.000,0.000,3.142,6.283,0.000,1.003,1.569,1.569,4.085,6.281,1.199,4.712,0.000,0.000,-1.823,-4.890,0.990,4.902,1.597,1.545,5.281,4.711,4.711,2.198,6.282,5.083,1.570,0.000,0.000,-1.179,-5.014,0.990,4.902,1.594,1.547,
13.280,18.904,-1.597,-5.454,1.385,0.938,0.264,2.757,3.138,1.211,1.420,0.000,0.000,1.391,1.245,4.424,1.459,0.000,3.142,0.000,0.000,0.000,0.000,0.000,0.000,0.000,0.000,0.000,0.000,0.000,3.142,0.001,0.000,1.002,1.570,1.571,4.087,6.281,1.200,4.712,0.000,0.000,-1.810,-4.814,0.990,4.901,1.602,1.540,5.281,4.712,4.713,2.199,6.282,5.083,1.570,0.000,0.000,-1.165,-4.936,0.990,4.900,1.592,1.550,
13.380,19.004,-1.580,-5.356,1.474,0.787,1.357,2.064,1.466,1.211,1.464,0.000,3.819,1.144,1.175,4.309,1.656,0.000,3.106,0.000,0.000,0.000,0.000,0.000,0.000,0.000,0.000,0.000,0.000,0.000,3.142,0.002,0.000,1.003,1.571,1.572,4.086,6.281,1.199,4.712,0.000,0.000,-1.849,-4.738,0.990,4.812,1.621,1.520,5.282,4.713,4.714,2.198,6.282,5.083,1.571,0.000,0.000,-1.196,-4.802,0.991,4.812,1.601,1.541,
13.480,19.104,-1.575,-5.293,1.573,0.832,1.350,1.882,1.277,1.485,1.514,3.387,3.864,1.074,1.075,4.048,1.873,0.000,3.001,0.000,0.000,0.000,0.000,0.000,0.000,0.000,0.000,0.000,0.000,0.000,3.142,0.001,0.000,1.004,1.570,1.569,4.085,6.282,1.199,4.712,0.000,0.000,-1.906,-4.705,0.990,4.718,3.862,5.562,5.282,4.712,4.712,2.198,6.282,5.083,1.570,0.000,0.000,-1.249,-4.703,0.991,4.717,3.833,5.591,
13.573,19.197,-1.578,-5.203,1.638,1.005,0.096,1.754,1.176,1.458,1.550,3.358,3.746,1.247,0.000,4.063,1.507,0.000,2.931,0.000,0.000,0.000,0.000,0.000,0.000,0.000,0.000,0.000,0.000,0.000,3.142,6.282,0.000,1.005,1.568,1.565,4.083,6.282,1.199,4.711,0.000,0.000,-1.948,-4.638,0.990,4.785,4.656,4.767,5.281,4.710,4.708,2.198,6.283,5.083,1.570,0.000,0.000,-1.293,-4.593,0.991,4.784,4.654,4.770,
13.680,19.304,-1.586,-5.081,1.637,1.013,6.275,1.626,1.164,0.819,1.541,3.499,3.870,1.406,0.000,4.071,1.620,0.000,2.966,0.000,0.000,0.000,0.000,0.000,0.000,0.000,0.000,0.000,0.000,0.000,3.142,6.282,0.001,1.004,1.569,1.569,4.085,6.281,1.199,4.712,0.000,0.000,-1.954,-4.515,0.990,4.780,4.639,4.784,5.281,4.711,4.711,2.197,6.282,5.083,1.570,0.000,0.000,-1.299,-4.471,0.990,4.780,4.640,4.784,
13.780,19.404,-1.591,-5.005,1.637,0.939,6.275,1.546,1.156,0.778,1.535,3.588,3.948,1.505,0.000,4.076,1.531,0.000,2.966,0.000,0.000,0.000,0.000,0.000,0.000,0.000,0.000,0.000,0.000,0.000,3.142,6.282,0.001,1.004,1.569,1.569,4.085,6.281,1.199,4.712,0.000,0.000,-1.959,-4.439,0.990,4.779,4.637,4.786,5.281,4.711,4.711,2.197,6.282,5.083,1.570,0.000,0.000,-1.304,-4.395,0.990,4.780,4.640,4.784,
13.861,19.486,-1.599,-4.896,1.637,0.939,6.272,1.432,2.136,0.771,1.527,3.715,4.059,1.709,0.000,1.134,1.403,0.000,2.966,0.000,0.000,0.000,0.000,0.000,0.000,0.000,0.000,0.000,0.000,0.000,3.142,6.282,0.000,1.004,1.569,1.569,4.084,6.281,1.199,4.712,0.000,0.000,-1.966,-4.330,0.990,4.780,4.646,4.778,5.281,4.711,4.711,2.197,6.282,5.083,1.570,0.000,0.000,-1.311,-4.286,0.990,4.780,4.641,4.783,
13.980,19.604,-1.605,-4.801,1.637,0.982,6.271,1.335,2.127,0.764,1.520,3.825,4.154,1.719,0.000,1.141,1.293,0.000,2.966,0.000,0.000,0.000,0.000,0.000,0.000,0.000,0.000,0.000,0.000,0.000,3.142,6.282,0.000,1.004,1.569,1.569,4.084,6.281,1.199,4.712,0.000,0.000,-1.972,-4.236,0.990,4.779,4.645,4.778,5.281,4.711,4.711,2.197,6.282,5.083,1.570,0.000,0.000,-1.318,-4.192,0.990,4.780,4.642,4.782,
14.078,19.702,-1.610,-4.724,1.637,0.980,6.270,1.258,2.119,0.759,1.515,3.914,4.231,1.727,0.000,1.200,1.202,0.000,2.966,0.000,0.000,0.000,0.000,0.000,0.000,0.000,0.000,0.000,0.000,0.000,3.142,6.282,0.000,1.004,1.569,1.569,4.085,6.281,1.199,4.712,0.000,0.000,-1.977,-4.158,0.990,4.779,4.641,4.782,5.281,4.711,4.711,2.198,6.282,5.083,1.570,0.000,0.000,-1.323,-4.114,0.990,4.779,4.642,4.783,
14.180,19.804,-1.616,-4.635,1.605,0.498,5.435,1.187,2.191,0.759,1.489,0.000,4.525,1.805,0.000,1.192,1.130,0.000,3.001,0.000,0.000,0.000,0.000,0.000,0.000,0.000,0.000,0.000,0.000,0.000,3.142,6.282,0.001,1.002,1.569,1.567,4.088,6.281,1.199,4.712,0.000,0.000,-1.966,-4.057,0.989,4.750,4.542,4.881,5.281,4.711,4.710,2.197,6.282,5.083,1.570,0.000,0.000,-1.310,-4.034,0.990,4.750,4.562,4.861,
14.280,19.904,-1.616,-4.598,1.517,0.341,5.482,1.210,2.466,0.779,0.765,2.286,4.566,1.863,0.000,1.159,1.146,0.000,3.106,0.000,0.000,0.000,0.000,0.000,0.000,0.000,0.000,0.000,0.000,0.000,3.142,6.281,0.001,1.004,1.569,1.570,4.085,6.281,1.199,4.712,0.000,0.000,-1.913,-3.992,0.990,4.767,1.661,1.480,5.282,4.712,4.712,2.197,6.281,5.083,1.571,0.000,0.000,-1.257,-4.027,0.991,4.767,1.648,1.494,
14.371,19.995,-1.614,-4.559,1.492,0.492,6.265,1.191,2.565,0.789,0.763,2.218,4.613,1.880,4.897,1.148,1.118,0.000,3.106,0.000,0.000,0.000,0.000,0.000,0.000,0.000,0.000,0.000,0.000,0.000,3.142,6.282,0.000,1.004,1.569,1.569,4.084,6.281,1.199,4.712,0.000,0.000,-1.895,-3.946,0.990,4.791,1.623,1.518,5.281,4.711,4.711,2.198,6.282,5.083,1.570,0.000,0.000,-1.241,-3.997,0.990,4.791,1.626,1.516,
14.474,20.098,-1.609,-4.506,1.493,0.567,6.260,1.138,2.569,0.793,0.767,2.227,4.665,2.108,0.000,1.144,1.049,0.000,3.106,0.000,0.000,0.000,0.000,0.000,0.000,0.000,0.000,0.000,0.000,0.000,3.142,6.283,0.000,1.004,1.569,1.569,4.085,6.281,1.199,4.712,0.000,0.000,-1.892,-3.893,0.990,4.790,1.633,1.507,5.281,4.711,4.711,2.198,6.282,5.083,1.570,0.000,0.000,-1.238,-3.944,0.990,4.790,1.628,1.513,
14.580,20.204,-1.606,-4.454,1.494,0.490,6.263,1.086,2.573,0.797,0.772,2.236,4.717,2.097,0.000,1.140,0.981,0.000,3.106,0.000,0.000,0.000,0.000,0.000,0.000,0.000,0.000,0.000,0.000,0.000,3.142,6.283,0.000,1.003,1.570,1.570,4.086,6.281,1.199,4.712,0.000,0.000,-1.888,-3.842,0.990,4.790,1.640,1.501,5.281,4.711,4.712,2.198,6.282,5.083,1.570,0.000,0.000,-1.234,-3.892,0.990,4.789,1.629,1.512,
14.680,20.304,-1.603,-4.419,1.495,0.452,6.261,1.050,2.576,0.800,0.775,2.242,4.752,2.090,0.000,1.138,0.951,0.000,3.106,0.000,0.000,0.000,0.000,0.000,0.000,0.000,0.000,0.000,0.000,0.000,3.142,6.283,0.000,1.003,1.569,1.569,4.085,6.281,1.199,4.712,0.000,0.000,-1.886,-3.806,0.990,4.789,1.637,1.504,5.281,4.711,4.711,2.198,6.282,5.083,1.570,0.000,0.000,-1.232,-3.856,0.990,4.788,1.630,1.511,
14.772,20.397,-1.599,-4.365,1.496,0.494,6.263,0.996,2.580,1.031,0.779,2.251,4.806,2.080,0.000,1.134,0.946,0.000,3.106,0.000,0.000,0.000,0.000,0.000,0.000,0.000,0.000,0.000,0.000,0.000,3.142,6.282,0.000,1.004,1.569,1.569,4.085,6.281,1.199,4.712,0.000,0.000,-1.882,-3.752,0.990,4.787,1.633,1.508,5.281,4.711,4.711,2.198,6.282,5.083,1.570,0.000,0.000,-1.228,-3.801,0.990,4.787,1.631,1.510,
14.880,20.504,-1.595,-4.316,1.496,0.512,6.263,0.947,2.585,1.035,0.783,2.259,4.855,2.071,0.000,1.130,0.941,0.000,3.106,0.000,0.000,0.000,0.000,0.000,0.000,0.000,0.000,0.000,0.000,0.000,3.142,6.282,0.000,1.004,1.569,1.569,4.085,6.281,1.199,4.712,0.000,0.000,-1.879,-3.704,0.990,4.787,1.636,1.505,5.281,4.711,4.711,2.198,6.282,5.083,1.570,0.000,0.000,-1.225,-3.752,0.990,4.787,1.632,1.509,
14.980,20.604,-1.591,-4.267,1.497,0.490,6.263,0.899,2.589,1.507,0.787,2.266,4.903,2.062,0.000,1.127,0.936,0.000,3.106,0.000,0.000,0.000,0.000,0.000,0.000,0.000,0.000,0.000,0.000,0.000,3.142,6.283,0.000,1.003,1.569,1.569,4.085,6.281,1.199,4.712,0.000,0.000,-1.876,-3.655,0.990,4.787,1.638,1.503,5.281,4.711,4.711,2.198,6.282,5.083,1.570,0.000,0.000,-1.221,-3.704,0.990,4.786,1.632,1.509,
15.080,20.704,-1.589,-4.230,1.497,0.481,6.264,0.861,2.592,1.510,0.790,2.272,4.941,2.055,0.000,1.124,0.932,0.000,3.106,0.000,0.000,0.000,0.000,0.000,0.000,0.000,0.000,0.000,0.000,0.000,3.142,6.282,0.000,1.004,1.569,1.569,4.085,6.281,1.199,4.712,0.000,0.000,-1.873,-3.618,0.990,4.786,1.637,1.504,5.281,4.711,4.711,2.198,6.282,5.083,1.570,0.000,0.000,-1.219,-3.666,0.990,4.786,1.633,1.508,
15.168,20.792,-1.584,-4.173,1.498,0.553,0.047,0.804,2.595,1.514,0.794,2.282,4.998,2.043,0.000,1.120,0.927,0.000,3.106,0.000,0.000,0.000,0.000,0.000,0.000,0.000,0.000,0.000,0.000,0.000,3.142,6.282,0.000,1.004,1.569,1.569,4.084,6.281,1.199,4.712,0.000,0.000,-1.870,-3.562,0.990,4.785,1.630,1.511,5.281,4.711,4.711,2.198,6.282,5.083,1.570,0.000,0.000,-1.215,-3.609,0.990,4.785,1.628,1.513,
15.280,20.904,-1.580,-4.106,1.539,0.794,0.998,0.720,2.454,1.497,0.808,2.413,0.000,1.826,1.092,1.128,0.968,0.000,3.142,0.000,0.000,0.000,0.000,0.000,0.000,0.000,0.000,0.000,0.000,0.000,3.142,0.000,6.283,1.004,1.570,1.572,4.084,6.281,1.199,4.712,0.000,0.000,-1.888,-3.507,0.990,4.747,1.691,1.450,5.282,4.712,4.714,2.199,6.282,5.083,1.571,0.000,0.000,-1.232,-3.528,0.991,4.747,1.658,1.484,
15.380,21.004,-1.580,-4.028,1.634,0.750,0.800,0.609,2.173,1.458,0.838,2.792,4.832,1.944,1.113,0.872,1.113,0.000,3.106,0.000,0.000,0.000,0.000,0.000,0.000,0.000,0.000,0.000,0.000,0.000,3.142,0.001,0.001,1.003,1.569,1.568,4.086,6.282,1.199,4.712,0.000,0.000,-1.946,-3.460,0.990,4.777,4.631,4.792,5.282,4.712,4.711,2.198,6.283,5.083,1.570,0.000,0.000,-1.290,-3.419,0.991,4.777,4.654,4.770,
15.480,21.104,-1.583,-3.975,1.654,0.600,0.005,0.551,2.118,1.447,0.842,2.884,4.742,2.156,1.111,0.699,1.368,0.000,3.071,0.000,0.000,0.000,0.000,0.000,0.000,0.000,0.000,0.000,0.000,0.000,3.142,6.283,0.001,1.003,1.569,1.567,4.086,6.281,1.199,4.712,0.000,0.000,-1.961,-3.415,0.990,4.798,4.646,4.777,5.281,4.711,4.710,2.198,6.282,5.083,1.570,0.000,0.000,-1.307,-3.361,0.990,4.798,4.658,4.766,
15.580,21.204,-1.589,-3.913,1.654,0.382,6.266,0.489,2.110,1.442,0.836,2.873,4.804,2.314,1.117,0.645,1.296,0.000,3.106,0.000,0.000,0.000,0.000,0.000,0.000,0.000,0.000,0.000,0.000,0.000,3.142,0.001,0.001,1.002,1.570,1.570,4.088,6.281,1.200,4.712,0.000,0.000,-1.964,-3.352,0.989,4.795,4.630,4.793,5.281,4.712,4.712,2.198,6.282,5.083,1.570,0.000,0.000,-1.311,-3.299,0.990,4.795,4.655,4.769,
15.680,21.304,-1.590,-3.892,1.655,0.114,6.265,0.468,2.106,1.440,0.834,2.873,4.822,2.372,1.118,0.647,1.271,0.000,3.106,0.000,0.000,0.000,0.000,0.000,0.000,0.000,0.000,0.000,0.000,0.000,3.142,0.000,0.001,1.003,1.570,1.570,4.087,6.281,1.199,4.712,0.000,0.000,-1.967,-3.331,0.990,4.796,4.642,4.781,5.281,4.712,4.712,2.198,6.282,5.083,1.570,0.000,0.000,-1.313,-3.277,0.990,4.796,4.656,4.768,
15.780,21.404,-1.591,-3.888,1.655,0.000,6.270,0.465,2.104,1.439,0.834,2.874,4.822,2.384,1.118,0.647,1.267,0.000,3.106,0.000,0.000,0.000,0.000,0.000,0.000,0.000,0.000,0.000,0.000,0.000,3.142,6.283,0.000,1.003,1.569,1.569,4.086,6.281,1.199,4.712,0.000,0.000,-1.968,-3.329,0.990,4.797,4.651,4.773,5.281,4.711,4.711,2.198,6.282,5.083,1.570,0.000,0.000,-1.314,-3.273,0.990,4.797,4.659,4.765,
15.860,21.485,-1.588,-3.922,1.652,-0.754,6.132,0.499,2.115,1.443,0.836,2.864,4.810,2.278,1.117,0.644,1.308,0.000,3.106,0.000,0.000,0.000,0.000,0.000,0.000,0.000,0.000,0.000,0.000,0.000,3.142,0.005,0.001,0.998,1.573,1.574,4.095,6.281,1.200,4.712,0.000,0.000,-1.961,-3.358,0.989,4.789,4.582,4.842,5.280,4.714,4.715,2.199,6.282,5.083,1.570,0.000,0.000,-1.307,-3.308,0.990,4.790,4.658,4.766,
15.980,21.604,-1.579,-4.035,1.645,-1.428,6.269,0.613,2.146,1.454,0.843,0.000,4.744,1.955,1.109,0.866,1.132,0.000,3.106,0.000,0.000,0.000,0.000,0.000,0.000,0.000,0.000,0.000,0.000,0.000,3.142,0.002,0.001,1.001,1.571,1.572,4.090,6.281,1.200,4.712,0.000,0.000,-1.948,-3.470,0.989,4.783,4.609,4.815,5.280,4.713,4.714,2.199,6.282,5.083,1.570,0.000,0.000,-1.294,-3.423,0.990,4.784,4.653,4.772,
16.080,21.704,-1.569,-4.169,1.645,-1.167,6.276,0.746,2.160,1.016,0.854,0.000,4.608,1.760,1.047,1.160,1.114,0.000,2.966,0.000,0.000,0.000,0.000,0.000,0.000,0.000,0.000,0.000,0.000,0.000,3.142,6.281,6.283,1.005,1.568,1.568,4.082,6.281,1.199,4.712,0.000,0.000,-1.942,-3.607,0.990,4.789,4.673,4.750,5.281,4.711,4.710,2.199,6.282,5.083,1.570,0.000,0.000,-1.287,-3.557,0.991,4.789,4.661,4.763,
16.180,21.804,-1.562,-4.261,1.646,-0.794,6.276,0.838,2.170,1.472,0.862,0.000,4.514,1.638,0.000,1.153,1.100,0.000,2.966,0.000,0.000,0.000,0.000,0.000,0.000,0.000,0.000,0.000,0.000,0.000,3.142,6.282,0.000,1.004,1.569,1.569,4.084,6.281,1.199,4.712,0.000,0.000,-1.934,-3.699,0.990,4.788,4.657,4.767,5.281,4.711,4.711,2.199,6.282,5.083,1.570,0.000,0.000,-1.280,-3.649,0.990,4.788,4.660,4.764,
16.280,21.904,-1.556,-4.343,1.646,-0.937,6.274,0.919,2.179,0.813,0.869,4.334,4.430,1.549,0.000,1.146,1.089,0.000,2.966,0.000,0.000,0.000,0.000,0.000,0.000,0.000,0.000,0.000,0.000,0.000,3.142,0.001,0.001,1.002,1.570,1.571,4.088,6.281,1.200,4.712,0.000,0.000,-1.927,-3.779,0.990,4.786,4.625,4.799,5.280,4.712,4.713,2.199,6.282,5.083,1.570,0.000,0.000,-1.273,-3.731,0.990,4.786,4.656,4.768,
16.370,21.994,-1.550,-4.424,1.646,-1.110,6.275,0.999,2.187,0.819,0.875,4.239,4.346,1.539,0.000,1.140,1.078,0.000,2.966,0.000,0.000,0.000,0.000,0.000,0.000,0.000,0.000,0.000,0.000,0.000,3.142,0.001,0.000,1.002,1.570,1.570,4.087,6.281,1.200,4.712,0.000,0.000,-1.921,-3.860,0.990,4.787,4.631,4.793,5.280,4.712,4.713,2.199,6.282,5.083,1.570,0.000,0.000,-1.267,-3.812,0.990,4.787,4.657,4.767,
16.480,22.104,-1.540,-4.554,1.647,-1.047,6.275,1.129,2.201,0.829,1.598,4.088,4.213,1.600,0.000,1.129,1.059,0.000,2.931,0.000,0.000,0.000,0.000,0.000,0.000,0.000,0.000,0.000,0.000,0.000,3.142,6.283,0.000,1.004,1.569,1.569,4.085,6.281,1.199,4.712,0.000,0.000,-1.912,-3.992,0.990,4.789,4.652,4.772,5.281,4.711,4.711,2.199,6.282,5.083,1.570,0.000,0.000,-1.258,-3.942,0.990,4.789,4.659,4.765,
16.580,22.204,-1.533,-4.651,1.647,-0.953,6.275,1.225,2.211,0.836,1.606,3.976,4.114,1.588,0.000,1.122,1.109,0.000,2.931,0.000,0.000,0.000,0.000,0.000,0.000,0.000,0.000,0.000,0.000,0.000,3.142,6.283,0.000,1.003,1.570,1.570,4.085,6.281,1.199,4.712,0.000,0.000,-1.905,-4.088,0.990,4.789,4.647,4.777,5.281,4.711,4.712,2.199,6.282,5.083,1.570,0.000,0.000,-1.251,-4.039,0.990,4.789,4.659,4.765,
16.669,22.293,-1.525,-4.746,1.647,-0.995,6.275,1.319,2.221,0.844,1.614,3.866,4.017,1.576,0.000,1.114,1.219,0.000,2.931,0.000,0.000,0.000,0.000,0.000,0.000,0.000,0.000,0.000,0.000,0.000,3.142,0.000,0.000,1.003,1.570,1.570,4.086,6.281,1.199,4.712,0.000,0.000,-1.898,-4.183,0.990,4.788,4.639,4.784,5.280,4.712,4.712,2.199,6.282,5.083,1.570,0.000,0.000,-1.244,-4.133,0.990,4.788,4.658,4.766,
16.780,22.404,-1.518,-4.846,1.648,-1.043,6.275,1.418,2.232,0.852,1.623,3.749,3.914,1.563,0.000,1.051,1.336,0.000,2.931,0.000,0.000,0.000,0.000,0.000,0.000,0.000,0.000,0.000,0.000,0.000,3.142,0.000,0.000,1.003,1.570,1.570,4.086,6.281,1.199,4.712,0.000,0.000,-1.890,-4.284,0.990,4.789,4.642,4.781,5.280,4.712,4.712,2.199,6.282,5.083,1.570,0.000,0.000,-1.236,-4.233,0.990,4.789,4.659,4.765,
16.880,22.504,-1.511,-4.927,1.648,-1.027,6.275,1.499,2.241,0.858,1.630,3.655,3.831,1.553,0.000,1.152,1.431,0.000,2.931,0.000,0.000,0.000,0.000,0.000,0.000,0.000,0.000,0.000,0.000,0.000,3.142,6.283,0.000,1.003,1.570,1.570,4.086,6.281,1.199,4.712,0.000,0.000,-1.884,-4.365,0.990,4.789,4.646,4.777,5.281,4.712,4.712,2.199,6.282,5.083,1.570,0.000,0.000,-1.230,-4.315,0.990,4.789,4.659,4.765,
16.980,22.604,-1.502,-5.046,1.649,-0.996,6.275,1.617,2.253,0.867,1.640,3.524,3.709,1.538,0.000,3.999,1.341,0.000,2.931,0.000,0.000,0.000,0.000,0.000,0.000,0.000,0.000,0.000,0.000,0.000,3.142,0.000,0.000,1.003,1.570,1.570,4.086,6.281,1.199,4.712,0.000,0.000,-1.875,-4.484,0.990,4.790,4.646,4.778,5.281,4.712,4.712,2.199,6.282,5.083,1.570,0.000,0.000,-1.221,-4.433,0.990,4.790,4.659,4.765,
17.080,22.704,-1.495,-5.144,1.649,-1.008,6.275,1.714,1.286,1.162,1.649,3.542,3.609,1.337,0.000,3.991,1.682,0.000,2.931,0.000,0.000,0.000,0.000,0.000,0.000,0.000,0.000,0.000,0.000,0.000,3.142,0.000,0.000,1.003,1.570,1.570,4.086,6.281,1.199,4.712,0.000,0.000,-1.868,-4.582,0.990,4.790,4.644,4.780,5.280,4.712,4.712,2.199,6.282,5.083,1.570,0.000,0.000,-1.214,-4.531,0.990,4.790,4.660,4.765,
17.174,22.798,-1.488,-5.224,1.649,-1.019,6.275,1.793,1.295,1.546,1.656,3.556,3.528,1.232,0.000,3.985,1.936,0.000,2.896,0.000,0.000,0.000,0.000,0.000,0.000,0.000,0.000,0.000,0.000,0.000,3.142,0.000,0.000,1.003,1.570,1.570,4.086,6.281,1.199,4.712,0.000,0.000,-1.862,-4.662,0.990,4.790,4.645,4.779,5.281,4.712,4.712,2.199,6.282,5.083,1.570,0.000,0.000,-1.208,-4.611,0.990,4.790,4.660,4.764,
17.280,22.904,-1.479,-5.343,1.650,-1.013,6.275,1.912,1.309,1.556,1.667,3.578,3.405,1.075,0.954,3.975,1.918,0.000,2.896,0.000,0.000,0.000,0.000,0.000,0.000,0.000,0.000,0.000,0.000,0.000,3.142,0.000,0.000,1.003,1.570,1.570,4.086,6.281,1.199,4.712,0.000,0.000,-1.853,-4.782,0.990,4.791,4.646,4.777,5.281,4.712,4.712,2.199,6.282,5.083,1.570,0.000,0.000,-1.199,-4.730,0.990,4.791,4.660,4.764,
17.380,23.004,-1.473,-5.423,1.650,-1.008,6.275,1.990,1.318,1.562,1.674,3.592,3.325,0.970,0.947,3.969,1.907,0.000,2.896,0.000,0.000,0.000,0.000,0.000,0.000,0.000,0.000,0.000,0.000,0.000,3.142,0.000,0.000,1.003,1.570,1.570,4.086,6.281,1.199,4.712,0.000,0.000,-1.846,-4.861,0.990,4.791,4.646,4.777,5.281,4.712,4.712,2.199,6.282,5.083,1.570,0.000,0.000,-1.192,-4.809,0.990,4.791,4.660,4.764,
17.461,23.085,-1.463,-5.541,1.650,-1.011,6.275,2.108,1.331,1.571,1.684,3.614,3.203,0.814,0.989,3.959,1.890,0.000,2.896,0.000,0.000,0.000,0.000,0.000,0.000,0.000,0.000,0.000,0.000,0.000,3.142,0.000,0.000,1.003,1.570,1.570,4.086,6.281,1.199,4.712,0.000,0.000,-1.837,-4.980,0.990,4.792,4.646,4.778,5.281,4.712,4.712,2.199,6.282,5.083,1.570,0.000,0.000,-1.183,-4.928,0.990,4.792,4.661,4.764,
17.580,23.204,-1.455,-5.640,1.651,-1.014,6.275,2.206,1.343,1.579,1.693,3.632,3.102,0.702,0.980,4.188,1.876,0.000,2.896,0.000,0.000,0.000,0.000,0.000,0.000,0.000,0.000,0.000,0.000,0.000,3.142,0.000,0.000,1.003,1.570,1.570,4.086,6.281,1.199,4.712,0.000,0.000,-1.830,-5.079,0.990,4.792,4.647,4.777,5.281,4.712,4.712,2.199,6.282,5.083,1.570,0.000,0.000,-1.176,-5.027,0.990,4.792,4.661,4.763,
17.671,23.295,-1.447,-5.740,1.651,-1.012,6.275,2.305,1.354,1.587,1.702,3.749,3.001,0.689,0.972,4.437,1.861,0.000,2.896,0.000,0.000,0.000,0.000,0.000,0.000,0.000,0.000,0.000,0.000,0.000,3.142,0.000,0.000,1.003,1.570,1.570,4.086,6.281,1.199,4.712,0.000,0.000,-1.822,-5.179,0.990,4.792,4.647,4.777,5.281,4.712,4.712,2.199,6.282,5.083,1.570,0.000,0.000,-1.168,-5.126,0.990,4.792,4.661,4.763,
17.780,23.404,-1.439,-5.839,1.651,-1.010,6.275,2.403,1.366,1.595,1.827,3.635,2.900,0.677,0.964,0.000,1.748,0.000,2.861,0.000,0.000,0.000,0.000,0.000,0.000,0.000,0.000,0.000,0.000,0.000,3.142,0.000,0.000,1.003,1.570,1.570,4.086,6.281,1.199,4.712,0.000,0.000,-1.814,-5.278,0.990,4.793,4.647,4.776,5.281,4.712,4.712,2.199,6.282,5.083,1.570,0.000,0.000,-1.160,-5.225,0.990,4.793,4.661,4.763,
17.879,23.503,-1.433,-5.918,1.652,-1.011,6.275,2.482,1.375,1.602,0.000,3.543,2.819,0.667,0.957,0.961,1.736,0.000,2.861,0.000,0.000,0.000,0.000,0.000,0.000,0.000,0.000,0.000,0.000,0.000,3.142,0.000,0.000,1.003,1.570,1.570,4.086,6.281,1.199,4.712,0.000,0.000,-1.808,-5.357,0.990,4.793,4.647,4.776,5.281,4.712,4.712,2.199,6.282,5.083,1.570,0.000,0.000,-1.154,-5.305,0.990,4.793,4.661,4.763,
17.980,23.604,-1.423,-6.037,1.652,-1.012,6.275,2.600,1.527,1.612,0.000,3.405,2.698,0.652,0.539,0.950,1.812,0.000,2.861,0.000,0.000,0.000,0.000,0.000,0.000,0.000,0.000,0.000,0.000,0.000,3.142,0.000,0.000,1.003,1.570,1.570,4.086,6.281,1.199,4.712,0.000,0.000,-1.798,-5.476,0.990,4.793,4.648,4.776,5.281,4.712,4.712,2.199,6.282,5.083,1.570,0.000,0.000,-1.144,-5.423,0.990,4.793,4.662,4.762,
18.080,23.704,-1.417,-6.116,1.652,-1.012,6.275,2.678,1.634,1.618,0.000,3.314,2.618,0.641,0.431,0.998,1.904,0.000,2.861,0.000,0.000,0.000,0.000,0.000,0.000,0.000,0.000,0.000,0.000,0.000,3.142,0.000,0.000,1.003,1.570,1.570,4.086,6.281,1.199,4.712,0.000,0.000,-1.792,-5.556,0.990,4.794,4.648,4.776,5.281,4.712,4.712,2.199,6.282,5.083,1.570,0.000,0.000,-1.138,-5.503,0.990,4.794,4.662,4.762,
18.180,23.804,-1.407,-6.235,1.653,-1.011,6.275,2.796,1.794,1.628,0.000,3.236,2.497,0.626,0.421,0.987,2.041,0.000,2.159,0.000,0.000,0.000,0.000,0.000,0.000,0.000,0.000,0.000,0.000,0.000,3.142,0.000,0.000,1.003,1.570,1.570,4.086,6.281,1.199,4.712,0.000,0.000,-1.782,-5.675,0.990,4.794,4.648,4.775,5.281,4.712,4.712,2.199,6.282,5.083,1.570,0.000,0.000,-1.129,-5.622,0.990,4.794,4.662,4.762,
18.280,23.904,-1.400,-6.315,1.653,-1.012,6.275,2.875,1.901,1.635,0.000,3.251,2.416,0.616,0.414,0.981,4.891,0.000,2.124,0.000,0.000,0.000,0.000,0.000,0.000,0.000,0.000,0.000,0.000,0.000,3.142,0.000,0.000,1.003,1.570,1.570,4.086,6.281,1.199,4.712,0.000,0.000,-1.776,-5.754,0.990,4.794,4.649,4.775,5.281,4.712,4.712,2.199,6.282,5.083,1.570,0.000,0.000,-1.122,-5.701,0.990,4.794,4.662,4.762,
18.380,24.004,-1.391,-6.434,1.654,-1.012,6.275,2.993,2.062,1.644,0.000,3.038,2.295,0.000,0.404,0.429,4.716,0.000,2.089,0.000,0.000,0.000,0.000,0.000,0.000,0.000,0.000,0.000,0.000,0.000,3.142,0.000,0.000,1.003,1.570,1.570,4.086,6.281,1.199,4.712,0.000,0.000,-1.766,-5.873,0.990,4.795,4.649,4.775,5.281,4.712,4.712,2.199,6.282,5.083,1.570,0.000,0.000,-1.113,-5.820,0.990,4.795,4.662,4.762,
18.480,24.104,-1.384,-6.513,1.654,-1.012,6.275,3.071,2.169,1.651,0.000,3.288,2.215,0.000,0.397,0.422,4.705,0.000,1.983,0.000,0.000,0.000,0.000,0.000,0.000,0.000,0.000,0.000,0.000,0.000,3.142,0.000,0.000,1.003,1.570,1.570,4.086,6.281,1.199,4.712,0.000,0.000,-1.760,-5.953,0.990,4.795,4.649,4.774,5.281,4.712,4.712,2.199,6.282,5.083,1.570,0.000,0.000,-1.106,-5.899,0.990,4.795,4.663,4.761,
18.580,24.204,-1.374,-6.632,1.654,-1.012,6.275,3.189,2.431,1.661,0.000,3.311,2.094,0.000,0.387,0.411,4.689,0.000,1.948,0.000,0.000,0.000,0.000,0.000,0.000,0.000,0.000,0.000,0.000,0.000,3.142,0.000,0.000,1.003,1.570,1.570,4.086,6.281,1.199,4.712,0.000,0.000,-1.750,-6.072,0.990,4.795,4.649,4.774,5.281,4.712,4.712,2.199,6.282,5.083,1.570,0.000,0.000,-1.097,-6.018,0.990,4.795,4.663,4.761,
18.680,24.304,-1.366,-6.731,1.655,-1.012,6.275,3.287,2.442,1.669,0.000,3.330,1.994,0.000,0.877,0.402,4.676,0.000,1.948,0.000,0.000,0.000,0.000,0.000,0.000,0.000,0.000,0.000,0.000,0.000,3.142,0.000,0.000,1.003,1.570,1.570,4.086,6.281,1.199,4.712,0.000,0.000,-1.742,-6.171,0.990,4.796,4.650,4.774,5.281,4.712,4.712,2.199,6.282,5.083,1.570,0.000,0.000,-1.088,-6.117,0.990,4.796,4.663,4.761,
18.767,24.391,-1.359,-6.810,1.655,-1.012,6.275,3.366,2.451,1.676,0.000,3.345,1.913,0.000,0.000,0.395,0.716,0.000,1.913,0.000,0.000,0.000,0.000,0.000,0.000,0.000,0.000,0.000,0.000,0.000,3.142,0.000,0.000,1.003,1.570,1.570,4.086,6.281,1.199,4.712,0.000,0.000,-1.736,-6.251,0.990,4.796,4.650,4.774,5.281,4.712,4.712,2.199,6.282,5.083,1.570,0.000,0.000,-1.082,-6.196,0.990,4.796,4.663,4.761,
18.880,24.504,-1.349,-6.927,1.660,-0.959,0.255,3.484,2.451,1.792,4.835,3.398,1.783,0.000,0.000,0.385,0.703,0.000,1.878,0.000,0.000,0.000,0.000,0.000,0.000,0.000,0.000,0.000,0.000,0.000,3.142,0.000,0.001,1.003,1.570,1.570,4.087,6.281,1.199,4.712,0.000,0.000,-1.729,-6.369,0.989,4.801,4.640,4.783,5.287,4.696,4.724,2.200,6.281,5.084,1.570,0.000,0.000,-1.075,-6.311,0.995,4.799,4.755,4.689,
18.980,24.604,-1.342,-7.002,1.686,-0.961,0.480,3.786,2.394,1.940,2.485,3.582,1.647,0.000,0.000,0.477,0.722,0.000,1.843,0.000,0.000,0.000,0.000,0.000,0.000,0.000,0.000,0.000,0.000,0.000,3.142,0.000,0.001,1.003,1.569,1.569,4.088,6.281,1.199,4.712,0.000,0.000,-1.737,-6.453,0.989,4.828,4.651,4.772,5.289,4.693,4.726,2.200,6.282,5.083,1.570,0.000,0.000,-1.085,-6.378,0.996,4.826,4.761,4.687,
19.080,24.704,-1.327,-7.120,1.704,-1.047,0.006,4.081,2.373,4.330,2.162,3.739,1.491,0.000,0.000,0.729,0.714,0.000,1.808,0.000,0.000,0.000,0.000,0.000,0.000,0.000,0.000,0.000,0.000,0.000,3.142,6.283,0.001,1.003,1.569,1.569,4.088,6.281,1.199,4.712,0.000,0.000,-1.731,-6.579,0.989,4.845,4.660,4.763,5.276,4.704,4.691,2.175,0.020,5.132,1.570,0.000,0.000,-1.100,-6.489,0.992,4.887,4.807,4.622,
19.180,24.804,-1.316,-7.202,1.702,-1.064,6.126,4.150,2.392,4.342,2.173,3.753,1.411,0.000,0.000,1.594,0.688,0.000,1.773,0.000,0.000,0.000,0.000,0.000,0.000,0.000,0.000,0.000,0.000,0.000,3.142,6.283,0.000,1.003,1.569,1.569,4.086,6.281,1.199,4.712,0.000,0.000,-1.720,-6.661,0.990,4.845,4.673,4.750,5.280,4.711,4.712,2.197,6.282,5.085,1.571,0.000,0.000,-1.069,-6.574,0.990,4.844,4.684,4.741,
19.280,24.904,-1.301,-7.324,1.692,-1.008,6.276,4.173,2.439,4.920,2.179,3.712,1.306,0.000,0.000,0.895,0.642,0.000,1.738,0.000,0.000,0.000,0.000,0.000,0.000,0.000,0.000,0.000,0.000,0.000,3.142,6.282,0.000,1.004,1.569,1.570,4.085,6.281,1.199,4.712,0.000,0.000,-1.698,-6.779,0.990,4.833,4.672,4.752,5.280,4.710,4.706,2.197,0.003,5.083,1.575,0.000,0.000,-1.052,-6.700,0.989,4.844,4.664,4.765,
19.371,24.995,-1.289,-7.421,1.692,-0.983,0.000,4.273,2.456,0.000,2.192,3.737,1.209,0.000,0.000,2.135,0.707,0.000,1.702,0.000,0.000,0.000,0.000,0.000,0.000,0.000,0.000,0.000,0.000,0.000,3.142,6.283,0.000,1.003,1.569,1.569,4.086,6.281,1.199,4.712,0.000,0.000,-1.686,-6.875,0.990,4.834,4.669,4.754,5.280,4.710,4.708,2.197,0.008,5.080,1.584,0.001,0.000,-1.040,-6.796,0.988,4.846,4.636,4.804,
19.480,25.104,-1.277,-7.518,1.692,-1.018,0.001,4.374,2.474,4.994,2.205,3.762,1.111,0.000,0.000,2.362,0.817,0.000,1.667,0.000,0.000,0.000,0.000,0.000,0.000,0.000,0.000,0.000,0.000,0.000,3.142,6.283,0.000,1.003,1.570,1.570,4.086,6.281,1.199,4.712,0.000,0.000,-1.674,-6.973,0.990,4.833,4.668,4.755,5.281,4.712,4.712,2.198,6.282,5.083,1.571,0.000,0.000,-1.023,-6.894,0.990,4.833,4.677,4.747,
19.577,25.201,-1.267,-7.598,1.692,-1.029,6.282,4.458,2.488,0.000,2.216,3.783,1.030,0.000,0.000,2.548,0.908,0.000,1.597,0.000,0.000,0.000,0.000,0.000,0.000,0.000,0.000,0.000,0.000,0.000,3.142,6.283,0.000,1.003,1.569,1.569,4.086,6.281,1.199,4.712,0.000,0.000,-1.665,-7.053,0.990,4.833,4.670,4.754,5.281,4.711,4.712,2.198,6.282,5.083,1.570,0.000,0.000,-1.013,-6.974,0.990,4.833,4.677,4.747,
19.680,25.304,-1.253,-7.718,1.692,-1.008,6.280,4.583,2.509,0.000,2.232,1.619,0.910,0.000,0.000,2.825,1.044,0.000,1.597,0.000,0.000,0.000,0.000,0.000,0.000,0.000,0.000,0.000,0.000,0.000,3.142,6.283,0.000,1.003,1.569,1.569,4.085,6.281,1.199,4.712,0.000,0.000,-1.650,-7.172,0.990,4.833,4.670,4.753,5.281,4.711,4.712,2.198,6.282,5.083,1.570,0.000,0.000,-0.999,-7.093,0.990,4.833,4.677,4.747,
19.767,25.391,-1.243,-7.796,1.692,-1.003,6.280,4.666,2.523,0.000,2.243,1.531,0.831,0.000,0.000,3.007,1.133,0.000,1.562,0.000,0.000,0.000,0.000,0.000,0.000,0.000,0.000,0.000,0.000,0.000,3.142,6.283,0.000,1.003,1.570,1.570,4.086,6.281,1.199,4.712,0.000,0.000,-1.640,-7.251,0.990,4.833,4.670,4.754,5.281,4.711,4.712,2.199,6.282,5.083,1.570,0.000,0.000,-0.989,-7.172,0.990,4.833,4.677,4.747,
19.880,25.504,-1.229,-7.914,1.692,-1.014,6.279,4.791,2.543,0.000,2.429,1.398,0.712,0.000,0.000,3.280,1.267,0.000,1.492,0.000,0.000,0.000,0.000,0.000,0.000,0.000,0.000,0.000,0.000,0.000,3.142,6.283,0.000,1.003,1.570,1.570,4.086,6.281,1.199,4.712,0.000,0.000,-1.626,-7.369,0.990,4.833,4.669,4.754,5.281,4.712,4.712,2.199,6.282,5.083,1.570,0.000,0.000,-0.975,-7.290,0.990,4.833,4.678,4.746,
19.961,25.585,-1.217,-8.013,1.692,-1.016,6.278,4.897,2.560,0.000,2.207,1.286,0.612,0.000,0.000,3.509,1.718,0.000,1.457,0.000,0.000,0.000,0.000,0.000,0.000,0.000,0.000,0.000,0.000,0.000,3.142,6.283,0.000,1.003,1.570,1.570,4.086,6.281,1.199,4.712,0.000,0.000,-1.614,-7.468,0.990,4.833,4.670,4.754,5.281,4.711,4.712,2.199,6.282,5.083,1.570,0.000,0.000,-0.963,-7.389,0.990,4.833,4.678,4.746,
20.080,34.629,-1.205,-8.112,1.692,-1.011,6.277,0.000,2.577,0.000,2.007,1.175,0.512,0.000,4.807,2.714,1.830,0.000,1.422,0.000,0.000,0.000,0.000,0.000,0.000,0.000,0.000,0.000,0.000,0.000,3.142,6.283,0.000,1.003,1.570,1.570,4.086,6.281,1.199,4.712,0.000,0.000,-1.602,-7.567,0.990,4.834,4.670,4.754,5.281,4.711,4.712,2.199,6.282,5.083