deveshdatwani/Gopher/Assets/Data/07-21 09-09-23/Obstacle Handling_robot_value.csv
game_time,true_time,x,y,az,vx,vaz,dis_to_obs_0,dis_to_obs_36,dis_to_obs_72,dis_to_obs_108,dis_to_obs_144,dis_to_obs_180,dis_to_obs_-144,dis_to_obs_-108,dis_to_obs_-72,dis_to_obs_-36,dis_to_min_obs,direction_to_min_obs,dis_to_human_0,dis_to_human_36,dis_to_human_72,dis_to_human_108,dis_to_human_144,dis_to_human_180,dis_to_human_-144,dis_to_human_-108,dis_to_human_-72,dis_to_human_-36,dis_to_min_human,direction_to_min_human,main_cam_yaw,main_cam_pitch,left_joint_1,left_joint_2,left_joint_3,left_joint_4,left_joint_5,left_joint_6,left_joint_7,left_joint_gripper,left_is_grasping,left_end_x,left_end_y,left_end_z,left_end_ax,left_end_ay,left_end_az,right_joint_1,right_joint_2,right_joint_3,right_joint_4,right_joint_5,right_joint_6,right_joint_7,right_joint_gripper,right_is_grasping,right_end_x,right_end_y,right_end_z,right_end_ax,right_end_ay,right_end_az,
32.540,39.812,0.584,-10.052,1.986,1.022,6.277,3.584,1.411,0.811,1.057,4.929,4.515,2.791,2.430,0.000,3.177,0.000,3.071,0.000,0.000,0.000,0.000,0.000,0.000,0.000,0.000,0.000,0.000,0.000,3.142,6.283,0.000,1.821,1.897,1.798,4.286,0.398,1.000,4.711,0.000,0.000,0.282,-9.777,0.542,5.556,3.502,5.796,4.462,4.384,4.484,1.997,5.883,5.283,1.571,0.000,0.000,0.584,-9.645,0.542,5.584,3.562,5.646,
32.640,39.912,0.536,-9.943,1.986,0.989,6.278,3.464,1.315,0.866,0.991,0.000,4.634,2.847,2.479,0.000,3.513,0.000,3.106,0.000,0.000,0.000,0.000,0.000,0.000,0.000,0.000,0.000,0.000,0.000,3.142,6.282,0.000,1.861,1.897,1.798,4.286,0.398,1.000,4.711,0.000,0.000,0.243,-9.687,0.526,5.590,3.475,5.812,4.422,4.384,4.484,1.997,5.883,5.283,1.571,0.000,0.000,0.544,-9.555,0.526,5.618,3.534,5.664,
32.740,40.012,0.496,-9.853,1.986,1.004,6.279,3.364,1.236,0.911,0.936,3.760,4.733,2.892,2.118,4.976,3.421,0.000,3.106,0.000,0.000,0.000,0.000,0.000,0.000,0.000,0.000,0.000,0.000,0.000,3.142,6.282,0.000,1.899,1.897,1.798,4.285,0.398,0.999,4.711,0.000,0.000,0.212,-9.616,0.512,5.622,3.451,5.826,4.385,4.384,4.484,1.997,5.882,5.283,1.571,0.000,0.000,0.512,-9.483,0.513,5.650,3.510,5.680,
32.840,40.112,0.456,-9.763,1.985,0.977,6.279,3.265,1.156,0.956,0.882,3.540,4.832,2.938,2.158,4.843,3.329,0.000,3.106,0.000,0.000,0.000,0.000,0.000,0.000,0.000,0.000,0.000,0.000,0.000,3.142,6.283,0.000,1.921,1.897,1.798,4.286,0.398,1.000,4.711,0.000,0.000,0.177,-9.537,0.504,5.642,3.437,5.834,4.363,4.384,4.484,1.997,5.882,5.283,1.571,0.000,0.000,0.478,-9.404,0.504,5.669,3.495,5.690,
32.940,40.212,0.419,-9.679,1.986,0.881,6.281,3.172,1.082,0.998,0.831,3.338,4.923,2.981,2.195,4.717,3.243,0.000,3.106,0.000,0.000,0.000,0.000,0.000,0.000,0.000,0.000,0.000,0.000,0.000,3.142,6.283,0.000,1.958,1.897,1.798,4.285,0.398,1.000,4.711,0.000,0.000,0.148,-9.472,0.492,5.674,3.415,5.846,4.325,4.383,4.484,1.998,5.882,5.283,1.571,0.000,0.000,0.449,-9.339,0.492,5.700,3.473,5.704,
33.040,40.312,0.386,-9.603,1.986,0.811,6.282,3.089,1.015,1.036,0.819,3.155,0.000,3.019,2.229,4.604,3.166,0.000,3.142,0.000,0.000,0.000,0.000,0.000,0.000,0.000,0.000,0.000,0.000,0.000,3.142,6.283,0.000,1.980,1.897,1.798,4.286,0.398,1.000,4.711,0.000,0.000,0.120,-9.408,0.484,5.694,3.403,5.852,4.303,4.384,4.484,1.997,5.882,5.283,1.571,0.000,0.000,0.421,-9.275,0.485,5.720,3.459,5.711,
33.140,40.412,0.354,-9.530,1.986,0.815,6.281,0.000,0.951,1.073,0.848,2.976,0.000,3.057,2.261,4.496,3.091,0.000,3.142,1.869,0.000,0.000,0.000,0.000,0.000,0.000,0.000,0.000,0.000,0.000,3.142,6.282,0.000,2.018,1.897,1.798,4.285,0.398,0.999,4.711,0.000,0.000,0.097,-9.355,0.473,5.727,3.382,5.862,4.265,4.384,4.484,1.997,5.882,5.283,1.571,0.000,0.000,0.397,-9.222,0.473,5.753,3.438,5.723,
33.240,40.512,0.328,-9.471,1.986,0.817,6.282,0.000,0.899,1.102,0.871,2.831,0.000,3.087,2.287,4.409,3.031,0.000,3.142,1.824,0.000,0.000,0.000,0.000,0.000,0.000,0.000,0.000,0.000,0.000,3.142,6.282,0.000,2.041,1.897,1.798,4.286,0.398,1.000,4.711,0.000,0.000,0.076,-9.308,0.466,5.747,3.370,5.868,4.243,4.384,4.484,1.997,5.882,5.283,1.571,0.000,0.000,0.377,-9.176,0.467,5.773,3.425,5.730,
33.334,40.605,0.289,-9.383,1.985,0.798,0.000,0.000,0.000,1.147,0.906,2.616,0.000,3.132,2.326,3.624,0.000,0.000,3.142,1.819,0.000,0.000,0.000,0.000,0.000,0.000,0.000,0.000,0.000,0.000,3.142,6.282,0.000,2.080,1.897,1.798,4.286,0.398,1.000,4.711,0.000,0.000,0.047,-9.242,0.456,5.783,3.350,5.877,4.203,4.384,4.484,1.997,5.882,5.283,1.571,0.000,0.000,0.348,-9.110,0.456,5.808,3.404,5.741,
33.440,40.712,0.264,-9.326,1.985,0.786,6.283,0.000,0.000,1.175,0.929,2.476,0.000,3.161,2.752,3.553,0.000,0.000,3.142,1.879,0.000,0.000,0.000,0.000,0.000,0.000,0.000,0.000,0.000,0.000,3.142,6.282,0.000,2.100,1.897,1.798,4.286,0.398,1.000,4.711,0.000,0.000,0.027,-9.196,0.451,5.801,3.339,5.882,4.183,4.384,4.484,1.997,5.882,5.283,1.571,0.000,0.000,0.328,-9.063,0.451,5.825,3.394,5.746,
33.530,40.801,0.228,-9.245,1.985,0.694,0.000,2.694,0.000,0.878,0.961,2.278,0.000,3.202,0.000,4.075,0.000,0.000,3.142,0.000,0.000,0.000,0.000,0.000,0.000,0.000,0.000,0.000,0.000,0.000,3.142,6.283,0.000,2.100,1.897,1.799,4.285,0.398,1.000,4.711,0.000,0.000,-0.009,-9.114,0.451,5.800,3.339,5.882,4.183,4.383,4.484,1.998,5.882,5.283,1.571,0.000,0.000,0.292,-8.982,0.451,5.824,3.394,5.747,
33.640,40.912,0.209,-9.201,1.985,0.537,0.000,2.646,0.000,0.829,0.978,2.172,0.000,3.224,0.000,4.009,0.000,0.000,3.142,0.000,0.000,0.000,0.000,0.000,0.000,0.000,0.000,0.000,0.000,0.000,3.142,0.000,0.000,2.099,1.897,1.799,4.285,0.398,1.000,4.712,0.000,0.000,-0.028,-9.070,0.451,5.800,3.339,5.882,4.183,4.383,4.485,1.998,5.882,5.283,1.571,0.000,0.000,0.273,-8.938,0.451,5.824,3.394,5.747,
33.725,40.996,0.189,-9.155,1.985,0.364,0.000,2.595,0.000,0.778,0.996,2.061,0.000,3.248,0.000,3.940,0.000,0.000,3.142,0.000,0.000,0.000,0.000,0.000,0.000,0.000,0.000,0.000,0.000,0.000,3.142,6.283,0.000,2.100,1.897,1.799,4.285,0.398,1.000,4.711,0.000,0.000,-0.049,-9.024,0.451,5.800,3.340,5.882,4.183,4.384,4.484,1.998,5.882,5.283,1.570,0.000,0.000,0.252,-8.892,0.451,5.825,3.394,5.746,
33.840,41.112,0.178,-9.130,1.985,0.341,6.283,2.568,0.000,0.751,1.006,2.001,0.000,3.260,0.000,3.904,0.000,0.000,3.142,0.000,0.000,0.000,0.000,0.000,0.000,0.000,0.000,0.000,0.000,0.000,3.142,6.283,0.000,2.100,1.897,1.798,4.285,0.398,1.000,4.711,0.000,0.000,-0.059,-9.000,0.451,5.801,3.340,5.881,4.183,4.384,4.484,1.998,5.882,5.283,1.570,0.000,0.000,0.242,-8.868,0.451,5.825,3.394,5.746,
33.927,41.199,0.163,-9.096,1.985,0.308,6.283,2.530,0.000,0.713,1.020,1.916,0.000,3.278,0.000,3.853,0.000,0.000,3.142,0.000,0.000,0.000,0.000,0.000,0.000,0.000,0.000,0.000,0.000,0.000,3.142,6.283,0.000,2.100,1.897,1.798,4.285,0.398,1.000,4.711,0.000,0.000,-0.075,-8.966,0.451,5.800,3.340,5.882,4.183,4.384,4.484,1.998,5.882,5.283,1.570,0.000,0.000,0.226,-8.833,0.451,5.825,3.394,5.746,
34.040,41.312,0.154,-9.077,1.985,0.248,0.001,2.509,0.000,0.692,1.027,1.869,0.000,3.288,0.000,3.825,0.000,0.000,3.142,0.000,0.000,0.000,0.000,0.000,0.000,0.000,0.000,0.000,0.000,0.000,3.142,6.283,0.000,2.100,1.897,1.799,4.285,0.398,1.000,4.711,0.000,0.000,-0.083,-8.946,0.451,5.800,3.340,5.882,4.183,4.384,4.484,1.998,5.882,5.283,1.570,0.000,0.000,0.218,-8.814,0.451,5.825,3.394,5.747,
34.140,41.412,0.145,-9.056,1.985,0.128,0.000,2.487,0.000,0.669,1.035,1.819,0.000,3.298,0.000,3.795,0.000,0.000,3.142,0.000,0.000,0.000,0.000,0.000,0.000,0.000,0.000,0.000,0.000,0.000,3.142,0.000,0.000,2.099,1.897,1.799,4.285,0.398,1.000,4.712,0.000,0.000,-0.092,-8.926,0.451,5.800,3.339,5.882,4.183,4.383,4.485,1.998,5.882,5.283,1.571,0.000,0.000,0.209,-8.793,0.451,5.824,3.393,5.747,
34.238,41.510,0.144,-9.054,1.986,-0.021,0.000,2.485,0.000,0.667,1.036,1.820,0.000,3.298,0.000,3.789,0.000,0.000,3.142,0.000,0.000,0.000,0.000,0.000,0.000,0.000,0.000,0.000,0.000,0.000,3.142,0.001,0.000,2.099,1.897,1.799,4.285,0.397,1.000,4.712,0.000,0.000,-0.093,-8.924,0.451,5.800,3.339,5.883,4.182,4.383,4.485,1.998,5.882,5.284,1.571,0.000,0.000,0.208,-8.791,0.451,5.825,3.393,5.747,
34.340,41.612,0.145,-9.055,1.987,-0.023,0.114,2.488,0.000,0.669,1.036,1.838,0.000,3.295,0.000,3.785,0.000,0.000,3.142,0.000,0.000,0.000,0.000,0.000,0.000,0.000,0.000,0.000,0.000,0.000,3.142,0.001,0.000,2.099,1.897,1.799,4.285,0.397,1.000,4.712,0.000,0.000,-0.092,-8.925,0.451,5.800,3.340,5.881,4.182,4.383,4.485,1.998,5.881,5.284,1.571,0.000,0.000,0.208,-8.792,0.451,5.825,3.394,5.746,
34.434,41.706,0.145,-9.057,2.008,-0.022,0.336,2.514,0.000,0.681,1.035,2.076,0.000,3.256,0.000,3.704,0.000,0.000,3.142,0.000,0.000,0.000,0.000,0.000,0.000,0.000,0.000,0.000,0.000,0.000,3.142,0.001,0.000,2.100,1.897,1.799,4.285,0.398,1.000,4.712,0.000,0.000,-0.095,-8.932,0.451,5.805,3.351,5.858,4.182,4.383,4.485,1.998,5.882,5.284,1.571,0.000,0.000,0.204,-8.793,0.451,5.830,3.404,5.724,
34.540,41.812,0.146,-9.058,2.024,-0.018,0.256,0.000,0.000,0.691,1.035,2.308,0.000,3.228,0.000,3.645,0.000,0.000,3.142,0.000,0.000,0.000,0.000,0.000,0.000,0.000,0.000,0.000,0.000,0.000,3.142,0.001,0.000,2.100,1.897,1.799,4.285,0.398,1.000,4.712,0.000,0.000,-0.096,-8.937,0.451,5.808,3.359,5.840,4.182,4.383,4.485,1.998,5.882,5.284,1.571,0.000,0.000,0.200,-8.793,0.451,5.834,3.412,5.706,
34.634,41.906,0.146,-9.058,2.035,-0.004,0.161,0.000,0.000,0.699,1.035,2.513,4.593,3.208,0.000,3.603,0.000,0.000,3.106,0.000,0.000,0.000,0.000,0.000,0.000,0.000,0.000,0.000,0.000,0.000,3.142,0.001,0.000,2.100,1.897,1.799,4.285,0.398,1.000,4.712,0.000,0.000,-0.097,-8.940,0.451,5.811,3.364,5.828,4.182,4.383,4.485,1.998,5.882,5.284,1.571,0.000,0.000,0.197,-8.793,0.451,5.838,3.417,5.694,
34.740,42.012,0.146,-9.058,2.043,-0.001,0.185,0.000,0.000,0.703,1.035,2.665,4.525,3.196,0.000,3.577,0.000,0.000,3.106,0.000,0.000,0.000,0.000,0.000,0.000,0.000,0.000,0.000,0.000,0.000,3.142,0.001,0.000,2.100,1.897,1.799,4.285,0.398,1.000,4.712,0.000,0.000,-0.098,-8.942,0.451,5.812,3.368,5.819,4.182,4.383,4.485,1.998,5.882,5.284,1.571,0.000,0.000,0.195,-8.792,0.451,5.840,3.420,5.686,
34.828,42.099,0.146,-9.058,2.054,0.000,0.157,0.000,0.000,0.710,1.035,2.915,4.432,3.179,0.000,3.540,0.000,0.000,3.106,0.000,0.000,0.000,0.000,0.000,0.000,0.000,0.000,0.000,0.000,0.000,3.142,0.001,0.000,2.100,1.897,1.799,4.285,0.398,1.000,4.712,0.000,0.000,-0.099,-8.944,0.451,5.815,3.374,5.808,4.182,4.383,4.485,1.998,5.882,5.284,1.571,0.000,0.000,0.192,-8.792,0.451,5.843,3.425,5.674,
34.940,42.212,0.146,-9.058,2.059,-0.002,0.119,0.000,0.000,0.713,1.035,3.053,4.389,3.171,0.000,3.522,0.000,0.000,3.106,0.000,0.000,0.000,0.000,0.000,0.000,0.000,0.000,0.000,0.000,0.000,3.142,0.001,0.000,2.100,1.897,1.799,4.285,0.398,1.000,4.712,0.000,0.000,-0.100,-8.946,0.451,5.816,3.376,5.802,4.182,4.383,4.485,1.998,5.882,5.284,1.571,0.000,0.000,0.191,-8.791,0.451,5.844,3.428,5.669,
35.026,42.298,0.146,-9.058,2.064,-0.003,0.103,0.000,0.000,0.716,1.036,3.207,4.346,3.163,0.000,3.505,0.000,0.000,3.071,0.000,0.000,0.000,0.000,0.000,0.000,0.000,0.000,0.000,0.000,0.000,3.142,0.001,0.000,2.100,1.897,1.799,4.285,0.398,1.000,4.712,0.000,0.000,-0.100,-8.947,0.451,5.817,3.379,5.796,4.182,4.383,4.485,1.998,5.882,5.284,1.571,0.000,0.000,0.189,-8.791,0.451,5.845,3.430,5.663,
35.140,42.412,0.146,-9.058,2.067,-0.002,0.064,0.000,0.000,0.718,1.036,3.292,4.325,3.159,0.000,3.496,0.000,0.000,3.071,0.000,0.000,0.000,0.000,0.000,0.000,0.000,0.000,0.000,0.000,0.000,3.142,0.001,0.000,2.100,1.897,1.799,4.285,0.398,1.000,4.712,0.000,0.000,-0.101,-8.947,0.451,5.818,3.380,5.793,4.182,4.383,4.485,1.998,5.882,5.284,1.571,0.000,0.000,0.189,-8.791,0.451,5.846,3.431,5.661,
35.225,42.497,0.146,-9.058,2.069,0.000,0.075,0.000,0.000,0.720,1.036,3.374,4.305,3.155,0.000,3.488,0.000,0.000,3.071,0.000,0.000,0.000,0.000,0.000,0.000,0.000,0.000,0.000,0.000,0.000,3.142,0.001,0.000,2.100,1.897,1.799,4.285,0.398,1.000,4.712,0.000,0.000,-0.101,-8.948,0.451,5.818,3.381,5.791,4.182,4.383,4.485,1.998,5.882,5.284,1.571,0.000,0.000,0.188,-8.791,0.451,5.847,3.432,5.658,
35.340,42.612,0.140,-9.047,2.082,0.403,0.195,4.938,0.000,0.714,1.040,3.795,4.262,3.143,0.000,3.434,0.000,0.000,3.071,0.000,0.000,0.000,0.000,0.000,0.000,0.000,0.000,0.000,0.000,0.000,3.142,6.280,6.283,2.104,1.898,1.797,4.285,0.399,0.997,4.710,0.000,0.000,-0.108,-8.943,0.450,5.824,3.388,5.773,4.182,4.385,4.482,1.997,5.883,5.283,1.570,0.000,0.000,0.178,-8.781,0.451,5.853,3.439,5.641,
35.427,42.699,0.098,-8.973,2.085,0.867,6.282,4.833,0.000,0.615,1.063,3.415,4.354,3.185,0.000,3.326,0.000,0.000,3.071,0.000,0.000,0.000,0.000,0.000,0.000,0.000,0.000,0.000,0.000,0.000,3.142,6.283,0.000,2.100,1.897,1.798,4.285,0.398,1.000,4.711,0.000,0.000,-0.150,-8.867,0.451,5.823,3.389,5.773,4.183,4.384,4.484,1.998,5.882,5.284,1.571,0.000,0.000,0.136,-8.705,0.451,5.852,3.439,5.641,
35.540,42.812,0.071,-8.924,2.085,0.505,6.282,4.775,0.000,0.550,1.078,3.098,4.411,3.215,0.000,3.259,0.000,0.000,3.071,0.000,0.000,0.000,0.000,0.000,0.000,0.000,0.000,0.000,0.000,0.000,3.142,0.002,0.001,2.097,1.897,1.800,4.285,0.397,1.002,4.713,0.000,0.000,-0.178,-8.817,0.452,5.820,3.389,5.775,4.184,4.382,4.486,1.999,5.881,5.284,1.571,0.000,0.000,0.108,-8.656,0.452,5.850,3.439,5.643,
35.621,42.893,0.059,-8.904,2.086,0.032,6.283,4.748,0.000,0.523,1.085,2.979,4.435,3.227,0.000,3.230,0.000,0.000,3.071,0.000,0.000,0.000,0.000,0.000,0.000,0.000,0.000,0.000,0.000,0.000,3.142,0.000,0.000,2.099,1.897,1.799,4.285,0.398,1.000,4.712,0.000,0.000,-0.190,-8.798,0.451,5.822,3.389,5.773,4.183,4.383,4.485,1.998,5.882,5.284,1.571,0.000,0.000,0.097,-8.636,0.451,5.851,3.440,5.640,
35.740,43.012,0.057,-8.900,2.086,0.162,0.010,4.742,0.000,0.517,1.086,2.955,4.441,3.229,0.000,3.224,0.000,0.000,3.071,0.000,0.000,0.000,0.000,0.000,0.000,0.000,0.000,0.000,0.000,0.000,3.142,6.282,0.000,2.102,1.897,1.798,4.285,0.398,0.999,4.711,0.000,0.000,-0.192,-8.795,0.451,5.824,3.390,5.771,4.182,4.384,4.483,1.997,5.882,5.283,1.570,0.000,0.000,0.094,-8.632,0.451,5.853,3.440,5.639,
35.840,43.112,0.040,-8.870,2.086,0.373,6.282,0.000,0.000,0.489,1.095,2.753,4.476,3.247,0.000,3.183,0.000,0.000,3.071,2.500,0.000,0.000,0.000,0.000,0.000,0.000,0.000,0.000,0.000,0.000,3.142,6.282,0.000,2.101,1.897,1.798,4.285,0.398,1.000,4.711,0.000,0.000,-0.209,-8.764,0.451,5.823,3.390,5.771,4.183,4.384,4.484,1.998,5.882,5.283,1.571,0.000,0.000,0.077,-8.602,0.451,5.852,3.440,5.639,
35.940,43.212,0.027,-8.847,2.086,0.117,6.281,0.000,0.000,0.508,1.102,2.604,4.503,3.261,0.000,3.151,0.000,0.000,3.071,2.510,0.000,0.000,0.000,0.000,0.000,0.000,0.000,0.000,0.000,0.000,3.142,0.001,0.001,2.098,1.897,1.800,4.285,0.397,1.001,4.712,0.000,0.000,-0.222,-8.740,0.451,5.821,3.389,5.773,4.183,4.383,4.485,1.998,5.881,5.284,1.571,0.000,0.000,0.064,-8.578,0.452,5.851,3.440,5.641,
36.022,43.293,0.028,-8.848,2.090,-0.100,0.162,0.000,0.000,0.505,1.102,2.750,4.512,3.254,0.000,3.142,0.000,0.000,3.071,2.568,0.000,0.000,0.000,0.000,0.000,0.000,0.000,0.000,0.000,0.000,3.142,0.002,0.000,2.099,1.896,1.800,4.286,0.397,1.001,4.712,0.000,0.000,-0.222,-8.743,0.451,5.823,3.391,5.769,4.182,4.383,4.485,1.998,5.881,5.284,1.571,0.000,0.000,0.064,-8.580,0.451,5.853,3.441,5.637,
36.140,43.412,0.031,-8.854,2.103,-0.085,0.313,0.000,0.000,0.493,1.102,3.332,4.537,3.233,0.000,3.116,0.000,0.000,3.036,2.639,0.000,0.000,0.000,0.000,0.000,0.000,0.000,0.000,0.000,0.000,3.142,0.001,6.283,2.100,1.897,1.799,4.285,0.398,1.000,4.712,0.000,0.000,-0.219,-8.752,0.451,5.827,3.397,5.755,4.182,4.383,4.485,1.998,5.882,5.284,1.571,0.000,0.000,0.064,-8.586,0.451,5.857,3.446,5.623,
36.240,43.512,0.033,-8.856,2.128,0.005,0.243,4.713,0.000,0.479,1.104,0.000,4.545,3.198,0.000,3.053,0.000,0.000,3.036,0.000,0.000,0.000,0.000,0.000,0.000,0.000,0.000,0.000,0.000,0.000,3.142,0.001,0.000,2.100,1.897,1.799,4.285,0.398,1.000,4.711,0.000,0.000,-0.221,-8.761,0.451,5.834,3.409,5.727,4.182,4.383,4.484,1.998,5.882,5.284,1.571,0.000,0.000,0.059,-8.587,0.451,5.865,3.458,5.596,
36.340,43.612,0.032,-8.855,2.141,0.020,0.241,4.754,0.000,0.483,1.106,0.000,4.550,3.181,0.000,3.018,0.000,0.000,3.001,0.000,0.000,0.000,0.000,0.000,0.000,0.000,0.000,0.000,0.000,0.000,3.142,0.001,0.000,2.100,1.897,1.799,4.285,0.398,1.000,4.712,0.000,0.000,-0.222,-8.763,0.451,5.837,3.415,5.713,4.182,4.383,4.485,1.998,5.882,5.284,1.571,0.000,0.000,0.054,-8.586,0.451,5.869,3.463,5.582,
36.431,43.703,0.031,-8.854,2.156,0.002,0.158,4.799,0.000,0.489,1.108,0.000,4.594,3.165,0.000,2.983,0.000,0.000,3.001,0.000,0.000,0.000,0.000,0.000,0.000,0.000,0.000,0.000,0.000,0.000,3.142,0.001,0.000,2.100,1.897,1.799,4.285,0.398,1.000,4.712,0.000,0.000,-0.224,-8.766,0.451,5.841,3.422,5.698,4.182,4.383,4.485,1.998,5.882,5.284,1.571,0.000,0.000,0.050,-8.584,0.451,5.873,3.469,5.568,
36.540,43.812,0.032,-8.854,2.159,-0.007,0.106,4.811,0.000,0.491,1.109,0.000,4.604,3.161,0.000,2.975,0.000,0.000,3.001,0.000,0.000,0.000,0.000,0.000,0.000,0.000,0.000,0.000,0.000,0.000,3.142,0.001,0.000,2.100,1.897,1.799,4.285,0.398,1.000,4.712,0.000,0.000,-0.225,-8.767,0.451,5.842,3.423,5.694,4.182,4.383,4.485,1.998,5.882,5.284,1.571,0.000,0.000,0.049,-8.585,0.451,5.874,3.471,5.564,
36.640,43.912,0.032,-8.855,2.166,-0.008,0.145,4.833,0.000,0.495,1.110,0.000,4.624,3.153,0.000,2.961,0.000,0.000,3.001,0.000,0.000,0.000,0.000,0.000,0.000,0.000,0.000,0.000,0.000,0.000,3.142,0.001,0.000,2.100,1.897,1.799,4.285,0.398,1.000,4.712,0.000,0.000,-0.225,-8.769,0.451,5.843,3.426,5.687,4.182,4.383,4.485,1.998,5.882,5.284,1.571,0.000,0.000,0.048,-8.585,0.451,5.877,3.473,5.557,
36.740,44.012,0.032,-8.855,2.173,-0.010,0.153,4.858,0.000,0.499,1.111,0.000,4.646,3.145,0.000,2.945,0.000,0.000,2.966,0.000,0.000,0.000,0.000,0.000,0.000,0.000,0.000,0.000,0.000,0.000,3.142,0.001,0.000,2.100,1.897,1.799,4.285,0.398,1.000,4.712,0.000,0.000,-0.225,-8.771,0.451,5.845,3.430,5.680,4.182,4.383,4.485,1.998,5.882,5.284,1.571,0.000,0.000,0.046,-8.585,0.451,5.879,3.476,5.550,
36.840,44.112,0.032,-8.855,2.179,-0.003,0.128,4.880,0.000,0.503,1.112,0.000,4.666,3.138,0.000,2.932,0.000,0.000,2.966,0.000,0.000,0.000,0.000,0.000,0.000,0.000,0.000,0.000,0.000,0.000,3.142,0.001,0.000,2.100,1.897,1.799,4.285,0.398,1.000,4.712,0.000,0.000,-0.226,-8.773,0.451,5.847,3.432,5.673,4.182,4.383,4.485,1.998,5.882,5.284,1.571,0.000,0.000,0.044,-8.585,0.451,5.881,3.479,5.543,
36.940,44.212,0.032,-8.855,2.183,0.003,0.100,0.000,0.000,0.505,1.113,0.000,4.680,3.133,0.000,2.923,0.000,0.000,2.966,0.000,0.000,0.000,0.000,0.000,0.000,0.000,0.000,0.000,0.000,0.000,3.142,0.001,0.000,2.100,1.897,1.799,4.285,0.398,1.000,4.712,0.000,0.000,-0.226,-8.774,0.451,5.848,3.434,5.669,4.182,4.383,4.485,1.998,5.882,5.284,1.571,0.000,0.000,0.043,-8.585,0.451,5.882,3.480,5.539,
37.040,44.312,0.032,-8.855,2.187,0.001,0.094,0.000,0.000,0.507,1.114,0.000,4.691,3.130,0.000,2.915,0.000,0.000,2.966,0.000,0.000,0.000,0.000,0.000,0.000,0.000,0.000,0.000,0.000,0.000,3.142,0.001,0.000,2.100,1.897,1.799,4.285,0.398,1.000,4.712,0.000,0.000,-0.226,-8.775,0.451,5.849,3.436,5.665,4.182,4.383,4.485,1.998,5.882,5.284,1.571,0.000,0.000,0.042,-8.585,0.451,5.883,3.482,5.536,
37.138,44.410,0.013,-8.829,2.190,0.685,0.021,0.000,0.000,0.471,1.120,0.000,4.734,3.146,0.000,2.876,0.000,0.000,2.966,0.000,0.000,0.000,0.000,0.000,0.000,0.000,0.000,0.000,0.000,0.000,3.142,6.278,6.283,2.106,1.898,1.796,4.285,0.400,0.996,4.709,0.000,0.000,-0.245,-8.753,0.450,5.854,3.438,5.656,4.181,4.386,4.481,1.997,5.883,5.283,1.570,0.000,0.000,0.023,-8.560,0.450,5.888,3.483,5.528,
37.240,44.512,-0.032,-8.765,2.191,1.287,0.015,4.987,0.000,0.514,1.133,0.000,4.816,2.774,0.000,2.250,0.000,0.000,2.966,0.000,0.000,0.000,0.000,0.000,0.000,0.000,0.000,0.000,0.000,0.000,3.142,6.279,6.283,2.105,1.898,1.797,4.285,0.399,0.997,4.709,0.000,0.000,-0.291,-8.688,0.450,5.854,3.438,5.656,4.182,4.385,4.482,1.997,5.883,5.283,1.570,0.000,0.000,-0.024,-8.496,0.451,5.888,3.484,5.528,
37.334,44.606,-0.125,-8.634,2.191,1.203,0.000,4.831,0.000,0.602,1.160,0.000,4.975,2.872,0.000,2.634,0.000,0.000,3.001,0.000,0.000,0.000,0.000,0.000,0.000,0.000,0.000,0.000,0.000,0.000,3.142,0.001,0.001,2.098,1.897,1.799,4.285,0.397,1.001,4.712,0.000,0.000,-0.384,-8.554,0.451,5.849,3.438,5.661,4.183,4.383,4.485,1.998,5.881,5.284,1.571,0.000,0.000,-0.116,-8.363,0.452,5.884,3.484,5.532,
37.440,44.712,-0.172,-8.569,2.191,0.862,6.283,4.752,0.000,0.646,0.489,0.000,0.000,2.921,0.000,2.554,0.000,0.000,3.142,0.000,0.000,0.000,0.000,0.000,0.000,0.000,0.000,0.000,0.000,0.000,3.142,0.001,0.001,2.098,1.897,1.799,4.285,0.397,1.001,4.712,0.000,0.000,-0.431,-8.489,0.451,5.849,3.438,5.661,4.183,4.383,4.485,1.998,5.882,5.284,1.571,0.000,0.000,-0.163,-8.298,0.452,5.884,3.484,5.532,
37.530,44.802,-0.229,-8.489,2.191,0.917,6.283,4.655,0.000,0.700,0.530,1.697,0.000,2.981,0.000,2.455,0.000,0.000,3.142,0.000,0.000,0.000,0.000,0.000,0.000,0.000,0.000,0.000,0.000,0.000,3.142,6.281,0.000,2.102,1.898,1.798,4.285,0.398,0.999,4.711,0.000,0.000,-0.488,-8.411,0.451,5.852,3.438,5.658,4.183,4.384,4.483,1.997,5.882,5.283,1.570,0.000,0.000,-0.220,-8.219,0.451,5.886,3.484,5.529,
37.640,44.912,-0.275,-8.424,2.191,1.091,6.283,4.578,0.000,0.744,0.563,1.715,0.000,3.030,0.000,2.375,0.000,0.000,3.142,0.000,0.000,0.000,0.000,0.000,0.000,0.000,0.000,0.000,0.000,0.000,3.142,6.282,0.000,2.102,1.897,1.798,4.285,0.398,0.999,4.711,0.000,0.000,-0.534,-8.346,0.451,5.852,3.438,5.659,4.183,4.384,4.483,1.997,5.882,5.283,1.570,0.000,0.000,-0.266,-8.154,0.451,5.886,3.484,5.530,
37.734,45.006,-0.351,-8.318,2.191,1.057,0.000,4.451,0.000,2.800,0.617,1.746,0.000,3.110,0.000,2.244,0.000,0.000,3.142,0.000,0.000,0.000,0.000,0.000,0.000,0.000,0.000,0.000,0.000,0.000,3.142,6.283,0.000,2.100,1.897,1.799,4.285,0.398,1.000,4.711,0.000,0.000,-0.610,-8.239,0.451,5.850,3.438,5.660,4.183,4.383,4.484,1.998,5.882,5.283,1.571,0.000,0.000,-0.342,-8.048,0.451,5.885,3.484,5.531,
37.840,45.112,-0.397,-8.254,2.191,0.968,0.000,4.373,0.000,2.620,0.650,1.765,0.000,3.158,0.000,2.164,0.000,0.000,3.142,0.000,0.000,0.000,0.000,0.000,0.000,0.000,0.000,0.000,0.000,0.000,3.142,6.283,0.000,2.100,1.897,1.799,4.285,0.398,1.000,4.711,0.000,0.000,-0.656,-8.174,0.451,5.851,3.438,5.660,4.183,4.384,4.484,1.998,5.882,5.283,1.571,0.000,0.000,-0.388,-7.983,0.451,5.885,3.484,5.531,
37.940,45.211,-0.463,-8.161,2.191,0.989,6.283,4.263,0.000,2.682,0.697,0.814,0.000,3.228,0.000,2.050,0.000,0.000,3.142,0.000,0.000,0.000,0.000,0.000,0.000,0.000,0.000,0.000,0.000,0.000,3.142,6.282,0.000,2.101,1.897,1.798,4.285,0.398,0.999,4.711,0.000,0.000,-0.722,-8.082,0.451,5.851,3.438,5.659,4.183,4.384,4.484,1.998,5.882,5.283,1.570,0.000,0.000,-0.454,-7.891,0.451,5.885,3.484,5.530,
38.040,45.312,-0.510,-8.096,2.191,1.034,6.283,4.186,0.000,2.788,0.731,0.852,0.000,3.295,0.000,1.970,0.000,0.000,3.142,0.000,0.000,0.000,0.000,0.000,0.000,0.000,0.000,0.000,0.000,0.000,3.142,6.282,0.000,2.101,1.897,1.798,4.285,0.398,0.999,4.711,0.000,0.000,-0.768,-8.017,0.451,5.851,3.438,5.659,4.183,4.384,4.484,1.998,5.882,5.283,1.570,0.000,0.000,-0.501,-7.826,0.451,5.885,3.484,5.530,
38.135,45.406,-0.580,-7.997,2.190,1.022,6.283,4.067,0.000,3.096,0.781,0.911,0.000,3.610,3.647,1.848,0.000,0.000,3.142,0.000,0.000,0.000,0.000,0.000,0.000,0.000,0.000,0.000,0.000,0.000,3.142,6.283,0.000,2.100,1.897,1.798,4.285,0.398,1.000,4.711,0.000,0.000,-0.839,-7.918,0.451,5.851,3.438,5.660,4.183,4.384,4.484,1.998,5.882,5.283,1.571,0.000,0.000,-0.572,-7.726,0.451,5.885,3.484,5.531,
38.240,45.512,-0.627,-7.932,2.190,0.999,6.283,3.990,0.000,2.773,0.815,0.950,0.000,3.815,4.660,1.768,0.000,0.000,3.142,0.000,0.000,0.000,0.000,0.000,0.000,0.000,0.000,0.000,0.000,0.000,3.142,6.283,0.000,2.100,1.897,1.798,4.285,0.398,1.000,4.711,0.000,0.000,-0.885,-7.853,0.451,5.851,3.438,5.660,4.183,4.384,4.484,1.998,5.882,5.283,1.571,0.000,0.000,-0.618,-7.662,0.451,5.885,3.484,5.531,
38.323,45.595,-0.695,-7.836,2.190,1.006,6.283,3.876,0.000,2.700,1.611,1.007,0.000,3.892,4.350,1.650,0.000,0.000,3.142,0.000,0.000,0.000,0.000,0.000,0.000,0.000,0.000,0.000,0.000,0.000,3.142,6.282,0.000,2.100,1.897,1.798,4.285,0.398,1.000,4.711,0.000,0.000,-0.954,-7.757,0.451,5.851,3.438,5.660,4.183,4.384,4.484,1.998,5.882,5.283,1.570,0.000,0.000,-0.686,-7.566,0.451,5.885,3.484,5.531,
38.440,45.712,-0.741,-7.771,2.190,1.017,6.283,3.798,0.000,2.651,1.690,1.046,0.000,3.941,4.140,1.570,0.000,0.000,3.142,0.000,0.000,0.000,0.000,0.000,0.000,0.000,0.000,0.000,0.000,0.000,3.142,6.282,0.000,2.100,1.897,1.798,4.285,0.398,1.000,4.711,0.000,0.000,-1.000,-7.692,0.451,5.851,3.438,5.660,4.183,4.384,4.484,1.998,5.882,5.283,1.570,0.000,0.000,-0.732,-7.501,0.451,5.885,3.483,5.531,
38.540,45.812,-0.811,-7.673,2.190,1.013,6.283,3.682,0.000,2.578,1.809,1.104,0.000,4.219,3.823,1.449,0.000,0.000,3.142,0.000,0.000,0.000,0.000,0.000,0.000,0.000,0.000,0.000,0.000,0.000,3.142,6.282,0.000,2.100,1.897,1.798,4.285,0.398,1.000,4.711,0.000,0.000,-1.070,-7.594,0.451,5.851,3.438,5.660,4.183,4.384,4.484,1.998,5.882,5.283,1.571,0.000,0.000,-0.802,-7.403,0.451,5.885,3.483,5.531,
38.624,45.896,-0.869,-7.593,2.190,1.007,6.283,3.585,0.000,2.517,1.908,1.152,0.000,4.475,2.163,1.349,0.000,0.000,3.142,0.000,0.000,0.000,0.000,0.000,0.000,0.000,0.000,0.000,0.000,0.000,3.142,6.282,0.000,2.100,1.897,1.798,4.285,0.398,1.000,4.711,0.000,0.000,-1.127,-7.513,0.451,5.851,3.438,5.660,4.183,4.384,4.484,1.998,5.882,5.283,1.570,0.000,0.000,-0.860,-7.322,0.451,5.885,3.483,5.531,
38.740,46.012,-0.915,-7.528,2.190,1.009,6.283,3.508,0.000,2.468,3.642,1.190,0.000,4.679,3.351,0.729,0.000,0.000,3.142,0.000,0.000,0.000,0.000,0.000,0.000,0.000,0.000,0.000,0.000,0.000,3.142,6.282,0.000,2.100,1.897,1.798,4.285,0.398,1.000,4.711,0.000,0.000,-1.173,-7.449,0.451,5.851,3.438,5.660,4.183,4.384,4.484,1.998,5.882,5.283,1.570,0.000,0.000,-0.906,-7.258,0.451,5.885,3.483,5.531,
38.840,46.112,-0.984,-7.431,2.190,1.013,6.283,3.393,0.000,2.395,3.520,1.248,0.000,4.986,3.035,1.150,0.000,0.000,3.142,0.000,0.000,0.000,0.000,0.000,0.000,0.000,0.000,0.000,0.000,0.000,3.142,6.282,0.000,2.100,1.897,1.798,4.285,0.398,1.000,4.711,0.000,0.000,-1.243,-7.351,0.451,5.851,3.438,5.661,4.183,4.384,4.484,1.998,5.882,5.283,1.570,0.000,0.000,-0.975,-7.160,0.451,5.885,3.483,5.531,
38.940,46.212,-1.042,-7.350,2.189,1.011,6.283,3.296,0.000,2.333,3.419,1.297,0.000,0.000,2.772,0.681,0.000,0.000,3.142,0.000,0.000,0.000,0.000,0.000,0.000,0.000,0.000,0.000,0.000,0.000,3.142,6.282,0.000,2.100,1.897,1.798,4.285,0.398,1.000,4.711,0.000,0.000,-1.300,-7.270,0.451,5.851,3.438,5.661,4.183,4.384,4.484,1.998,5.882,5.283,1.571,0.000,0.000,-1.033,-7.079,0.451,5.885,3.483,5.532,
39.040,46.312,-1.099,-7.269,2.189,1.010,6.283,2.944,0.000,2.574,3.318,1.345,0.000,0.000,2.508,0.581,0.000,0.000,3.142,0.000,0.000,0.000,0.000,0.000,0.000,0.000,0.000,0.000,0.000,0.000,3.142,6.282,0.000,2.100,1.897,1.798,4.285,0.398,1.000,4.711,0.000,0.000,-1.358,-7.189,0.451,5.851,3.438,5.661,4.183,4.384,4.484,1.998,5.882,5.283,1.570,0.000,0.000,-1.090,-6.998,0.451,5.885,3.483,5.532,
39.140,46.412,-1.150,-7.198,2.189,0.543,6.242,2.856,0.000,0.000,3.229,1.387,0.000,0.000,2.278,0.494,0.000,0.000,3.142,0.000,0.000,0.000,0.000,0.000,0.000,0.000,0.000,0.000,0.000,0.000,3.142,0.004,0.001,2.094,1.896,1.801,4.286,0.396,1.003,4.714,0.000,0.000,-1.409,-7.115,0.452,5.847,3.437,5.665,4.184,4.381,4.487,1.999,5.881,5.284,1.571,0.000,0.000,-1.141,-6.926,0.452,5.881,3.483,5.536,
39.240,46.512,-1.154,-7.193,2.189,-0.305,0.040,2.849,0.000,0.000,3.218,1.397,0.000,0.000,2.266,0.488,0.000,0.000,3.142,0.000,0.000,0.000,0.000,0.000,0.000,0.000,0.000,0.000,0.000,0.000,3.142,0.004,0.001,2.095,1.896,1.801,4.286,0.396,1.003,4.713,0.000,0.000,-1.413,-7.111,0.452,5.847,3.436,5.666,4.183,4.381,4.487,1.999,5.881,5.284,1.571,0.000,0.000,-1.145,-6.921,0.452,5.882,3.482,5.536,
39.340,46.612,-1.134,-7.221,2.190,-0.277,0.015,3.138,0.000,2.715,3.260,1.373,0.000,0.000,2.349,0.522,0.000,0.000,3.142,0.000,0.000,0.000,0.000,0.000,0.000,0.000,0.000,0.000,0.000,0.000,3.142,6.283,6.283,2.102,1.897,1.798,4.285,0.398,0.999,4.711,0.000,0.000,-1.392,-7.143,0.451,5.852,3.437,5.660,4.182,4.384,4.484,1.998,5.882,5.284,1.571,0.000,0.000,-1.125,-6.952,0.451,5.886,3.483,5.532,
39.440,46.712,-1.131,-7.226,2.196,0.096,0.271,3.118,0.000,2.655,3.294,1.376,0.000,0.000,2.320,0.525,0.000,0.000,3.142,0.000,0.000,0.000,0.000,0.000,0.000,0.000,0.000,0.000,0.000,0.000,3.142,6.282,0.000,2.102,1.897,1.798,4.285,0.398,0.999,4.711,0.000,0.000,-1.390,-7.148,0.451,5.853,3.440,5.653,4.182,4.384,4.484,1.998,5.882,5.283,1.571,0.000,0.000,-1.123,-6.956,0.451,5.888,3.485,5.525,
39.540,46.812,-1.138,-7.217,2.219,0.105,0.213,3.017,0.000,2.520,3.394,1.401,0.000,0.000,2.145,0.506,0.000,0.000,3.142,0.000,0.000,0.000,0.000,0.000,0.000,0.000,0.000,0.000,0.000,0.000,3.142,0.000,0.000,2.100,1.897,1.799,4.285,0.398,1.000,4.712,0.000,0.000,-1.399,-7.145,0.451,5.859,3.450,5.631,4.183,4.383,4.484,1.998,5.882,5.284,1.571,0.000,0.000,-1.136,-6.946,0.451,5.894,3.495,5.503,
39.640,46.912,-1.139,-7.214,2.223,-0.002,0.019,2.999,0.000,2.499,3.413,1.406,0.000,0.000,2.114,0.502,0.000,0.000,3.142,0.000,0.000,0.000,0.000,0.000,0.000,0.000,0.000,0.000,0.000,0.000,3.142,0.001,0.000,2.100,1.897,1.799,4.285,0.398,1.000,4.712,0.000,0.000,-1.400,-7.143,0.451,5.860,3.452,5.627,4.182,4.383,4.485,1.998,5.882,5.284,1.571,0.000,0.000,-1.139,-6.944,0.451,5.896,3.496,5.499,
39.731,47.002,-1.139,-7.215,2.224,-0.003,0.045,2.994,0.000,2.490,3.419,1.407,0.000,0.000,2.107,0.502,0.000,0.000,3.142,0.000,0.000,0.000,0.000,0.000,0.000,0.000,0.000,0.000,0.000,0.000,3.142,0.001,0.000,2.100,1.897,1.799,4.286,0.398,1.000,4.712,0.000,0.000,-1.400,-7.144,0.451,5.860,3.452,5.626,4.182,4.383,4.485,1.998,5.882,5.284,1.571,0.000,0.000,-1.139,-6.944,0.451,5.896,3.496,5.498,
39.840,47.112,-1.139,-7.215,2.225,-0.012,0.079,2.988,0.000,2.480,3.427,1.408,0.000,0.000,2.099,0.502,0.000,0.000,3.142,0.000,0.000,0.000,0.000,0.000,0.000,0.000,0.000,0.000,0.000,0.000,3.142,0.001,0.000,2.100,1.897,1.799,4.285,0.398,1.000,4.712,0.000,0.000,-1.400,-7.144,0.451,5.861,3.453,5.624,4.182,4.383,4.485,1.998,5.882,5.284,1.571,0.000,0.000,-1.139,-6.944,0.451,5.896,3.497,5.496,
39.924,47.196,-1.139,-7.215,2.230,-0.007,0.129,2.972,0.000,2.450,3.452,1.412,0.000,0.000,2.074,0.501,0.000,0.000,3.142,0.000,0.000,0.000,0.000,0.000,0.000,0.000,0.000,0.000,0.000,0.000,3.142,0.001,0.000,2.100,1.897,1.799,4.285,0.398,1.000,4.712,0.000,0.000,-1.400,-7.146,0.451,5.862,3.454,5.620,4.182,4.383,4.485,1.998,5.882,5.284,1.571,0.000,0.000,-1.140,-6.945,0.451,5.898,3.498,5.492,
40.040,47.312,-1.139,-7.215,2.235,-0.007,0.138,2.956,0.000,2.421,3.477,1.416,0.000,0.000,2.049,0.499,0.000,0.000,3.142,0.000,0.000,0.000,0.000,0.000,0.000,0.000,0.000,0.000,0.000,0.000,3.142,0.001,0.000,2.100,1.897,1.799,4.285,0.398,1.000,4.712,0.000,0.000,-1.401,-7.147,0.451,5.864,3.456,5.615,4.182,4.383,4.485,1.998,5.882,5.284,1.571,0.000,0.000,-1.141,-6.945,0.451,5.900,3.500,5.487,
40.140,47.412,-1.138,-7.216,2.241,-0.007,0.119,2.933,0.000,2.381,3.514,1.422,0.000,0.000,2.015,0.498,0.000,0.000,3.142,0.000,0.000,0.000,0.000,0.000,0.000,0.000,0.000,0.000,0.000,0.000,3.142,0.001,0.000,2.100,1.897,1.799,4.285,0.398,1.000,4.712,0.000,0.000,-1.401,-7.149,0.451,5.866,3.459,5.608,4.182,4.383,4.485,1.998,5.882,5.284,1.571,0.000,0.000,-1.143,-6.945,0.451,5.902,3.503,5.481,
40.238,47.510,-1.138,-7.216,2.244,-0.008,0.084,2.921,0.000,2.360,3.533,1.425,0.000,0.000,1.998,0.497,0.000,0.000,3.142,0.000,0.000,0.000,0.000,0.000,0.000,0.000,0.000,0.000,0.000,0.000,3.142,0.001,0.000,2.100,1.897,1.799,4.285,0.398,1.000,4.712,0.000,0.000,-1.401,-7.151,0.451,5.867,3.461,5.605,4.182,4.383,4.485,1.998,5.882,5.284,1.571,0.000,0.000,-1.143,-6.946,0.451,5.903,3.504,5.477,
40.340,47.612,-1.138,-7.216,2.246,-0.007,0.075,2.914,0.000,2.348,3.545,1.427,0.000,0.000,1.988,0.496,0.000,0.000,3.142,0.000,0.000,0.000,0.000,0.000,0.000,0.000,0.000,0.000,0.000,0.000,3.142,0.001,0.000,2.100,1.897,1.799,4.285,0.398,1.000,4.712,0.000,0.000,-1.401,-7.151,0.451,5.867,3.461,5.603,4.182,4.383,4.485,1.998,5.882,5.284,1.571,0.000,0.000,-1.144,-6.946,0.451,5.904,3.505,5.475,
40.431,47.703,-1.165,-7.183,2.250,0.802,0.008,2.859,0.000,2.413,3.516,1.450,0.000,0.000,0.702,0.456,0.000,0.000,3.142,0.000,0.000,0.000,0.000,0.000,0.000,0.000,0.000,0.000,0.000,0.000,3.142,6.278,6.283,2.106,1.898,1.796,4.285,0.400,0.996,4.709,0.000,0.000,-1.427,-7.122,0.450,5.872,3.464,5.594,4.182,4.386,4.482,1.997,5.883,5.283,1.570,0.000,0.000,-1.172,-6.914,0.451,5.909,3.506,5.467,
40.540,47.812,-1.216,-7.119,2.250,1.158,0.001,2.779,0.000,2.582,3.417,1.485,0.000,0.000,1.703,0.408,0.000,0.000,3.142,0.000,0.000,0.000,0.000,0.000,0.000,0.000,0.000,0.000,0.000,0.000,3.142,6.281,0.000,2.102,1.897,1.798,4.285,0.398,0.999,4.711,0.000,0.000,-1.479,-7.056,0.451,5.870,3.463,5.597,4.182,4.384,4.483,1.997,5.882,5.283,1.570,0.000,0.000,-1.223,-6.849,0.451,5.907,3.506,5.470,
40.629,47.900,-1.281,-7.039,2.250,0.454,6.283,2.678,0.000,0.000,3.293,1.598,0.000,0.000,0.662,0.529,0.000,0.000,3.142,0.000,0.000,0.000,0.000,0.000,0.000,0.000,0.000,0.000,0.000,0.000,3.142,0.003,0.001,2.095,1.896,1.800,4.285,0.397,1.003,4.713,0.000,0.000,-1.545,-6.973,0.452,5.866,3.464,5.600,4.184,4.382,4.486,1.999,5.881,5.284,1.571,0.000,0.000,-1.288,-6.767,0.452,5.903,3.507,5.473,
40.740,48.012,-1.291,-7.026,2.250,0.066,6.283,2.662,0.000,0.000,3.274,1.625,0.000,0.000,0.627,0.549,0.000,0.000,3.142,0.000,0.000,0.000,0.000,0.000,0.000,0.000,0.000,0.000,0.000,0.000,3.142,0.001,0.001,2.098,1.897,1.799,4.285,0.397,1.001,4.712,0.000,0.000,-1.555,-6.962,0.451,5.868,3.464,5.599,4.183,4.383,4.485,1.998,5.882,5.284,1.571,0.000,0.000,-1.299,-6.755,0.452,5.905,3.507,5.471,
40.840,48.112,-1.301,-7.014,2.250,0.316,0.010,2.647,0.000,0.000,3.256,1.649,0.000,0.000,0.595,0.566,0.000,0.000,3.142,0.000,0.000,0.000,0.000,0.000,0.000,0.000,0.000,0.000,0.000,0.000,3.142,6.281,0.000,2.103,1.898,1.797,4.285,0.399,0.998,4.710,0.000,0.000,-1.564,-6.952,0.451,5.871,3.464,5.596,4.182,4.385,4.483,1.997,5.883,5.283,1.570,0.000,0.000,-1.308,-6.745,0.451,5.907,3.506,5.469,
40.940,48.212,-1.327,-6.982,2.250,0.476,6.283,2.607,0.000,0.000,3.205,1.718,0.000,0.000,0.506,0.615,0.000,0.000,3.142,0.000,0.000,0.000,0.000,0.000,0.000,0.000,0.000,0.000,0.000,0.000,3.142,6.282,0.000,2.100,1.897,1.798,4.285,0.398,1.000,4.711,0.000,0.000,-1.590,-6.919,0.451,5.869,3.464,5.597,4.183,4.384,4.484,1.998,5.882,5.283,1.570,0.000,0.000,-1.334,-6.712,0.451,5.906,3.506,5.470,
41.040,48.312,-1.349,-6.954,2.250,0.234,0.000,2.571,0.000,0.000,3.162,1.776,0.000,0.000,0.429,0.657,0.000,0.000,3.142,0.000,0.000,0.000,0.000,0.000,0.000,0.000,0.000,0.000,0.000,0.000,3.142,0.001,0.001,2.098,1.897,1.799,4.285,0.398,1.001,4.712,0.000,0.000,-1.613,-6.890,0.451,5.868,3.464,5.598,4.183,4.383,4.485,1.998,5.882,5.283,1.571,0.000,0.000,-1.357,-6.684,0.452,5.905,3.507,5.471,
41.140,48.412,-1.352,-6.951,2.235,-0.079,5.568,2.616,0.000,0.000,3.078,1.825,0.000,0.000,0.437,0.646,0.000,0.000,3.142,0.000,0.000,0.000,0.000,0.000,0.000,0.000,0.000,0.000,0.000,0.000,3.142,6.282,0.001,2.100,1.897,1.798,4.285,0.398,1.000,4.711,0.000,0.000,-1.615,-6.883,0.451,5.864,3.457,5.614,4.183,4.383,4.484,1.998,5.882,5.283,1.570,0.000,0.000,-1.356,-6.680,0.452,5.900,3.501,5.486,
41.240,48.512,-1.347,-6.959,2.125,-0.110,4.688,2.448,0.000,0.000,2.647,2.200,0.000,0.000,0.659,0.548,0.000,0.000,3.142,0.000,0.000,0.000,0.000,0.000,0.000,0.000,0.000,0.000,0.000,0.000,3.142,6.280,0.000,2.101,1.897,1.798,4.285,0.398,0.999,4.711,0.000,0.000,-1.599,-6.864,0.451,5.833,3.408,5.729,4.182,4.384,4.484,1.998,5.882,5.283,1.570,0.000,0.000,-1.320,-6.690,0.451,5.864,3.457,5.598,
41.340,48.612,-1.345,-6.962,1.999,0.042,5.035,2.329,0.000,0.000,2.656,2.226,0.000,4.523,3.813,0.477,0.000,0.000,3.142,0.000,0.000,0.000,0.000,0.000,0.000,0.000,0.000,0.000,0.000,0.000,3.142,6.280,0.000,2.102,1.898,1.798,4.285,0.398,0.999,4.711,0.000,0.000,-1.584,-6.836,0.451,5.804,3.346,5.865,4.182,4.384,4.484,1.998,5.882,5.283,1.570,0.000,0.000,-1.285,-6.699,0.451,5.829,3.400,5.731,
41.440,48.712,-1.347,-6.958,1.927,0.046,5.698,2.746,0.000,0.000,2.485,2.264,2.032,4.729,0.838,0.451,0.000,0.000,1.632,0.000,0.000,0.000,0.000,0.000,0.000,0.000,0.000,0.000,0.000,0.000,3.142,6.281,0.000,2.100,1.897,1.799,4.285,0.398,1.000,4.711,0.000,0.000,-1.576,-6.814,0.451,5.789,3.309,5.946,4.182,4.384,4.484,1.998,5.882,5.283,1.570,0.000,0.000,-1.268,-6.699,0.451,5.811,3.365,5.810,
41.539,48.811,-1.347,-6.957,1.893,-0.010,5.794,3.007,0.000,4.855,2.417,2.285,1.954,0.000,2.537,0.439,0.000,0.000,1.667,0.000,0.000,0.000,0.000,0.000,0.000,0.000,0.000,0.000,0.000,0.000,3.142,6.282,0.000,2.101,1.897,1.798,4.285,0.398,1.000,4.711,0.000,0.000,-1.572,-6.806,0.451,5.785,3.292,5.984,4.183,4.384,4.484,1.998,5.882,5.283,1.570,0.000,0.000,-1.260,-6.702,0.451,5.804,3.348,5.846,
41.640,48.912,-1.347,-6.958,1.861,-0.027,5.713,0.000,0.000,4.853,2.359,4.135,1.885,0.000,0.000,0.429,0.000,0.000,1.667,0.000,0.000,0.000,0.000,0.000,0.000,0.000,0.000,0.000,0.000,0.000,3.142,6.281,0.000,2.101,1.897,1.798,4.285,0.398,0.999,4.711,0.000,0.000,-1.566,-6.800,0.451,5.780,3.274,6.020,4.183,4.384,4.484,1.998,5.882,5.283,1.570,0.000,0.000,-1.251,-6.706,0.451,5.798,3.332,5.882,
41.732,49.004,-1.347,-6.960,1.805,-0.011,5.732,4.865,0.000,4.861,2.270,4.214,1.781,0.000,0.000,0.412,0.000,0.000,1.738,0.000,0.000,0.000,0.000,0.000,0.000,0.000,0.000,0.000,0.000,0.000,3.142,6.281,0.000,2.101,1.897,1.798,4.285,0.398,0.999,4.711,0.000,0.000,-1.557,-6.789,0.451,5.773,3.243,6.084,4.182,4.384,4.484,1.998,5.882,5.283,1.570,0.000,0.000,-1.237,-6.713,0.451,5.788,3.302,5.945,
41.840,49.112,-1.347,-6.960,1.778,0.008,5.961,4.943,0.000,0.000,2.233,4.359,1.738,0.000,0.000,0.406,0.000,0.000,1.773,0.000,0.000,0.000,0.000,0.000,0.000,0.000,0.000,0.000,0.000,0.000,3.142,6.281,0.000,2.101,1.897,1.798,4.285,0.398,0.999,4.711,0.000,0.000,-1.552,-6.784,0.451,5.771,3.228,6.114,4.182,4.384,4.484,1.998,5.882,5.283,1.570,0.000,0.000,-1.230,-6.716,0.451,5.784,3.288,5.974,
41.934,49.206,-1.346,-6.961,1.762,-0.016,6.068,4.926,0.000,4.279,2.240,4.192,1.712,0.000,0.000,0.402,0.000,0.000,1.773,0.000,0.000,0.000,0.000,0.000,0.000,0.000,0.000,0.000,0.000,0.000,3.142,6.281,0.000,2.101,1.898,1.798,4.285,0.398,0.999,4.711,0.000,0.000,-1.549,-6.782,0.451,5.770,3.219,6.132,4.183,4.384,4.483,1.997,5.882,5.283,1.570,0.000,0.000,-1.226,-6.719,0.451,5.782,3.280,5.992,
42.040,49.312,-1.346,-6.961,1.746,0.000,5.911,4.986,0.000,4.286,2.301,4.044,1.689,0.000,0.000,0.398,0.000,0.000,1.808,0.000,0.000,0.000,0.000,0.000,0.000,0.000,0.000,0.000,0.000,0.000,3.142,6.281,0.000,2.101,1.897,1.798,4.285,0.398,0.999,4.711,0.000,0.000,-1.546,-6.779,0.451,5.769,3.211,6.150,4.183,4.384,4.483,1.998,5.882,5.283,1.570,0.000,0.000,-1.223,-6.721,0.451,5.780,3.271,6.010,
42.140,49.412,-1.346,-6.961,1.717,0.002,5.997,4.041,0.000,2.912,2.429,3.795,1.649,0.000,0.000,0.392,0.000,0.000,1.843,0.000,0.000,0.000,0.000,0.000,0.000,0.000,0.000,0.000,0.000,0.000,3.142,6.281,0.000,2.101,1.897,1.798,4.285,0.398,0.999,4.711,0.000,0.000,-1.541,-6.772,0.451,5.767,3.194,6.185,4.183,4.384,4.484,1.998,5.882,5.283,1.570,0.000,0.000,-1.215,-6.725,0.451,5.776,3.255,6.044,
42.240,49.512,-1.346,-6.961,1.705,0.002,6.142,3.924,0.000,1.911,2.482,3.709,1.645,0.000,0.000,0.390,0.000,0.000,1.843,0.000,0.000,0.000,0.000,0.000,0.000,0.000,0.000,0.000,0.000,0.000,3.142,6.282,0.000,2.101,1.897,1.798,4.285,0.398,0.999,4.711,0.000,0.000,-1.539,-6.770,0.451,5.766,3.187,6.198,4.183,4.384,4.484,1.998,5.882,5.283,1.570,0.000,0.000,-1.213,-6.726,0.451,5.775,3.248,6.057,
42.340,49.612,-1.346,-6.961,1.699,0.002,6.153,3.862,0.000,1.837,2.513,3.663,1.659,0.000,0.000,0.389,0.000,0.000,1.843,0.000,0.000,0.000,0.000,0.000,0.000,0.000,0.000,0.000,0.000,0.000,3.142,6.282,0.000,2.101,1.897,1.798,4.285,0.398,0.999,4.711,0.000,0.000,-1.538,-6.769,0.451,5.766,3.184,6.205,4.183,4.384,4.484,1.998,5.882,5.283,1.570,0.000,0.000,-1.211,-6.727,0.451,5.774,3.245,6.064,
42.429,49.701,-1.346,-6.960,1.692,0.005,6.125,3.793,0.000,1.784,2.549,3.612,1.675,0.000,0.000,0.387,0.000,0.000,1.843,0.000,0.000,0.000,0.000,0.000,0.000,0.000,0.000,0.000,0.000,0.000,3.142,6.282,0.000,2.101,1.897,1.798,4.285,0.398,0.999,4.711,0.000,0.000,-1.536,-6.767,0.451,5.766,3.180,6.213,4.183,4.384,4.484,1.998,5.882,5.283,1.570,0.000,0.000,-1.210,-6.727,0.451,5.774,3.241,6.072,
42.540,49.812,-1.347,-6.960,1.685,0.004,6.112,3.731,0.000,1.786,2.584,3.565,1.690,0.000,0.000,0.386,0.000,0.000,1.843,0.000,0.000,0.000,0.000,0.000,0.000,0.000,0.000,0.000,0.000,0.000,3.142,6.282,0.000,2.101,1.897,1.798,4.285,0.398,0.999,4.711,0.000,0.000,-1.535,-6.766,0.451,5.765,3.176,6.221,4.183,4.384,4.484,1.998,5.882,5.283,1.570,0.000,0.000,-1.208,-6.728,0.451,5.773,3.237,6.080,
42.640,49.912,-1.347,-6.960,1.677,0.005,6.172,3.660,0.000,1.789,2.628,3.511,1.709,0.000,0.000,0.388,0.000,0.000,1.878,0.000,0.000,0.000,0.000,0.000,0.000,0.000,0.000,0.000,0.000,0.000,3.142,6.282,0.000,2.101,1.897,1.798,4.285,0.398,0.999,4.711,0.000,0.000,-1.533,-6.764,0.451,5.765,3.171,6.230,4.183,4.384,4.484,1.998,5.882,5.283,1.570,0.000,0.000,-1.206,-6.729,0.451,5.772,3.233,6.089,
42.740,50.012,-1.347,-6.960,1.674,-0.005,6.236,3.630,0.000,1.790,2.647,3.488,1.717,0.000,0.000,0.390,0.000,0.000,1.878,0.000,0.000,0.000,0.000,0.000,0.000,0.000,0.000,0.000,0.000,0.000,3.142,6.282,0.000,2.101,1.898,1.798,4.286,0.398,0.999,4.711,0.000,0.000,-1.532,-6.764,0.451,5.765,3.169,6.234,4.183,4.384,4.484,1.998,5.882,5.283,1.570,0.000,0.000,-1.205,-6.730,0.451,5.772,3.230,6.093,
42.840,50.112,-1.347,-6.960,1.670,-0.008,6.188,3.602,0.000,1.791,4.689,3.467,1.725,0.000,0.000,0.394,0.000,0.000,1.878,0.000,0.000,0.000,0.000,0.000,0.000,0.000,0.000,0.000,0.000,0.000,3.142,6.282,0.000,2.101,1.898,1.798,4.286,0.398,0.999,4.711,0.000,0.000,-1.532,-6.763,0.451,5.765,3.167,6.238,4.183,4.384,4.484,1.998,5.882,5.283,1.570,0.000,0.000,-1.205,-6.730,0.451,5.771,3.229,6.097,
42.940,50.212,-1.348,-6.940,1.671,0.557,0.125,3.586,0.000,1.789,4.693,3.469,1.742,0.000,0.000,0.385,0.000,0.000,1.878,0.000,0.000,0.000,0.000,0.000,0.000,0.000,0.000,0.000,0.000,0.000,3.142,6.278,6.283,2.106,1.897,1.796,4.284,0.399,0.996,4.708,0.000,0.000,-1.535,-6.746,0.450,5.768,3.171,6.232,4.181,4.385,4.481,1.996,5.882,5.283,1.570,0.000,0.000,-1.207,-6.712,0.450,5.774,3.231,6.092,
43.040,50.312,-1.358,-6.844,1.680,1.337,0.028,3.559,0.000,1.917,4.828,3.505,1.817,0.000,0.000,0.398,0.000,0.000,1.878,0.000,0.000,0.000,0.000,0.000,0.000,0.000,0.000,0.000,0.000,0.000,3.142,6.279,6.283,2.105,1.898,1.797,4.285,0.399,0.997,4.709,0.000,0.000,-1.546,-6.651,0.450,5.768,3.174,6.224,4.182,4.385,4.482,1.997,5.883,5.283,1.570,0.000,0.000,-1.219,-6.614,0.451,5.774,3.236,6.083,
43.133,50.404,-1.373,-6.708,1.680,1.275,0.001,3.416,0.000,1.654,0.000,3.473,1.954,0.000,0.383,0.414,0.000,0.000,1.913,0.000,0.000,0.000,0.000,0.000,0.000,0.000,0.000,0.000,0.000,0.000,3.142,0.001,0.001,2.098,1.897,1.799,4.285,0.397,1.001,4.712,0.000,0.000,-1.560,-6.512,0.451,5.764,3.171,6.229,4.183,4.383,4.485,1.998,5.882,5.284,1.571,0.000,0.000,-1.233,-6.476,0.452,5.771,3.233,6.088,
43.240,50.512,-1.382,-6.624,1.680,0.897,0.000,3.328,0.000,1.645,0.000,3.454,2.039,0.000,0.393,0.424,0.000,0.000,2.018,0.000,0.000,0.000,0.000,0.000,0.000,0.000,0.000,0.000,0.000,0.000,3.142,0.001,0.001,2.098,1.897,1.799,4.285,0.397,1.001,4.712,0.000,0.000,-1.569,-6.427,0.452,5.764,3.171,6.230,4.184,4.383,4.485,1.998,5.881,5.284,1.571,0.000,0.000,-1.242,-6.391,0.452,5.771,3.233,6.088,
43.326,50.598,-1.393,-6.527,1.680,0.879,6.283,3.226,0.000,1.634,0.000,3.431,2.136,0.000,0.404,0.436,0.000,0.000,1.948,0.000,0.000,0.000,0.000,0.000,0.000,0.000,0.000,0.000,0.000,0.000,3.142,6.282,0.000,2.102,1.898,1.798,4.285,0.398,0.999,4.711,0.000,0.000,-1.580,-6.332,0.451,5.766,3.173,6.226,4.183,4.384,4.483,1.997,5.882,5.283,1.570,0.000,0.000,-1.253,-6.296,0.451,5.773,3.234,6.086,
43.440,50.712,-1.401,-6.450,1.680,1.074,0.000,3.145,0.000,1.625,0.000,3.412,2.214,0.000,0.412,0.445,0.000,0.000,2.053,0.000,0.000,0.000,0.000,0.000,0.000,0.000,0.000,0.000,0.000,0.000,3.142,6.281,0.000,2.102,1.898,1.798,4.285,0.399,0.999,4.711,0.000,0.000,-1.588,-6.255,0.451,5.766,3.173,6.226,4.183,4.384,4.483,1.997,5.882,5.283,1.570,0.000,0.000,-1.261,-6.219,0.451,5.773,3.234,6.086,
43.540,50.812,-1.415,-6.320,1.680,1.076,6.283,3.007,0.000,1.611,0.000,3.123,2.345,0.620,0.427,1.009,0.000,0.000,2.089,0.000,0.000,0.000,0.000,0.000,0.000,0.000,0.000,0.000,0.000,0.000,3.142,6.283,0.000,2.100,1.897,1.799,4.285,0.398,1.000,4.711,0.000,0.000,-1.602,-6.124,0.451,5.765,3.172,6.228,4.183,4.384,4.484,1.998,5.882,5.283,1.571,0.000,0.000,-1.275,-6.089,0.451,5.772,3.233,6.087,
43.627,50.899,-1.426,-6.221,1.680,0.962,6.283,2.903,0.000,1.600,0.000,3.357,2.445,0.636,0.438,1.021,0.000,0.000,2.124,0.000,0.000,0.000,0.000,0.000,0.000,0.000,0.000,0.000,0.000,0.000,3.142,6.283,0.000,2.100,1.897,1.799,4.285,0.398,1.000,4.711,0.000,0.000,-1.613,-6.025,0.451,5.765,3.172,6.228,4.183,4.384,4.484,1.998,5.882,5.283,1.571,0.000,0.000,-1.286,-5.990,0.451,5.772,3.234,6.087,
43.740,51.012,-1.434,-6.146,1.679,0.966,6.283,2.824,0.000,1.592,0.000,3.339,2.521,0.648,0.446,1.029,0.000,0.000,2.720,0.000,0.000,0.000,0.000,0.000,0.000,0.000,0.000,0.000,0.000,0.000,3.142,6.282,0.000,2.101,1.897,1.798,4.285,0.398,0.999,4.711,0.000,0.000,-1.621,-5.951,0.451,5.765,3.172,6.228,4.183,4.384,4.484,1.998,5.882,5.283,1.570,0.000,0.000,-1.294,-5.915,0.451,5.772,3.234,6.087,
43.840,51.168,-1.447,-6.028,1.679,1.037,6.283,2.700,0.000,1.579,0.000,3.365,2.640,0.667,0.656,0.988,0.000,0.000,2.791,0.000,0.000,0.000,0.000,0.000,0.000,0.000,0.000,0.000,0.000,0.000,3.142,6.282,0.000,2.101,1.897,1.798,4.285,0.398,0.999,4.711,0.000,0.000,-1.634,-5.833,0.451,5.765,3.172,6.228,4.183,4.384,4.484,1.998,5.882,5.283,1.570,0.000,0.000,-1.307,-5.797,0.451,5.772,3.234,6.087,
43.940,51.268,-1.458,-5.927,1.679,1.027,6.283,2.592,0.000,1.567,0.000,3.480,2.742,0.684,0.977,4.612,0.000,0.000,2.861,0.000,0.000,0.000,0.000,0.000,0.000,0.000,0.000,0.000,0.000,0.000,3.142,6.283,0.000,2.100,1.897,1.798,4.285,0.398,1.000,4.711,0.000,0.000,-1.645,-5.731,0.451,5.765,3.172,6.229,4.183,4.384,4.484,1.998,5.882,5.283,1.571,0.000,0.000,-1.318,-5.696,0.451,5.772,3.233,6.088,
44.040,51.368,-1.469,-5.828,1.679,0.997,6.283,2.488,0.000,1.557,1.818,3.592,2.842,0.700,0.988,4.378,0.000,0.000,2.861,0.000,0.000,0.000,0.000,0.000,0.000,0.000,0.000,0.000,0.000,0.000,3.142,6.283,0.000,2.100,1.897,1.798,4.285,0.398,1.000,4.711,0.000,0.000,-1.656,-5.632,0.451,5.765,3.172,6.229,4.183,4.384,4.484,1.998,5.882,5.283,1.570,0.000,0.000,-1.329,-5.597,0.451,5.772,3.233,6.088,
44.140,51.468,-1.480,-5.731,1.679,1.003,6.283,2.385,0.000,1.546,1.689,3.703,2.941,0.716,0.999,4.146,0.000,0.000,2.861,0.000,0.000,0.000,0.000,0.000,0.000,0.000,0.000,0.000,0.000,0.000,3.142,6.282,0.000,2.100,1.897,1.798,4.285,0.398,1.000,4.711,0.000,0.000,-1.667,-5.535,0.451,5.765,3.172,6.229,4.183,4.384,4.484,1.998,5.882,5.283,1.570,0.000,0.000,-1.340,-5.499,0.451,5.772,3.233,6.088,
44.236,51.564,-1.490,-5.632,1.679,1.018,6.283,2.281,0.000,1.535,1.677,3.815,3.041,0.732,1.010,4.040,0.000,0.000,2.861,0.000,0.000,0.000,0.000,0.000,0.000,0.000,0.000,0.000,0.000,0.000,3.142,6.282,0.000,2.100,1.897,1.798,4.285,0.398,1.000,4.711,0.000,0.000,-1.677,-5.436,0.451,5.765,3.172,6.229,4.183,4.384,4.484,1.998,5.882,5.283,1.570,0.000,0.000,-1.350,-5.400,0.451,5.772,3.233,6.088,
44.340,51.668,-1.499,-5.552,1.679,1.009,6.283,2.197,0.000,1.526,1.667,3.728,3.122,0.820,1.019,4.049,0.000,0.000,2.861,0.000,0.000,0.000,0.000,0.000,0.000,0.000,0.000,0.000,0.000,0.000,3.142,6.283,0.000,2.100,1.897,1.798,4.285,0.398,1.000,4.711,0.000,0.000,-1.686,-5.356,0.451,5.765,3.172,6.229,4.183,4.384,4.484,1.998,5.882,5.283,1.571,0.000,0.000,-1.359,-5.321,0.451,5.772,3.233,6.088,
44.440,51.768,-1.511,-5.438,1.678,0.852,0.002,2.076,0.000,1.514,1.653,3.701,3.237,0.974,0.981,4.062,0.000,0.000,2.896,0.000,0.000,0.000,0.000,0.000,0.000,0.000,0.000,0.000,0.000,0.000,3.142,0.001,0.001,2.098,1.897,1.799,4.285,0.397,1.001,4.712,0.000,0.000,-1.698,-5.241,0.451,5.765,3.171,6.231,4.183,4.383,4.485,1.998,5.882,5.284,1.571,0.000,0.000,-1.371,-5.206,0.452,5.771,3.232,6.090,
44.540,51.868,-1.515,-5.402,1.678,-0.051,6.244,2.038,0.000,1.510,1.649,3.692,3.274,1.023,0.985,4.066,0.000,0.000,2.896,0.000,0.000,0.000,0.000,0.000,0.000,0.000,0.000,0.000,0.000,0.000,3.142,0.004,0.001,2.094,1.896,1.801,4.286,0.396,1.003,4.714,0.000,0.000,-1.701,-5.203,0.452,5.762,3.168,6.235,4.184,4.381,4.487,1.999,5.881,5.284,1.571,0.000,0.000,-1.374,-5.169,0.452,5.769,3.231,6.093,
44.640,51.968,-1.512,-5.430,1.677,-0.391,0.006,2.059,0.000,1.513,1.651,3.686,3.253,0.983,0.982,4.060,0.000,0.000,2.896,0.000,0.000,0.000,0.000,0.000,0.000,0.000,0.000,0.000,0.000,0.000,3.142,0.000,0.000,2.100,1.897,1.799,4.285,0.398,1.000,4.711,0.000,0.000,-1.698,-5.234,0.451,5.765,3.170,6.233,4.182,4.383,4.485,1.998,5.882,5.284,1.571,0.000,0.000,-1.371,-5.200,0.451,5.772,3.231,6.091,
44.734,52.062,-1.510,-5.449,1.676,0.019,0.011,2.077,0.000,1.515,1.653,3.687,3.236,0.957,0.980,4.057,0.000,0.000,2.896,0.000,0.000,0.000,0.000,0.000,0.000,0.000,0.000,0.000,0.000,0.000,3.142,6.281,6.283,2.103,1.898,1.797,4.285,0.399,0.998,4.710,0.000,0.000,-1.697,-5.255,0.450,5.767,3.171,6.230,4.182,4.385,4.483,1.997,5.882,5.283,1.570,0.000,0.000,-1.370,-5.219,0.451,5.773,3.232,6.089,
44.840,52.168,-1.511,-5.443,1.676,0.142,0.015,2.067,0.000,1.515,1.651,3.682,3.245,0.966,0.981,4.056,0.000,0.000,2.896,0.000,0.000,0.000,0.000,0.000,0.000,0.000,0.000,0.000,0.000,0.000,3.142,6.282,0.000,2.101,1.898,1.798,4.285,0.398,0.999,4.711,0.000,0.000,-1.697,-5.247,0.451,5.766,3.170,6.232,4.183,4.384,4.483,1.998,5.882,5.283,1.570,0.000,0.000,-1.370,-5.212,0.451,5.772,3.232,6.091,
44.926,52.254,-1.512,-5.433,1.675,0.005,6.283,2.054,0.000,1.514,1.650,3.674,3.258,0.977,0.982,4.056,0.000,0.000,2.896,0.000,0.000,0.000,0.000,0.000,0.000,0.000,0.000,0.000,0.000,0.000,3.142,6.283,0.001,2.100,1.897,1.798,4.285,0.398,1.000,4.711,0.000,0.000,-1.698,-5.237,0.451,5.765,3.169,6.234,4.183,4.384,4.484,1.998,5.882,5.283,1.570,0.000,0.000,-1.371,-5.202,0.451,5.771,3.231,6.093,
45.040,52.368,-1.512,-5.434,1.674,-0.002,6.265,2.050,0.000,1.514,1.649,3.668,3.262,0.976,0.982,4.054,0.000,0.000,2.896,0.000,0.000,0.000,0.000,0.000,0.000,0.000,0.000,0.000,0.000,0.000,3.142,6.283,0.000,2.100,1.897,1.799,4.286,0.398,1.000,4.711,0.000,0.000,-1.698,-5.237,0.451,5.765,3.168,6.235,4.183,4.384,4.484,1.998,5.882,5.283,1.570,0.000,0.000,-1.370,-5.203,0.451,5.771,3.230,6.094,
45.140,52.468,-1.512,-5.434,1.670,-0.008,6.175,2.033,0.000,1.515,1.646,3.643,3.278,0.973,0.983,4.048,0.000,0.000,2.896,0.000,0.000,0.000,0.000,0.000,0.000,0.000,0.000,0.000,0.000,0.000,3.142,6.282,0.000,2.100,1.897,1.798,4.285,0.398,1.000,4.711,0.000,0.000,-1.697,-5.237,0.451,5.765,3.167,6.239,4.183,4.384,4.484,1.998,5.882,5.283,1.570,0.000,0.000,-1.370,-5.204,0.451,5.771,3.228,6.098,
45.240,52.568,-1.512,-5.434,1.664,-0.009,6.156,2.005,0.000,1.517,1.641,3.603,3.306,0.967,0.984,4.036,0.000,0.000,2.896,0.000,0.000,0.000,0.000,0.000,0.000,0.000,0.000,0.000,0.000,0.000,3.142,6.282,0.000,2.101,1.897,1.798,4.285,0.398,1.000,4.711,0.000,0.000,-1.696,-5.236,0.451,5.765,3.163,6.246,4.183,4.384,4.484,1.998,5.882,5.283,1.570,0.000,0.000,-1.368,-5.205,0.451,5.771,3.225,6.105,
45.340,52.668,-1.512,-5.435,1.659,-0.006,6.196,1.983,0.000,1.519,1.638,3.572,3.328,0.962,0.985,4.028,0.000,0.000,2.896,0.000,0.000,0.000,0.000,0.000,0.000,0.000,0.000,0.000,0.000,0.000,3.142,6.282,0.000,2.101,1.897,1.798,4.285,0.398,1.000,4.711,0.000,0.000,-1.695,-5.236,0.451,5.765,3.161,6.251,4.183,4.384,4.484,1.998,5.882,5.283,1.570,0.000,0.000,-1.367,-5.206,0.451,5.771,3.222,6.110,
45.440,52.768,-1.512,-5.435,1.656,-0.004,6.217,1.975,0.000,1.520,1.635,3.551,3.344,0.959,0.986,4.022,0.000,0.000,2.896,0.000,0.000,0.000,0.000,0.000,0.000,0.000,0.000,0.000,0.000,0.000,3.142,6.282,0.000,2.101,1.897,1.798,4.285,0.398,0.999,4.711,0.000,0.000,-1.694,-5.235,0.451,5.765,3.159,6.255,4.183,4.384,4.484,1.998,5.882,5.283,1.570,0.000,0.000,-1.366,-5.207,0.451,5.770,3.220,6.114,
45.540,52.868,-1.514,-5.406,1.648,0.700,6.219,1.953,0.000,1.520,1.627,3.496,3.413,0.991,0.990,4.011,0.000,0.000,2.931,0.000,0.000,0.000,0.000,0.000,0.000,0.000,0.000,0.000,0.000,0.000,3.142,6.277,6.283,2.106,1.897,1.796,4.284,0.399,0.996,4.708,0.000,0.000,-1.696,-5.207,0.450,5.767,3.157,6.259,4.181,4.385,4.481,1.996,5.883,5.283,1.570,0.000,0.000,-1.368,-5.180,0.450,5.772,3.218,6.118,
45.635,52.963,-1.522,-5.300,1.646,1.309,0.000,1.850,0.000,1.512,1.616,3.466,3.530,1.128,0.999,4.016,0.000,0.000,2.931,0.000,0.000,0.000,0.000,0.000,0.000,0.000,0.000,0.000,0.000,0.000,3.142,6.281,6.283,2.103,1.898,1.797,4.285,0.399,0.998,4.710,0.000,0.000,-1.703,-5.100,0.451,5.766,3.154,6.265,4.182,4.385,4.483,1.997,5.882,5.283,1.570,0.000,0.000,-1.375,-5.074,0.451,5.770,3.215,6.124,
45.740,53.068,-1.530,-5.203,1.646,1.065,0.000,1.754,0.000,1.505,1.608,3.452,3.627,1.255,0.000,4.024,0.000,0.000,2.931,0.000,0.000,0.000,0.000,0.000,0.000,0.000,0.000,0.000,0.000,0.000,3.142,0.001,0.001,2.097,1.897,1.800,4.285,0.397,1.001,4.712,0.000,0.000,-1.709,-5.000,0.452,5.763,3.151,6.270,4.184,4.383,4.485,1.998,5.881,5.284,1.571,0.000,0.000,-1.382,-4.976,0.452,5.768,3.214,6.128,
45.837,53.165,-1.536,-5.115,1.646,0.535,6.283,1.666,0.000,1.012,1.601,3.442,3.714,1.371,0.000,4.031,0.000,0.000,2.931,0.000,0.000,0.000,0.000,0.000,0.000,0.000,0.000,0.000,0.000,0.000,3.142,0.000,0.001,2.099,1.897,1.799,4.285,0.398,1.001,4.712,0.000,0.000,-1.716,-4.913,0.451,5.764,3.152,6.268,4.183,4.383,4.485,1.998,5.882,5.283,1.571,0.000,0.000,-1.388,-4.889,0.452,5.768,3.214,6.127,
45.940,53.268,-1.539,-5.072,1.646,0.620,6.283,1.623,0.000,0.830,1.598,3.492,3.758,1.428,0.000,4.035,0.000,0.000,2.931,0.000,0.000,0.000,0.000,0.000,0.000,0.000,0.000,0.000,0.000,0.000,3.142,6.282,0.000,2.102,1.897,1.798,4.285,0.398,0.999,4.711,0.000,0.000,-1.720,-4.871,0.451,5.765,3.154,6.266,4.183,4.384,4.483,1.997,5.882,5.283,1.570,0.000,0.000,-1.392,-4.846,0.451,5.770,3.215,6.125,
46.040,53.368,-1.546,-4.985,1.646,0.824,6.283,1.537,0.000,0.823,1.590,3.593,3.846,1.611,0.000,4.042,0.000,0.000,2.931,0.000,0.000,0.000,0.000,0.000,0.000,0.000,0.000,0.000,0.000,0.000,3.142,6.282,0.000,2.101,1.897,1.798,4.285,0.398,0.999,4.711,0.000,0.000,-1.726,-4.783,0.451,5.765,3.153,6.266,4.183,4.384,4.484,1.998,5.882,5.283,1.570,0.000,0.000,-1.398,-4.759,0.451,5.769,3.215,6.125,
46.140,53.468,-1.552,-4.909,1.646,0.706,0.000,1.461,0.000,0.817,1.584,3.681,3.922,1.620,0.000,1.110,0.000,0.000,2.931,0.000,0.000,0.000,0.000,0.000,0.000,0.000,0.000,0.000,0.000,0.000,3.142,0.000,0.000,2.099,1.897,1.799,4.285,0.398,1.000,4.712,0.000,0.000,-1.732,-4.706,0.451,5.764,3.152,6.268,4.183,4.383,4.484,1.998,5.882,5.283,1.571,0.000,0.000,-1.404,-4.682,0.451,5.769,3.214,6.126,
46.237,53.565,-1.556,-4.848,1.646,0.567,0.000,1.400,0.000,0.812,1.579,3.751,3.983,1.626,0.000,1.092,0.000,0.000,2.931,0.000,0.000,0.000,0.000,0.000,0.000,0.000,0.000,0.000,0.000,0.000,3.142,6.283,0.000,2.100,1.897,1.799,4.285,0.398,1.000,4.711,0.000,0.000,-1.737,-4.646,0.451,5.764,3.153,6.267,4.183,4.384,4.484,1.998,5.882,5.283,1.571,0.000,0.000,-1.409,-4.621,0.451,5.769,3.215,6.126,
46.340,53.668,-1.560,-4.804,1.646,0.569,6.283,1.357,0.000,0.809,1.576,3.802,4.027,1.632,0.000,1.096,0.000,0.000,2.931,0.000,0.000,0.000,0.000,0.000,0.000,0.000,0.000,0.000,0.000,0.000,3.142,6.282,0.000,2.101,1.897,1.798,4.285,0.398,1.000,4.711,0.000,0.000,-1.740,-4.602,0.451,5.765,3.153,6.267,4.183,4.384,4.484,1.998,5.882,5.283,1.570,0.000,0.000,-1.412,-4.578,0.451,5.769,3.215,6.125,
46.440,53.768,-1.565,-4.735,1.646,0.604,6.283,1.288,0.000,0.804,1.570,3.881,4.097,1.640,0.000,1.156,0.000,0.000,2.931,0.000,0.000,0.000,0.000,0.000,0.000,0.000,0.000,0.000,0.000,0.000,3.142,6.282,0.000,2.100,1.897,1.798,4.285,0.398,1.000,4.711,0.000,0.000,-1.745,-4.533,0.451,5.765,3.153,6.267,4.183,4.384,4.484,1.998,5.882,5.283,1.570,0.000,0.000,-1.417,-4.509,0.451,5.769,3.215,6.126,
46.540,53.868,-1.569,-4.678,1.646,0.560,0.000,1.231,0.000,0.799,1.565,3.947,4.154,1.646,0.000,1.160,0.000,0.000,2.966,0.000,0.000,0.000,0.000,0.000,0.000,0.000,0.000,0.000,0.000,0.000,3.142,6.283,0.000,2.100,1.897,1.798,4.285,0.398,1.000,4.711,0.000,0.000,-1.749,-4.476,0.451,5.764,3.153,6.267,4.183,4.384,4.484,1.998,5.882,5.283,1.570,0.000,0.000,-1.421,-4.451,0.451,5.769,3.215,6.126,
46.640,53.968,-1.573,-4.627,1.646,0.500,6.283,1.181,0.000,0.795,1.561,4.006,4.205,1.652,0.000,1.165,0.000,0.000,2.966,0.000,0.000,0.000,0.000,0.000,0.000,0.000,0.000,0.000,0.000,0.000,3.142,6.283,0.000,2.100,1.897,1.798,4.285,0.398,1.000,4.711,0.000,0.000,-1.753,-4.425,0.451,5.764,3.153,6.267,4.183,4.384,4.484,1.998,5.882,5.283,1.570,0.000,0.000,-1.425,-4.400,0.451,5.769,3.215,6.126,
46.740,54.068,-1.576,-4.580,1.646,0.480,6.283,1.134,0.000,0.792,1.557,4.061,4.253,1.658,0.000,1.168,0.000,0.000,2.966,0.000,0.000,0.000,0.000,0.000,0.000,0.000,0.000,0.000,0.000,0.000,3.142,6.282,0.000,2.100,1.897,1.798,4.285,0.398,1.000,4.711,0.000,0.000,-1.757,-4.378,0.451,5.765,3.153,6.267,4.183,4.384,4.484,1.998,5.882,5.283,1.570,0.000,0.000,-1.429,-4.353,0.451,5.769,3.215,6.126,
46.840,54.168,-1.580,-4.534,1.646,0.470,6.283,1.088,0.000,0.788,0.842,4.114,4.300,1.663,0.000,1.172,0.000,0.000,2.966,0.000,0.000,0.000,0.000,0.000,0.000,0.000,0.000,0.000,0.000,0.000,3.142,6.283,0.000,2.100,1.897,1.798,4.285,0.398,1.000,4.711,0.000,0.000,-1.760,-4.332,0.451,5.764,3.153,6.267,4.183,4.384,4.484,1.998,5.882,5.283,1.570,0.000,0.000,-1.432,-4.307,0.451,5.769,3.215,6.126,
46.940,54.268,-1.583,-4.490,1.645,0.441,6.283,1.044,0.000,0.785,0.839,4.165,4.344,1.669,0.000,1.176,0.000,0.000,2.966,0.000,0.000,0.000,0.000,0.000,0.000,0.000,0.000,0.000,0.000,0.000,3.142,6.283,0.000,2.100,1.897,1.798,4.285,0.398,1.000,4.711,0.000,0.000,-1.763,-4.288,0.451,5.764,3.153,6.267,4.183,4.384,4.484,1.998,5.882,5.283,1.570,0.000,0.000,-1.435,-4.263,0.451,5.769,3.214,6.126,
47.040,54.368,-1.586,-4.449,1.645,0.413,6.283,1.004,0.000,0.782,0.835,4.212,4.386,1.596,0.000,1.179,0.000,0.000,2.966,0.000,0.000,0.000,0.000,0.000,0.000,0.000,0.000,0.000,0.000,0.000,3.142,6.283,0.000,2.100,1.897,1.798,4.285,0.398,1.000,4.711,0.000,0.000,-1.767,-4.247,0.451,5.764,3.153,6.267,4.183,4.384,4.484,1.998,5.882,5.283,1.570,0.000,0.000,-1.439,-4.223,0.451,5.769,3.214,6.126,
47.120,54.448,-1.589,-4.410,1.645,0.396,0.000,0.965,0.000,0.779,0.832,4.257,4.425,1.601,0.000,1.182,0.000,0.000,2.966,0.000,0.000,0.000,0.000,0.000,0.000,0.000,0.000,0.000,0.000,0.000,3.142,6.282,0.000,2.100,1.897,1.798,4.285,0.398,1.000,4.711,0.000,0.000,-1.769,-4.209,0.451,5.764,3.153,6.267,4.183,4.384,4.484,1.998,5.882,5.283,1.570,0.000,0.000,-1.441,-4.184,0.451,5.769,3.214,6.126,
47.240,54.568,-1.591,-4.380,1.645,0.384,6.283,0.936,0.000,0.777,0.830,4.292,4.456,1.605,0.000,1.184,0.000,0.000,2.966,0.000,0.000,0.000,0.000,0.000,0.000,0.000,0.000,0.000,0.000,0.000,3.142,6.283,0.000,2.100,1.897,1.798,4.285,0.398,1.000,4.711,0.000,0.000,-1.772,-4.179,0.451,5.764,3.152,6.268,4.183,4.384,4.484,1.998,5.882,5.283,1.570,0.000,0.000,-1.444,-4.154,0.451,5.769,3.214,6.126,
47.323,54.651,-1.595,-4.338,1.645,0.361,6.283,0.893,0.000,0.773,0.826,0.000,4.499,1.610,0.000,1.188,0.000,0.000,2.966,0.000,0.000,0.000,0.000,0.000,0.000,0.000,0.000,0.000,0.000,0.000,3.142,6.283,0.000,2.100,1.897,1.798,4.285,0.398,1.000,4.711,0.000,0.000,-1.775,-4.136,0.451,5.764,3.152,6.268,4.183,4.384,4.484,1.998,5.882,5.283,1.570,0.000,0.000,-1.447,-4.111,0.451,5.769,3.214,6.127,
47.440,54.768,-1.597,-4.311,1.645,0.348,6.283,0.866,0.000,0.771,0.824,0.000,4.527,1.613,0.000,1.190,0.000,0.000,2.966,0.000,0.000,0.000,0.000,0.000,0.000,0.000,0.000,0.000,0.000,0.000,3.142,6.283,0.000,2.100,1.897,1.798,4.285,0.398,1.000,4.711,0.000,0.000,-1.777,-4.109,0.451,5.764,3.152,6.268,4.183,4.384,4.484,1.998,5.882,5.283,1.570,0.000,0.000,-1.449,-4.084,0.451,5.769,3.214,6.127,
47.535,54.863,-1.599,-4.272,1.645,0.327,6.283,0.828,0.000,0.768,0.821,0.000,4.567,1.623,0.000,1.193,0.000,0.000,2.966,0.000,0.000,0.000,0.000,0.000,0.000,0.000,0.000,0.000,0.000,0.000,3.142,6.283,0.000,2.100,1.897,1.798,4.285,0.398,1.000,4.711,0.000,0.000,-1.780,-4.070,0.451,5.764,3.152,6.268,4.183,4.384,4.484,1.998,5.882,5.283,1.570,0.000,0.000,-1.452,-4.046,0.451,5.769,3.214,6.127,
47.640,54.968,-1.601,-4.248,1.645,0.316,6.283,0.804,0.000,1.432,0.819,0.000,4.592,1.655,0.000,0.854,0.000,0.000,2.966,0.000,0.000,0.000,0.000,0.000,0.000,0.000,0.000,0.000,0.000,0.000,3.142,6.283,0.000,2.100,1.897,1.798,4.285,0.398,1.000,4.711,0.000,0.000,-1.781,-4.046,0.451,5.765,3.152,6.268,4.183,4.384,4.484,1.998,5.882,5.283,1.570,0.000,0.000,-1.453,-4.021,0.451,5.769,3.214,6.127,
47.737,55.065,-1.604,-4.213,1.645,0.297,0.010,0.769,0.000,0.981,0.816,0.000,4.628,1.700,1.083,1.198,0.000,0.000,2.966,0.000,0.000,0.000,0.000,0.000,0.000,0.000,0.000,0.000,0.000,0.000,3.142,6.282,0.000,2.100,1.897,1.798,4.285,0.398,1.000,4.711,0.000,0.000,-1.784,-4.011,0.451,5.764,3.152,6.268,4.183,4.384,4.484,1.998,5.882,5.283,1.570,0.000,0.000,-1.456,-3.987,0.451,5.769,3.214,6.127,
47.840,55.168,-1.605,-4.191,1.644,0.285,0.010,0.748,0.000,0.979,0.814,0.000,4.651,1.729,1.085,1.199,0.000,0.000,2.966,0.000,0.000,0.000,0.000,0.000,0.000,0.000,0.000,0.000,0.000,0.000,3.142,6.283,0.000,2.100,1.897,1.798,4.285,0.398,1.000,4.711,0.000,0.000,-1.786,-3.989,0.451,5.764,3.152,6.268,4.183,4.384,4.484,1.998,5.882,5.283,1.570,0.000,0.000,-1.458,-3.965,0.451,5.769,3.214,6.127,
47.940,55.268,-1.608,-4.160,1.644,0.264,0.010,0.717,0.000,0.977,0.811,0.000,4.683,1.769,1.087,1.202,0.000,0.000,3.106,0.000,0.000,0.000,0.000,0.000,0.000,0.000,0.000,0.000,0.000,0.000,3.142,6.282,0.000,2.100,1.897,1.798,4.285,0.398,1.000,4.711,0.000,0.000,-1.788,-3.958,0.451,5.764,3.152,6.269,4.183,4.384,4.484,1.998,5.882,5.283,1.570,0.000,0.000,-1.460,-3.934,0.451,5.769,3.214,6.127,
48.040,55.368,-1.610,-4.136,1.644,0.255,0.001,0.693,0.000,1.424,0.809,0.000,4.708,1.801,1.089,1.204,0.000,0.000,3.106,0.000,0.000,0.000,0.000,0.000,0.000,0.000,0.000,0.000,0.000,0.000,3.142,6.283,0.000,2.100,1.897,1.798,4.285,0.398,1.000,4.711,0.000,0.000,-1.790,-3.934,0.451,5.765,3.152,6.269,4.183,4.384,4.484,1.998,5.882,5.283,1.570,0.000,0.000,-1.462,-3.910,0.451,5.769,3.214,6.128,
48.140,55.468,-1.611,-4.113,1.644,0.244,0.010,0.670,0.000,1.422,0.807,0.000,4.733,1.831,1.091,1.070,0.000,0.000,3.106,0.000,0.000,0.000,0.000,0.000,0.000,0.000,0.000,0.000,0.000,0.000,3.142,6.282,0.000,2.100,1.897,1.798,4.285,0.398,1.000,4.711,0.000,0.000,-1.791,-3.911,0.451,5.764,3.152,6.269,4.183,4.384,4.484,1.998,5.882,5.283,1.570,0.000,0.000,-1.463,-3.886,0.451,5.769,3.214,6.128,
48.240,55.568,-1.613,-4.091,1.644,0.231,0.001,0.648,0.000,1.420,0.806,2.774,4.756,1.860,1.093,1.013,0.000,0.000,3.106,0.000,0.000,0.000,0.000,0.000,0.000,0.000,0.000,0.000,0.000,0.000,3.142,6.283,0.000,2.100,1.897,1.798,4.285,0.398,1.000,4.711,0.000,0.000,-1.793,-3.888,0.451,5.765,3.152,6.269,4.183,4.384,4.484,1.998,5.882,5.283,1.570,0.000,0.000,-1.465,-3.864,0.451,5.769,3.214,6.128,
48.340,55.668,-1.614,-4.070,1.644,0.220,0.010,0.627,0.000,1.419,0.804,2.770,4.778,1.887,1.131,0.959,0.000,0.000,3.106,0.000,0.000,0.000,0.000,0.000,0.000,0.000,0.000,0.000,0.000,0.000,3.142,6.282,0.000,2.100,1.897,1.798,4.285,0.398,1.000,4.711,0.000,0.000,-1.794,-3.867,0.451,5.764,3.152,6.269,4.183,4.384,4.484,1.998,5.882,5.283,1.570,0.000,0.000,-1.466,-3.843,0.451,5.769,3.214,6.128,
48.440,55.768,-1.616,-4.050,1.644,0.209,0.001,0.607,0.000,1.417,0.802,2.766,4.799,1.913,1.147,0.908,0.000,0.000,3.106,0.000,0.000,0.000,0.000,0.000,0.000,0.000,0.000,0.000,0.000,0.000,3.142,6.283,0.000,2.100,1.897,1.798,4.285,0.398,1.000,4.711,0.000,0.000,-1.796,-3.848,0.451,5.765,3.152,6.270,4.183,4.384,4.484,1.998,5.882,5.283,1.570,0.000,0.000,-1.468,-3.823,0.451,5.769,3.213,6.128,
48.540,55.868,-1.617,-4.031,1.643,0.198,0.010,0.589,0.000,1.416,0.801,2.763,4.819,1.937,1.149,0.860,0.000,0.000,3.106,0.000,0.000,0.000,0.000,0.000,0.000,0.000,0.000,0.000,0.000,0.000,3.142,6.282,0.000,2.100,1.897,1.798,4.285,0.398,1.000,4.711,0.000,0.000,-1.797,-3.829,0.451,5.764,3.151,6.270,4.183,4.384,4.484,1.998,5.882,5.283,1.570,0.000,0.000,-1.469,-3.805,0.451,5.769,3.213,6.128,
48.624,55.952,-1.619,-4.013,1.643,0.190,0.001,0.571,0.000,1.415,0.799,2.760,4.838,1.980,1.150,0.814,0.000,0.000,3.106,0.000,0.000,0.000,0.000,0.000,0.000,0.000,0.000,0.000,0.000,0.000,3.142,6.283,0.000,2.100,1.897,1.798,4.285,0.398,1.000,4.711,0.000,0.000,-1.798,-3.811,0.451,5.765,3.151,6.270,4.183,4.384,4.484,1.998,5.882,5.283,1.570,0.000,0.000,-1.470,-3.787,0.451,5.769,3.213,6.129,
48.740,56.068,-1.620,-4.000,1.643,0.184,0.001,0.557,0.000,1.414,0.798,2.757,4.852,1.989,1.151,0.779,0.000,0.000,3.106,0.000,0.000,0.000,0.000,0.000,0.000,0.000,0.000,0.000,0.000,0.000,3.142,6.283,0.000,2.100,1.897,1.798,4.285,0.398,1.000,4.711,0.000,0.000,-1.799,-3.797,0.451,5.765,3.151,6.270,4.183,4.384,4.484,1.998,5.882,5.283,1.570,0.000,0.000,-1.471,-3.773,0.451,5.769,3.213,6.129,
48.826,56.154,-1.621,-3.980,1.643,0.174,0.001,0.538,0.000,1.412,0.796,2.753,4.873,2.021,1.153,0.729,0.000,0.000,3.106,0.000,0.000,0.000,0.000,0.000,0.000,0.000,0.000,0.000,0.000,0.000,3.142,6.282,0.000,2.100,1.897,1.798,4.285,0.398,1.000,4.711,0.000,0.000,-1.801,-3.778,0.451,5.765,3.151,6.270,4.183,4.384,4.484,1.998,5.882,5.283,1.570,0.000,0.000,-1.473,-3.754,0.451,5.769,3.213,6.129,
48.940,56.268,-1.622,-3.968,1.643,0.168,0.001,0.526,0.000,1.411,0.795,2.751,4.886,2.051,1.154,0.697,0.000,0.000,3.106,0.000,0.000,0.000,0.000,0.000,0.000,0.000,0.000,0.000,0.000,0.000,3.142,6.283,0.000,2.100,1.897,1.798,4.285,0.398,1.000,4.711,0.000,0.000,-1.802,-3.765,0.451,5.765,3.151,6.270,4.183,4.384,4.484,1.998,5.882,5.283,1.570,0.000,0.000,-1.474,-3.742,0.451,5.769,3.213,6.129,
49.034,56.362,-1.623,-3.950,1.643,0.156,6.283,0.509,0.000,1.410,0.794,2.748,4.905,2.093,1.155,0.679,0.000,0.000,3.106,0.000,0.000,0.000,0.000,0.000,0.000,0.000,0.000,0.000,0.000,0.000,3.142,6.283,0.000,2.100,1.897,1.798,4.285,0.398,1.000,4.711,0.000,0.000,-1.803,-3.748,0.451,5.765,3.151,6.271,4.183,4.384,4.484,1.998,5.882,5.283,1.570,0.000,0.000,-1.475,-3.724,0.451,5.769,3.213,6.129,
49.140,56.468,-1.624,-3.939,1.643,0.152,0.010,0.498,0.000,1.409,0.793,2.746,4.917,2.119,1.156,0.680,0.000,0.000,3.106,0.000,0.000,0.000,0.000,0.000,0.000,0.000,0.000,0.000,0.000,0.000,3.142,6.282,0.000,2.100,1.897,1.798,4.285,0.398,1.000,4.711,0.000,0.000,-1.804,-3.737,0.451,5.764,3.151,6.271,4.183,4.384,4.484,1.998,5.882,5.283,1.570,0.000,0.000,-1.476,-3.713,0.451,5.769,3.213,6.129,
49.240,56.568,-1.625,-3.923,1.642,0.146,0.010,0.482,0.000,1.408,0.792,2.743,4.934,2.158,1.157,0.681,0.000,0.000,3.106,0.000,0.000,0.000,0.000,0.000,0.000,0.000,0.000,0.000,0.000,0.000,3.142,6.282,0.000,2.100,1.897,1.798,4.285,0.398,1.000,4.711,0.000,0.000,-1.805,-3.721,0.451,5.764,3.151,6.271,4.183,4.384,4.484,1.998,5.882,5.283,1.570,0.000,0.000,-1.477,-3.697,0.451,5.769,3.213,6.130,
49.340,56.668,-1.626,-3.911,1.642,0.141,6.283,0.469,0.000,1.407,0.791,2.740,4.948,2.188,1.158,0.682,0.000,0.000,3.106,0.000,0.000,0.000,0.000,0.000,0.000,0.000,0.000,0.000,0.000,0.000,3.142,6.282,0.000,2.100,1.897,1.798,4.285,0.398,1.000,4.711,0.000,0.000,-1.806,-3.708,0.451,5.765,3.151,6.271,4.183,4.384,4.484,1.998,5.882,5.283,1.570,0.000,0.000,-1.478,-3.685,0.451,5.769,3.213,6.130,
49.440,56.768,-1.627,-3.898,1.642,0.135,0.000,0.457,0.000,1.407,0.790,2.738,4.961,2.217,1.159,0.683,0.000,0.000,3.106,0.000,0.000,0.000,0.000,0.000,0.000,0.000,0.000,0.000,0.000,0.000,3.142,6.283,0.000,2.100,1.897,1.798,4.285,0.398,1.000,4.711,0.000,0.000,-1.806,-3.696,0.451,5.765,3.151,6.271,4.183,4.384,4.484,1.998,5.882,5.283,1.570,0.000,0.000,-1.478,-3.672,0.451,5.769,3.213,6.130,
49.540,56.868,-1.628,-3.887,1.642,0.128,0.010,0.446,0.000,1.406,0.789,2.735,4.974,2.245,1.160,0.684,0.000,0.000,3.106,0.000,0.000,0.000,0.000,0.000,0.000,0.000,0.000,0.000,0.000,0.000,3.142,6.282,0.000,2.100,1.897,1.798,4.285,0.398,1.000,4.711,0.000,0.000,-1.807,-3.684,0.451,5.764,3.151,6.271,4.183,4.384,4.484,1.998,5.882,5.283,1.570,0.000,0.000,-1.479,-3.661,0.451,5.769,3.213,6.130,
49.640,56.968,-1.628,-3.876,1.642,0.123,6.283,0.435,0.000,1.405,0.788,2.733,4.985,2.271,1.161,0.684,0.000,0.000,3.106,0.000,0.000,0.000,0.000,0.000,0.000,0.000,0.000,0.000,0.000,0.000,3.142,6.282,0.000,2.100,1.897,1.798,4.285,0.398,1.000,4.711,0.000,0.000,-1.808,-3.673,0.451,5.765,3.151,6.271,4.183,4.384,4.484,1.998,5.882,5.283,1.570,0.000,0.000,-1.480,-3.650,0.451,5.769,3.212,6.130,
49.740,57.068,-1.629,-3.865,1.642,0.118,0.001,0.424,0.000,1.404,0.787,2.731,4.997,2.296,1.161,0.685,0.000,0.000,3.106,0.000,0.000,0.000,0.000,0.000,0.000,0.000,0.000,0.000,0.000,0.000,3.142,6.282,0.000,2.100,1.897,1.798,4.285,0.398,1.000,4.711,0.000,0.000,-1.809,-3.663,0.451,5.765,3.151,6.272,4.183,4.384,4.484,1.998,5.882,5.283,1.570,0.000,0.000,-1.481,-3.639,0.451,5.769,3.212,6.130,
49.840,57.168,-1.630,-3.855,1.642,0.113,0.009,0.414,0.000,1.404,0.786,2.729,0.000,2.320,1.162,0.686,0.000,0.000,3.142,0.000,0.000,0.000,0.000,0.000,0.000,0.000,0.000,0.000,0.000,0.000,3.142,6.282,0.000,2.100,1.897,1.798,4.285,0.398,1.000,4.711,0.000,0.000,-1.809,-3.653,0.451,5.764,3.150,6.272,4.183,4.384,4.484,1.998,5.882,5.283,1.570,0.000,0.000,-1.481,-3.629,0.451,5.769,3.212,6.131,
49.920,57.248,-1.630,-3.850,1.641,0.008,0.001,0.409,0.000,1.403,0.786,2.728,0.000,2.332,1.163,0.686,0.000,0.000,3.142,0.000,0.000,0.000,0.000,0.000,0.000,0.000,0.000,0.000,0.000,0.000,3.142,6.283,0.000,2.100,1.897,1.799,4.285,0.398,1.000,4.711,0.000,0.000,-1.810,-3.647,0.451,5.764,3.150,6.272,4.183,4.383,4.484,1.998,5.882,5.283,1.571,0.000,0.000,-1.482,-3.624,0.451,5.769,3.212,6.131,
50.040,57.368,-1.630,-3.850,1.641,0.001,0.006,0.409,0.000,1.403,0.786,2.728,0.000,2.332,1.163,0.686,0.000,0.000,3.142,0.000,0.000,0.000,0.000,0.000,0.000,0.000,0.000,0.000,0.000,0.000,3.142,6.283,0.000,2.100,1.897,1.799,4.285,0.398,1.000,4.711,0.000,0.000,-1.810,-3.647,0.451,5.765,3.150,6.272,4.183,4.384,4.484,1.998,5.882,5.284,1.571,0.000,0.000,-1.482,-3.624,0.451,5.769,3.212,6.131,
50.134,57.462,-1.630,-3.850,1.641,0.001,0.006,0.409,0.000,1.403,0.786,2.728,0.000,2.332,1.163,0.686,0.000,0.000,3.142,0.000,0.000,0.000,0.000,0.000,0.000,0.000,0.000,0.000,0.000,0.000,3.142,6.283,0.000,2.100,1.897,1.799,4.285,0.398,1.000,4.711,0.000,0.000,-1.810,-3.647,0.451,5.765,3.150,6.272,4.183,4.384,4.484,1.998,5.882,5.284,1.571,0.000,0.000,-1.482,-3.624,0.451,5.769,3.212,6.131,
50.240,57.568,-1.630,-3.850,1.641,0.001,0.006,0.409,0.000,1.403,0.786,2.728,0.000,2.332,1.163,0.686,0.000,0.000,3.142,0.000,0.000,0.000,0.000,0.000,0.000,0.000,0.000,0.000,0.000,0.000,3.142,6.283,0.000,2.100,1.897,1.799,4.285,0.398,1.000,4.711,0.000,0.000,-1.810,-3.647,0.451,5.765,3.150,6.272,4.183,4.384,4.484,1.998,5.882,5.284,1.571,0.000,0.000,-1.482,-3.624,0.451,5.769,3.212,6.131,
50.334,57.662,-1.630,-3.850,1.641,0.001,0.006,0.409,0.000,1.403,0.786,2.728,0.000,2.332,1.163,0.686,0.000,0.000,3.142,0.000,0.000,0.000,0.000,0.000,0.000,0.000,0.000,0.000,0.000,0.000,3.142,6.283,0.000,2.100,1.897,1.799,4.285,0.398,1.000,4.711,0.000,0.000,-1.810,-3.647,0.451,5.765,3.150,6.272,4.183,4.384,4.484,1.998,5.882,5.284,1.571,0.000,0.000,-1.482,-3.624,0.451,5.769,3.212,6.131,
50.440,57.768,-1.630,-3.850,1.641,0.001,0.006,0.409,0.000,1.403,0.786,2.728,0.000,2.332,1.163,0.686,0.000,0.000,3.142,0.000,0.000,0.000,0.000,0.000,0.000,0.000,0.000,0.000,0.000,0.000,3.142,6.283,0.000,2.100,1.897,1.799,4.285,0.398,1.000,4.711,0.000,0.000,-1.810,-3.647,0.451,5.765,3.150,6.272,4.183,4.384,4.484,1.998,5.882,5.284,1.571,0.000,0.000,-1.482,-3.624,0.451,5.769,3.212,6.131,
50.540,57.868,-1.630,-3.850,1.641,0.001,0.006,0.409,0.000,1.403,0.786,2.728,0.000,2.332,1.163,0.686,0.000,0.000,3.142,0.000,0.000,0.000,0.000,0.000,0.000,0.000,0.000,0.000,0.000,0.000,3.142,6.283,0.000,2.100,1.897,1.799,4.285,0.398,1.000,4.711,0.000,0.000,-1.810,-3.647,0.451,5.765,3.150,6.272,4.183,4.384,4.484,1.998,5.882,5.284,1.571,0.000,0.000,-1.482,-3.624,0.451,5.769,3.212,6.131,
50.640,57.968,-1.630,-3.850,1.641,0.001,0.006,0.409,0.000,1.403,0.786,2.728,0.000,2.332,1.163,0.686,0.000,0.000,3.142,0.000,0.000,0.000,0.000,0.000,0.000,0.000,0.000,0.000,0.000,0.000,3.142,6.283,0.000,2.100,1.897,1.799,4.285,0.398,1.000,4.711,0.000,0.000,-1.810,-3.647,0.451,5.765,3.150,6.272,4.183,4.384,4.484,1.998,5.882,5.284,1.571,0.000,0.000,-1.482,-3.624,0.451,5.769,3.212,6.131,
50.740,58.068,-1.630,-3.850,1.641,0.001,0.006,0.409,0.000,1.403,0.786,2.728,0.000,2.332,1.163,0.686,0.000,0.000,3.142,0.000,0.000,0.000,0.000,0.000,0.000,0.000,0.000,0.000,0.000,0.000,3.142,6.283,0.000,2.100,1.897,1.799,4.285,0.398,1.000,4.711,0.000,0.000,-1.810,-3.647,0.451,5.765,3.150,6.272,4.183,4.384,4.484,1.998,5.882,5.284,1.571,0.000,0.000,-1.482,-3.624,0.451,5.769,3.212,6.131,
50.840,58.168,-1.630,-3.850,1.641,0.001,0.006,0.409,0.000,1.403,0.786,2.728,0.000,2.332,1.163,0.686,0.000,0.000,3.142,0.000,0.000,0.000,0.000,0.000,0.000,0.000,0.000,0.000,0.000,0.000,3.142,6.283,0.000,2.100,1.897,1.799,4.285,0.398,1.000,4.711,0.000,0.000,-1.810,-3.647,0.451,5.765,3.150,6.272,4.183,4.384,4.484,1.998,5.882,5.284,1.571,0.000,0.000,-1.482,-3.624,0.451,5.769,3.212,6.131,
50.940,58.268,-1.630,-3.850,1.641,0.001,0.006,0.409,0.000,1.403,0.786,2.728,0.000,2.332,1.163,0.686,0.000,0.000,3.142,0.000,0.000,0.000,0.000,0.000,0.000,0.000,0.000,0.000,0.000,0.000,3.142,6.283,0.000,2.100,1.897,1.799,4.285,0.398,1.000,4.711,0.000,0.000,-1.810,-3.647,0.451,5.765,3.150,6.272,4.183,4.384,4.484,1.998,5.882,5.284,1.571,0.000,0.000,-1.482,-3.624,0.451,5.769,3.212,6.131,
51.040,58.368,-1.630,-3.850,1.641,0.001,0.006,0.409,0.000,1.403,0.786,2.728,0.000,2.332,1.163,0.686,0.000,0.000,3.142,0.000,0.000,0.000,0.000,0.000,0.000,0.000,0.000,0.000,0.000,0.000,3.142,6.283,0.000,2.100,1.897,1.799,4.285,0.398,1.000,4.711,0.000,0.000,-1.810,-3.647,0.451,5.765,3.150,6.272,4.183,4.384,4.484,1.998,5.882,5.284,1.571,0.000,0.000,-1.482,-3.624,0.451,5.769,3.212,6.131,
51.140,58.468,-1.630,-3.850,1.641,0.001,0.006,0.409,0.000,1.403,0.786,2.728,0.000,2.332,1.163,0.686,0.000,0.000,3.142,0.000,0.000,0.000,0.000,0.000,0.000,0.000,0.000,0.000,0.000,0.000,3.142,6.283,0.000,2.100,1.897,1.799,4.285,0.398,1.000,4.711,0.000,0.000,-1.810,-3.647,0.451,5.765,3.150,6.272,4.183,4.384,4.484,1.998,5.882,5.284,1.571,0.000,0.000,-1.482,-3.624,0.451,5.769,3.212,6.131,
51.240,58.568,-1.630,-3.850,1.641,0.001,0.006,0.409,0.000,1.403,0.786,2.728,0.000,2.332,1.163,0.686,0.000,0.000,3.142,0.000,0.000,0.000,0.000,0.000,0.000,0.000,0.000,0.000,0.000,0.000,3.142,6.283,0.000,2.100,1.897,1.799,4.285,0.398,1.000,4.711,0.000,0.000,-1.810,-3.647,0.451,5.765,3.150,6.272,4.183,4.384,4.484,1.998,5.882,5.284,1.571,0.000,0.000,-1.482,-3.624,0.451,5.769,3.212,6.131,
51.340,58.668,-1.630,-3.850,1.641,0.001,0.006,0.409,0.000,1.403,0.786,2.728,0.000,2.332,1.163,0.686,0.000,0.000,3.142,0.000,0.000,0.000,0.000,0.000,0.000,0.000,0.000,0.000,0.000,0.000,3.142,6.283,0.000,2.100,1.897,1.799,4.285,0.398,1.000,4.711,0.000,0.000,-1.810,-3.647,0.451,5.765,3.150,6.272,4.183,4.384,4.484,1.998,5.882,5.284,1.571,0.000,0.000,-1.482,-3.624,0.451,5.769,3.212,6.131,
51.440,58.768,-1.630,-3.850,1.641,0.001,0.006,0.409,0.000,1.403,0.786,2.728,0.000,2.332,1.163,0.686,0.000,0.000,3.142,0.000,0.000,0.000,0.000,0.000,0.000,0.000,0.000,0.000,0.000,0.000,3.142,6.283,0.000,2.100,1.897,1.799,4.285,0.398,1.000,4.711,0.000,0.000,-1.810,-3.647,0.451,5.765,3.150,6.272,4.183,4.384,4.484,1.998,5.882,5.284,1.571,0.000,0.000,-1.482,-3.624,0.451,5.769,3.212,6.131,
51.540,58.868,-1.630,-3.850,1.641,0.001,0.006,0.409,0.000,1.403,0.786,2.728,0.000,2.332,1.163,0.686,0.000,0.000,3.142,0.000,0.000,0.000,0.000,0.000,0.000,0.000,0.000,0.000,0.000,0.000,3.142,6.283,0.000,2.100,1.897,1.799,4.285,0.398,1.000,4.711,0.000,0.000,-1.810,-3.647,0.451,5.765,3.150,6.272,4.183,4.384,4.484,1.998,5.882,5.284,1.571,0.000,0.000,-1.482,-3.624,0.451,5.769,3.212,6.131,
51.623,58.951,-1.630,-3.850,1.641,0.001,0.006,0.409,0.000,1.403,0.786,2.728,0.000,2.332,1.163,0.686,0.000,0.000,3.142,0.000,0.000,0.000,0.000,0.000,0.000,0.000,0.000,0.000,0.000,0.000,3.142,6.283,0.000,2.100,1.897,1.799,4.285,0.398,1.000,4.711,0.000,0.000,-1.810,-3.647,0.451,5.765,3.150,6.272,4.183,4.384,4.484,1.998,5.882,5.284,1.571,0.000,0.000,-1.482,-3.624,0.451,5.769,3.212,6.131,
51.740,59.068,-1.630,-3.850,1.641,0.001,0.006,0.409,0.000,1.403,0.786,2.728,0.000,2.332,1.163,0.686,0.000,0.000,3.142,0.000,0.000,0.000,0.000,0.000,0.000,0.000,0.000,0.000,0.000,0.000,3.142,6.283,0.000,2.100,1.897,1.799,4.285,0.398,1.000,4.711,0.000,0.000,-1.810,-3.647,0.451,5.765,3.150,6.272,4.183,4.384,4.484,1.998,5.882,5.284,1.571,0.000,0.000,-1.482,-3.624,0.451,5.769,3.212,6.131,
51.828,59.156,-1.630,-3.850,1.641,0.001,0.006,0.409,0.000,1.403,0.786,2.728,0.000,2.332,1.163,0.686,0.000,0.000,3.142,0.000,0.000,0.000,0.000,0.000,0.000,0.000,0.000,0.000,0.000,0.000,3.142,6.283,0.000,2.100,1.897,1.799,4.285,0.398,1.000,4.711,0.000,0.000,-1.810,-3.647,0.451,5.765,3.150,6.272,4.183,4.384,4.484,1.998,5.882,5.284,1.571,0.000,0.000,-1.482,-3.624,0.451,5.769,3.212,6.131,
51.940,59.268,-1.630,-3.850,1.641,0.001,0.006,0.409,0.000,1.403,0.786,2.728,0.000,2.332,1.163,0.686,0.000,0.000,3.142,0.000,0.000,0.000,0.000,0.000,0.000,0.000,0.000,0.000,0.000,0.000,3.142,6.283,0.000,2.100,1.897,1.799,4.285,0.398,1.000,4.711,0.000,0.000,-1.810,-3.647,0.451,5.765,3.150,6.272,4.183,4.384,4.484,1.998,5.882,5.284,1.571,0.000,0.000,-1.482,-3.624,0.451,5.769,3.212,6.131,
52.038,59.366,-1.630,-3.850,1.641,0.001,0.006,0.409,0.000,1.403,0.786,2.728,0.000,2.332,1.163,0.686,0.000,0.000,3.142,0.000,0.000,0.000,0.000,0.000,0.000,0.000,0.000,0.000,0.000,0.000,3.142,6.283,0.000,2.100,1.897,1.799,4.285,0.398,1.000,4.711,0.000,0.000,-1.810,-3.647,0.451,5.765,3.150,6.272,4.183,4.384,4.484,1.998,5.882,5.284,1.571,0.000,0.000,-1.482,-3.624,0.451,5.769,3.212,6.131,
52.140,59.468,-1.630,-3.850,1.641,0.001,0.006,0.409,0.000,1.403,0.786,2.728,0.000,2.332,1.163,0.686,0.000,0.000,3.142,0.000,0.000,0.000,0.000,0.000,0.000,0.000,0.000,0.000,0.000,0.000,3.142,6.283,0.000,2.100,1.897,1.799,4.285,0.398,1.000,4.711,0.000,0.000,-1.810,-3.647,0.451,5.765,3.150,6.272,4.183,4.384,4.484,1.998,5.882,5.284,1.571,0.000,0.000,-1.482,-3.624,0.451,5.769,3.212,6.131,
52.240,59.568,-1.630,-3.850,1.641,0.001,0.006,0.409,0.000,1.403,0.786,2.728,0.000,2.332,1.163,0.686,0.000,0.000,3.142,0.000,0.000,0.000,0.000,0.000,0.000,0.000,0.000,0.000,0.000,0.000,3.142,6.283,0.000,2.100,1.897,1.799,4.285,0.398,1.000,4.711,0.000,0.000,-1.810,-3.647,0.451,5.765,3.150,6.272,4.183,4.384,4.484,1.998,5.882,5.284,1.571,0.000,0.000,-1.482,-3.624,0.451,5.769,3.212,6.131,
52.340,59.668,-1.630,-3.850,1.641,0.001,0.006,0.409,0.000,1.403,0.786,2.728,0.000,2.332,1.163,0.686,0.000,0.000,3.142,0.000,0.000,0.000,0.000,0.000,0.000,0.000,0.000,0.000,0.000,0.000,3.142,6.283,0.000,2.100,1.897,1.799,4.285,0.398,1.000,4.711,0.000,0.000,-1.810,-3.647,0.451,5.765,3.150,6.272,4.183,4.384,4.484,1.998,5.882,5.284,1.571,0.000,0.000,-1.482,-3.624,0.451,5.769,3.212,6.131,
52.440,59.768,-1.630,-3.850,1.641,0.001,0.006,0.409,0.000,1.403,0.786,2.728,0.000,2.332,1.163,0.686,0.000,0.000,3.142,0.000,0.000,0.000,0.000,0.000,0.000,0.000,0.000,0.000,0.000,0.000,3.142,6.283,0.000,2.100,1.897,1.799,4.285,0.398,1.000,4.711,0.000,0.000,-1.810,-3.647,0.451,5.765,3.150,6.272,4.183,4.384,4.484,1.998,5.882,5.284,1.571,0.000,0.000,-1.482,-3.624,0.451,5.769,3.212,6.131,
52.540,59.868,-1.630,-3.850,1.641,0.001,0.006,0.409,0.000,1.403,0.786,2.728,0.000,2.332,1.163,0.686,0.000,0.000,3.142,0.000,0.000,0.000,0.000,0.000,0.000,0.000,0.000,0.000,0.000,0.000,3.142,6.283,0.000,2.100,1.897,1.799,4.285,0.398,1.000,4.711,0.000,0.000,-1.810,-3.647,0.451,5.765,3.150,6.272,4.183,4.384,4.484,1.998,5.882,5.284,1.571,0.000,0.000,-1.482,-3.624,0.451,5.769,3.212,6.131,
52.640,59.968,-1.630,-3.850,1.641,0.001,0.006,0.409,0.000,1.403,0.786,2.728,0.000,2.332,1.163,0.686,0.000,0.000,3.142,0.000,0.000,0.000,0.000,0.000,0.000,0.000,0.000,0.000,0.000,0.000,3.142,6.283,0.000,2.100,1.897,1.799,4.285,0.398,1.000,4.711,0.000,0.000,-1.810,-3.647,0.451,5.765,3.150,6.272,4.183,4.384,4.484,1.998,5.882,5.284,1.571,0.000,0.000,-1.482,-3.624,0.451,5.769,3.212,6.131,
52.722,60.050,-1.630,-3.850,1.641,0.001,0.006,0.409,0.000,1.403,0.786,2.728,0.000,2.332,1.163,0.686,0.000,0.000,3.142,0.000,0.000,0.000,0.000,0.000,0.000,0.000,0.000,0.000,0.000,0.000,3.142,6.283,0.000,2.100,1.897,1.799,4.285,0.398,1.000,4.711,0.000,0.000,-1.810,-3.647,0.451,5.765,3.150,6.272,4.183,4.384,4.484,1.998,5.882,5.284,1.571,0.000,0.000,-1.482,-3.624,0.451,5.769,3.212,6.131,
52.840,60.168,-1.630,-3.850,1.641,0.001,0.006,0.409,0.000,1.403,0.786,2.728,0.000,2.332,1.163,0.686,0.000,0.000,3.142,0.000,0.000,0.000,0.000,0.000,0.000,0.000,0.000,0.000,0.000,0.000,3.142,6.283,0.000,2.100,1.897,1.799,4.285,0.398,1.000,4.711,0.000,0.000,-1.810,-3.647,0.451,5.765,3.150,6.272,4.183,4.384,4.484,1.998,5.882,5.284,1.571,0.000,0.000,-1.482,-3.624,0.451,5.769,3.212,6.131,
52.934,60.262,-1.630,-3.850,1.641,0.001,0.006,0.409,0.000,1.403,0.786,2.728,0.000,2.332,1.163,0.686,0.000,0.000,3.142,0.000,0.000,0.000,0.000,0.000,0.000,0.000,0.000,0.000,0.000,0.000,3.142,6.283,0.000,2.100,1.897,1.799,4.285,0.398,1.000,4.711,0.000,0.000,-1.810,-3.647,0.451,5.765,3.150,6.272,4.183,4.384,4.484,1.998,5.882,5.284,1.571,0.000,0.000,-1.482,-3.624,0.451,5.769,3.212,6.131,
53.040,60.368,-1.630,-3.850,1.641,0.001,0.006,0.409,0.000,1.403,0.786,2.728,0.000,2.332,1.163,0.686,0.000,0.000,3.142,0.000,0.000,0.000,0.000,0.000,0.000,0.000,0.000,0.000,0.000,0.000,3.142,6.283,0.000,2.100,1.897,1.799,4.285,0.398,1.000,4.711,0.000,0.000,-1.810,-3.647,0.451,5.765,3.150,6.272,4.183,4.384,4.484,1.998,5.882,5.284,1.571,0.000,0.000,-1.482,-3.624,0.451,5.769,3.212,6.131,
53.138,60.466,-1.630,-3.850,1.641,0.001,0.006,0.409,0.000,1.403,0.786,2.728,0.000,2.332,1.163,0.686,0.000,0.000,3.142,0.000,0.000,0.000,0.000,0.000,0.000,0.000,0.000,0.000,0.000,0.000,3.142,6.283,0.000,2.100,1.897,1.799,4.285,0.398,1.000,4.711,0.000,0.000,-1.810,-3.647,0.451,5.765,3.150,6.272,4.183,4.384,4.484,1.998,5.882,5.284,1.571,0.000,0.000,-1.482,-3.624,0.451,5.769,3.212,6.131,
53.240,60.568,-1.630,-3.850,1.641,0.001,0.006,0.409,0.000,1.403,0.786,2.728,0.000,2.332,1.163,0.686,0.000,0.000,3.142,0.000,0.000,0.000,0.000,0.000,0.000,0.000,0.000,0.000,0.000,0.000,3.142,6.283,0.000,2.100,1.897,1.799,4.285,0.398,1.000,4.711,0.000,0.000,-1.810,-3.647,0.451,5.765,3.150,6.272,4.183,4.384,4.484,1.998,5.882,5.284,1.571,0.000,0.000,-1.482,-3.624,0.451,5.769,3.212,6.131,
53.339,60.667,-1.630,-3.850,1.641,0.001,0.006,0.409,0.000,1.403,0.786,2.728,0.000,2.332,1.163,0.686,0.000,0.000,3.142,0.000,0.000,0.000,0.000,0.000,0.000,0.000,0.000,0.000,0.000,0.000,3.142,6.283,0.000,2.100,1.897,1.799,4.285,0.398,1.000,4.711,0.000,0.000,-1.810,-3.647,0.451,5.765,3.150,6.272,4.183,4.384,4.484,1.998,5.882,5.284,1.571,0.000,0.000,-1.482,-3.624,0.451,5.769,3.212,6.131,
53.440,60.768,-1.630,-3.850,1.641,0.001,0.006,0.409,0.000,1.403,0.786,2.728,0.000,2.332,1.163,0.686,0.000,0.000,3.142,0.000,0.000,0.000,0.000,0.000,0.000,0.000,0.000,0.000,0.000,0.000,3.142,6.283,0.000,2.100,1.897,1.799,4.285,0.398,1.000,4.711,0.000,0.000,-1.810,-3.647,0.451,5.765,3.150,6.272,4.183,4.384,4.484,1.998,5.882,5.284,1.571,0.000,0.000,-1.482,-3.624,0.451,5.769,3.212,6.131,
53.540,60.868,-1.630,-3.850,1.641,0.001,0.006,0.409,0.000,1.403,0.786,2.728,0.000,2.332,1.163,0.686,0.000,0.000,3.142,0.000,0.000,0.000,0.000,0.000,0.000,0.000,0.000,0.000,0.000,0.000,3.142,6.283,0.000,2.100,1.897,1.799,4.285,0.398,1.000,4.711,0.000,0.000,-1.810,-3.647,0.451,5.765,3.150,6.272,4.183,4.384,4.484,1.998,5.882,5.284,1.571,0.000,0.000,-1.482,-3.624,0.451,5.769,3.212,6.131,
53.640,60.968,-1.630,-3.850,1.641,0.001,0.006,0.409,0.000,1.403,0.786,2.728,0.000,2.332,1.163,0.686,0.000,0.000,3.142,0.000,0.000,0.000,0.000,0.000,0.000,0.000,0.000,0.000,0.000,0.000,3.142,6.283,0.000,2.100,1.897,1.799,4.285,0.398,1.000,4.711,0.000,0.000,-1.810,-3.647,0.451,5.765,3.150,6.272,4.183,4.384,4.484,1.998,5.882,5.284,1.571,0.000,0.000,-1.482,-3.624,0.451,5.769,3.212,6.131,
53.740,61.068,-1.630,-3.850,1.641,0.001,0.006,0.409,0.000,1.403,0.786,2.728,0.000,2.332,1.163,0.686,0.000,0.000,3.142,0.000,0.000,0.000,0.000,0.000,0.000,0.000,0.000,0.000,0.000,0.000,3.142,6.283,0.000,2.100,1.897,1.799,4.285,0.398,1.000,4.711,0.000,0.000,-1.810,-3.647,0.451,5.765,3.150,6.272,4.183,4.384,4.484,1.998,5.882,5.284,1.571,0.000,0.000,-1.482,-3.624,0.451,5.769,3.212,6.131,
53.840,61.168,-1.630,-3.850,1.641,0.001,0.006,0.409,0.000,1.403,0.786,2.728,0.000,2.332,1.163,0.686,0.000,0.000,3.142,0.000,0.000,0.000,0.000,0.000,0.000,0.000,0.000,0.000,0.000,0.000,3.142,6.283,0.000,2.100,1.897,1.799,4.285,0.398,1.000,4.711,0.000,0.000,-1.810,-3.647,0.451,5.765,3.150,6.272,4.183,4.384,4.484,1.998,5.882,5.284,1.571,0.000,0.000,-1.482,-3.624,0.451,5.769,3.212,6.131,
53.940,61.268,-1.630,-3.850,1.641,0.001,0.006,0.409,0.000,1.403,0.786,2.728,0.000,2.332,1.163,0.686,0.000,0.000,3.142,0.000,0.000,0.000,0.000,0.000,0.000,0.000,0.000,0.000,0.000,0.000,3.142,6.283,0.000,2.100,1.897,1.799,4.285,0.398,1.000,4.711,0.000,0.000,-1.810,-3.647,0.451,5.765,3.150,6.272,4.183,4.384,4.484,1.998,5.882,5.284,1.571,0.000,0.000,-1.482,-3.624,0.451,5.769,3.212,6.131,
54.040,61.368,-1.630,-3.850,1.641,0.001,0.006,0.409,0.000,1.403,0.786,2.728,0.000,2.332,1.163,0.686,0.000,0.000,3.142,0.000,0.000,0.000,0.000,0.000,0.000,0.000,0.000,0.000,0.000,0.000,3.142,6.283,0.000,2.100,1.897,1.799,4.285,0.398,1.000,4.711,0.000,0.000,-1.810,-3.647,0.451,5.765,3.150,6.272,4.183,4.384,4.484,1.998,5.882,5.284,1.571,0.000,0.000,-1.482,-3.624,0.451,5.769,3.212,6.131,
54.140,61.468,-1.630,-3.850,1.641,0.001,0.006,0.409,0.000,1.403,0.786,2.728,0.000,2.332,1.163,0.686,0.000,0.000,3.142,0.000,0.000,0.000,0.000,0.000,0.000,0.000,0.000,0.000,0.000,0.000,3.142,6.283,0.000,2.100,1.897,1.799,4.285,0.398,1.000,4.711,0.000,0.000,-1.810,-3.647,0.451,5.765,3.150,6.272,4.183,4.384,4.484,1.998,5.882,5.284,1.571,0.000,0.000,-1.482,-3.624,0.451,5.769,3.212,6.131,
54.240,61.568,-1.630,-3.850,1.641,0.001,0.006,0.409,0.000,1.403,0.786,2.728,0.000,2.332,1.163,0.686,0.000,0.000,3.142,0.000,0.000,0.000,0.000,0.000,0.000,0.000,0.000,0.000,0.000,0.000,3.142,6.283,0.000,2.100,1.897,1.799,4.285,0.398,1.000,4.711,0.000,0.000,-1.810,-3.647,0.451,5.765,3.150,6.272,4.183,4.384,4.484,1.998,5.882,5.284,1.571,0.000,0.000,-1.482,-3.624,0.451,5.769,3.212,6.131,
54.340,61.668,-1.630,-3.850,1.641,0.001,0.006,0.409,0.000,1.403,0.786,2.728,0.000,2.332,1.163,0.686,0.000,0.000,3.142,0.000,0.000,0.000,0.000,0.000,0.000,0.000,0.000,0.000,0.000,0.000,3.142,6.283,0.000,2.100,1.897,1.799,4.285,0.398,1.000,4.711,0.000,0.000,-1.810,-3.647,0.451,5.765,3.150,6.272,4.183,4.384,4.484,1.998,5.882,5.284,1.571,0.000,0.000,-1.482,-3.624,0.451,5.769,3.212,6.131,
54.421,61.749,-1.630,-3.850,1.641,0.001,0.006,0.409,0.000,1.403,0.786,2.728,0.000,2.332,1.163,0.686,0.000,0.000,3.142,0.000,0.000,0.000,0.000,0.000,0.000,0.000,0.000,0.000,0.000,0.000,3.142,6.283,0.000,2.100,1.897,1.799,4.285,0.398,1.000,4.711,0.000,0.000,-1.810,-3.647,0.451,5.765,3.150,6.272,4.183,4.384,4.484,1.998,5.882,5.284,1.571,0.000,0.000,-1.482,-3.624,0.451,5.769,3.212,6.131,
54.540,61.868,-1.630,-3.850,1.641,0.001,0.006,0.409,0.000,1.403,0.786,2.728,0.000,2.332,1.163,0.686,0.000,0.000,3.142,0.000,0.000,0.000,0.000,0.000,0.000,0.000,0.000,0.000,0.000,0.000,3.142,6.283,0.000,2.100,1.897,1.799,4.285,0.398,1.000,4.711,0.000,0.000,-1.810,-3.647,0.451,5.765,3.150,6.272,4.183,4.384,4.484,1.998,5.882,5.284,1.571,0.000,0.000,-1.482,-3.624,0.451,5.769,3.212,6.131,
54.623,61.952,-1.630,-3.850,1.641,0.001,0.006,0.409,0.000,1.403,0.786,2.728,0.000,2.332,1.163,0.686,0.000,0.000,3.142,0.000,0.000,0.000,0.000,0.000,0.000,0.000,0.000,0.000,0.000,0.000,3.142,6.283,0.000,2.100,1.897,1.799,4.285,0.398,1.000,4.711,0.000,0.000,-1.810,-3.647,0.451,5.765,3.150,6.272,4.183,4.384,4.484,1.998,5.882,5.284,1.571,0.000,0.000,-1.482,-3.624,0.451,5.769,3.212,6.131,
54.740,62.068,-1.630,-3.850,1.641,0.001,0.006,0.409,0.000,1.403,0.786,2.728,0.000,2.332,1.163,0.686,0.000,0.000,3.142,0.000,0.000,0.000,0.000,0.000,0.000,0.000,0.000,0.000,0.000,0.000,3.142,6.283,0.000,2.100,1.897,1.799,4.285,0.398,1.000,4.711,0.000,0.000,-1.810,-3.647,0.451,5.765,3.150,6.272,4.183,4.384,4.484,1.998,5.882,5.284,1.571,0.000,0.000,-1.482,-3.624,0.451,5.769,3.212,6.131,
54.839,62.167,-1.630,-3.850,1.641,0.001,0.006,0.409,0.000,1.403,0.786,2.728,0.000,2.332,1.163,0.686,0.000,0.000,3.142,0.000,0.000,0.000,0.000,0.000,0.000,0.000,0.000,0.000,0.000,0.000,3.142,6.283,0.000,2.100,1.897,1.799,4.285,0.398,1.000,4.711,0.000,0.000,-1.810,-3.647,0.451,5.765,3.150,6.272,4.183,4.384,4.484,1.998,5.882,5.284,1.571,0.000,0.000,-1.482,-3.624,0.451,5.769,3.212,6.131,
54.940,62.268,-1.630,-3.850,1.641,0.001,0.006,0.409,0.000,1.403,0.786,2.728,0.000,2.332,1.163,0.686,0.000,0.000,3.142,0.000,0.000,0.000,0.000,0.000,0.000,0.000,0.000,0.000,0.000,0.000,3.142,6.283,0.000,2.100,1.897,1.799,4.285,0.398,1.000,4.711,0.000,0.000,-1.810,-3.647,0.451,5.765,3.150,6.272,4.183,4.384,4.484,1.998,5.882,5.284,1.571,0.000,0.000,-1.482,-3.624,0.451,5.769,3.212,6.131,
55.040,62.368,-1.630,-3.850,1.641,0.001,0.006,0.409,0.000,1.403,0.786,2.728,0.000,2.332,1.163,0.686,0.000,0.000,3.142,0.000,0.000,0.000,0.000,0.000,0.000,0.000,0.000,0.000,0.000,0.000,3.142,6.283,0.000,2.100,1.897,1.799,4.285,0.398,1.000,4.711,0.000,0.000,-1.810,-3.647,0.451,5.765,3.150,6.272,4.183,4.384,4.484,1.998,5.882,5.284,1.571,0.000,0.000,-1.482,-3.624,0.451,5.769,3.212,6.131,
55.140,62.468,-1.630,-3.850,1.641,0.001,0.006,0.409,0.000,1.403,0.786,2.728,0.000,2.332,1.163,0.686,0.000,0.000,3.142,0.000,0.000,0.000,0.000,0.000,0.000,0.000,0.000,0.000,0.000,0.000,3.142,6.283,0.000,2.100,1.897,1.799,4.285,0.398,1.000,4.711,0.000,0.000,-1.810,-3.647,0.451,5.765,3.150,6.272,4.183,4.384,4.484,1.998,5.882,5.284,1.571,0.000,0.000,-1.482,-3.624,0.451,5.769,3.212,6.131,
55.239,62.567,-1.630,-3.850,1.641,0.001,0.006,0.409,0.000,1.403,0.786,2.728,0.000,2.332,1.163,0.686,0.000,0.000,3.142,0.000,0.000,0.000,0.000,0.000,0.000,0.000,0.000,0.000,0.000,0.000,3.142,6.283,0.000,2.100,1.897,1.799,4.285,0.398,1.000,4.711,0.000,0.000,-1.810,-3.647,0.451,5.765,3.150,6.272,4.183,4.384,4.484,1.998,5.882,5.284,1.571,0.000,0.000,-1.482,-3.624,0.451,5.769,3.212,6.131,
55.340,62.668,-1.630,-3.850,1.641,0.001,0.006,0.409,0.000,1.403,0.786,2.728,0.000,2.332,1.163,0.686,0.000,0.000,3.142,0.000,0.000,0.000,0.000,0.000,0.000,0.000,0.000,0.000,0.000,0.000,3.142,6.283,0.000,2.100,1.897,1.799,4.285,0.398,1.000,4.711,0.000,0.000,-1.810,-3.647,0.451,5.765,3.150,6.272,4.183,4.384,4.484,1.998,5.882,5.284,1.571,0.000,0.000,-1.482,-3.624,0.451,5.769,3.212,6.131,
55.440,62.768,-1.630,-3.850,1.641,0.001,0.006,0.409,0.000,1.403,0.786,2.728,0.000,2.332,1.163,0.686,0.000,0.000,3.142,0.000,0.000,0.000,0.000,0.000,0.000,0.000,0.000,0.000,0.000,0.000,3.142,6.283,0.000,2.100,1.897,1.799,4.285,0.398,1.000,4.711,0.000,0.000,-1.810,-3.647,0.451,5.765,3.150,6.272,4.183,4.384,4.484,1.998,5.882,5.284,1.571,0.000,0.000,-1.482,-3.624,0.451,5.769,3.212,6.131,
55.540,62.868,-1.630,-3.850,1.641,0.001,0.006,0.409,0.000,1.403,0.786,2.728,0.000,2.332,1.163,0.686,0.000,0.000,3.142,0.000,0.000,0.000,0.000,0.000,0.000,0.000,0.000,0.000,0.000,0.000,3.142,6.283,0.000,2.100,1.897,1.799,4.285,0.398,1.000,4.711,0.000,0.000,-1.810,-3.647,0.451,5.765,3.150,6.272,4.183,4.384,4.484,1.998,5.882,5.284,1.571,0.000,0.000,-1.482,-3.624,0.451,5.769,3.212,6.131,
55.640,62.968,-1.630,-3.850,1.641,0.001,0.006,0.409,0.000,1.403,0.786,2.728,0.000,2.332,1.163,0.686,0.000,0.000,3.142,0.000,0.000,0.000,0.000,0.000,0.000,0.000,0.000,0.000,0.000,0.000,3.142,6.283,0.000,2.100,1.897,1.799,4.285,0.398,1.000,4.711,0.000,0.000,-1.810,-3.647,0.451,5.765,3.150,6.272,4.183,4.384,4.484,1.998,5.882,5.284,1.571,0.000,0.000,-1.482,-3.624,0.451,5.769,3.212,6.131,
55.740,63.068,-1.630,-3.850,1.641,0.001,0.006,0.409,0.000,1.403,0.786,2.728,0.000,2.332,1.163,0.686,0.000,0.000,3.142,0.000,0.000,0.000,0.000,0.000,0.000,0.000,0.000,0.000,0.000,0.000,3.142,6.283,0.000,2.100,1.897,1.799,4.285,0.398,1.000,4.711,0.000,0.000,-1.810,-3.647,0.451,5.765,3.150,6.272,4.183,4.384,4.484,1.998,5.882,5.284,1.571,0.000,0.000,-1.482,-3.624,0.451,5.769,3.212,6.131,
55.840,63.168,-1.630,-3.850,1.641,0.001,0.006,0.409,0.000,1.403,0.786,2.728,0.000,2.332,1.163,0.686,0.000,0.000,3.142,0.000,0.000,0.000,0.000,0.000,0.000,0.000,0.000,0.000,0.000,0.000,3.142,6.283,0.000,2.100,1.897,1.799,4.285,0.398,1.000,4.711,0.000,0.000,-1.810,-3.647,0.451,5.765,3.150,6.272,4.183,4.384,4.484,1.998,5.882,5.284,1.571,0.000,0.000,-1.482,-3.624,0.451,5.769,3.212,6.131,
55.926,63.254,-1.630,-3.850,1.641,0.001,0.006,0.409,0.000,1.403,0.786,2.728,0.000,2.332,1.163,0.686,0.000,0.000,3.142,0.000,0.000,0.000,0.000,0.000,0.000,0.000,0.000,0.000,0.000,0.000,3.142,6.283,0.000,2.100,1.897,1.799,4.285,0.398,1.000,4.711,0.000,0.000,-1.810,-3.647,0.451,5.765,3.150,6.272,4.183,4.384,4.484,1.998,5.882,5.284,1.571,0.000,0.000,-1.482,-3.624,0.451,5.769,3.212,6.131,
56.040,63.368,-1.630,-3.850,1.641,0.001,0.006,0.409,0.000,1.403,0.786,2.728,0.000,2.332,1.163,0.686,0.000,0.000,3.142,0.000,0.000,0.000,0.000,0.000,0.000,0.000,0.000,0.000,0.000,0.000,3.142,6.283,0.000,2.100,1.897,1.799,4.285,0.398,1.000,4.711,0.000,0.000,-1.810,-3.647,0.451,5.765,3.150,6.272,4.183,4.384,4.484,1.998,5.882,5.284,1.571,0.000,0.000,-1.482,-3.624,0.451,5.769,3.212,6.131,
56.130,63.458,-1.630,-3.850,1.641,0.001,0.006,0.409,0.000,1.403,0.786,2.728,0.000,2.332,1.163,0.686,0.000,0.000,3.142,0.000,0.000,0.000,0.000,0.000,0.000,0.000,0.000,0.000,0.000,0.000,3.142,6.283,0.000,2.100,1.897,1.799,4.285,0.398,1.000,4.711,0.000,0.000,-1.810,-3.647,0.451,5.765,3.150,6.272,4.183,4.384,4.484,1.998,5.882,5.284,1.571,0.000,0.000,-1.482,-3.624,0.451,5.769,3.212,6.131,
56.240,63.568,-1.630,-3.850,1.641,0.001,0.006,0.409,0.000,1.403,0.786,2.728,0.000,2.332,1.163,0.686,0.000,0.000,3.142,0.000,0.000,0.000,0.000,0.000,0.000,0.000,0.000,0.000,0.000,0.000,3.142,6.283,0.000,2.100,1.897,1.799,4.285,0.398,1.000,4.711,0.000,0.000,-1.810,-3.647,0.451,5.765,3.150,6.272,4.183,4.384,4.484,1.998,5.882,5.284,1.571,0.000,0.000,-1.482,-3.624,0.451,5.769,3.212,6.131,
56.340,63.668,-1.630,-3.850,1.641,0.001,0.006,0.409,0.000,1.403,0.786,2.728,0.000,2.332,1.163,0.686,0.000,0.000,3.142,0.000,0.000,0.000,0.000,0.000,0.000,0.000,0.000,0.000,0.000,0.000,3.142,6.283,0.000,2.100,1.897,1.799,4.285,0.398,1.000,4.711,0.000,0.000,-1.810,-3.647,0.451,5.765,3.150,6.272,4.183,4.384,4.484,1.998,5.882,5.284,1.571,0.000,0.000,-1.482,-3.624,0.451,5.769,3.212,6.131,
56.440,63.768,-1.630,-3.850,1.641,0.001,0.006,0.409,0.000,1.403,0.786,2.728,0.000,2.332,1.163,0.686,0.000,0.000,3.142,0.000,0.000,0.000,0.000,0.000,0.000,0.000,0.000,0.000,0.000,0.000,3.142,6.283,0.000,2.100,1.897,1.799,4.285,0.398,1.000,4.711,0.000,0.000,-1.810,-3.647,0.451,5.765,3.150,6.272,4.183,4.384,4.484,1.998,5.882,5.284,1.571,0.000,0.000,-1.482,-3.624,0.451,5.769,3.212,6.131,
56.540,63.868,-1.630,-3.850,1.641,0.001,0.006,0.409,0.000,1.403,0.786,2.728,0.000,2.332,1.163,0.686,0.000,0.000,3.142,0.000,0.000,0.000,0.000,0.000,0.000,0.000,0.000,0.000,0.000,0.000,3.142,6.283,0.000,2.100,1.897,1.799,4.285,0.398,1.000,4.711,0.000,0.000,-1.810,-3.647,0.451,5.765,3.150,6.272,4.183,4.384,4.484,1.998,5.882,5.284,1.571,0.000,0.000,-1.482,-3.624,0.451,5.769,3.212,6.131,
56.640,63.968,-1.630,-3.850,1.641,0.001,0.006,0.409,0.000,1.403,0.786,2.728,0.000,2.332,1.163,0.686,0.000,0.000,3.142,0.000,0.000,0.000,0.000,0.000,0.000,0.000,0.000,0.000,0.000,0.000,3.142,6.283,0.000,2.100,1.897,1.799,4.285,0.398,1.000,4.711,0.000,0.000,-1.810,-3.647,0.451,5.765,3.150,6.272,4.183,4.384,4.484,1.998,5.882,5.284,1.571,0.000,0.000,-1.482,-3.624,0.451,5.769,3.212,6.131,
56.740,64.068,-1.630,-3.850,1.641,0.001,0.006,0.409,0.000,1.403,0.786,2.728,0.000,2.332,1.163,0.686,0.000,0.000,3.142,0.000,0.000,0.000,0.000,0.000,0.000,0.000,0.000,0.000,0.000,0.000,3.142,6.283,0.000,2.100,1.897,1.799,4.285,0.398,1.000,4.711,0.000,0.000,-1.810,-3.647,0.451,5.765,3.150,6.272,4.183,4.384,4.484,1.998,5.882,5.284,1.571,0.000,0.000,-1.482,-3.624,0.451,5.769,3.212,6.131,
56.840,64.168,-1.630,-3.850,1.641,0.001,0.006,0.409,0.000,1.403,0.786,2.728,0.000,2.332,1.163,0.686,0.000,0.000,3.142,0.000,0.000,0.000,0.000,0.000,0.000,0.000,0.000,0.000,0.000,0.000,3.142,6.283,0.000,2.100,1.897,1.799,4.285,0.398,1.000,4.711,0.000,0.000,-1.810,-3.647,0.451,5.765,3.150,6.272,4.183,4.384,4.484,1.998,5.882,5.284,1.571,0.000,0.000,-1.482,-3.624,0.451,5.769,3.212,6.131,
56.940,64.268,-1.630,-3.850,1.641,0.001,0.006,0.409,0.000,1.403,0.786,2.728,0.000,2.332,1.163,0.686,0.000,0.000,3.142,0.000,0.000,0.000,0.000,0.000,0.000,0.000,0.000,0.000,0.000,0.000,3.142,6.283,0.000,2.100,1.897,1.799,4.285,0.398,1.000,4.711,0.000,0.000,-1.810,-3.647,0.451,5.765,3.150,6.272,4.183,4.384,4.484,1.998,5.882,5.284,1.571,0.000,0.000,-1.482,-3.624,0.451,5.769,3.212,6.131,
57.040,64.368,-1.630,-3.850,1.641,0.001,0.006,0.409,0.000,1.403,0.786,2.728,0.000,2.332,1.163,0.686,0.000,0.000,3.142,0.000,0.000,0.000,0.000,0.000,0.000,0.000,0.000,0.000,0.000,0.000,3.142,6.283,0.000,2.100,1.897,1.799,4.285,0.398,1.000,4.711,0.000,0.000,-1.810,-3.647,0.451,5.765,3.150,6.272,4.183,4.384,4.484,1.998,5.882,5.284,1.571,0.000,0.000,-1.482,-3.624,0.451,5.769,3.212,6.131,
57.140,64.468,-1.630,-3.850,1.641,0.001,0.006,0.409,0.000,1.403,0.786,2.728,0.000,2.332,1.163,0.686,0.000,0.000,3.142,0.000,0.000,0.000,0.000,0.000,3.618,0.000,0.000,0.000,0.000,0.000,3.106,6.283,0.000,2.100,1.897,1.799,4.285,0.398,1.000,4.711,0.000,0.000,-1.810,-3.647,0.451,5.765,3.150,6.272,4.183,4.384,4.484,1.998,5.882,5.284,1.571,0.000,0.000,-1.482,-3.624,0.451,5.769,3.212,6.131,
57.222,64.550,-1.630,-3.850,1.641,0.001,0.006,0.409,0.000,1.403,0.786,2.728,0.000,2.332,1.163,0.686,0.000,0.000,3.142,0.000,0.000,0.000,0.000,0.000,3.497,0.000,0.000,0.000,0.000,0.000,3.071,6.283,0.000,2.100,1.897,1.799,4.285,0.398,1.000,4.711,0.000,0.000,-1.810,-3.647,0.451,5.765,3.150,6.272,4.183,4.384,4.484,1.998,5.882,5.284,1.571,0.000,0.000,-1.482,-3.624,0.451,5.769,3.212,6.131,
57.340,64.668,-1.630,-3.850,1.641,0.001,0.006,0.409,0.000,1.403,0.786,2.728,0.000,2.332,1.163,0.686,0.000,0.000,3.142,0.000,0.000,0.000,0.000,0.000,3.461,0.000,0.000,0.000,0.000,0.000,3.071,6.283,0.000,2.100,1.897,1.799,4.285,0.398,1.000,4.711,0.000,0.000,-1.810,-3.647,0.451,5.765,3.150,6.272,4.183,4.384,4.484,1.998,5.882,5.284,1.571,0.000,0.000,-1.482,-3.624,0.451,5.769,3.212,6.131,
57.425,64.753,-1.630,-3.850,1.641,0.001,0.006,0.409,0.000,1.403,0.786,2.728,0.000,2.332,1.163,0.686,0.000,0.000,3.142,0.000,0.000,0.000,0.000,0.000,3.485,0.000,0.000,0.000,0.000,0.000,3.001,6.283,0.000,2.100,1.897,1.799,4.285,0.398,1.000,4.711,0.000,0.000,-1.810,-3.647,0.451,5.765,3.150,6.272,4.183,4.384,4.484,1.998,5.882,5.284,1.571,0.000,0.000,-1.482,-3.624,0.451,5.769,3.212,6.131,
57.540,64.868,-1.630,-3.850,1.641,0.001,0.006,0.409,0.000,1.403,0.786,2.728,0.000,2.332,1.163,0.686,0.000,0.000,3.142,0.000,0.000,0.000,0.000,0.000,3.574,0.000,0.000,0.000,0.000,0.000,3.001,6.283,0.000,2.100,1.897,1.799,4.285,0.398,1.000,4.711,0.000,0.000,-1.810,-3.647,0.451,5.765,3.150,6.272,4.183,4.384,4.484,1.998,5.882,5.284,1.571,0.000,0.000,-1.482,-3.624,0.451,5.769,3.212,6.131,
57.640,64.968,-1.630,-3.850,1.641,0.001,0.006,0.409,0.000,1.403,0.786,2.728,0.000,2.332,1.163,0.686,0.000,0.000,3.142,0.000,0.000,0.000,0.000,0.000,0.000,0.000,0.000,0.000,0.000,0.000,3.142,6.283,0.000,2.100,1.897,1.799,4.285,0.398,1.000,4.711,0.000,0.000,-1.810,-3.647,0.451,5.765,3.150,6.272,4.183,4.384,4.484,1.998,5.882,5.284,1.571,0.000,0.000,-1.482,-3.624,0.451,5.769,3.212,6.131,
57.740,65.068,-1.630,-3.850,1.641,0.001,0.006,0.409,0.000,1.403,0.786,2.728,0.000,2.332,1.163,0.686,0.000,0.000,3.142,0.000,0.000,0.000,0.000,0.000,0.000,0.000,0.000,0.000,0.000,0.000,3.142,6.283,0.000,2.100,1.897,1.799,4.285,0.398,1.000,4.711,0.000,0.000,-1.810,-3.647,0.451,5.765,3.150,6.272,4.183,4.384,4.484,1.998,5.882,5.284,1.571,0.000,0.000,-1.482,-3.624,0.451,5.769,3.212,6.131,
57.840,65.168,-1.630,-3.850,1.641,0.001,0.006,0.409,0.000,1.403,0.786,2.728,0.000,2.332,1.163,0.686,0.000,0.000,3.142,0.000,0.000,0.000,0.000,0.000,0.000,0.000,0.000,0.000,0.000,0.000,3.142,6.283,0.000,2.100,1.897,1.799,4.285,0.398,1.000,4.711,0.000,0.000,-1.810,-3.647,0.451,5.765,3.150,6.272,4.183,4.384,4.484,1.998,5.882,5.284,1.571,0.000,0.000,-1.482,-3.624,0.451,5.769,3.212,6.131,
57.940,65.268,-1.630,-3.850,1.641,0.001,0.006,0.409,0.000,1.403,0.786,2.728,0.000,2.332,1.163,0.686,0.000,0.000,3.142,0.000,0.000,0.000,0.000,0.000,0.000,0.000,0.000,0.000,0.000,0.000,3.142,6.283,0.000,2.100,1.897,1.799,4.285,0.398,1.000,4.711,0.000,0.000,-1.810,-3.647,0.451,5.765,3.150,6.272,4.183,4.384,4.484,1.998,5.882,5.284,1.571,0.000,0.000,-1.482,-3.624,0.451,5.769,3.212,6.131,
58.040,65.368,-1.630,-3.850,1.641,0.001,0.006,0.409,0.000,1.403,0.786,2.728,0.000,2.332,1.163,0.686,0.000,0.000,3.142,0.000,0.000,0.000,0.000,0.000,0.000,0.000,0.000,0.000,0.000,0.000,3.142,6.283,0.000,2.100,1.897,1.799,4.285,0.398,1.000,4.711,0.000,0.000,-1.810,-3.647,0.451,5.765,3.150,6.272,4.183,4.384,4.484,1.998,5.882,5.284,1.571,0.000,0.000,-1.482,-3.624,0.451,5.769,3.212,6.131,
