deveshdatwani/Gopher/Assets/Data/07-13 17-36-34/Obstacle Handling_robot_value.csv
game_time,true_time,x,y,az,vx,vaz,dis_to_obs_0,dis_to_obs_36,dis_to_obs_72,dis_to_obs_108,dis_to_obs_144,dis_to_obs_180,dis_to_obs_-144,dis_to_obs_-108,dis_to_obs_-72,dis_to_obs_-36,dis_to_min_obs,direction_to_min_obs,dis_to_human_0,dis_to_human_36,dis_to_human_72,dis_to_human_108,dis_to_human_144,dis_to_human_180,dis_to_human_-144,dis_to_human_-108,dis_to_human_-72,dis_to_human_-36,dis_to_min_human,direction_to_min_human,main_cam_yaw,main_cam_pitch,left_joint_1,left_joint_2,left_joint_3,left_joint_4,left_joint_5,left_joint_6,left_joint_7,left_joint_gripper,left_is_grasping,left_end_x,left_end_y,left_end_z,left_end_ax,left_end_ay,left_end_az,right_joint_1,right_joint_2,right_joint_3,right_joint_4,right_joint_5,right_joint_6,right_joint_7,right_joint_gripper,right_is_grasping,right_end_x,right_end_y,right_end_z,right_end_ax,right_end_ay,right_end_az,
92.982,130.199,0.577,-10.031,1.983,1.013,6.277,3.556,1.394,0.826,1.045,4.953,4.555,2.803,2.437,0.000,3.157,0.000,3.071,0.000,0.000,0.000,0.000,0.000,0.000,0.000,0.000,0.000,0.000,0.000,3.142,6.283,0.000,1.821,1.897,1.798,4.286,0.398,1.000,4.711,0.000,0.000,0.276,-9.755,0.542,5.555,3.500,5.799,4.462,4.384,4.484,1.997,5.883,5.283,1.571,0.000,0.000,0.578,-9.623,0.542,5.584,3.560,5.649,
93.100,130.317,0.529,-9.922,1.983,0.995,6.278,3.437,1.299,0.881,0.980,0.000,4.674,2.858,2.401,0.000,3.493,0.000,3.106,0.000,0.000,0.000,0.000,0.000,0.000,0.000,0.000,0.000,0.000,0.000,3.142,6.282,0.000,1.859,1.897,1.798,4.285,0.398,0.999,4.711,0.000,0.000,0.237,-9.665,0.527,5.586,3.475,5.814,4.425,4.383,4.484,1.997,5.882,5.283,1.571,0.000,0.000,0.538,-9.533,0.528,5.615,3.535,5.666,
93.200,130.417,0.498,-9.850,1.983,1.008,6.278,3.357,1.236,0.917,0.937,3.724,4.753,2.894,2.116,4.984,3.419,0.000,3.106,0.000,0.000,0.000,0.000,0.000,0.000,0.000,0.000,0.000,0.000,0.000,3.142,6.282,0.000,1.879,1.897,1.798,4.285,0.398,0.999,4.711,0.000,0.000,0.209,-9.602,0.520,5.604,3.462,5.821,4.405,4.383,4.484,1.997,5.882,5.283,1.571,0.000,0.000,0.510,-9.470,0.520,5.632,3.522,5.674,
93.300,130.517,0.450,-9.740,1.983,1.010,6.279,3.237,1.139,0.972,0.871,3.460,4.874,2.950,2.164,4.821,3.307,0.000,3.106,0.000,0.000,0.000,0.000,0.000,0.000,0.000,0.000,0.000,0.000,0.000,3.142,6.282,0.000,1.921,1.897,1.798,4.286,0.398,0.999,4.711,0.000,0.000,0.171,-9.514,0.504,5.641,3.436,5.837,4.362,4.384,4.484,1.997,5.883,5.283,1.571,0.000,0.000,0.472,-9.382,0.504,5.668,3.494,5.692,
93.400,130.617,0.418,-9.667,1.983,1.008,6.280,3.156,1.075,1.009,0.827,3.284,4.955,2.987,2.196,4.713,3.233,0.000,3.106,0.000,0.000,0.000,0.000,0.000,0.000,0.000,0.000,0.000,0.000,0.000,3.142,6.282,0.000,1.941,1.897,1.798,4.286,0.398,1.000,4.711,0.000,0.000,0.143,-9.451,0.497,5.658,3.424,5.843,4.343,4.384,4.484,1.997,5.882,5.283,1.571,0.000,0.000,0.444,-9.319,0.498,5.685,3.482,5.700,
93.500,130.717,0.370,-9.558,1.983,1.001,6.281,3.036,0.979,1.065,0.840,3.022,0.000,3.043,2.244,4.551,3.121,0.000,3.142,0.000,0.000,0.000,0.000,0.000,0.000,0.000,0.000,0.000,0.000,0.000,3.142,6.282,0.000,1.981,1.897,1.798,4.286,0.398,1.000,4.711,0.000,0.000,0.105,-9.362,0.484,5.694,3.401,5.855,4.303,4.384,4.484,1.997,5.882,5.283,1.571,0.000,0.000,0.406,-9.230,0.485,5.720,3.458,5.714,
93.600,130.817,0.338,-9.485,1.983,1.006,6.281,2.956,0.915,1.101,0.869,2.848,0.000,3.079,2.276,4.443,3.047,0.000,3.142,0.000,0.000,0.000,0.000,0.000,0.000,0.000,0.000,0.000,0.000,0.000,3.142,6.282,0.000,2.001,1.897,1.798,4.286,0.398,0.999,4.711,0.000,0.000,0.077,-9.300,0.478,5.711,3.390,5.861,4.283,4.384,4.484,1.997,5.882,5.283,1.571,0.000,0.000,0.379,-9.168,0.478,5.737,3.446,5.720,
93.700,130.917,0.290,-9.376,1.983,0.993,6.282,2.835,1.389,1.157,0.912,2.586,0.000,3.135,2.324,3.624,2.936,0.000,3.142,0.000,0.000,0.000,0.000,0.000,0.000,0.000,0.000,0.000,0.000,0.000,3.142,6.283,0.000,2.040,1.897,1.798,4.286,0.398,1.000,4.711,0.000,0.000,0.039,-9.212,0.466,5.747,3.369,5.871,4.243,4.384,4.484,1.997,5.882,5.283,1.571,0.000,0.000,0.340,-9.080,0.467,5.772,3.424,5.733,
93.781,130.997,0.261,-9.308,1.983,0.865,6.283,2.760,0.000,1.191,0.939,2.424,0.000,3.169,2.755,3.549,0.000,0.000,3.142,0.000,0.000,0.000,0.000,0.000,0.000,0.000,0.000,0.000,0.000,0.000,3.142,0.000,0.000,2.059,1.897,1.799,4.286,0.397,1.000,4.712,0.000,0.000,0.014,-9.154,0.461,5.764,3.358,5.877,4.223,4.383,4.485,1.997,5.882,5.284,1.571,0.000,0.000,0.315,-9.023,0.461,5.789,3.413,5.739,
93.900,131.117,0.227,-9.232,1.983,0.554,0.000,2.677,0.000,0.867,0.969,2.245,0.000,3.208,0.000,4.065,0.000,0.000,3.142,0.000,0.000,0.000,0.000,0.000,0.000,0.000,0.000,0.000,0.000,0.000,3.142,0.000,0.000,2.096,1.897,1.799,4.285,0.398,1.000,4.712,0.000,0.000,-0.010,-9.099,0.452,5.796,3.339,5.885,4.186,4.383,4.485,1.998,5.882,5.284,1.571,0.000,0.000,0.291,-8.967,0.452,5.821,3.394,5.749,
94.000,131.217,0.212,-9.197,1.983,0.446,0.000,2.639,0.000,0.829,0.983,2.163,0.000,3.225,0.000,4.013,0.000,0.000,3.142,0.000,0.000,0.000,0.000,0.000,0.000,0.000,0.000,0.000,0.000,0.000,3.142,6.283,0.000,2.100,1.897,1.798,4.285,0.398,1.000,4.711,0.000,0.000,-0.025,-9.066,0.451,5.800,3.338,5.884,4.183,4.384,4.484,1.998,5.882,5.283,1.571,0.000,0.000,0.277,-8.934,0.451,5.824,3.392,5.749,
94.100,131.317,0.192,-9.151,1.983,0.434,6.283,2.588,0.000,0.778,1.002,2.051,0.000,3.249,0.000,3.945,0.000,0.000,3.142,0.000,0.000,0.000,0.000,0.000,0.000,0.000,0.000,0.000,0.000,0.000,3.142,6.283,0.000,2.100,1.897,1.798,4.285,0.398,1.000,4.711,0.000,0.000,-0.045,-9.020,0.451,5.800,3.338,5.884,4.183,4.384,4.484,1.998,5.882,5.283,1.570,0.000,0.000,0.256,-8.888,0.451,5.824,3.393,5.749,
94.181,131.398,0.179,-9.122,1.983,0.383,0.000,2.556,0.000,0.746,1.013,1.981,0.000,3.263,0.000,0.000,0.000,0.000,3.142,0.000,0.000,0.000,0.000,0.000,0.000,0.000,0.000,2.191,0.000,0.000,3.142,6.283,0.000,2.100,1.897,1.799,4.285,0.398,1.000,4.711,0.000,0.000,-0.058,-8.991,0.451,5.800,3.338,5.884,4.183,4.384,4.484,1.998,5.882,5.283,1.570,0.000,0.000,0.244,-8.859,0.451,5.824,3.393,5.749,
94.300,131.517,0.165,-9.088,1.983,0.254,0.001,2.519,0.000,0.709,1.026,1.902,0.000,3.280,0.000,0.000,0.000,0.000,3.142,0.000,0.000,0.000,0.000,0.000,0.000,0.000,0.000,1.927,0.000,0.000,3.142,6.283,0.000,2.100,1.897,1.799,4.285,0.398,1.000,4.711,0.000,0.000,-0.072,-8.957,0.451,5.800,3.338,5.885,4.183,4.384,4.484,1.998,5.882,5.283,1.570,0.000,0.000,0.229,-8.826,0.451,5.824,3.392,5.749,
94.382,131.599,0.158,-9.073,1.983,0.210,0.001,2.502,0.000,0.692,1.033,1.864,0.000,3.288,0.000,0.000,0.000,0.000,3.142,0.000,0.000,0.000,0.000,0.000,0.000,0.000,0.000,1.828,0.000,0.000,3.142,6.283,0.000,2.100,1.897,1.798,4.285,0.398,1.000,4.711,0.000,0.000,-0.079,-8.942,0.451,5.800,3.338,5.884,4.183,4.384,4.484,1.998,5.882,5.283,1.570,0.000,0.000,0.222,-8.810,0.451,5.824,3.393,5.749,
94.500,131.717,0.149,-9.053,1.983,0.153,0.000,2.480,0.000,0.670,1.041,1.816,0.000,3.299,0.000,0.000,0.000,0.000,3.142,0.000,0.000,0.000,0.000,0.000,0.000,0.000,0.000,1.682,0.000,0.000,3.142,0.000,0.000,2.099,1.897,1.799,4.285,0.398,1.000,4.712,0.000,0.000,-0.088,-8.922,0.451,5.800,3.338,5.885,4.183,4.383,4.484,1.998,5.882,5.283,1.571,0.000,0.000,0.214,-8.790,0.451,5.824,3.392,5.750,
94.589,131.806,0.147,-9.049,1.983,-0.001,0.001,2.476,0.000,0.666,1.042,1.812,0.000,3.300,0.000,0.000,0.000,0.000,3.142,0.000,0.000,0.000,0.000,0.000,0.000,0.000,0.000,1.626,0.000,0.000,3.142,0.001,0.000,2.099,1.897,1.799,4.285,0.397,1.001,4.712,0.000,0.000,-0.089,-8.918,0.451,5.799,3.338,5.885,4.183,4.383,4.485,1.998,5.881,5.284,1.571,0.000,0.000,0.212,-8.786,0.451,5.824,3.392,5.750,
94.700,131.917,0.148,-9.051,1.994,-0.024,0.280,2.491,0.000,0.673,1.041,1.932,0.000,3.277,0.000,0.000,0.000,0.000,3.142,0.000,0.000,0.000,0.000,0.000,0.000,0.000,0.000,1.566,0.000,0.000,3.142,0.001,0.000,2.100,1.897,1.799,4.285,0.398,1.000,4.712,0.000,0.000,-0.090,-8.922,0.451,5.802,3.344,5.873,4.182,4.383,4.485,1.998,5.882,5.284,1.571,0.000,0.000,0.210,-8.787,0.451,5.827,3.397,5.738,
94.789,132.005,0.149,-9.052,2.013,-0.022,0.352,2.514,0.000,0.684,1.041,2.161,0.000,3.244,0.000,0.000,0.000,0.000,3.142,0.000,0.000,0.000,0.000,0.000,0.000,0.000,0.000,1.549,0.000,0.000,3.142,0.001,0.000,2.100,1.896,1.799,4.285,0.398,1.000,4.712,0.000,0.000,-0.092,-8.928,0.451,5.806,3.353,5.853,4.182,4.383,4.485,1.998,5.882,5.284,1.571,0.000,0.000,0.205,-8.787,0.451,5.831,3.406,5.718,
94.900,132.117,0.149,-9.053,2.035,-0.014,0.220,0.000,0.000,0.699,1.040,2.531,4.589,3.205,0.000,3.597,0.000,0.000,3.106,0.000,0.000,0.000,0.000,0.000,0.000,0.000,0.000,0.000,0.000,0.000,3.142,0.001,0.000,2.100,1.897,1.799,4.285,0.398,1.000,4.712,0.000,0.000,-0.094,-8.935,0.451,5.811,3.364,5.828,4.182,4.383,4.485,1.998,5.882,5.284,1.571,0.000,0.000,0.200,-8.787,0.451,5.837,3.417,5.694,
94.988,132.205,0.150,-9.053,2.043,-0.008,0.169,0.000,0.000,0.704,1.041,2.695,4.516,3.192,0.000,3.570,0.000,0.000,3.106,0.000,0.000,0.000,0.000,0.000,0.000,0.000,0.000,0.000,0.000,0.000,3.142,0.001,0.000,2.100,1.897,1.799,4.285,0.398,1.000,4.712,0.000,0.000,-0.095,-8.937,0.451,5.813,3.368,5.819,4.182,4.383,4.485,1.998,5.882,5.284,1.571,0.000,0.000,0.198,-8.787,0.451,5.840,3.420,5.686,
95.100,132.317,0.150,-9.053,2.057,0.002,0.215,0.000,0.000,0.713,1.041,3.023,4.400,3.170,0.000,3.523,0.000,0.000,3.106,0.000,0.000,0.000,0.000,0.000,0.000,0.000,0.000,0.000,0.000,0.000,3.142,0.001,0.000,2.100,1.897,1.799,4.285,0.398,1.000,4.712,0.000,0.000,-0.096,-8.940,0.451,5.816,3.375,5.804,4.182,4.383,4.485,1.998,5.882,5.284,1.571,0.000,0.000,0.195,-8.787,0.451,5.843,3.426,5.671,
95.195,132.411,0.150,-9.053,2.066,0.002,0.181,0.000,0.000,0.718,1.042,3.288,4.327,3.157,0.000,3.493,0.000,0.000,3.071,0.000,0.000,0.000,0.000,0.000,0.000,0.000,0.000,0.000,0.000,0.000,3.142,0.001,0.000,2.100,1.897,1.799,4.285,0.398,1.000,4.712,0.000,0.000,-0.097,-8.942,0.451,5.818,3.379,5.795,4.182,4.383,4.485,1.998,5.882,5.284,1.571,0.000,0.000,0.192,-8.786,0.451,5.846,3.431,5.662,
95.300,132.517,0.149,-9.053,2.074,-0.002,0.115,0.000,0.000,0.723,1.042,3.577,4.262,3.144,0.000,3.466,0.000,0.000,3.071,0.000,0.000,0.000,0.000,0.000,0.000,0.000,0.000,0.000,0.000,0.000,3.142,0.001,0.000,2.100,1.897,1.799,4.285,0.398,1.000,4.712,0.000,0.000,-0.098,-8.944,0.451,5.820,3.383,5.786,4.182,4.383,4.485,1.998,5.882,5.284,1.571,0.000,0.000,0.190,-8.786,0.451,5.848,3.434,5.653,
95.391,132.608,0.150,-9.053,2.078,-0.006,0.108,4.992,0.000,0.726,1.042,3.723,4.245,3.139,0.000,3.455,0.000,0.000,3.071,0.000,0.000,0.000,0.000,0.000,0.000,0.000,0.000,0.000,0.000,0.000,3.142,0.001,0.000,2.100,1.897,1.799,4.285,0.398,1.000,4.712,0.000,0.000,-0.099,-8.945,0.451,5.820,3.385,5.782,4.182,4.383,4.485,1.998,5.882,5.284,1.571,0.000,0.000,0.189,-8.786,0.451,5.849,3.436,5.649,
95.500,132.717,0.150,-9.053,2.083,-0.003,0.106,4.945,0.000,0.730,1.043,3.968,4.258,3.131,0.000,3.438,0.000,0.000,3.071,0.000,0.000,0.000,0.000,0.000,0.000,0.000,0.000,0.000,0.000,0.000,3.142,0.001,0.000,2.100,1.897,1.799,4.285,0.398,1.000,4.712,0.000,0.000,-0.099,-8.947,0.451,5.822,3.388,5.776,4.182,4.383,4.485,1.998,5.882,5.284,1.571,0.000,0.000,0.188,-8.786,0.451,5.851,3.438,5.643,
95.590,132.807,0.150,-9.053,2.086,-0.001,0.098,4.917,0.000,0.732,1.043,4.129,4.266,3.126,0.000,3.428,0.000,0.000,3.071,0.000,0.000,0.000,0.000,0.000,0.000,0.000,0.000,0.000,0.000,0.000,3.142,0.001,0.000,2.100,1.897,1.799,4.285,0.398,1.000,4.712,0.000,0.000,-0.099,-8.948,0.451,5.823,3.389,5.772,4.182,4.383,4.485,1.998,5.882,5.284,1.571,0.000,0.000,0.187,-8.785,0.451,5.852,3.440,5.640,
95.700,132.917,0.144,-9.043,2.094,0.398,0.084,4.842,0.000,0.723,1.047,4.480,4.297,3.122,0.000,3.390,0.000,0.000,3.071,0.000,0.000,0.000,0.000,0.000,0.000,0.000,0.000,0.000,0.000,0.000,3.142,6.280,6.283,2.104,1.898,1.797,4.285,0.399,0.997,4.710,0.000,0.000,-0.106,-8.941,0.450,5.827,3.394,5.760,4.182,4.385,4.482,1.997,5.883,5.283,1.570,0.000,0.000,0.178,-8.776,0.451,5.857,3.444,5.628,
95.787,133.004,0.110,-8.984,2.096,0.876,6.281,4.769,0.000,0.643,1.064,4.110,4.369,3.157,0.000,3.307,0.000,0.000,3.071,0.000,0.000,0.000,0.000,0.000,0.000,0.000,0.000,0.000,0.000,0.000,3.142,6.282,0.000,2.102,1.897,1.798,4.285,0.398,0.999,4.711,0.000,0.000,-0.140,-8.882,0.451,5.826,3.394,5.760,4.182,4.384,4.484,1.997,5.882,5.283,1.571,0.000,0.000,0.144,-8.716,0.451,5.856,3.444,5.628,
95.900,133.117,0.073,-8.921,2.097,0.506,6.281,4.698,0.000,0.556,1.083,3.636,4.444,3.196,0.000,3.221,0.000,0.000,3.071,0.000,0.000,0.000,0.000,0.000,0.000,0.000,0.000,0.000,0.000,0.000,3.142,0.002,0.001,2.096,1.896,1.800,4.285,0.397,1.002,4.713,0.000,0.000,-0.177,-8.816,0.452,5.823,3.394,5.763,4.183,4.382,4.486,1.999,5.881,5.284,1.571,0.000,0.000,0.107,-8.652,0.452,5.853,3.444,5.630,
95.997,133.213,0.062,-8.902,2.097,0.050,6.281,4.676,0.000,0.530,1.089,3.505,4.468,3.207,0.000,3.194,0.000,0.000,3.071,0.000,0.000,0.000,0.000,0.000,0.000,0.000,0.000,0.000,0.000,0.000,3.142,0.001,0.001,2.098,1.897,1.799,4.285,0.397,1.001,4.712,0.000,0.000,-0.189,-8.798,0.451,5.824,3.395,5.761,4.183,4.383,4.485,1.998,5.882,5.284,1.571,0.000,0.000,0.096,-8.633,0.452,5.854,3.445,5.629,
96.100,133.317,0.059,-8.897,2.098,0.156,0.009,0.000,0.000,0.523,1.091,3.485,4.474,3.210,0.000,3.187,0.000,0.000,3.071,1.226,0.000,0.000,0.000,0.000,0.000,0.000,0.000,0.000,0.000,0.000,3.142,6.282,0.000,2.102,1.897,1.798,4.285,0.398,0.999,4.711,0.000,0.000,-0.191,-8.795,0.451,5.827,3.395,5.758,4.182,4.384,4.484,1.997,5.882,5.283,1.570,0.000,0.000,0.093,-8.629,0.451,5.856,3.445,5.626,
96.190,133.407,0.046,-8.874,2.098,0.370,6.283,0.000,0.000,0.491,1.097,3.306,4.502,3.224,0.000,3.155,0.000,0.000,3.071,1.198,0.000,0.000,0.000,0.000,0.000,0.000,0.000,0.000,0.000,0.000,3.142,6.282,0.000,2.101,1.897,1.798,4.285,0.398,0.999,4.711,0.000,0.000,-0.205,-8.771,0.451,5.826,3.395,5.758,4.183,4.384,4.484,1.998,5.882,5.283,1.571,0.000,0.000,0.080,-8.606,0.451,5.856,3.445,5.626,
96.300,133.517,0.030,-8.847,2.098,0.202,6.282,0.000,0.000,0.503,1.105,3.101,4.534,3.240,0.000,3.119,0.000,0.000,3.071,1.240,0.000,0.000,0.000,0.000,0.000,0.000,0.000,0.000,0.000,0.000,3.142,0.001,0.001,2.098,1.897,1.799,4.285,0.397,1.001,4.712,0.000,0.000,-0.220,-8.744,0.451,5.824,3.395,5.760,4.183,4.383,4.485,1.998,5.882,5.284,1.571,0.000,0.000,0.064,-8.578,0.452,5.855,3.445,5.628,
96.394,133.611,0.029,-8.845,2.104,-0.078,0.250,0.000,0.000,0.502,1.107,3.360,4.552,3.234,0.000,3.100,0.000,0.000,3.036,1.300,0.000,0.000,0.000,0.000,0.000,0.000,0.000,0.000,0.000,0.000,3.142,0.002,0.000,2.098,1.897,1.800,4.286,0.398,1.001,4.712,0.000,0.000,-0.222,-8.743,0.451,5.826,3.397,5.754,4.182,4.383,4.486,1.998,5.882,5.284,1.571,0.000,0.000,0.062,-8.576,0.451,5.856,3.446,5.623,
96.500,133.717,0.033,-8.852,2.119,-0.086,0.236,0.000,0.000,0.489,1.106,4.450,4.583,3.209,0.000,3.071,0.000,0.000,3.036,1.515,0.000,0.000,0.000,0.000,0.000,0.000,0.000,0.000,0.000,0.000,3.142,0.001,6.283,2.100,1.897,1.799,4.285,0.398,1.000,4.711,0.000,0.000,-0.219,-8.755,0.451,5.831,3.405,5.738,4.182,4.383,4.485,1.998,5.882,5.284,1.571,0.000,0.000,0.062,-8.584,0.451,5.862,3.453,5.606,
96.593,133.810,0.035,-8.854,2.133,0.000,0.196,0.000,0.000,0.481,1.107,0.000,4.526,3.189,0.000,3.038,0.000,0.000,3.036,1.659,0.000,0.000,0.000,0.000,0.000,0.000,0.000,0.000,0.000,0.000,3.142,0.001,0.000,2.100,1.897,1.799,4.285,0.398,1.000,4.711,0.000,0.000,-0.219,-8.760,0.451,5.835,3.411,5.722,4.182,4.383,4.485,1.998,5.882,5.284,1.571,0.000,0.000,0.059,-8.585,0.451,5.866,3.460,5.591,
96.700,133.917,0.034,-8.854,2.143,0.018,0.181,4.757,0.000,0.485,1.109,0.000,4.556,3.177,0.000,3.012,0.000,0.000,3.001,0.000,0.000,0.000,0.000,0.000,0.000,0.000,0.000,0.000,0.000,0.000,3.142,0.001,0.000,2.100,1.897,1.799,4.285,0.398,1.000,4.712,0.000,0.000,-0.220,-8.762,0.451,5.837,3.416,5.711,4.182,4.383,4.485,1.998,5.882,5.284,1.571,0.000,0.000,0.056,-8.584,0.451,5.869,3.464,5.581,
96.784,134.001,0.034,-8.853,2.154,0.017,0.186,4.792,0.000,0.490,1.111,0.000,4.591,3.164,0.000,2.984,0.000,0.000,3.001,0.000,0.000,0.000,0.000,0.000,0.000,0.000,0.000,0.000,0.000,0.000,3.142,0.001,0.000,2.100,1.897,1.799,4.285,0.398,1.000,4.712,0.000,0.000,-0.222,-8.764,0.451,5.840,3.421,5.699,4.182,4.383,4.485,1.998,5.882,5.284,1.571,0.000,0.000,0.053,-8.583,0.451,5.873,3.469,5.569,
96.900,134.117,0.033,-8.852,2.168,0.013,0.176,4.836,0.000,0.495,1.113,0.000,4.633,3.150,0.000,2.953,0.000,0.000,3.001,0.000,0.000,0.000,0.000,0.000,0.000,0.000,0.000,0.000,0.000,0.000,3.142,0.001,0.000,2.100,1.897,1.799,4.285,0.398,1.000,4.712,0.000,0.000,-0.224,-8.767,0.451,5.844,3.427,5.685,4.182,4.383,4.485,1.998,5.882,5.284,1.571,0.000,0.000,0.048,-8.582,0.451,5.877,3.474,5.555,
96.987,134.203,0.033,-8.852,2.172,-0.008,0.097,4.851,0.000,0.498,1.114,0.000,4.647,3.145,0.000,2.943,0.000,0.000,2.966,0.000,0.000,0.000,0.000,0.000,0.000,0.000,0.000,0.000,0.000,0.000,3.142,0.001,0.000,2.100,1.897,1.799,4.285,0.398,1.000,4.712,0.000,0.000,-0.224,-8.768,0.451,5.845,3.429,5.681,4.182,4.383,4.485,1.998,5.882,5.284,1.571,0.000,0.000,0.047,-8.582,0.451,5.878,3.475,5.551,
97.100,134.317,0.033,-8.852,2.177,-0.010,0.124,4.868,0.000,0.501,1.115,0.000,4.662,3.139,0.000,2.933,0.000,0.000,2.966,0.000,0.000,0.000,0.000,0.000,0.000,0.000,0.000,0.000,0.000,0.000,3.142,0.001,0.000,2.100,1.897,1.799,4.285,0.398,1.000,4.712,0.000,0.000,-0.224,-8.769,0.451,5.847,3.431,5.676,4.182,4.383,4.485,1.998,5.882,5.284,1.571,0.000,0.000,0.046,-8.582,0.451,5.880,3.478,5.546,
97.185,134.402,0.033,-8.852,2.181,-0.010,0.109,4.883,0.000,0.503,1.116,0.000,4.676,3.135,0.000,2.924,0.000,0.000,2.966,0.000,0.000,0.000,0.000,0.000,0.000,0.000,0.000,0.000,0.000,0.000,3.142,0.001,0.000,2.100,1.897,1.799,4.285,0.398,1.000,4.712,0.000,0.000,-0.225,-8.770,0.451,5.848,3.433,5.671,4.182,4.383,4.485,1.998,5.882,5.284,1.571,0.000,0.000,0.045,-8.582,0.451,5.881,3.479,5.542,
97.300,134.517,0.034,-8.853,2.186,-0.010,0.104,0.000,0.000,0.507,1.116,0.000,4.691,3.129,0.000,2.914,0.000,0.000,2.966,0.000,0.000,0.000,0.000,0.000,0.000,0.000,0.000,0.000,0.000,0.000,3.142,0.001,0.000,2.100,1.897,1.799,4.285,0.398,1.000,4.712,0.000,0.000,-0.225,-8.772,0.451,5.849,3.435,5.666,4.182,4.383,4.485,1.998,5.882,5.284,1.571,0.000,0.000,0.044,-8.582,0.451,5.883,3.481,5.537,
97.400,134.617,0.033,-8.852,2.190,0.076,0.140,0.000,0.000,0.508,1.117,0.000,4.704,3.126,0.000,2.905,0.000,0.000,2.966,0.000,0.000,0.000,0.000,0.000,0.000,0.000,0.000,0.000,0.000,0.000,3.142,6.282,6.283,2.101,1.897,1.799,4.285,0.398,0.999,4.711,0.000,0.000,-0.225,-8.773,0.451,5.851,3.438,5.660,4.182,4.384,4.484,1.998,5.882,5.284,1.571,0.000,0.000,0.043,-8.582,0.451,5.885,3.483,5.531,
97.500,134.717,-0.004,-8.800,2.192,1.016,0.070,0.000,0.000,0.492,1.129,0.000,4.777,2.743,0.000,2.835,0.000,0.000,2.966,0.000,0.000,0.000,0.000,0.000,0.000,0.000,0.000,0.000,0.000,0.000,3.142,6.278,6.283,2.106,1.899,1.796,4.285,0.400,0.996,4.709,0.000,0.000,-0.262,-8.724,0.450,5.855,3.439,5.654,4.182,4.387,4.481,1.997,5.884,5.283,1.570,0.000,0.000,0.004,-8.531,0.451,5.889,3.485,5.525,
97.600,134.817,-0.063,-8.718,2.194,1.431,0.003,4.915,0.000,0.546,1.146,0.000,4.884,2.803,0.000,2.192,0.000,0.000,2.966,0.000,0.000,0.000,0.000,0.000,0.000,0.000,0.000,0.000,0.000,0.000,3.142,6.281,0.000,2.102,1.898,1.797,4.285,0.399,0.998,4.710,0.000,0.000,-0.322,-8.641,0.451,5.853,3.439,5.655,4.182,4.385,4.483,1.997,5.882,5.283,1.570,0.000,0.000,-0.055,-8.448,0.451,5.887,3.485,5.526,
97.698,134.915,-0.151,-8.596,2.194,1.002,0.000,4.768,0.000,0.628,0.572,0.000,0.000,2.896,0.000,2.581,0.000,0.000,3.142,0.000,0.000,0.000,0.000,0.000,0.000,0.000,0.000,0.000,0.000,0.000,3.142,0.002,0.001,2.097,1.897,1.800,4.285,0.397,1.001,4.712,0.000,0.000,-0.410,-8.516,0.452,5.850,3.439,5.658,4.184,4.382,4.485,1.998,5.881,5.284,1.571,0.000,0.000,-0.143,-8.325,0.452,5.885,3.485,5.529,
97.800,135.017,-0.200,-8.528,2.194,0.799,0.000,4.685,0.000,0.674,0.511,0.000,0.000,2.947,0.000,2.496,0.000,0.000,3.142,0.000,0.000,0.000,0.000,0.000,0.000,0.000,0.000,0.000,0.000,0.000,3.142,6.283,0.000,2.100,1.897,1.798,4.285,0.398,1.000,4.711,0.000,0.000,-0.459,-8.449,0.451,5.852,3.440,5.656,4.183,4.384,4.484,1.998,5.882,5.283,1.570,0.000,0.000,-0.192,-8.257,0.451,5.886,3.485,5.527,
97.893,135.109,-0.240,-8.472,2.194,0.970,6.283,4.619,0.000,0.711,0.539,1.709,0.000,2.989,0.000,2.428,0.000,0.000,3.142,0.000,0.000,0.000,0.000,0.000,0.000,0.000,0.000,0.000,0.000,0.000,3.142,6.281,0.000,2.102,1.898,1.798,4.285,0.399,0.999,4.710,0.000,0.000,-0.498,-8.394,0.451,5.853,3.440,5.655,4.182,4.384,4.483,1.997,5.882,5.283,1.570,0.000,0.000,-0.232,-8.202,0.451,5.887,3.485,5.526,
98.000,135.217,-0.314,-8.368,2.194,1.119,6.283,4.495,0.000,0.781,0.592,1.739,0.000,3.068,0.000,2.301,0.000,0.000,3.142,0.000,0.000,0.000,0.000,0.000,0.000,0.000,0.000,0.000,0.000,0.000,3.142,6.282,0.000,2.100,1.897,1.798,4.285,0.398,1.000,4.711,0.000,0.000,-0.573,-8.290,0.451,5.852,3.439,5.656,4.183,4.384,4.484,1.998,5.882,5.283,1.570,0.000,0.000,-0.306,-8.098,0.451,5.886,3.485,5.527,
98.096,135.313,-0.363,-8.299,2.194,1.029,0.000,4.412,0.000,2.790,0.627,1.759,0.000,3.120,0.000,2.216,0.000,0.000,3.142,0.000,0.000,0.000,0.000,0.000,0.000,0.000,0.000,0.000,0.000,0.000,3.142,6.283,0.000,2.100,1.897,1.799,4.285,0.398,1.000,4.711,0.000,0.000,-0.623,-8.221,0.451,5.851,3.439,5.657,4.183,4.383,4.484,1.998,5.882,5.283,1.571,0.000,0.000,-0.356,-8.029,0.451,5.886,3.485,5.528,
98.200,135.417,-0.431,-8.206,2.194,0.955,6.283,4.299,0.000,2.719,0.675,1.786,0.000,3.190,0.000,2.101,0.000,0.000,3.142,0.000,0.000,0.000,0.000,0.000,0.000,0.000,0.000,0.000,0.000,0.000,3.142,6.282,0.000,2.100,1.897,1.798,4.285,0.398,1.000,4.711,0.000,0.000,-0.690,-8.128,0.451,5.852,3.439,5.656,4.183,4.384,4.484,1.998,5.882,5.283,1.570,0.000,0.000,-0.423,-7.936,0.451,5.886,3.485,5.527,
98.296,135.512,-0.475,-8.144,2.194,1.003,6.283,4.225,0.000,2.672,0.706,0.826,0.000,3.238,0.000,2.024,0.000,0.000,3.142,0.000,0.000,0.000,0.000,0.000,0.000,0.000,0.000,0.000,0.000,0.000,3.142,6.282,0.000,2.101,1.897,1.798,4.285,0.398,0.999,4.711,0.000,0.000,-0.734,-8.066,0.451,5.852,3.439,5.656,4.183,4.384,4.484,1.998,5.882,5.283,1.570,0.000,0.000,-0.467,-7.873,0.451,5.887,3.485,5.527,
98.400,135.617,-0.546,-8.045,2.194,1.039,6.283,4.107,0.000,2.921,0.757,0.884,0.000,3.491,3.614,1.903,0.000,0.000,3.142,0.000,0.000,0.000,0.000,0.000,0.000,0.000,0.000,0.000,0.000,0.000,3.142,6.282,0.000,2.100,1.897,1.798,4.285,0.398,1.000,4.711,0.000,0.000,-0.805,-7.966,0.451,5.852,3.439,5.656,4.183,4.384,4.484,1.998,5.882,5.283,1.571,0.000,0.000,-0.538,-7.774,0.451,5.886,3.485,5.527,
98.492,135.708,-0.590,-7.984,2.194,0.765,0.000,4.034,0.000,3.106,0.787,0.920,0.000,3.686,4.780,1.828,0.000,0.000,3.142,0.000,0.000,0.000,0.000,0.000,0.000,0.000,0.000,0.000,0.000,0.000,3.142,0.002,0.001,2.097,1.897,1.800,4.285,0.397,1.002,4.713,0.000,0.000,-0.849,-7.904,0.452,5.850,3.439,5.659,4.184,4.382,4.485,1.998,5.881,5.284,1.571,0.000,0.000,-0.582,-7.713,0.452,5.884,3.485,5.529,
98.600,135.817,-0.618,-7.945,2.194,0.185,6.283,3.986,0.000,2.785,0.807,0.944,0.000,3.807,4.652,1.779,0.000,0.000,3.142,0.000,0.000,0.000,0.000,0.000,0.000,0.000,0.000,0.000,0.000,0.000,3.142,0.000,0.001,2.099,1.897,1.799,4.285,0.398,1.001,4.712,0.000,0.000,-0.878,-7.866,0.451,5.851,3.439,5.657,4.183,4.383,4.485,1.998,5.882,5.283,1.571,0.000,0.000,-0.610,-7.674,0.452,5.885,3.485,5.528,
98.700,135.917,-0.628,-7.932,2.194,0.289,0.010,0.000,0.000,2.775,0.814,0.951,0.000,3.817,4.612,1.763,0.000,0.000,3.142,1.142,0.000,0.000,0.000,0.000,0.000,0.000,0.000,0.000,0.000,0.000,3.142,6.281,0.000,2.102,1.898,1.798,4.285,0.398,0.999,4.711,0.000,0.000,-0.886,-7.854,0.451,5.853,3.439,5.655,4.183,4.384,4.483,1.997,5.882,5.283,1.570,0.000,0.000,-0.619,-7.662,0.451,5.887,3.485,5.526,
98.798,136.015,-0.658,-7.890,2.194,0.550,0.000,0.000,0.000,2.743,1.541,0.976,0.000,3.848,4.479,1.712,0.000,0.000,3.142,1.096,0.000,0.000,0.000,0.000,0.000,0.000,0.000,0.000,0.000,0.000,3.142,6.282,0.000,2.101,1.897,1.798,4.285,0.398,0.999,4.711,0.000,0.000,-0.917,-7.812,0.451,5.852,3.439,5.656,4.183,4.384,4.484,1.998,5.882,5.283,1.570,0.000,0.000,-0.650,-7.620,0.451,5.887,3.485,5.527,
98.900,136.117,-0.687,-7.849,2.194,0.468,0.000,0.000,0.000,2.712,1.592,1.001,0.000,3.880,4.346,1.661,0.000,0.000,3.142,1.128,0.000,0.000,0.000,0.000,0.000,0.000,0.000,0.000,0.000,0.000,3.142,6.283,0.000,2.100,1.897,1.799,4.285,0.398,1.000,4.712,0.000,0.000,-0.946,-7.770,0.451,5.851,3.439,5.657,4.183,4.383,4.484,1.998,5.882,5.283,1.571,0.000,0.000,-0.679,-7.578,0.451,5.886,3.485,5.528,
98.989,136.205,-0.711,-7.816,2.194,0.391,0.000,0.000,0.000,2.687,1.631,1.020,0.000,3.904,4.240,1.621,0.000,0.000,3.142,1.158,0.000,0.000,0.000,0.000,0.000,0.000,0.000,0.000,0.000,0.000,3.142,6.283,0.000,2.100,1.897,1.798,4.285,0.398,1.000,4.711,0.000,0.000,-0.970,-7.738,0.451,5.852,3.439,5.656,4.183,4.384,4.484,1.998,5.882,5.283,1.570,0.000,0.000,-0.703,-7.546,0.451,5.886,3.485,5.527,
99.100,136.317,-0.734,-7.784,2.194,0.459,6.283,0.000,0.000,2.662,1.671,1.039,0.000,3.929,4.136,1.581,0.000,0.000,3.142,1.322,0.000,0.000,0.000,0.000,0.000,0.000,0.000,0.000,0.000,0.000,3.142,6.282,0.000,2.101,1.897,1.798,4.285,0.398,0.999,4.711,0.000,0.000,-0.993,-7.706,0.451,5.852,3.439,5.656,4.183,4.384,4.484,1.998,5.882,5.283,1.570,0.000,0.000,-0.726,-7.513,0.451,5.887,3.485,5.527,
99.200,136.417,-0.756,-7.753,2.193,0.522,6.283,3.756,0.000,2.639,1.709,1.058,0.000,4.009,4.037,1.543,0.000,0.000,3.142,0.000,0.000,0.000,0.000,0.000,0.000,0.000,0.000,0.000,0.000,0.000,3.142,6.282,0.000,2.101,1.897,1.798,4.285,0.398,0.999,4.711,0.000,0.000,-1.015,-7.675,0.451,5.852,3.439,5.656,4.183,4.384,4.484,1.998,5.882,5.283,1.570,0.000,0.000,-0.748,-7.483,0.451,5.886,3.485,5.527,
99.297,136.513,-0.793,-7.702,2.193,0.541,6.283,3.696,0.000,2.600,1.771,1.088,0.000,4.172,3.874,1.480,0.000,0.000,3.142,0.000,0.000,0.000,0.000,0.000,0.000,0.000,0.000,0.000,0.000,0.000,3.142,6.282,0.000,2.100,1.897,1.798,4.285,0.398,1.000,4.711,0.000,0.000,-1.052,-7.623,0.451,5.852,3.439,5.657,4.183,4.384,4.484,1.998,5.882,5.283,1.570,0.000,0.000,-0.785,-7.431,0.451,5.886,3.485,5.528,
99.400,136.617,-0.823,-7.659,2.193,0.547,6.283,3.645,0.000,2.567,1.823,1.113,0.000,4.307,3.738,1.428,0.000,0.000,3.142,0.000,0.000,0.000,0.000,0.000,0.000,0.000,0.000,0.000,0.000,0.000,3.142,6.282,0.000,2.101,1.897,1.798,4.285,0.398,1.000,4.711,0.000,0.000,-1.082,-7.581,0.451,5.852,3.439,5.657,4.183,4.384,4.484,1.998,5.882,5.283,1.570,0.000,0.000,-0.815,-7.389,0.451,5.886,3.485,5.528,
99.484,136.700,-0.852,-7.619,2.193,0.796,6.283,3.597,0.000,2.537,1.871,1.137,0.000,4.434,2.186,1.379,0.000,0.000,3.142,0.000,0.000,0.000,0.000,0.000,0.000,0.000,0.000,0.000,0.000,0.000,3.142,6.280,6.283,2.103,1.898,1.797,4.285,0.399,0.998,4.710,0.000,0.000,-1.111,-7.542,0.450,5.854,3.439,5.655,4.182,4.385,4.483,1.997,5.883,5.283,1.570,0.000,0.000,-0.844,-7.350,0.451,5.888,3.485,5.526,
99.600,136.817,-0.926,-7.516,2.193,1.251,0.000,3.473,0.000,2.458,3.638,1.198,0.000,4.765,3.278,0.712,0.000,0.000,3.142,0.000,0.000,0.000,0.000,0.000,0.000,0.000,0.000,0.000,0.000,0.000,3.142,6.282,0.000,2.102,1.897,1.798,4.285,0.398,0.999,4.711,0.000,0.000,-1.185,-7.438,0.451,5.852,3.439,5.656,4.183,4.384,4.484,1.998,5.882,5.283,1.570,0.000,0.000,-0.918,-7.246,0.451,5.887,3.485,5.527,
99.700,136.917,-0.982,-7.438,2.193,1.116,0.000,3.381,0.000,2.400,3.541,1.244,0.000,0.000,3.029,1.156,0.000,0.000,3.142,0.000,0.000,0.000,0.000,0.000,0.000,0.000,0.000,0.000,0.000,0.000,3.142,0.000,0.000,2.099,1.897,1.799,4.285,0.398,1.000,4.712,0.000,0.000,-1.241,-7.359,0.451,5.851,3.439,5.658,4.183,4.383,4.485,1.998,5.882,5.283,1.571,0.000,0.000,-0.974,-7.168,0.452,5.885,3.485,5.529,
99.800,137.017,-1.049,-7.345,2.193,0.886,0.000,3.268,0.000,2.329,3.425,1.300,0.000,0.000,2.727,0.674,0.000,0.000,3.142,0.000,0.000,0.000,0.000,0.000,0.000,0.000,0.000,0.000,0.000,0.000,3.142,6.283,0.000,2.100,1.897,1.799,4.285,0.398,1.000,4.711,0.000,0.000,-1.308,-7.267,0.451,5.851,3.439,5.657,4.183,4.384,4.484,1.998,5.882,5.283,1.571,0.000,0.000,-1.041,-7.075,0.451,5.886,3.485,5.528,
99.900,137.117,-1.090,-7.287,2.193,0.960,6.283,3.199,0.000,2.490,3.351,1.334,0.000,0.000,2.540,0.602,0.000,0.000,3.142,0.000,0.000,0.000,0.000,0.000,0.000,0.000,0.000,0.000,0.000,0.000,3.142,6.282,0.000,2.101,1.897,1.798,4.285,0.398,0.999,4.711,0.000,0.000,-1.349,-7.209,0.451,5.852,3.439,5.656,4.183,4.384,4.484,1.998,5.882,5.283,1.570,0.000,0.000,-1.082,-7.017,0.451,5.886,3.485,5.527,
99.984,137.201,-1.149,-7.206,2.193,1.035,6.283,3.101,0.000,2.740,3.248,1.383,0.000,0.000,2.278,0.502,0.000,0.000,3.142,0.000,0.000,0.000,0.000,0.000,0.000,0.000,0.000,0.000,0.000,0.000,3.142,6.282,0.000,2.100,1.897,1.798,4.285,0.398,1.000,4.711,0.000,0.000,-1.408,-7.127,0.451,5.852,3.439,5.657,4.183,4.384,4.484,1.998,5.882,5.283,1.571,0.000,0.000,-1.141,-6.935,0.451,5.886,3.485,5.528,
100.100,137.317,-1.210,-7.120,2.193,0.694,0.000,2.998,0.000,0.000,3.140,1.550,0.000,0.000,0.736,0.397,0.000,0.000,3.142,0.000,0.000,0.000,0.000,0.000,0.000,0.000,0.000,0.000,0.000,0.000,3.142,0.001,0.001,2.098,1.897,1.799,4.285,0.397,1.001,4.712,0.000,0.000,-1.469,-7.040,0.451,5.850,3.439,5.659,4.183,4.383,4.485,1.998,5.882,5.284,1.571,0.000,0.000,-1.202,-6.849,0.452,5.885,3.485,5.529,
100.200,137.417,-1.236,-7.084,2.193,0.459,0.000,2.955,0.000,0.000,3.096,1.626,0.000,0.000,1.886,0.409,0.000,0.000,3.142,0.000,0.000,0.000,0.000,0.000,0.000,0.000,0.000,0.000,0.000,0.000,3.142,0.000,0.001,2.099,1.897,1.799,4.285,0.398,1.001,4.712,0.000,0.000,-1.495,-7.005,0.451,5.851,3.439,5.658,4.183,4.383,4.485,1.998,5.882,5.283,1.571,0.000,0.000,-1.228,-6.814,0.452,5.885,3.485,5.529,
100.300,137.517,-1.264,-7.045,2.193,0.421,6.283,2.908,0.000,0.000,3.047,1.710,0.000,0.000,1.760,0.457,0.000,0.000,3.142,0.000,0.000,0.000,0.000,0.000,0.000,0.000,0.000,0.000,0.000,0.000,3.142,6.282,0.000,2.101,1.897,1.798,4.285,0.398,0.999,4.711,0.000,0.000,-1.523,-6.967,0.451,5.852,3.439,5.657,4.183,4.384,4.484,1.998,5.882,5.283,1.570,0.000,0.000,-1.256,-6.775,0.451,5.886,3.485,5.528,
100.400,137.617,-1.283,-7.018,2.193,0.442,6.283,2.876,0.000,0.000,3.012,1.769,0.000,0.000,0.710,0.490,0.000,0.000,3.142,0.000,0.000,0.000,0.000,0.000,0.000,0.000,0.000,0.000,0.000,0.000,3.142,6.282,0.000,2.100,1.897,1.798,4.285,0.398,1.000,4.711,0.000,0.000,-1.542,-6.940,0.451,5.852,3.439,5.657,4.183,4.384,4.484,1.998,5.882,5.283,1.570,0.000,0.000,-1.275,-6.748,0.451,5.886,3.485,5.528,
100.500,137.717,-1.310,-6.981,2.193,0.316,0.000,2.832,0.000,0.000,2.966,1.848,0.000,0.000,0.591,0.535,0.000,0.000,3.142,0.000,0.000,0.000,0.000,0.000,0.000,0.000,0.000,0.000,0.000,0.000,3.142,6.283,0.000,2.099,1.897,1.799,4.285,0.398,1.000,4.712,0.000,0.000,-1.569,-6.903,0.451,5.851,3.439,5.658,4.183,4.383,4.484,1.998,5.882,5.283,1.571,0.000,0.000,-1.302,-6.711,0.451,5.886,3.485,5.529,
100.600,137.817,-1.321,-6.965,2.193,0.220,0.011,2.812,0.000,0.000,2.946,1.882,0.000,0.000,0.539,0.555,0.000,0.000,3.142,0.000,0.000,0.000,0.000,0.000,0.000,0.000,0.000,0.000,0.000,0.000,3.142,6.283,0.000,2.100,1.897,1.799,4.285,0.398,1.000,4.711,0.000,0.000,-1.580,-6.887,0.451,5.851,3.439,5.657,4.183,4.383,4.484,1.998,5.882,5.283,1.570,0.000,0.000,-1.313,-6.695,0.451,5.886,3.485,5.528,
100.700,137.917,-1.334,-6.947,2.193,0.198,0.010,2.791,0.000,0.000,2.923,1.921,0.000,0.000,0.482,0.577,0.000,0.000,3.142,0.000,0.000,0.000,0.000,0.000,0.000,0.000,0.000,0.000,0.000,0.000,3.142,6.282,0.000,2.100,1.897,1.798,4.285,0.398,1.000,4.711,0.000,0.000,-1.593,-6.869,0.451,5.852,3.439,5.657,4.183,4.384,4.484,1.998,5.882,5.283,1.570,0.000,0.000,-1.326,-6.677,0.451,5.886,3.485,5.528,
100.800,138.017,-1.342,-6.937,2.190,0.117,6.048,2.534,0.000,0.000,2.899,1.951,0.000,0.000,0.452,0.588,0.000,0.000,3.142,0.000,0.000,0.000,0.000,0.000,0.000,0.000,0.000,0.000,0.000,0.000,3.142,6.282,0.001,2.100,1.897,1.798,4.285,0.398,1.000,4.711,0.000,0.000,-1.601,-6.858,0.451,5.851,3.438,5.660,4.184,4.384,4.484,1.998,5.882,5.283,1.570,0.000,0.000,-1.333,-6.667,0.451,5.885,3.484,5.530,
100.900,138.116,-1.342,-6.937,2.099,-0.067,4.741,2.384,0.000,0.000,2.697,2.225,0.000,0.000,0.634,0.524,0.000,0.000,3.142,0.000,0.000,0.000,0.000,0.000,0.000,0.000,0.000,0.000,0.000,0.000,3.142,6.281,0.001,2.100,1.897,1.798,4.285,0.398,1.000,4.711,0.000,0.000,-1.592,-6.835,0.451,5.827,3.396,5.757,4.182,4.383,4.484,1.999,5.882,5.283,1.570,0.000,0.000,-1.308,-6.669,0.452,5.856,3.446,5.625,
101.000,138.217,-1.339,-6.942,1.971,-0.023,5.032,2.492,0.000,0.000,2.593,2.258,2.176,4.592,4.768,0.458,0.000,0.000,1.562,0.000,0.000,0.000,0.000,0.000,0.000,0.000,0.000,0.000,0.000,0.000,3.142,6.280,0.000,2.101,1.897,1.799,4.285,0.398,0.999,4.711,0.000,0.000,-1.574,-6.809,0.451,5.797,3.332,5.897,4.182,4.384,4.484,1.998,5.882,5.283,1.570,0.000,0.000,-1.271,-6.681,0.451,5.821,3.386,5.762,
101.100,138.317,-1.339,-6.943,1.903,0.014,5.779,2.950,0.000,4.865,2.446,2.294,2.001,0.000,0.829,0.433,0.000,0.000,1.632,0.000,0.000,0.000,0.000,0.000,0.000,0.000,0.000,0.000,0.000,0.000,3.142,6.281,0.000,2.101,1.897,1.798,4.285,0.398,0.999,4.711,0.000,0.000,-1.565,-6.793,0.451,5.786,3.296,5.973,4.182,4.384,4.484,1.998,5.882,5.283,1.570,0.000,0.000,-1.254,-6.686,0.451,5.807,3.353,5.836,
101.200,138.417,-1.340,-6.942,1.882,0.018,5.955,0.000,0.000,4.862,2.407,2.308,1.956,0.000,2.529,0.426,0.000,0.000,1.667,0.000,0.000,0.000,0.000,0.000,0.000,0.000,0.000,0.000,0.000,0.000,3.142,6.281,0.000,2.101,1.897,1.798,4.285,0.398,0.999,4.711,0.000,0.000,-1.562,-6.789,0.451,5.783,3.286,5.995,4.183,4.384,4.484,1.997,5.882,5.283,1.570,0.000,0.000,-1.249,-6.688,0.451,5.802,3.343,5.858,
101.293,138.510,-1.340,-6.943,1.843,0.004,5.694,0.000,0.000,4.861,2.338,4.175,1.875,0.000,0.000,0.414,0.000,0.000,1.702,0.000,0.000,0.000,0.000,0.000,0.000,0.000,0.000,0.000,0.000,0.000,3.142,6.281,0.000,2.101,1.897,1.798,4.285,0.398,0.999,4.711,0.000,0.000,-1.556,-6.780,0.451,5.778,3.264,6.040,4.183,4.384,4.483,1.998,5.882,5.283,1.570,0.000,0.000,-1.240,-6.692,0.451,5.795,3.323,5.902,
101.400,138.617,-1.340,-6.942,1.800,0.014,5.760,4.950,0.000,0.000,2.271,4.241,1.797,0.000,0.000,0.403,0.000,0.000,1.738,0.000,0.000,0.000,0.000,0.000,0.000,0.000,0.000,0.000,0.000,0.000,3.142,6.281,0.000,2.101,1.897,1.798,4.285,0.398,0.999,4.711,0.000,0.000,-1.549,-6.771,0.451,5.773,3.240,6.090,4.183,4.384,4.484,1.998,5.882,5.283,1.570,0.000,0.000,-1.229,-6.696,0.451,5.788,3.300,5.950,
101.491,138.708,-1.340,-6.943,1.771,-0.002,5.954,4.916,0.000,4.382,2.243,4.296,1.751,0.000,0.000,0.396,0.000,0.000,1.773,0.000,0.000,0.000,0.000,0.000,0.000,0.000,0.000,0.000,0.000,0.000,3.142,6.281,0.000,2.101,1.897,1.798,4.285,0.398,0.999,4.711,0.000,0.000,-1.544,-6.765,0.451,5.770,3.224,6.123,4.183,4.384,4.484,1.998,5.882,5.283,1.570,0.000,0.000,-1.222,-6.700,0.451,5.783,3.284,5.983,
101.600,138.817,-1.340,-6.943,1.750,0.000,5.955,4.925,0.000,4.291,2.322,4.096,1.719,0.000,0.000,0.391,0.000,0.000,1.808,0.000,0.000,0.000,0.000,0.000,0.000,0.000,0.000,0.000,0.000,0.000,3.142,6.281,0.000,2.101,1.897,1.798,4.285,0.398,0.999,4.711,0.000,0.000,-1.540,-6.761,0.451,5.769,3.213,6.146,4.183,4.384,4.484,1.998,5.882,5.283,1.570,0.000,0.000,-1.217,-6.702,0.451,5.780,3.273,6.006,
101.697,138.913,-1.340,-6.943,1.729,0.001,5.997,0.000,0.000,2.993,2.413,3.909,1.689,0.000,0.000,0.387,0.000,0.000,1.808,0.000,0.000,0.000,0.000,0.000,0.000,0.000,0.000,0.000,0.000,0.000,3.142,6.281,0.000,2.101,1.897,1.798,4.285,0.398,0.999,4.711,0.000,0.000,-1.536,-6.757,0.451,5.767,3.200,6.171,4.183,4.384,4.484,1.997,5.882,5.283,1.570,0.000,0.000,-1.211,-6.705,0.451,5.778,3.261,6.030,
101.800,139.017,-1.340,-6.943,1.714,0.003,6.090,0.000,0.000,1.907,2.478,3.794,1.670,0.000,0.000,0.384,0.000,0.000,1.843,0.000,0.000,0.000,0.000,0.000,0.000,0.000,0.000,0.000,0.000,0.000,3.142,6.282,0.000,2.101,1.897,1.798,4.285,0.398,0.999,4.711,0.000,0.000,-1.534,-6.754,0.451,5.767,3.192,6.187,4.183,4.384,4.484,1.997,5.882,5.283,1.570,0.000,0.000,-1.208,-6.707,0.451,5.776,3.253,6.047,
101.887,139.103,-1.340,-6.943,1.707,0.003,6.113,0.000,0.000,1.819,2.511,3.740,1.661,0.000,0.000,0.383,0.000,0.000,1.843,0.000,0.000,0.000,0.000,0.000,0.000,0.000,0.000,0.000,0.000,0.000,3.142,6.282,0.000,2.101,1.897,1.798,4.285,0.398,0.999,4.711,0.000,0.000,-1.532,-6.753,0.451,5.766,3.188,6.195,4.183,4.384,4.484,1.998,5.882,5.283,1.570,0.000,0.000,-1.206,-6.708,0.451,5.775,3.249,6.055,
101.998,139.215,-1.340,-6.942,1.697,0.013,6.151,0.000,0.000,1.789,2.563,3.664,1.668,0.000,0.000,0.381,0.000,0.000,1.843,0.000,0.000,0.000,0.000,0.000,0.000,0.000,0.000,0.000,0.000,0.000,3.142,6.282,0.000,2.101,1.897,1.798,4.285,0.398,0.999,4.711,0.000,0.000,-1.530,-6.750,0.451,5.766,3.183,6.207,4.183,4.384,4.484,1.997,5.882,5.283,1.570,0.000,0.000,-1.204,-6.709,0.451,5.774,3.244,6.066,
102.100,139.317,-1.340,-6.943,1.692,-0.009,6.153,0.000,0.000,1.791,2.588,3.627,1.679,0.000,0.000,0.380,0.000,0.000,1.843,0.000,0.000,0.000,0.000,0.000,0.000,0.000,0.000,0.000,0.000,0.000,3.142,6.282,0.000,2.101,1.897,1.798,4.285,0.398,0.999,4.711,0.000,0.000,-1.529,-6.750,0.451,5.766,3.180,6.213,4.183,4.384,4.484,1.998,5.882,5.283,1.570,0.000,0.000,-1.203,-6.710,0.451,5.774,3.241,6.072,
102.191,139.408,-1.340,-6.943,1.684,-0.012,6.152,0.000,0.000,1.794,2.629,3.573,1.696,0.000,0.000,0.378,0.000,0.000,1.878,0.000,0.000,0.000,0.000,0.000,0.000,0.000,0.000,0.000,0.000,0.000,3.142,6.281,0.000,2.101,1.897,1.798,4.285,0.398,0.999,4.711,0.000,0.000,-1.528,-6.749,0.451,5.766,3.175,6.222,4.183,4.384,4.483,1.998,5.882,5.283,1.570,0.000,0.000,-1.201,-6.711,0.451,5.773,3.237,6.081,
102.300,139.517,-1.339,-6.943,1.678,0.005,6.158,0.000,0.000,1.796,2.662,3.532,1.711,0.000,0.000,0.377,0.000,0.000,1.878,0.000,0.000,0.000,0.000,0.000,0.000,0.000,0.000,0.000,0.000,0.000,3.142,6.282,0.000,2.101,1.897,1.798,4.285,0.398,0.999,4.711,0.000,0.000,-1.526,-6.748,0.451,5.765,3.172,6.229,4.183,4.384,4.484,1.998,5.882,5.283,1.570,0.000,0.000,-1.199,-6.712,0.451,5.772,3.233,6.088,
102.390,139.606,-1.339,-6.943,1.672,0.005,6.152,0.000,0.000,1.798,4.701,3.492,1.725,0.000,0.000,0.376,0.000,0.000,1.878,0.000,0.000,0.000,0.000,0.000,0.000,0.000,0.000,0.000,0.000,0.000,3.142,6.282,0.000,2.101,1.897,1.798,4.285,0.398,0.999,4.711,0.000,0.000,-1.525,-6.747,0.451,5.765,3.168,6.236,4.183,4.384,4.484,1.998,5.882,5.283,1.570,0.000,0.000,-1.198,-6.713,0.451,5.772,3.230,6.095,
102.500,139.717,-1.341,-6.923,1.669,0.555,0.040,0.000,0.000,1.797,4.753,3.471,1.752,0.000,0.000,0.378,0.000,0.000,1.878,0.000,0.000,0.000,0.000,0.000,0.000,0.000,0.000,0.000,0.000,0.000,3.142,6.278,6.283,2.106,1.898,1.796,4.285,0.399,0.996,4.709,0.000,0.000,-1.527,-6.728,0.450,5.768,3.169,6.235,4.181,4.386,4.481,1.996,5.883,5.283,1.570,0.000,0.000,-1.200,-6.694,0.450,5.774,3.230,6.094,
102.581,139.797,-1.351,-6.827,1.672,1.332,0.011,0.000,0.000,1.751,0.000,3.471,1.840,0.000,0.000,0.389,0.000,0.000,1.913,0.000,0.000,0.000,0.000,0.000,0.000,0.000,0.000,0.000,0.000,0.000,3.142,6.279,6.283,2.105,1.898,1.797,4.285,0.399,0.997,4.709,0.000,0.000,-1.537,-6.633,0.450,5.767,3.170,6.232,4.182,4.385,4.482,1.997,5.883,5.283,1.570,0.000,0.000,-1.210,-6.598,0.451,5.773,3.231,6.092,
102.700,139.917,-1.365,-6.691,1.672,1.280,0.001,0.000,0.000,1.665,0.000,3.442,1.977,0.000,0.376,0.404,0.000,0.000,1.913,0.000,0.000,0.000,0.000,0.000,0.000,0.000,0.000,0.000,0.000,0.000,3.142,0.001,0.001,2.098,1.897,1.799,4.285,0.397,1.001,4.712,0.000,0.000,-1.550,-6.493,0.451,5.764,3.167,6.238,4.183,4.383,4.485,1.998,5.882,5.284,1.571,0.000,0.000,-1.223,-6.460,0.452,5.770,3.229,6.097,
102.800,140.017,-1.375,-6.589,1.672,0.840,6.283,0.000,0.000,1.654,0.000,3.420,2.079,0.000,0.386,0.415,0.000,0.000,1.948,0.000,0.000,0.000,0.000,0.000,0.000,0.000,0.000,0.000,0.000,0.000,3.142,0.001,0.001,2.098,1.897,1.799,4.285,0.397,1.001,4.712,0.000,0.000,-1.561,-6.391,0.451,5.764,3.167,6.238,4.183,4.383,4.485,1.998,5.882,5.284,1.571,0.000,0.000,-1.233,-6.358,0.452,5.770,3.229,6.097,
102.900,140.117,-1.383,-6.509,1.673,0.877,6.283,0.000,0.000,1.646,0.000,3.403,2.159,0.000,0.395,0.424,0.000,0.000,2.053,0.000,0.000,0.000,0.000,0.000,0.000,0.000,0.000,0.000,0.000,0.000,3.142,6.282,0.000,2.102,1.897,1.798,4.285,0.398,0.999,4.711,0.000,0.000,-1.569,-6.313,0.451,5.766,3.169,6.235,4.183,4.384,4.483,1.997,5.882,5.283,1.570,0.000,0.000,-1.242,-6.279,0.451,5.772,3.230,6.094,
103.000,140.217,-1.391,-6.433,1.672,1.072,6.283,0.000,0.000,1.638,0.000,3.386,2.236,0.000,0.403,0.433,0.000,0.000,2.053,0.000,0.000,0.000,0.000,0.000,0.000,0.000,0.000,0.000,0.000,0.000,3.142,6.281,0.000,2.102,1.898,1.798,4.285,0.398,0.999,4.711,0.000,0.000,-1.577,-6.237,0.451,5.766,3.169,6.235,4.182,4.384,4.483,1.997,5.882,5.283,1.570,0.000,0.000,-1.250,-6.203,0.451,5.772,3.230,6.094,
103.100,140.317,-1.404,-6.303,1.672,1.078,0.000,0.000,0.000,1.624,0.000,3.155,2.368,0.609,0.416,0.993,0.000,0.000,2.089,0.000,0.000,0.000,0.000,0.000,0.000,0.000,0.000,0.000,0.000,0.000,3.142,6.283,0.000,2.100,1.897,1.799,4.285,0.398,1.000,4.711,0.000,0.000,-1.590,-6.105,0.451,5.765,3.168,6.237,4.183,4.384,4.484,1.998,5.882,5.283,1.571,0.000,0.000,-1.263,-6.072,0.451,5.771,3.229,6.096,
103.200,140.417,-1.413,-6.222,1.672,0.978,0.000,0.000,0.000,1.616,0.000,3.341,2.448,0.621,0.425,1.002,0.000,0.000,2.720,0.000,0.000,0.000,0.000,0.000,0.000,0.000,0.000,0.000,0.000,0.000,3.142,6.283,0.000,2.100,1.897,1.799,4.285,0.398,1.000,4.711,0.000,0.000,-1.598,-6.025,0.451,5.765,3.168,6.237,4.183,4.383,4.484,1.998,5.882,5.283,1.571,0.000,0.000,-1.271,-5.992,0.451,5.771,3.229,6.096,
103.300,140.517,-1.424,-6.109,1.672,0.978,6.283,0.000,0.000,1.604,0.000,3.316,2.562,0.638,0.436,1.015,0.000,0.000,2.720,0.000,0.000,0.000,0.000,0.000,0.000,0.000,0.000,0.000,0.000,0.000,3.142,6.282,0.000,2.101,1.897,1.798,4.285,0.398,0.999,4.711,0.000,0.000,-1.610,-5.913,0.451,5.765,3.168,6.236,4.183,4.384,4.484,1.998,5.882,5.283,1.570,0.000,0.000,-1.283,-5.879,0.451,5.771,3.230,6.095,
103.400,140.617,-1.434,-6.011,1.672,1.036,6.283,0.000,0.000,1.594,0.000,3.398,2.662,0.653,0.721,0.971,0.000,0.000,2.826,0.000,0.000,0.000,0.000,0.000,0.000,0.000,0.000,0.000,0.000,0.000,3.142,6.282,0.000,2.101,1.897,1.798,4.285,0.398,0.999,4.711,0.000,0.000,-1.620,-5.814,0.451,5.765,3.168,6.236,4.183,4.384,4.484,1.998,5.882,5.283,1.570,0.000,0.000,-1.293,-5.780,0.451,5.771,3.230,6.095,
103.490,140.707,-1.445,-5.909,1.672,1.027,6.283,0.000,0.000,1.583,0.000,3.513,2.764,0.669,0.965,4.640,0.000,0.000,2.861,0.000,0.000,0.000,0.000,0.000,0.000,0.000,0.000,0.000,0.000,0.000,3.142,6.283,0.000,2.100,1.897,1.798,4.285,0.398,1.000,4.711,0.000,0.000,-1.630,-5.712,0.451,5.765,3.168,6.237,4.183,4.384,4.484,1.998,5.882,5.283,1.571,0.000,0.000,-1.303,-5.679,0.451,5.771,3.229,6.096,
103.600,140.817,-1.455,-5.810,1.672,0.997,6.283,0.000,0.000,1.573,1.827,3.626,2.864,0.684,0.975,4.402,0.000,0.000,2.861,0.000,0.000,0.000,0.000,0.000,0.000,0.000,0.000,0.000,0.000,0.000,3.142,6.283,0.000,2.100,1.897,1.798,4.285,0.398,1.000,4.711,0.000,0.000,-1.640,-5.613,0.451,5.765,3.168,6.237,4.183,4.384,4.484,1.998,5.882,5.283,1.571,0.000,0.000,-1.313,-5.580,0.451,5.771,3.229,6.096,
103.685,140.901,-1.462,-5.732,1.672,0.999,6.283,0.000,0.000,1.565,1.702,3.715,2.943,0.696,0.983,4.214,0.000,0.000,2.861,0.000,0.000,0.000,0.000,0.000,0.000,0.000,0.000,0.000,0.000,0.000,3.142,6.282,0.000,2.100,1.897,1.798,4.285,0.398,1.000,4.711,0.000,0.000,-1.648,-5.535,0.451,5.765,3.168,6.237,4.183,4.384,4.484,1.998,5.882,5.283,1.570,0.000,0.000,-1.321,-5.502,0.451,5.771,3.229,6.096,
103.800,141.017,-1.475,-5.613,1.672,1.018,6.283,0.000,0.000,1.553,1.689,3.732,3.063,0.732,0.996,4.009,0.000,0.000,2.861,0.000,0.000,0.000,0.000,0.000,0.000,0.000,0.000,0.000,0.000,0.000,3.142,6.282,0.000,2.100,1.897,1.798,4.285,0.398,1.000,4.711,0.000,0.000,-1.660,-5.417,0.451,5.765,3.168,6.237,4.183,4.384,4.484,1.998,5.882,5.283,1.570,0.000,0.000,-1.333,-5.383,0.451,5.771,3.229,6.096,
103.881,141.098,-1.483,-5.534,1.672,1.017,6.283,0.000,0.000,1.545,1.680,3.715,3.143,0.840,1.004,4.018,0.000,0.000,2.861,0.000,0.000,0.000,0.000,0.000,0.000,0.000,0.000,0.000,0.000,0.000,3.142,6.282,0.000,2.100,1.897,1.798,4.285,0.398,1.000,4.711,0.000,0.000,-1.668,-5.337,0.451,5.765,3.168,6.237,4.183,4.384,4.484,1.998,5.882,5.283,1.571,0.000,0.000,-1.341,-5.303,0.451,5.771,3.229,6.096,
104.000,141.217,-1.495,-5.415,1.672,1.007,6.283,0.000,0.000,1.533,1.666,3.688,3.263,0.999,0.965,4.031,0.000,0.000,2.896,0.000,0.000,0.000,0.000,0.000,0.000,0.000,0.000,0.000,0.000,0.000,3.142,6.282,0.000,2.100,1.897,1.798,4.285,0.398,1.000,4.711,0.000,0.000,-1.680,-5.218,0.451,5.765,3.168,6.237,4.183,4.384,4.484,1.998,5.882,5.283,1.570,0.000,0.000,-1.353,-5.185,0.451,5.771,3.229,6.096,
104.100,141.317,-1.503,-5.336,1.671,1.008,6.283,0.000,0.000,1.525,1.657,3.671,3.343,1.105,0.973,4.040,0.000,0.000,2.896,0.000,0.000,0.000,0.000,0.000,0.000,0.000,0.000,0.000,0.000,0.000,3.142,6.282,0.000,2.100,1.897,1.798,4.285,0.398,1.000,4.711,0.000,0.000,-1.688,-5.139,0.451,5.765,3.168,6.237,4.183,4.384,4.484,1.998,5.882,5.283,1.570,0.000,0.000,-1.361,-5.106,0.451,5.771,3.229,6.096,
104.200,141.417,-1.515,-5.217,1.671,1.013,6.283,0.000,0.000,1.512,1.644,3.645,3.463,1.265,0.000,4.053,0.000,0.000,2.896,0.000,0.000,0.000,0.000,0.000,0.000,0.000,0.000,0.000,0.000,0.000,3.142,6.282,0.000,2.100,1.897,1.798,4.285,0.398,1.000,4.711,0.000,0.000,-1.700,-5.020,0.451,5.765,3.167,6.237,4.183,4.384,4.484,1.998,5.882,5.283,1.570,0.000,0.000,-1.373,-4.987,0.451,5.771,3.229,6.096,
104.281,141.498,-1.523,-5.138,1.671,1.012,6.283,0.000,0.000,1.265,1.635,3.627,3.543,1.371,0.000,4.061,0.000,0.000,2.896,0.000,0.000,0.000,0.000,0.000,0.000,0.000,0.000,0.000,0.000,0.000,3.142,6.282,0.000,2.100,1.897,1.798,4.285,0.398,1.000,4.711,0.000,0.000,-1.708,-4.941,0.451,5.765,3.167,6.238,4.183,4.384,4.484,1.998,5.882,5.283,1.571,0.000,0.000,-1.381,-4.908,0.451,5.771,3.229,6.097,
104.400,141.617,-1.535,-5.019,1.671,1.010,6.283,0.000,0.000,0.830,1.622,3.601,3.663,1.548,0.000,0.000,0.000,0.000,2.896,0.000,0.000,0.000,0.000,0.000,0.000,0.000,0.000,0.000,0.000,0.000,3.142,6.282,0.000,2.100,1.897,1.798,4.285,0.398,1.000,4.711,0.000,0.000,-1.720,-4.822,0.451,5.765,3.167,6.238,4.183,4.384,4.484,1.998,5.882,5.283,1.571,0.000,0.000,-1.393,-4.789,0.451,5.771,3.229,6.097,
104.485,141.701,-1.542,-4.940,1.671,1.010,6.283,0.000,0.000,0.822,1.613,3.594,3.743,1.560,0.000,1.125,0.000,0.000,2.896,0.000,0.000,0.000,0.000,0.000,0.000,0.000,0.000,0.000,0.000,0.000,3.142,6.282,0.000,2.100,1.897,1.798,4.285,0.398,1.000,4.711,0.000,0.000,-1.728,-4.743,0.451,5.765,3.167,6.238,4.183,4.384,4.484,1.998,5.882,5.283,1.571,0.000,0.000,-1.401,-4.710,0.451,5.771,3.229,6.097,
104.600,141.817,-1.554,-4.821,1.671,1.011,6.283,0.000,0.000,0.810,1.599,3.729,3.863,1.578,0.000,1.102,0.000,0.000,2.931,0.000,0.000,0.000,0.000,0.000,0.000,0.000,0.000,0.000,0.000,0.000,3.142,6.282,0.000,2.100,1.897,1.798,4.285,0.398,1.000,4.711,0.000,0.000,-1.740,-4.624,0.451,5.765,3.167,6.238,4.183,4.384,4.484,1.998,5.882,5.283,1.570,0.000,0.000,-1.413,-4.591,0.451,5.771,3.229,6.097,
104.682,141.899,-1.562,-4.742,1.671,1.011,6.283,0.000,0.000,0.802,1.591,3.820,3.943,1.590,0.000,1.166,0.000,0.000,2.931,0.000,0.000,0.000,0.000,0.000,0.000,0.000,0.000,0.000,0.000,0.000,3.142,6.282,0.000,2.100,1.897,1.798,4.285,0.398,1.000,4.711,0.000,0.000,-1.748,-4.545,0.451,5.765,3.167,6.238,4.183,4.384,4.484,1.998,5.882,5.283,1.571,0.000,0.000,-1.420,-4.512,0.451,5.771,3.229,6.097,
104.800,142.017,-1.574,-4.623,1.671,1.011,6.283,0.000,0.000,0.790,1.577,3.955,4.064,1.608,0.000,1.179,0.000,0.000,2.931,0.000,0.000,0.000,0.000,0.000,0.000,0.000,0.000,0.000,0.000,0.000,3.142,6.282,0.000,2.100,1.897,1.798,4.285,0.398,1.000,4.711,0.000,0.000,-1.760,-4.426,0.451,5.765,3.167,6.238,4.183,4.384,4.484,1.998,5.882,5.283,1.571,0.000,0.000,-1.432,-4.393,0.451,5.771,3.229,6.097,
104.889,142.106,-1.582,-4.544,1.670,1.011,6.283,0.000,0.000,0.782,1.568,4.045,4.144,1.620,0.000,1.188,0.000,0.000,2.931,0.000,0.000,0.000,0.000,0.000,0.000,0.000,0.000,0.000,0.000,0.000,3.142,6.282,0.000,2.100,1.897,1.798,4.285,0.398,1.000,4.711,0.000,0.000,-1.768,-4.347,0.451,5.765,3.167,6.238,4.183,4.384,4.484,1.998,5.882,5.283,1.570,0.000,0.000,-1.440,-4.314,0.451,5.771,3.229,6.097,
105.000,142.217,-1.594,-4.425,1.670,1.011,6.283,0.000,0.000,0.770,0.836,4.181,4.264,1.563,0.000,1.201,0.000,0.000,2.931,0.000,0.000,0.000,0.000,0.000,0.000,0.000,0.000,0.000,0.000,0.000,3.142,6.282,0.000,2.100,1.897,1.798,4.285,0.398,1.000,4.711,0.000,0.000,-1.779,-4.228,0.451,5.765,3.167,6.239,4.183,4.384,4.484,1.998,5.882,5.283,1.570,0.000,0.000,-1.452,-4.195,0.451,5.771,3.229,6.098,
105.097,142.313,-1.604,-4.326,1.670,1.011,6.283,0.000,0.000,0.760,0.825,4.294,4.364,1.586,0.000,1.211,0.000,0.000,2.931,0.000,0.000,0.000,0.000,0.000,0.000,0.000,0.000,0.000,0.000,0.000,3.142,6.282,0.000,2.100,1.897,1.798,4.285,0.398,1.000,4.711,0.000,0.000,-1.789,-4.129,0.451,5.765,3.167,6.239,4.183,4.384,4.484,1.998,5.882,5.283,1.570,0.000,0.000,-1.462,-4.096,0.451,5.771,3.228,6.098,
105.200,142.417,-1.614,-4.227,1.670,1.011,6.283,0.000,0.000,1.412,0.814,4.407,4.464,1.719,1.087,1.222,0.000,0.000,2.931,0.000,0.000,0.000,0.000,0.000,0.000,0.000,0.000,0.000,0.000,0.000,3.142,6.282,0.000,2.100,1.897,1.798,4.285,0.398,1.000,4.711,0.000,0.000,-1.799,-4.030,0.451,5.765,3.167,6.239,4.183,4.384,4.484,1.998,5.882,5.283,1.570,0.000,0.000,-1.472,-3.997,0.451,5.771,3.228,6.098,
105.300,142.517,-1.624,-4.128,1.670,1.011,6.283,0.000,0.000,0.956,0.803,0.000,4.564,1.852,1.097,1.046,0.000,0.000,3.071,0.000,0.000,0.000,0.000,0.000,0.000,0.000,0.000,0.000,0.000,0.000,3.142,6.282,0.000,2.100,1.897,1.798,4.285,0.398,1.000,4.711,0.000,0.000,-1.809,-3.931,0.451,5.765,3.167,6.239,4.183,4.384,4.484,1.998,5.882,5.283,1.570,0.000,0.000,-1.482,-3.898,0.451,5.771,3.228,6.098,
105.400,142.617,-1.632,-4.049,1.670,1.011,6.283,0.000,0.000,1.394,0.795,0.000,4.645,1.977,1.157,0.854,0.000,0.000,3.071,0.000,0.000,0.000,0.000,0.000,0.000,0.000,0.000,0.000,0.000,0.000,3.142,6.282,0.000,2.100,1.897,1.798,4.285,0.398,1.000,4.711,0.000,0.000,-1.817,-3.852,0.451,5.765,3.167,6.239,4.183,4.384,4.484,1.998,5.882,5.283,1.570,0.000,0.000,-1.489,-3.819,0.451,5.771,3.228,6.098,
105.500,142.717,-1.643,-3.931,1.670,1.011,6.283,5.000,0.000,1.382,0.781,2.841,4.765,2.288,1.169,0.709,0.000,0.000,3.106,0.000,0.000,0.000,0.000,0.000,0.000,0.000,0.000,0.000,0.000,0.000,3.142,6.282,0.000,2.100,1.897,1.798,4.285,0.398,1.000,4.711,0.000,0.000,-1.829,-3.733,0.451,5.765,3.167,6.239,4.183,4.384,4.484,1.998,5.882,5.283,1.570,0.000,0.000,-1.501,-3.700,0.451,5.771,3.228,6.098,
105.584,142.801,-1.653,-3.832,1.670,1.011,6.283,4.900,0.000,1.372,0.771,2.820,4.865,2.547,1.179,0.720,0.000,0.000,3.106,0.000,0.000,0.000,0.000,0.000,0.000,0.000,0.000,0.000,0.000,0.000,3.142,6.282,0.000,2.100,1.897,1.798,4.285,0.398,1.000,4.711,0.000,0.000,-1.838,-3.634,0.451,5.765,3.167,6.239,4.183,4.384,4.484,1.998,5.882,5.283,1.570,0.000,0.000,-1.511,-3.602,0.451,5.771,3.228,6.098,
105.700,142.917,-1.663,-3.733,1.670,1.011,6.283,4.800,0.000,1.362,0.861,2.799,4.965,2.805,0.865,0.731,0.000,0.000,3.106,0.000,0.000,0.000,0.000,0.000,0.000,0.000,0.000,0.000,0.000,0.000,3.142,6.282,0.000,2.100,1.897,1.798,4.285,0.398,1.000,4.711,0.000,0.000,-1.848,-3.535,0.451,5.765,3.166,6.239,4.183,4.384,4.484,1.998,5.882,5.283,1.571,0.000,0.000,-1.521,-3.503,0.451,5.771,3.228,6.098,
105.799,143.015,-1.673,-3.634,1.669,1.011,6.283,4.701,0.000,1.352,1.093,1.417,0.000,3.064,1.199,0.741,0.000,0.000,3.142,0.000,0.000,0.000,0.000,0.000,0.000,0.000,0.000,0.000,0.000,0.000,3.142,6.282,0.000,2.100,1.897,1.798,4.285,0.398,1.000,4.711,0.000,0.000,-1.858,-3.436,0.451,5.765,3.166,6.240,4.183,4.384,4.484,1.998,5.882,5.283,1.570,0.000,0.000,-1.531,-3.404,0.451,5.771,3.228,6.099,
105.900,143.117,-1.683,-3.535,1.669,1.011,6.283,4.601,0.000,1.342,0.972,1.397,0.000,3.322,0.701,0.752,0.000,0.000,3.142,0.000,0.000,0.000,0.000,0.000,0.000,0.000,0.000,0.000,0.000,0.000,3.142,6.282,0.000,2.100,1.897,1.798,4.285,0.398,1.000,4.711,0.000,0.000,-1.868,-3.337,0.451,5.765,3.166,6.240,4.183,4.384,4.484,1.998,5.882,5.283,1.570,0.000,0.000,-1.540,-3.305,0.451,5.771,3.228,6.099,
106.000,143.217,-1.692,-3.436,1.669,1.011,6.283,4.501,0.000,1.332,1.446,1.376,0.000,3.979,0.711,0.763,0.000,0.000,3.142,0.000,0.000,0.000,0.000,0.000,0.000,0.000,0.000,0.000,0.000,0.000,3.142,6.282,0.000,2.100,1.897,1.798,4.285,0.398,1.000,4.711,0.000,0.000,-1.877,-3.238,0.451,5.765,3.166,6.240,4.183,4.384,4.484,1.998,5.882,5.283,1.570,0.000,0.000,-1.550,-3.206,0.451,5.771,3.228,6.099,
106.100,143.317,-1.700,-3.356,1.669,1.011,6.283,4.421,0.000,1.324,1.437,1.359,0.000,4.085,0.719,1.316,0.000,0.000,3.142,0.000,0.000,0.000,0.000,0.000,0.000,0.000,0.000,0.000,0.000,0.000,3.142,6.282,0.000,2.100,1.897,1.798,4.285,0.398,1.000,4.711,0.000,0.000,-1.885,-3.159,0.451,5.765,3.166,6.240,4.183,4.384,4.484,1.998,5.882,5.283,1.570,0.000,0.000,-1.558,-3.126,0.451,5.771,3.228,6.099,
106.200,143.417,-1.712,-3.238,1.669,1.011,6.283,4.302,0.000,1.312,1.424,1.334,0.000,4.244,0.731,1.078,0.000,0.000,3.142,0.000,0.000,0.000,0.000,0.000,0.000,0.000,0.000,0.000,0.000,0.000,3.142,6.282,0.000,2.100,1.897,1.798,4.285,0.398,1.000,4.711,0.000,0.000,-1.897,-3.040,0.451,5.765,3.166,6.240,4.183,4.384,4.484,1.998,5.882,5.283,1.570,0.000,0.000,-1.570,-3.008,0.451,5.771,3.228,6.099,
106.283,143.500,-1.720,-3.158,1.669,1.011,6.283,4.222,0.000,1.304,1.415,1.318,0.000,1.754,0.739,0.885,0.000,0.000,3.142,0.000,0.000,0.000,0.000,0.000,0.000,0.000,0.000,0.000,0.000,0.000,3.142,6.282,0.000,2.100,1.897,1.798,4.285,0.398,1.000,4.711,0.000,0.000,-1.905,-2.961,0.451,5.765,3.166,6.240,4.183,4.384,4.484,1.998,5.882,5.283,1.570,0.000,0.000,-1.577,-2.929,0.451,5.771,3.228,6.099,
106.400,143.617,-1.731,-3.045,1.669,0.865,0.000,4.108,0.000,1.293,1.403,1.295,0.000,1.771,0.750,0.653,0.000,0.000,3.142,0.000,0.000,0.000,0.000,0.000,0.000,0.000,0.000,0.000,0.000,0.000,3.142,0.000,0.000,2.099,1.897,1.799,4.285,0.398,1.000,4.712,0.000,0.000,-1.916,-2.847,0.451,5.764,3.165,6.241,4.183,4.383,4.485,1.998,5.882,5.283,1.571,0.000,0.000,-1.588,-2.815,0.451,5.770,3.227,6.100,
106.486,143.703,-1.737,-2.986,1.669,0.648,0.000,4.049,0.000,1.287,1.397,1.283,0.000,1.806,0.756,0.660,0.000,0.000,3.142,0.000,0.000,0.000,0.000,0.000,0.000,0.000,0.000,0.000,0.000,0.000,3.142,0.001,0.001,2.099,1.897,1.799,4.285,0.398,1.001,4.712,0.000,0.000,-1.921,-2.788,0.451,5.764,3.165,6.242,4.183,4.383,4.485,1.998,5.882,5.283,1.571,0.000,0.000,-1.594,-2.756,0.452,5.770,3.227,6.100,
106.600,143.817,-1.743,-2.925,1.669,0.454,0.000,3.987,0.000,1.281,1.390,1.338,0.000,1.863,0.762,0.666,0.000,0.000,3.142,0.000,0.000,0.000,0.000,0.000,0.000,0.000,0.000,0.000,0.000,0.000,3.142,6.283,0.000,2.100,1.897,1.799,4.285,0.398,1.000,4.711,0.000,0.000,-1.928,-2.727,0.451,5.765,3.166,6.240,4.183,4.384,4.484,1.998,5.882,5.283,1.570,0.000,0.000,-1.600,-2.695,0.451,5.771,3.228,6.099,
106.699,143.916,-1.746,-2.891,1.669,0.441,6.283,3.953,0.000,1.277,1.386,1.377,0.000,1.868,0.806,0.670,0.000,0.000,3.142,0.000,0.000,0.000,0.000,0.000,0.000,0.000,0.000,0.000,0.000,0.000,3.142,6.282,0.000,2.100,1.897,1.798,4.285,0.398,1.000,4.711,0.000,0.000,-1.931,-2.693,0.451,5.765,3.166,6.240,4.183,4.384,4.484,1.998,5.882,5.283,1.570,0.000,0.000,-1.604,-2.661,0.451,5.771,3.228,6.099,
106.781,143.998,-1.751,-2.842,1.669,0.389,0.000,3.903,0.000,1.272,1.381,1.432,0.000,1.131,1.041,0.675,0.000,0.000,3.142,0.000,0.000,0.000,0.000,0.000,0.000,0.000,0.000,0.000,0.000,0.000,3.142,6.283,0.000,2.100,1.897,1.798,4.285,0.398,1.000,4.711,0.000,0.000,-1.936,-2.644,0.451,5.765,3.166,6.241,4.183,4.384,4.484,1.998,5.882,5.283,1.570,0.000,0.000,-1.609,-2.612,0.451,5.771,3.228,6.099,
106.900,144.117,-1.754,-2.810,1.669,0.287,0.000,3.871,0.000,1.269,1.377,1.469,0.000,1.135,1.282,0.598,0.000,0.000,3.142,0.000,0.000,0.000,0.000,0.000,0.000,0.000,0.000,0.000,0.000,0.000,3.142,6.283,0.000,2.100,1.897,1.799,4.285,0.398,1.000,4.711,0.000,0.000,-1.939,-2.612,0.451,5.765,3.166,6.241,4.183,4.384,4.484,1.998,5.882,5.283,1.570,0.000,0.000,-1.612,-2.580,0.451,5.771,3.228,6.099,
106.999,144.216,-1.756,-2.786,1.669,0.229,0.010,3.848,0.000,1.267,1.375,1.496,0.000,1.139,1.284,0.593,0.000,0.000,3.142,0.000,0.000,0.000,0.000,0.000,0.000,0.000,0.000,0.000,0.000,0.000,3.142,6.283,0.000,2.100,1.897,1.798,4.285,0.398,1.000,4.711,0.000,0.000,-1.941,-2.589,0.451,5.765,3.166,6.240,4.183,4.384,4.484,1.998,5.882,5.283,1.570,0.000,0.000,-1.614,-2.556,0.451,5.771,3.228,6.099,
107.092,144.309,-1.758,-2.768,1.669,0.117,0.002,3.829,0.000,1.265,1.373,1.516,0.000,1.142,1.286,0.595,0.000,0.000,3.142,0.000,0.000,0.000,0.000,0.000,0.000,0.000,0.000,0.000,0.000,0.000,3.142,6.283,0.001,2.099,1.897,1.799,4.285,0.398,1.000,4.712,0.000,0.000,-1.943,-2.570,0.451,5.764,3.166,6.241,4.183,4.383,4.484,1.998,5.882,5.283,1.570,0.000,0.000,-1.616,-2.538,0.451,5.770,3.227,6.100,
107.200,144.417,-1.758,-2.767,1.667,-0.026,6.200,3.827,0.000,1.265,1.371,1.520,0.000,1.145,1.287,0.594,0.000,0.000,3.142,0.000,0.000,0.000,0.000,0.000,0.000,0.000,0.000,0.000,0.000,0.000,3.142,6.283,0.000,2.100,1.897,1.799,4.286,0.398,1.000,4.711,0.000,0.000,-1.943,-2.569,0.451,5.765,3.164,6.243,4.183,4.384,4.484,1.998,5.882,5.283,1.571,0.000,0.000,-1.615,-2.537,0.451,5.771,3.226,6.102,
107.300,144.517,-1.758,-2.769,1.651,-0.032,5.928,4.354,0.000,1.269,1.362,1.530,0.000,1.165,1.291,0.590,0.000,0.000,3.142,0.000,0.000,0.000,0.000,0.000,0.000,0.000,0.000,0.000,0.000,0.000,3.142,6.282,0.000,2.100,1.897,1.798,4.285,0.398,1.000,4.711,0.000,0.000,-1.940,-2.568,0.451,5.765,3.156,6.261,4.182,4.384,4.484,1.998,5.882,5.283,1.571,0.000,0.000,-1.612,-2.542,0.451,5.770,3.218,6.120,
107.385,144.602,-1.758,-2.771,1.633,-0.027,5.998,0.000,0.000,1.275,1.351,1.545,0.000,1.191,1.181,0.585,0.000,0.000,3.142,0.000,0.000,0.000,0.000,0.000,0.000,0.000,0.000,0.000,0.000,0.000,3.142,6.282,0.000,2.101,1.897,1.798,4.285,0.398,1.000,4.711,0.000,0.000,-1.936,-2.567,0.451,5.764,3.145,6.282,4.182,4.384,4.484,1.998,5.882,5.283,1.571,0.000,0.000,-1.607,-2.547,0.451,5.769,3.207,6.141,
107.500,144.717,-1.758,-2.772,1.618,-0.010,6.147,0.000,0.000,1.279,1.343,1.557,0.000,2.002,1.113,0.582,0.000,0.000,3.142,0.000,0.000,0.000,0.000,0.000,0.000,0.000,0.000,0.000,0.000,0.000,3.142,6.282,0.000,2.101,1.897,1.798,4.285,0.398,0.999,4.711,0.000,0.000,-1.933,-2.566,0.451,5.764,3.137,0.015,4.183,4.384,4.484,1.998,5.882,5.283,1.570,0.000,0.000,-1.604,-2.550,0.451,5.768,3.199,6.157,
107.600,144.817,-1.758,-2.772,1.612,0.004,6.123,0.000,0.000,1.281,1.339,1.563,0.000,1.995,1.086,0.581,0.000,0.000,3.142,0.000,0.000,0.000,0.000,0.000,0.000,0.000,0.000,0.000,0.000,0.000,3.142,6.282,0.000,2.101,1.897,1.798,4.285,0.398,0.999,4.711,0.000,0.000,-1.932,-2.565,0.451,5.765,3.134,0.022,4.183,4.384,4.484,1.998,5.882,5.283,1.570,0.000,0.000,-1.603,-2.551,0.451,5.767,3.196,6.164,
107.685,144.902,-1.758,-2.772,1.604,0.009,6.080,0.000,0.000,1.284,1.335,1.571,0.000,1.983,1.057,0.592,0.000,0.000,3.142,0.000,0.000,0.000,0.000,0.000,0.000,0.000,0.000,0.000,0.000,0.000,3.142,6.282,0.000,2.101,1.897,1.798,4.285,0.398,0.999,4.711,0.000,0.000,-1.930,-2.563,0.451,5.765,3.129,0.031,4.183,4.384,4.484,1.998,5.882,5.283,1.570,0.000,0.000,-1.601,-2.552,0.451,5.767,3.192,6.173,
107.800,145.017,-1.758,-2.772,1.591,0.003,6.106,0.000,0.000,1.288,1.328,1.475,0.000,1.991,1.012,0.612,0.000,0.000,3.142,0.000,0.000,0.000,0.000,0.000,0.000,0.000,0.000,0.000,0.000,0.000,3.142,6.282,0.000,2.101,1.897,1.798,4.285,0.398,0.999,4.711,0.000,0.000,-1.927,-2.560,0.451,5.765,3.122,0.046,4.183,4.384,4.484,1.998,5.882,5.283,1.570,0.000,0.000,-1.598,-2.554,0.451,5.766,3.184,6.188,
107.900,145.117,-1.758,-2.772,1.584,-0.004,6.155,0.000,0.000,1.291,1.325,1.460,0.000,2.008,0.989,0.623,0.000,0.000,3.142,0.000,0.000,0.000,0.000,0.000,0.000,0.000,0.000,0.000,0.000,0.000,3.142,6.282,0.000,2.101,1.897,1.798,4.285,0.398,0.999,4.711,0.000,0.000,-1.926,-2.559,0.451,5.765,3.118,0.054,4.183,4.384,4.484,1.998,5.882,5.283,1.570,0.000,0.000,-1.597,-2.555,0.451,5.766,3.180,6.196,
108.000,145.217,-1.758,-2.772,1.580,-0.004,6.175,0.000,0.000,1.292,1.323,1.451,0.000,2.019,0.975,0.631,0.000,0.000,3.142,0.000,0.000,0.000,0.000,0.000,0.000,0.000,0.000,0.000,0.000,0.000,3.142,6.282,0.000,2.101,1.897,1.798,4.285,0.398,0.999,4.711,0.000,0.000,-1.925,-2.559,0.451,5.765,3.116,0.059,4.183,4.384,4.484,1.998,5.882,5.283,1.570,0.000,0.000,-1.596,-2.556,0.451,5.766,3.178,6.200,
108.100,145.317,-1.758,-2.772,1.576,0.002,6.179,0.000,0.000,1.294,1.321,1.441,0.000,2.032,0.960,0.640,0.000,0.000,3.142,0.000,0.000,0.000,0.000,0.000,0.000,0.000,0.000,0.000,0.000,0.000,3.142,6.282,0.000,2.101,1.897,1.798,4.285,0.398,0.999,4.711,0.000,0.000,-1.924,-2.558,0.451,5.765,3.113,0.064,4.183,4.384,4.484,1.998,5.882,5.283,1.570,0.000,0.000,-1.595,-2.556,0.451,5.766,3.175,6.206,
108.199,145.416,-1.758,-2.772,1.571,0.006,6.180,0.000,0.000,1.296,1.319,1.432,0.000,2.044,0.948,0.657,0.000,0.000,3.142,0.000,0.000,0.000,0.000,0.000,0.000,0.000,0.000,0.000,0.000,0.000,3.142,6.282,0.000,2.101,1.897,1.798,4.285,0.398,0.999,4.711,0.000,0.000,-1.923,-2.557,0.451,5.765,3.111,0.069,4.183,4.384,4.484,1.998,5.882,5.283,1.570,0.000,0.000,-1.594,-2.557,0.451,5.766,3.173,6.211,
108.300,145.517,-1.758,-2.739,1.568,0.719,0.048,0.000,0.000,1.297,1.317,1.442,0.000,2.052,1.046,0.572,0.000,0.000,3.142,0.000,0.000,0.000,0.000,0.000,0.000,0.000,0.000,0.000,0.000,0.000,3.142,6.278,6.283,2.107,1.900,1.796,4.285,0.401,0.996,4.709,0.000,0.000,-1.923,-2.527,0.450,5.768,3.112,0.067,4.181,4.387,4.482,1.997,5.884,5.282,1.570,0.000,0.000,-1.594,-2.526,0.450,5.768,3.173,6.210,
108.400,145.617,-1.758,-2.630,1.570,1.408,0.007,0.000,0.000,1.297,1.319,1.778,0.000,1.289,1.319,0.572,0.000,0.000,3.142,0.000,0.000,0.000,0.000,0.000,0.000,0.000,0.000,0.000,0.000,0.000,3.142,6.280,6.283,2.104,1.898,1.797,4.285,0.399,0.998,4.710,0.000,0.000,-1.923,-2.416,0.450,5.767,3.112,0.068,4.182,4.385,4.483,1.997,5.883,5.283,1.570,0.000,0.000,-1.594,-2.416,0.451,5.767,3.173,6.210,
108.490,145.706,-1.757,-2.495,1.570,1.186,0.000,0.000,0.000,0.836,1.319,1.941,0.000,1.288,0.653,0.571,0.000,0.000,3.142,0.000,0.000,0.000,0.000,0.000,0.000,0.000,0.000,0.000,0.000,0.000,3.142,0.001,0.001,2.098,1.897,1.799,4.285,0.397,1.001,4.712,0.000,0.000,-1.922,-2.279,0.452,5.764,3.108,0.073,4.183,4.383,4.485,1.998,5.881,5.284,1.571,0.000,0.000,-1.593,-2.280,0.452,5.764,3.171,6.214,
108.600,145.817,-1.757,-2.401,1.570,0.803,6.283,0.000,0.000,0.904,1.319,2.210,0.000,1.288,0.653,0.571,0.000,0.000,3.142,0.000,0.000,0.000,0.000,0.000,0.000,0.000,0.000,0.000,0.000,0.000,3.142,0.000,0.000,2.099,1.897,1.799,4.285,0.398,1.001,4.712,0.000,0.000,-1.922,-2.185,0.451,5.764,3.109,0.072,4.183,4.383,4.485,1.998,5.882,5.283,1.571,0.000,0.000,-1.593,-2.185,0.452,5.765,3.171,6.213,
108.700,145.917,-1.757,-2.319,1.570,0.926,6.283,0.000,0.000,0.619,1.319,2.210,0.000,1.288,0.568,0.571,0.000,0.000,3.142,0.000,0.000,0.000,0.000,0.000,0.000,0.000,0.000,0.000,0.000,0.000,3.142,6.281,0.000,2.102,1.898,1.798,4.285,0.399,0.999,4.711,0.000,0.000,-1.922,-2.105,0.451,5.766,3.111,0.069,4.183,4.384,4.483,1.997,5.882,5.283,1.570,0.000,0.000,-1.593,-2.105,0.451,5.766,3.173,6.211,
108.800,146.017,-1.757,-2.238,1.570,1.102,0.000,0.000,0.000,0.569,1.319,2.210,0.000,1.288,0.568,0.571,0.000,0.000,3.142,0.000,0.000,0.000,0.000,0.000,0.000,0.000,0.000,0.000,0.000,0.000,3.142,6.282,0.000,2.102,1.897,1.798,4.285,0.398,0.999,4.711,0.000,0.000,-1.922,-2.024,0.451,5.766,3.110,0.069,4.183,4.384,4.483,1.997,5.882,5.283,1.570,0.000,0.000,-1.593,-2.024,0.451,5.766,3.172,6.211,
108.900,146.117,-1.757,-2.108,1.570,1.052,0.000,0.000,0.000,0.570,1.319,2.210,0.000,1.288,0.568,1.648,0.000,0.000,3.142,0.000,0.000,0.000,0.000,0.000,0.000,0.000,0.000,0.000,0.000,0.000,3.142,6.283,0.000,2.100,1.897,1.799,4.285,0.398,1.000,4.711,0.000,0.000,-1.922,-1.893,0.451,5.765,3.109,0.071,4.183,4.383,4.484,1.998,5.882,5.283,1.571,0.000,0.000,-1.593,-1.893,0.451,5.765,3.172,6.213,
108.985,146.202,-1.757,-2.029,1.570,0.963,0.000,0.000,0.000,0.570,1.319,2.210,0.000,1.288,0.568,1.648,0.000,0.000,3.142,0.000,0.000,0.000,0.000,0.000,0.000,0.000,0.000,0.000,0.000,0.000,3.142,6.283,0.000,2.100,1.897,1.799,4.285,0.398,1.000,4.711,0.000,0.000,-1.922,-1.814,0.451,5.765,3.110,0.071,4.183,4.384,4.484,1.998,5.882,5.283,1.571,0.000,0.000,-1.593,-1.814,0.451,5.765,3.172,6.213,
109.100,146.317,-1.757,-1.915,1.570,0.991,6.283,0.000,0.000,0.570,0.579,2.210,0.000,1.054,0.568,1.648,0.000,0.000,3.142,0.000,0.000,0.000,0.000,0.000,0.000,0.000,0.000,0.000,0.000,0.000,3.142,6.282,0.000,2.101,1.897,1.798,4.285,0.398,0.999,4.711,0.000,0.000,-1.922,-1.701,0.451,5.766,3.110,0.070,4.183,4.384,4.484,1.998,5.882,5.283,1.570,0.000,0.000,-1.593,-1.701,0.451,5.765,3.172,6.212,
109.193,146.410,-1.757,-1.815,1.570,1.041,6.283,0.000,0.000,0.570,0.579,2.209,0.000,0.918,1.156,0.000,0.000,0.000,3.142,0.000,0.000,0.000,0.000,0.000,0.000,0.000,0.000,0.000,0.000,0.000,3.142,6.282,0.000,2.101,1.897,1.798,4.285,0.398,0.999,4.711,0.000,0.000,-1.922,-1.600,0.451,5.765,3.110,0.071,4.183,4.384,4.484,1.998,5.882,5.283,1.570,0.000,0.000,-1.593,-1.600,0.451,5.765,3.172,6.212,
109.300,146.517,-1.757,-1.713,1.570,1.020,6.283,0.000,0.000,0.570,0.579,2.209,0.000,0.918,1.156,0.000,0.000,0.000,3.142,0.000,0.000,0.000,0.000,0.000,0.000,0.000,0.000,0.000,0.000,0.000,3.142,6.283,0.000,2.100,1.897,1.798,4.285,0.398,1.000,4.711,0.000,0.000,-1.922,-1.498,0.451,5.765,3.110,0.071,4.183,4.384,4.484,1.998,5.882,5.283,1.571,0.000,0.000,-1.593,-1.498,0.451,5.765,3.172,6.213,
109.400,146.617,-1.757,-1.614,1.570,0.995,6.283,0.000,0.000,1.297,0.580,2.209,0.000,0.917,1.319,0.000,0.000,0.000,3.142,0.000,0.000,0.000,0.000,0.000,0.000,0.000,0.000,0.000,0.000,0.000,3.142,6.282,0.000,2.100,1.897,1.798,4.285,0.398,1.000,4.711,0.000,0.000,-1.922,-1.399,0.451,5.765,3.110,0.071,4.183,4.384,4.484,1.998,5.882,5.283,1.570,0.000,0.000,-1.593,-1.400,0.451,5.765,3.172,6.213,
109.497,146.713,-1.757,-1.516,1.570,1.006,6.283,0.000,0.000,1.297,0.580,2.209,0.000,0.917,1.311,0.000,0.000,0.000,3.142,0.000,0.000,0.000,0.000,0.000,0.000,0.000,0.000,0.000,0.000,0.000,3.142,6.282,0.000,2.101,1.897,1.798,4.285,0.398,1.000,4.711,0.000,0.000,-1.922,-1.301,0.451,5.765,3.110,0.071,4.183,4.384,4.484,1.998,5.882,5.283,1.570,0.000,0.000,-1.593,-1.301,0.451,5.765,3.172,6.213,
109.600,146.817,-1.757,-1.416,1.570,1.019,6.283,0.000,0.000,1.298,0.580,2.209,0.000,0.917,1.375,0.000,0.000,0.000,3.142,0.000,0.000,0.000,0.000,0.000,0.000,0.000,0.000,0.000,0.000,0.000,3.142,6.282,0.000,2.100,1.897,1.798,4.285,0.398,1.000,4.711,0.000,0.000,-1.921,-1.201,0.451,5.765,3.110,0.071,4.183,4.384,4.484,1.998,5.882,5.283,1.570,0.000,0.000,-1.592,-1.201,0.451,5.765,3.172,6.213,
109.700,146.917,-1.757,-1.316,1.570,1.013,6.283,0.000,0.000,1.298,0.580,0.971,0.000,0.917,1.639,4.555,0.000,0.000,3.142,0.000,0.000,0.000,0.000,0.000,0.000,0.000,0.000,0.000,0.000,0.000,3.142,6.282,0.000,2.100,1.897,1.798,4.285,0.398,1.000,4.711,0.000,0.000,-1.921,-1.101,0.451,5.765,3.109,0.071,4.183,4.384,4.484,1.998,5.882,5.283,1.571,0.000,0.000,-1.592,-1.101,0.451,5.765,3.172,6.213,
109.800,147.017,-1.757,-1.217,1.569,1.007,6.283,0.000,0.000,1.298,0.853,0.971,0.000,1.013,1.639,0.000,0.000,0.000,3.142,0.000,0.000,0.000,0.000,0.000,0.000,0.000,0.000,0.000,0.000,0.000,3.142,6.282,0.000,2.100,1.897,1.798,4.285,0.398,1.000,4.711,0.000,0.000,-1.921,-1.002,0.451,5.765,3.109,0.072,4.183,4.384,4.484,1.998,5.882,5.283,1.570,0.000,0.000,-1.592,-1.002,0.451,5.765,3.171,6.213,
109.894,147.111,-1.756,-1.137,1.569,1.009,6.283,0.000,0.000,1.298,1.319,0.971,0.000,1.342,1.638,0.000,0.000,0.000,3.142,0.000,0.000,0.000,0.000,0.000,0.000,0.000,0.000,0.000,0.000,0.000,3.142,6.282,0.000,2.100,1.897,1.798,4.285,0.398,1.000,4.711,0.000,0.000,-1.921,-0.923,0.451,5.765,3.109,0.072,4.183,4.384,4.484,1.998,5.882,5.283,1.570,0.000,0.000,-1.592,-0.923,0.451,5.765,3.171,6.213,
110.000,147.217,-1.756,-1.018,1.569,1.013,6.283,0.000,0.000,1.298,1.320,0.971,0.000,1.489,1.638,0.000,0.000,0.000,3.142,0.000,0.000,0.000,0.000,0.000,0.000,0.000,0.000,0.000,0.000,0.000,3.142,6.282,0.000,2.100,1.897,1.798,4.285,0.398,1.000,4.711,0.000,0.000,-1.921,-0.803,0.451,5.765,3.109,0.072,4.183,4.384,4.484,1.998,5.882,5.283,1.570,0.000,0.000,-1.592,-0.803,0.451,5.765,3.171,6.214,
110.100,147.317,-1.756,-0.918,1.569,1.011,6.283,0.000,0.000,1.299,1.320,0.971,0.000,1.613,1.638,0.000,0.000,0.000,3.142,0.000,0.000,0.000,0.000,0.000,0.000,0.000,0.000,0.000,0.000,0.000,3.142,6.282,0.000,2.100,1.897,1.798,4.285,0.398,1.000,4.711,0.000,0.000,-1.921,-0.703,0.451,5.765,3.109,0.072,4.183,4.384,4.484,1.998,5.882,5.283,1.571,0.000,0.000,-1.592,-0.704,0.451,5.765,3.171,6.214,
110.200,147.417,-1.756,-0.839,1.569,1.010,6.283,0.000,0.000,1.299,1.320,0.971,0.000,1.711,1.730,0.000,0.000,0.000,3.142,0.000,0.000,0.000,0.000,0.000,0.000,0.000,0.000,0.000,0.000,0.000,3.142,6.282,0.000,2.100,1.897,1.798,4.285,0.398,1.000,4.711,0.000,0.000,-1.920,-0.624,0.451,5.765,3.109,0.072,4.183,4.384,4.484,1.998,5.882,5.283,1.571,0.000,0.000,-1.592,-0.624,0.451,5.765,3.171,6.214,
110.300,147.517,-1.756,-0.720,1.569,1.011,6.283,0.000,0.000,1.299,1.320,0.971,0.000,1.867,1.880,4.366,0.000,0.000,3.142,0.000,0.000,0.000,0.000,0.000,0.000,0.000,0.000,0.000,0.000,0.000,3.142,6.282,0.000,2.100,1.897,1.798,4.285,0.398,1.000,4.711,0.000,0.000,-1.920,-0.505,0.451,5.765,3.109,0.072,4.183,4.384,4.484,1.998,5.882,5.283,1.570,0.000,0.000,-1.591,-0.505,0.451,5.765,3.171,6.214,
110.400,147.617,-1.756,-0.640,1.569,1.011,6.283,0.000,0.000,1.299,1.320,1.043,0.000,1.867,2.118,0.000,0.000,0.000,3.142,0.000,0.000,0.000,0.000,0.000,0.000,0.000,0.000,0.000,0.000,0.000,3.142,6.282,0.000,2.100,1.897,1.798,4.285,0.398,1.000,4.711,0.000,0.000,-1.920,-0.425,0.451,5.765,3.109,0.072,4.183,4.384,4.484,1.998,5.882,5.283,1.570,0.000,0.000,-1.591,-0.425,0.451,5.765,3.171,6.214,
110.500,147.717,-1.755,-0.521,1.569,1.011,6.283,0.000,0.000,1.299,1.320,1.188,0.000,1.874,2.774,4.797,0.000,0.000,3.142,0.000,0.000,0.000,0.000,0.000,0.000,0.000,0.000,0.000,0.000,0.000,3.142,6.282,0.000,2.100,1.897,1.798,4.285,0.398,1.000,4.711,0.000,0.000,-1.920,-0.306,0.451,5.765,3.109,0.072,4.183,4.384,4.484,1.998,5.882,5.283,1.570,0.000,0.000,-1.591,-0.306,0.451,5.765,3.171,6.214,
110.582,147.799,-1.755,-0.421,1.569,1.011,6.283,0.000,0.000,1.300,1.320,1.309,0.000,2.132,2.835,4.485,0.000,0.000,3.142,0.000,0.000,0.000,0.000,0.000,0.000,0.000,0.000,0.000,0.000,0.000,3.142,6.282,0.000,2.100,1.897,1.798,4.285,0.398,1.000,4.711,0.000,0.000,-1.919,-0.206,0.451,5.765,3.109,0.073,4.183,4.384,4.484,1.998,5.882,5.283,1.570,0.000,0.000,-1.591,-0.207,0.451,5.765,3.171,6.214,
110.700,147.917,-1.755,-0.322,1.568,1.011,6.283,0.000,0.000,1.300,1.321,1.429,0.000,2.132,3.160,4.172,0.000,0.000,3.142,0.000,0.000,0.000,0.000,0.000,0.000,0.000,0.000,0.000,0.000,0.000,3.142,6.282,0.000,2.100,1.897,1.798,4.285,0.398,1.000,4.711,0.000,0.000,-1.919,-0.107,0.451,5.765,3.109,0.073,4.183,4.384,4.484,1.998,5.882,5.283,1.570,0.000,0.000,-1.590,-0.107,0.451,5.765,3.171,6.214,
110.797,148.014,-1.755,-0.222,1.568,1.011,6.283,0.000,0.000,1.300,1.321,1.550,0.000,2.118,4.240,3.859,0.000,0.000,3.142,0.000,0.000,0.000,0.000,0.000,0.000,0.000,0.000,0.000,0.000,0.000,3.142,6.282,0.000,2.100,1.897,1.798,4.285,0.398,1.000,4.711,0.000,0.000,-1.919,-0.007,0.451,5.765,3.109,0.073,4.183,4.384,4.484,1.998,5.882,5.283,1.570,0.000,0.000,-1.590,-0.008,0.451,5.765,3.171,6.215,
110.900,148.117,-1.755,-0.123,1.568,1.011,6.283,0.000,0.000,1.301,1.321,1.670,0.000,2.118,4.738,3.546,0.000,0.000,3.142,0.000,0.000,0.000,0.000,0.000,0.000,0.000,0.000,0.000,0.000,0.000,3.142,6.282,0.000,2.100,1.897,1.798,4.285,0.398,1.000,4.711,0.000,0.000,-1.919,0.092,0.451,5.765,3.109,0.073,4.183,4.384,4.484,1.998,5.882,5.283,1.570,0.000,0.000,-1.590,0.092,0.451,5.765,3.171,6.215,
111.000,148.217,-1.754,-0.023,1.568,1.011,6.283,0.000,0.000,0.790,1.321,2.208,0.000,2.239,4.738,3.233,0.000,0.000,3.142,0.000,0.000,0.000,0.000,0.000,0.000,0.000,0.000,0.000,0.000,0.000,3.142,6.282,0.000,2.100,1.897,1.798,4.285,0.398,1.000,4.711,0.000,0.000,-1.918,0.192,0.451,5.765,3.109,0.073,4.183,4.384,4.484,1.998,5.882,5.283,1.570,0.000,0.000,-1.590,0.191,0.451,5.765,3.171,6.215,
111.100,148.317,-1.754,0.056,1.568,1.011,6.283,0.000,0.000,0.638,1.321,2.208,0.000,2.337,4.738,2.983,0.000,0.000,3.142,0.000,0.000,0.000,0.000,0.000,0.000,0.000,0.000,0.000,0.000,0.000,3.142,6.282,0.000,2.100,1.897,1.798,4.285,0.398,1.000,4.711,0.000,0.000,-1.918,0.272,0.451,5.765,3.109,0.073,4.183,4.384,4.484,1.998,5.882,5.283,1.570,0.000,0.000,-1.589,0.271,0.451,5.765,3.171,6.215,
111.200,148.417,-1.754,0.176,1.568,1.011,6.283,0.000,0.000,0.638,1.322,2.208,0.000,2.691,4.824,2.606,0.000,0.000,3.142,0.000,0.000,0.000,0.000,0.000,0.000,0.000,0.000,0.000,0.000,0.000,3.142,6.282,0.000,2.100,1.897,1.798,4.285,0.398,1.000,4.711,0.000,0.000,-1.918,0.391,0.451,5.765,3.108,0.073,4.183,4.384,4.484,1.998,5.882,5.283,1.570,0.000,0.000,-1.589,0.390,0.451,5.765,3.171,6.215,
111.300,148.517,-1.753,0.275,1.568,1.011,6.283,0.000,0.000,0.555,1.322,2.209,0.000,2.813,0.000,2.292,0.000,0.000,3.142,0.000,0.000,0.000,0.000,0.000,0.000,0.000,0.000,0.000,0.000,0.000,3.142,6.282,0.000,2.100,1.897,1.798,4.285,0.398,1.000,4.711,0.000,0.000,-1.918,0.490,0.451,5.765,3.108,0.073,4.183,4.384,4.484,1.998,5.882,5.283,1.570,0.000,0.000,-1.589,0.490,0.451,5.765,3.171,6.215,
111.400,148.617,-1.753,0.355,1.568,1.011,6.283,0.000,0.000,0.555,1.322,2.209,0.000,2.649,0.000,2.041,0.000,0.000,3.142,0.000,0.000,0.000,0.000,0.000,0.000,0.000,0.000,0.000,0.000,0.000,3.142,6.282,0.000,2.100,1.897,1.798,4.285,0.398,1.000,4.711,0.000,0.000,-1.917,0.570,0.451,5.765,3.108,0.074,4.183,4.384,4.484,1.998,5.882,5.283,1.570,0.000,0.000,-1.588,0.569,0.451,5.765,3.170,6.215,
111.491,148.708,-1.753,0.474,1.568,1.002,6.283,0.000,0.000,0.556,0.649,2.209,0.000,2.649,0.000,1.664,0.000,0.000,3.142,0.000,0.000,0.000,0.000,0.000,0.000,0.000,0.000,0.000,0.000,0.000,3.142,6.283,0.000,2.100,1.897,1.798,4.285,0.398,1.000,4.711,0.000,0.000,-1.917,0.689,0.451,5.765,3.108,0.074,4.183,4.384,4.484,1.998,5.882,5.283,1.571,0.000,0.000,-1.588,0.688,0.451,5.765,3.170,6.216,
111.600,148.817,-1.752,0.566,1.568,0.839,0.000,0.000,0.000,0.556,0.650,2.210,0.000,2.648,0.000,1.372,0.000,0.000,3.142,0.000,0.000,0.000,0.000,0.000,0.000,0.000,0.000,0.000,0.000,0.000,3.142,0.000,0.000,2.099,1.897,1.799,4.285,0.398,1.000,4.712,0.000,0.000,-1.916,0.782,0.451,5.765,3.108,0.075,4.183,4.383,4.485,1.998,5.882,5.283,1.571,0.000,0.000,-1.587,0.781,0.451,5.765,3.170,6.217,
111.700,148.917,-1.752,0.623,1.568,0.621,0.000,0.000,0.000,0.556,0.565,2.210,0.000,2.647,0.000,1.320,0.000,0.000,3.142,0.000,0.000,0.000,0.000,0.000,0.000,0.000,0.000,0.000,0.000,0.000,3.142,0.000,0.001,2.099,1.897,1.799,4.285,0.398,1.001,4.712,0.000,0.000,-1.916,0.839,0.451,5.765,3.107,0.075,4.183,4.383,4.485,1.998,5.882,5.283,1.571,0.000,0.000,-1.587,0.838,0.452,5.764,3.170,6.217,
111.797,149.014,-1.752,0.683,1.568,0.447,6.283,0.000,0.000,0.556,0.565,2.211,0.000,2.647,0.000,1.320,0.000,0.000,3.142,0.000,0.000,0.000,0.000,0.000,0.000,0.000,0.000,0.000,0.000,0.000,3.142,6.283,0.000,2.100,1.897,1.798,4.285,0.398,1.000,4.711,0.000,0.000,-1.916,0.898,0.451,5.765,3.108,0.074,4.183,4.384,4.484,1.998,5.882,5.283,1.570,0.000,0.000,-1.587,0.897,0.451,5.765,3.170,6.216,
111.900,149.117,-1.752,0.725,1.568,0.434,0.000,0.000,0.000,0.556,0.565,2.211,0.000,2.647,0.000,1.320,0.000,0.000,3.142,0.000,0.000,0.000,0.000,0.000,0.000,0.000,0.000,0.000,0.000,0.000,3.142,6.282,0.000,2.100,1.897,1.798,4.285,0.398,1.000,4.711,0.000,0.000,-1.916,0.941,0.451,5.765,3.108,0.074,4.183,4.384,4.484,1.998,5.882,5.283,1.570,0.000,0.000,-1.587,0.940,0.451,5.765,3.170,6.215,
112.000,149.217,-1.752,0.758,1.568,0.393,0.000,0.000,0.000,0.556,0.565,2.211,0.000,2.647,0.000,1.320,0.000,0.000,3.142,0.000,0.000,0.000,0.000,0.000,0.000,0.000,0.000,0.000,0.000,0.000,3.142,6.283,0.000,2.100,1.897,1.798,4.285,0.398,1.000,4.711,0.000,0.000,-1.916,0.973,0.451,5.765,3.108,0.074,4.183,4.384,4.484,1.998,5.882,5.283,1.570,0.000,0.000,-1.587,0.972,0.451,5.765,3.170,6.216,
112.100,149.317,-1.752,0.788,1.565,0.058,6.069,0.000,0.000,0.557,0.565,2.203,0.000,2.657,0.000,1.318,0.000,0.000,3.142,0.000,0.000,0.000,0.000,0.000,0.000,0.000,0.000,0.000,0.000,0.000,3.142,0.000,0.001,2.098,1.897,1.799,4.285,0.398,1.001,4.712,0.000,0.000,-1.915,1.005,0.451,5.764,3.106,0.078,4.184,4.383,4.484,1.998,5.882,5.283,1.570,0.000,0.000,-1.586,1.003,0.452,5.764,3.169,6.219,
112.186,149.402,-1.752,0.782,1.505,-0.120,5.027,0.000,0.000,1.058,0.554,2.029,0.000,2.903,0.000,1.295,0.000,0.000,3.142,0.000,0.000,0.000,0.000,0.000,0.000,0.000,0.000,0.000,0.000,0.000,3.142,6.282,0.000,2.100,1.897,1.798,4.285,0.398,1.000,4.711,0.000,0.000,-1.903,1.007,0.451,5.769,3.073,0.145,4.182,4.383,4.484,1.998,5.882,5.283,1.570,0.000,0.000,-1.574,0.986,0.452,5.764,3.135,0.005,
112.300,149.517,-1.753,0.773,1.401,-0.062,5.302,0.000,0.000,1.012,0.539,1.798,4.787,2.911,0.000,1.473,0.000,0.000,0.755,0.000,0.000,0.000,0.000,0.000,0.000,0.000,0.000,0.000,0.000,0.000,3.142,6.280,0.000,2.101,1.897,1.799,4.285,0.398,0.999,4.711,0.000,0.000,-1.879,1.012,0.451,5.779,3.015,0.264,4.182,4.384,4.484,1.998,5.882,5.283,1.570,0.000,0.000,-1.555,0.956,0.451,5.769,3.075,0.124,
112.400,149.617,-1.753,0.773,1.355,0.037,5.891,0.000,0.000,0.542,0.536,1.717,2.564,3.104,0.000,2.096,0.000,0.000,0.755,0.000,0.000,0.000,0.000,0.000,0.000,0.000,0.000,0.000,0.000,0.000,3.142,6.281,0.000,2.101,1.897,1.798,4.285,0.398,0.999,4.711,0.000,0.000,-1.868,1.018,0.451,5.785,2.990,0.316,4.183,4.384,4.484,1.998,5.882,5.283,1.570,0.000,0.000,-1.547,0.947,0.451,5.773,3.050,0.176,
112.489,149.705,-1.753,0.775,1.332,0.028,5.982,0.000,0.000,0.516,0.535,0.825,2.344,3.042,0.000,2.632,0.000,0.000,0.755,0.000,0.000,0.000,0.000,0.000,0.000,0.000,0.000,0.000,0.000,0.000,3.142,6.282,0.000,2.101,1.897,1.798,4.285,0.398,0.999,4.711,0.000,0.000,-1.862,1.023,0.451,5.789,2.978,0.342,4.183,4.384,4.484,1.998,5.882,5.283,1.570,0.000,0.000,-1.543,0.945,0.451,5.774,3.037,0.202,
112.600,149.816,-1.752,0.777,1.310,0.026,5.953,4.351,0.000,0.507,0.534,0.810,2.359,3.024,0.000,3.497,0.000,0.000,0.755,0.000,0.000,0.000,0.000,0.000,0.000,0.000,0.000,0.000,0.000,0.000,3.142,6.282,0.000,2.101,1.897,1.798,4.285,0.398,0.999,4.711,0.000,0.000,-1.856,1.027,0.451,5.792,2.966,0.366,4.183,4.384,4.484,1.998,5.882,5.283,1.570,0.000,0.000,-1.539,0.942,0.451,5.777,3.025,0.227,
112.700,149.917,-1.752,0.778,1.285,-0.007,5.917,4.727,0.000,0.515,0.534,0.794,2.376,3.188,3.691,0.000,0.000,0.000,0.755,0.000,0.000,0.000,0.000,0.000,0.000,0.000,0.000,0.000,0.000,0.000,3.142,6.282,0.000,2.100,1.897,1.798,4.285,0.398,0.999,4.711,0.000,0.000,-1.850,1.030,0.451,5.797,2.953,0.394,4.183,4.384,4.484,1.998,5.882,5.283,1.570,0.000,0.000,-1.534,0.938,0.451,5.780,3.012,0.255,
112.782,149.999,-1.752,0.777,1.263,-0.018,5.871,4.376,0.000,0.522,0.533,0.779,2.391,3.163,3.573,0.000,0.000,0.000,0.755,0.000,0.000,0.000,0.000,0.000,0.000,0.000,0.000,0.000,0.000,0.000,3.142,6.282,0.000,2.101,1.897,1.798,4.285,0.398,0.999,4.711,0.000,0.000,-1.845,1.031,0.451,5.801,2.942,0.418,4.183,4.384,4.484,1.998,5.882,5.283,1.570,0.000,0.000,-1.531,0.932,0.451,5.783,2.999,0.281,
112.900,150.117,-1.753,0.776,1.239,0.002,6.125,4.049,0.000,0.531,0.532,0.765,2.410,3.137,3.454,0.000,0.000,0.000,0.755,0.000,0.000,0.000,0.000,0.000,0.000,0.000,0.000,0.000,0.000,0.000,3.142,6.282,0.000,2.101,1.897,1.798,4.285,0.398,0.999,4.711,0.000,0.000,-1.839,1.033,0.451,5.806,2.929,0.445,4.183,4.384,4.484,1.997,5.882,5.283,1.570,0.000,0.000,-1.528,0.925,0.451,5.787,2.986,0.308,
113.000,150.217,-1.753,0.776,1.235,0.008,6.148,4.002,0.000,0.533,0.532,0.763,2.413,3.134,3.437,0.000,0.000,0.000,0.755,0.000,0.000,0.000,0.000,0.000,0.000,0.000,0.000,0.000,0.000,0.000,3.142,6.282,0.000,2.101,1.897,1.798,4.285,0.398,0.999,4.711,0.000,0.000,-1.838,1.033,0.451,5.807,2.928,0.449,4.183,4.384,4.484,1.997,5.882,5.283,1.570,0.000,0.000,-1.527,0.925,0.451,5.787,2.985,0.312,
113.100,150.317,-1.752,0.777,1.221,0.004,5.963,3.840,0.000,0.538,0.532,0.755,2.426,3.122,3.394,4.082,0.000,0.000,0.755,0.000,0.000,0.000,0.000,0.000,0.000,0.000,0.000,0.000,0.000,0.000,3.142,6.282,0.000,2.101,1.897,1.798,4.285,0.398,1.000,4.711,0.000,0.000,-1.834,1.035,0.451,5.810,2.921,0.465,4.183,4.384,4.484,1.998,5.882,5.283,1.570,0.000,0.000,-1.525,0.923,0.451,5.789,2.977,0.328,
113.200,150.417,-1.752,0.777,1.202,-0.002,6.119,3.640,0.000,0.546,0.533,0.745,2.443,3.105,3.423,0.000,0.000,0.000,0.755,0.000,0.000,0.000,0.000,0.000,0.000,0.000,0.000,0.000,0.000,0.000,3.142,6.282,0.000,2.101,1.897,1.798,4.285,0.398,0.999,4.711,0.000,0.000,-1.829,1.037,0.451,5.814,2.911,0.486,4.183,4.384,4.484,1.997,5.882,5.283,1.570,0.000,0.000,-1.522,0.918,0.451,5.793,2.967,0.349,
113.296,150.512,-1.752,0.777,1.200,0.000,6.278,3.624,0.000,0.547,0.533,0.744,2.444,3.104,3.416,0.000,0.000,0.000,0.755,0.000,0.000,0.000,0.000,0.000,0.000,0.000,0.000,0.000,0.000,0.000,3.142,6.282,0.000,2.101,1.897,1.798,4.285,0.398,0.999,4.711,0.000,0.000,-1.829,1.036,0.451,5.815,2.911,0.487,4.183,4.384,4.484,1.998,5.882,5.283,1.570,0.000,0.000,-1.522,0.918,0.451,5.793,2.966,0.351,
113.400,150.617,-1.752,0.777,1.200,0.001,6.263,3.616,0.000,0.547,0.533,0.744,2.445,3.103,3.413,0.000,0.000,0.000,0.755,0.000,0.000,0.000,0.000,0.000,0.000,0.000,0.000,0.000,0.000,0.000,3.142,6.282,0.000,2.101,1.897,1.798,4.285,0.398,0.999,4.711,0.000,0.000,-1.828,1.037,0.451,5.815,2.910,0.488,4.183,4.384,4.484,1.997,5.882,5.283,1.570,0.000,0.000,-1.522,0.918,0.451,5.793,2.966,0.351,
113.492,150.709,-1.752,0.777,1.197,0.001,6.173,3.595,0.000,0.548,0.533,0.743,2.447,3.101,3.403,0.000,0.000,0.000,0.755,0.000,0.000,0.000,0.000,0.000,0.000,0.000,0.000,0.000,0.000,0.000,3.142,6.282,0.000,2.101,1.897,1.798,4.285,0.398,0.999,4.711,0.000,0.000,-1.828,1.037,0.451,5.815,2.909,0.490,4.183,4.384,4.484,1.998,5.882,5.283,1.570,0.000,0.000,-1.521,0.917,0.451,5.793,2.965,0.354,
113.600,150.817,-1.752,0.777,1.191,0.000,6.115,3.532,0.000,0.551,0.533,0.739,2.454,3.096,3.376,0.000,0.000,0.000,0.755,0.000,0.000,0.000,0.000,0.000,0.000,0.000,0.000,0.000,0.000,0.000,3.142,6.282,0.000,2.101,1.897,1.798,4.285,0.398,0.999,4.711,0.000,0.000,-1.826,1.037,0.451,5.817,2.906,0.497,4.183,4.384,4.484,1.998,5.882,5.283,1.570,0.000,0.000,-1.521,0.915,0.451,5.795,2.961,0.361,
113.688,150.904,-1.752,0.777,1.185,-0.001,6.140,3.483,0.000,0.553,0.533,0.737,2.459,3.092,3.354,0.000,0.000,0.000,0.755,0.000,0.000,0.000,0.000,0.000,0.000,0.000,0.000,0.000,0.000,0.000,3.142,6.282,0.000,2.101,1.897,1.798,4.285,0.398,0.999,4.711,0.000,0.000,-1.825,1.038,0.451,5.818,2.903,0.503,4.183,4.384,4.484,1.998,5.882,5.283,1.570,0.000,0.000,-1.520,0.914,0.451,5.796,2.958,0.367,
113.800,151.017,-1.749,0.785,1.175,0.249,6.101,3.386,0.000,0.562,0.537,0.736,2.478,3.092,3.327,0.000,0.000,0.000,0.755,0.000,0.000,0.000,0.000,0.000,0.000,0.000,0.000,0.000,0.000,0.000,3.142,6.280,0.000,2.103,1.898,1.797,4.285,0.399,0.998,4.710,0.000,0.000,-1.819,1.046,0.451,5.821,2.900,0.512,4.183,4.385,4.483,1.997,5.883,5.283,1.570,0.000,0.000,-1.515,0.920,0.451,5.798,2.954,0.376,
113.883,151.099,-1.738,0.810,1.170,0.421,6.213,3.312,0.000,0.578,0.547,0.650,3.234,3.114,3.345,0.000,0.000,0.000,0.755,0.000,0.000,0.000,0.000,0.000,0.000,0.000,0.000,0.000,0.000,0.000,3.142,6.281,0.000,2.102,1.898,1.798,4.285,0.398,0.999,4.711,0.000,0.000,-1.807,1.072,0.451,5.822,2.896,0.519,4.183,4.384,4.483,1.997,5.882,5.283,1.570,0.000,0.000,-1.504,0.944,0.451,5.799,2.951,0.384,
114.000,151.217,-1.723,0.846,1.170,0.165,6.283,3.268,0.000,0.598,0.563,0.668,3.269,3.151,3.398,0.000,0.000,0.000,0.755,0.000,0.000,0.000,0.000,0.000,0.000,0.000,0.000,0.000,0.000,0.000,3.142,0.001,0.001,2.098,1.897,1.799,4.285,0.397,1.001,4.712,0.000,0.000,-1.790,1.109,0.451,5.822,2.893,0.523,4.183,4.383,4.485,1.998,5.882,5.284,1.571,0.000,0.000,-1.488,0.980,0.452,5.798,2.948,0.388,
114.100,151.317,-1.723,0.847,1.176,-0.090,0.355,3.316,0.000,0.596,0.563,0.671,2.545,3.156,3.423,0.000,0.000,0.000,0.755,0.000,0.000,0.000,0.000,0.000,0.000,0.000,0.000,0.000,0.000,0.000,3.142,0.002,0.000,2.098,1.896,1.800,4.286,0.397,1.001,4.712,0.000,0.000,-1.791,1.109,0.451,5.820,2.895,0.518,4.182,4.383,4.486,1.998,5.881,5.284,1.571,0.000,0.000,-1.488,0.981,0.451,5.798,2.951,0.382,
114.200,151.417,-1.727,0.837,1.258,-0.059,1.141,4.220,0.000,0.555,0.558,0.809,2.458,3.221,3.652,0.000,0.000,0.000,0.755,0.000,0.000,0.000,0.000,0.000,0.000,0.000,0.000,0.000,0.000,0.000,3.142,0.002,6.283,2.100,1.897,1.799,4.285,0.398,1.000,4.711,0.000,0.000,-1.817,1.092,0.451,5.802,2.939,0.425,4.182,4.384,4.485,1.998,5.882,5.284,1.571,0.000,0.000,-1.504,0.990,0.451,5.784,2.996,0.288,
114.300,151.517,-1.727,0.835,1.324,0.003,0.817,0.000,0.000,0.532,0.560,0.853,2.410,3.271,0.000,2.133,0.000,0.000,0.755,0.000,0.000,0.000,0.000,0.000,0.000,0.000,0.000,0.000,0.000,0.000,3.142,0.001,0.000,2.101,1.897,1.799,4.285,0.398,1.000,4.711,0.000,0.000,-1.835,1.083,0.451,5.791,2.974,0.352,4.182,4.383,4.484,1.998,5.882,5.284,1.571,0.000,0.000,-1.516,1.003,0.451,5.775,3.032,0.213,
114.400,151.617,-1.727,0.838,1.366,0.032,0.264,0.000,0.000,0.520,0.563,0.889,2.840,2.940,0.000,1.354,0.000,0.000,0.755,0.000,0.000,0.000,0.000,0.000,0.000,0.000,0.000,0.000,0.000,0.000,3.142,0.001,0.000,2.100,1.897,1.799,4.285,0.398,1.000,4.712,0.000,0.000,-1.844,1.081,0.451,5.784,2.996,0.305,4.183,4.383,4.485,1.998,5.882,5.284,1.571,0.000,0.000,-1.522,1.015,0.451,5.771,3.055,0.165,
114.499,151.716,-1.726,0.839,1.384,-0.001,0.365,0.000,0.000,0.515,0.565,1.805,4.853,2.961,0.000,1.238,0.000,0.000,0.755,0.000,0.000,0.000,0.000,0.000,0.000,0.000,3.658,0.000,0.000,0.000,3.142,0.001,0.000,2.099,1.897,1.799,4.285,0.398,1.000,4.712,0.000,0.000,-1.848,1.081,0.451,5.781,3.005,0.285,4.182,4.383,4.485,1.998,5.882,5.284,1.571,0.000,0.000,-1.525,1.019,0.451,5.769,3.065,0.145,
114.600,151.817,-1.726,0.838,1.418,-0.020,0.579,0.000,0.000,0.506,0.568,1.870,4.996,3.010,0.000,1.245,0.000,0.000,0.755,0.000,0.000,0.000,0.000,0.000,0.000,0.000,3.340,0.000,0.000,0.000,3.142,0.001,0.000,2.100,1.897,1.799,4.285,0.398,1.000,4.712,0.000,0.000,-1.856,1.075,0.451,5.777,3.024,0.246,4.182,4.383,4.485,1.998,5.882,5.284,1.571,0.000,0.000,-1.531,1.025,0.451,5.767,3.085,0.106,
114.700,151.917,-1.727,0.837,1.450,-0.002,0.312,4.186,0.000,0.499,0.572,1.937,0.000,3.252,0.000,1.253,0.000,0.000,3.142,0.000,0.000,0.000,0.000,0.000,0.000,0.000,3.297,0.000,0.000,0.000,3.142,0.001,0.000,2.100,1.897,1.799,4.285,0.398,1.000,4.711,0.000,0.000,-1.864,1.069,0.451,5.773,3.042,0.209,4.182,4.383,4.484,1.998,5.882,5.284,1.571,0.000,0.000,-1.538,1.030,0.451,5.765,3.103,0.069,
114.790,152.007,-1.726,0.837,1.463,0.013,0.199,0.000,0.000,0.512,0.574,1.966,0.000,3.060,0.000,1.256,0.000,0.000,3.142,0.000,0.000,0.000,0.000,0.000,0.000,0.000,3.305,0.000,0.000,0.000,3.142,0.001,0.000,2.100,1.897,1.799,4.285,0.398,1.000,4.712,0.000,0.000,-1.867,1.068,0.451,5.772,3.048,0.195,4.182,4.383,4.485,1.998,5.882,5.284,1.571,0.000,0.000,-1.540,1.033,0.451,5.765,3.110,0.054,
114.900,152.117,-1.726,0.838,1.474,0.001,0.186,0.000,0.000,0.524,0.576,1.992,0.000,3.004,0.000,1.259,0.000,0.000,3.142,0.000,0.000,0.000,0.000,0.000,0.000,0.000,0.000,0.000,0.000,0.000,3.142,0.001,0.000,2.100,1.897,1.799,4.285,0.398,1.000,4.712,0.000,0.000,-1.869,1.068,0.451,5.771,3.054,0.183,4.182,4.383,4.485,1.998,5.882,5.284,1.571,0.000,0.000,-1.542,1.036,0.451,5.765,3.116,0.042,
115.000,152.217,-1.726,0.838,1.482,-0.008,0.205,0.000,0.000,0.534,0.577,2.011,0.000,2.965,0.000,1.261,0.000,0.000,3.142,0.000,0.000,0.000,0.000,0.000,0.000,0.000,0.000,0.000,0.000,0.000,3.142,0.001,0.000,2.100,1.897,1.799,4.285,0.398,1.000,4.712,0.000,0.000,-1.871,1.066,0.451,5.770,3.059,0.174,4.182,4.383,4.485,1.998,5.882,5.284,1.571,0.000,0.000,-1.543,1.037,0.451,5.765,3.121,0.033,
115.082,152.299,-1.726,0.837,1.496,-0.004,0.212,0.000,0.000,0.556,0.579,2.046,0.000,2.898,0.000,1.266,0.000,0.000,3.142,0.000,0.000,0.000,0.000,0.000,0.000,0.000,0.000,0.000,0.000,0.000,3.142,0.001,0.000,2.100,1.897,1.799,4.285,0.398,1.000,4.712,0.000,0.000,-1.874,1.063,0.451,5.769,3.067,0.158,4.182,4.383,4.485,1.998,5.882,5.284,1.571,0.000,0.000,-1.546,1.039,0.451,5.764,3.129,0.017,
115.191,152.408,-1.726,0.837,1.505,0.005,0.160,0.000,0.000,1.086,0.580,2.070,0.000,2.855,0.000,1.269,0.000,0.000,3.142,0.000,0.000,0.000,0.000,0.000,0.000,0.000,0.000,0.000,0.000,0.000,3.142,0.001,0.000,2.100,1.897,1.799,4.285,0.398,1.000,4.712,0.000,0.000,-1.876,1.062,0.451,5.769,3.072,0.147,4.182,4.383,4.485,1.998,5.882,5.284,1.571,0.000,0.000,-1.548,1.041,0.451,5.764,3.134,0.006,
115.300,152.517,-1.726,0.837,1.511,0.003,0.131,0.000,0.000,1.083,0.581,2.088,0.000,2.826,0.000,1.271,0.000,0.000,3.142,0.000,0.000,0.000,0.000,0.000,0.000,0.000,0.000,0.000,0.000,0.000,3.142,0.001,0.000,2.100,1.897,1.799,4.285,0.398,1.000,4.712,0.000,0.000,-1.878,1.062,0.451,5.768,3.076,0.140,4.182,4.383,4.485,1.998,5.882,5.284,1.571,0.000,0.000,-1.550,1.042,0.451,5.764,3.138,6.282,
115.400,152.617,-1.726,0.837,1.515,-0.003,0.120,0.000,0.000,1.082,0.582,2.098,0.000,2.810,0.000,1.272,0.000,0.000,3.142,0.000,0.000,0.000,0.000,0.000,0.000,0.000,0.000,0.000,0.000,0.000,3.142,0.001,0.000,2.100,1.897,1.799,4.285,0.398,1.000,4.712,0.000,0.000,-1.879,1.061,0.451,5.768,3.078,0.135,4.182,4.383,4.485,1.998,5.882,5.284,1.571,0.000,0.000,-1.550,1.043,0.451,5.764,3.140,6.277,
115.482,152.699,-1.726,0.837,1.521,-0.003,0.110,0.000,0.000,1.080,0.583,2.113,0.000,2.787,0.000,1.274,0.000,0.000,3.142,0.000,0.000,0.000,0.000,0.000,0.000,0.000,0.000,0.000,0.000,0.000,3.142,0.001,0.000,2.100,1.897,1.799,4.285,0.398,1.000,4.712,0.000,0.000,-1.880,1.060,0.451,5.768,3.081,0.129,4.182,4.383,4.485,1.998,5.882,5.284,1.571,0.000,0.000,-1.551,1.043,0.451,5.764,3.143,6.271,
115.596,152.812,-1.726,0.837,1.524,0.001,0.097,0.000,0.000,1.078,0.584,2.124,0.000,2.771,0.000,1.275,0.000,0.000,3.142,0.000,0.000,0.000,0.000,0.000,0.000,0.000,0.000,0.000,0.000,0.000,3.142,0.001,0.000,2.100,1.897,1.799,4.285,0.398,1.000,4.712,0.000,0.000,-1.881,1.059,0.451,5.767,3.083,0.125,4.182,4.383,4.485,1.998,5.882,5.284,1.571,0.000,0.000,-1.552,1.044,0.451,5.764,3.145,6.267,
115.700,152.917,-1.725,0.869,1.526,0.686,0.043,0.000,0.000,0.508,0.585,2.132,0.000,2.760,0.000,1.275,0.000,0.000,3.142,0.000,0.000,0.000,0.000,0.000,0.000,0.000,0.000,0.000,0.000,0.000,3.142,6.278,6.283,2.106,1.899,1.796,4.285,0.400,0.996,4.709,0.000,0.000,-1.881,1.088,0.450,5.770,3.088,0.116,4.181,4.386,4.482,1.997,5.883,5.283,1.570,0.000,0.000,-1.552,1.075,0.450,5.767,3.149,6.259,
115.800,153.017,-1.721,0.949,1.528,1.302,0.033,0.000,0.000,0.490,0.590,2.144,0.000,2.783,0.000,1.272,0.000,0.000,3.142,0.000,0.000,0.000,0.000,0.000,0.000,0.000,0.000,0.000,0.000,0.000,3.142,6.279,6.283,2.105,1.898,1.797,4.285,0.399,0.997,4.709,0.000,0.000,-1.878,1.168,0.450,5.769,3.088,0.115,4.182,4.386,4.482,1.997,5.883,5.283,1.570,0.000,0.000,-1.549,1.156,0.451,5.766,3.150,6.257,
115.892,153.108,-1.714,1.110,1.528,1.201,0.000,0.000,0.000,0.497,0.597,1.091,0.000,0.000,0.000,1.265,0.000,0.000,3.142,0.000,0.000,0.000,0.000,0.000,0.000,2.380,0.000,0.000,0.000,0.000,3.142,0.001,0.001,2.098,1.897,1.799,4.285,0.397,1.001,4.712,0.000,0.000,-1.869,1.332,0.452,5.766,3.085,0.121,4.183,4.383,4.485,1.998,5.881,5.284,1.571,0.000,0.000,-1.541,1.318,0.452,5.763,3.147,6.263,
116.000,153.217,-1.710,1.206,1.529,0.813,6.283,0.000,0.000,0.501,0.496,1.098,0.000,0.000,0.000,1.260,0.000,0.000,3.142,0.000,0.000,0.000,0.000,0.000,0.000,2.277,0.000,0.000,0.000,0.000,3.142,0.000,0.001,2.099,1.897,1.799,4.285,0.398,1.001,4.712,0.000,0.000,-1.866,1.428,0.451,5.766,3.085,0.120,4.183,4.383,4.485,1.998,5.882,5.283,1.571,0.000,0.000,-1.537,1.414,0.452,5.764,3.147,6.262,
116.100,153.317,-1.708,1.269,1.529,0.854,6.283,0.000,0.000,0.504,0.499,0.968,0.000,0.000,0.000,1.258,0.000,0.000,3.142,0.000,0.000,0.000,0.000,0.000,0.000,2.310,0.000,0.000,0.000,0.000,3.142,6.282,0.000,2.101,1.897,1.798,4.285,0.398,0.999,4.711,0.000,0.000,-1.863,1.490,0.451,5.768,3.087,0.118,4.183,4.384,4.484,1.998,5.882,5.283,1.570,0.000,0.000,-1.535,1.477,0.451,5.765,3.149,6.260,
116.200,153.417,-1.703,1.377,1.528,0.892,6.283,0.000,0.000,0.509,0.504,0.975,0.000,3.201,0.000,1.253,0.000,0.000,3.142,0.000,0.000,0.000,0.000,0.000,0.000,0.000,0.000,0.000,0.000,0.000,3.142,6.283,0.000,2.100,1.897,1.799,4.285,0.398,1.000,4.711,0.000,0.000,-1.859,1.598,0.451,5.767,3.086,0.119,4.183,4.383,4.484,1.998,5.882,5.283,1.571,0.000,0.000,-1.530,1.584,0.451,5.764,3.148,6.261,
116.297,153.513,-1.700,1.450,1.529,0.587,6.283,0.000,0.000,0.597,0.507,0.980,0.000,3.290,1.277,1.250,0.000,0.000,3.142,0.000,0.000,0.000,0.000,0.000,0.000,0.000,0.000,0.000,0.000,0.000,3.142,0.001,0.001,2.098,1.897,1.799,4.285,0.397,1.001,4.712,0.000,0.000,-1.855,1.673,0.451,5.766,3.085,0.121,4.183,4.383,4.485,1.998,5.882,5.284,1.571,0.000,0.000,-1.527,1.658,0.452,5.764,3.147,6.262,
116.400,153.617,-1.698,1.494,1.529,0.362,6.283,0.000,0.000,0.599,0.509,0.984,0.000,3.343,1.275,1.211,0.000,0.000,3.142,0.000,0.000,0.000,0.000,0.000,0.000,0.000,0.000,0.000,0.000,0.000,3.142,6.283,0.000,2.099,1.897,1.799,4.285,0.398,1.000,4.712,0.000,0.000,-1.854,1.716,0.451,5.767,3.086,0.119,4.183,4.383,4.484,1.998,5.882,5.283,1.571,0.000,0.000,-1.525,1.702,0.451,5.764,3.148,6.261,
116.500,153.717,-1.697,1.521,1.529,0.365,6.283,0.000,0.000,0.600,0.510,0.985,0.000,3.375,1.274,1.194,0.000,0.000,3.142,0.000,0.000,0.000,0.000,0.000,0.000,0.000,0.000,0.000,0.000,0.000,3.142,6.282,0.000,2.101,1.897,1.798,4.285,0.398,1.000,4.711,0.000,0.000,-1.853,1.742,0.451,5.767,3.086,0.118,4.183,4.384,4.484,1.998,5.882,5.283,1.570,0.000,0.000,-1.524,1.729,0.451,5.765,3.148,6.260,
116.600,153.817,-1.696,1.558,1.529,0.395,6.283,0.000,0.000,0.602,0.512,0.988,0.000,3.420,1.272,1.193,0.000,0.000,3.142,0.000,0.000,0.000,0.000,0.000,0.000,0.000,0.000,0.000,0.000,0.000,3.142,6.282,0.000,2.100,1.897,1.798,4.285,0.398,1.000,4.711,0.000,0.000,-1.851,1.780,0.451,5.767,3.086,0.119,4.183,4.384,4.484,1.998,5.882,5.283,1.570,0.000,0.000,-1.522,1.766,0.451,5.764,3.148,6.260,
116.686,153.902,-1.694,1.597,1.529,0.271,0.000,0.000,0.000,0.604,0.513,0.991,0.000,3.467,1.271,1.191,0.000,0.000,3.142,0.000,0.000,0.000,0.000,0.000,0.000,0.000,0.000,0.000,0.000,0.000,3.142,6.283,0.000,2.099,1.897,1.799,4.285,0.398,1.000,4.712,0.000,0.000,-1.849,1.819,0.451,5.767,3.086,0.119,4.183,4.383,4.484,1.998,5.882,5.283,1.571,0.000,0.000,-1.521,1.805,0.451,5.764,3.148,6.261,
116.800,154.016,-1.693,1.617,1.529,0.177,0.001,0.000,0.000,1.382,0.514,0.992,0.000,3.491,1.270,1.190,0.000,0.000,3.142,0.000,0.000,0.000,0.000,0.000,0.000,0.000,0.000,0.000,0.000,0.000,3.142,6.283,0.000,2.100,1.897,1.798,4.285,0.398,1.000,4.711,0.000,0.000,-1.849,1.839,0.451,5.767,3.086,0.119,4.183,4.384,4.484,1.998,5.882,5.283,1.570,0.000,0.000,-1.520,1.825,0.451,5.764,3.148,6.261,
116.900,154.117,-1.693,1.629,1.529,0.040,6.282,0.000,0.000,1.383,0.515,0.993,0.000,3.505,1.269,1.190,0.000,0.000,3.142,0.000,0.000,0.000,0.000,0.000,0.000,0.000,0.000,0.000,0.000,0.000,3.142,0.001,0.000,2.099,1.897,1.799,4.285,0.398,1.001,4.712,0.000,0.000,-1.848,1.851,0.451,5.766,3.085,0.120,4.183,4.383,4.485,1.998,5.882,5.284,1.571,0.000,0.000,-1.519,1.837,0.451,5.764,3.147,6.262,
117.000,154.217,-1.693,1.629,1.531,-0.009,0.130,0.000,0.000,1.382,0.515,0.996,0.000,3.510,1.268,1.190,0.000,0.000,3.142,0.000,0.000,0.000,0.000,0.000,0.000,0.000,0.000,0.000,0.000,0.000,3.142,0.001,0.000,2.099,1.897,1.800,4.286,0.397,1.000,4.712,0.000,0.000,-1.848,1.850,0.451,5.767,3.086,0.118,4.182,4.383,4.485,1.998,5.881,5.284,1.571,0.000,0.000,-1.519,1.836,0.451,5.765,3.148,6.260,
117.085,154.302,-1.693,1.627,1.557,-0.029,0.449,0.000,0.000,1.370,0.519,1.033,0.000,3.572,1.257,4.563,0.000,0.000,3.142,0.000,0.000,0.000,0.000,0.000,0.000,0.000,0.000,0.000,0.000,0.000,3.142,0.001,0.000,2.100,1.897,1.799,4.285,0.398,1.000,4.712,0.000,0.000,-1.854,1.844,0.451,5.766,3.101,0.088,4.182,4.383,4.485,1.998,5.882,5.284,1.571,0.000,0.000,-1.525,1.839,0.451,5.765,3.163,6.229,
117.186,154.403,-1.693,1.625,1.586,-0.021,0.321,0.000,0.000,0.595,0.525,1.078,0.000,3.646,1.245,4.560,0.000,0.000,3.142,0.000,0.000,0.000,0.000,0.000,0.000,0.000,0.000,0.000,0.000,0.000,3.142,0.001,0.000,2.100,1.897,1.799,4.285,0.398,1.000,4.712,0.000,0.000,-1.860,1.837,0.451,5.765,3.118,0.054,4.182,4.383,4.485,1.998,5.882,5.284,1.571,0.000,0.000,-1.532,1.842,0.451,5.765,3.180,6.196,
117.300,154.517,-1.692,1.624,1.599,0.000,0.188,0.000,0.000,0.592,0.528,1.101,0.000,3.908,1.240,4.560,0.000,0.000,3.142,0.000,0.000,0.000,0.000,0.000,0.000,0.000,0.000,0.000,0.000,0.000,3.142,0.001,0.000,2.100,1.897,1.799,4.285,0.398,1.000,4.712,0.000,0.000,-1.863,1.834,0.451,5.765,3.126,0.039,4.182,4.383,4.485,1.998,5.882,5.284,1.571,0.000,0.000,-1.534,1.844,0.451,5.766,3.188,6.180,
117.400,154.617,-1.692,1.625,1.608,0.011,0.204,0.000,0.000,0.591,0.529,1.116,0.000,3.865,1.237,4.560,0.000,0.000,3.142,0.000,0.000,0.000,0.000,0.000,0.000,0.000,0.000,0.000,0.000,0.000,3.142,0.001,0.000,2.100,1.897,1.799,4.285,0.398,1.000,4.712,0.000,0.000,-1.865,1.833,0.451,5.764,3.131,0.029,4.182,4.383,4.485,1.998,5.882,5.284,1.571,0.000,0.000,-1.536,1.846,0.451,5.767,3.193,6.170,
117.481,154.698,-1.692,1.626,1.623,0.000,0.212,0.000,0.000,0.589,0.533,1.144,0.000,3.860,1.232,4.561,0.000,0.000,3.142,0.000,0.000,0.000,0.000,0.000,0.000,0.000,0.000,0.000,0.000,0.000,3.142,0.001,0.000,2.100,1.897,1.799,4.285,0.398,1.000,4.712,0.000,0.000,-1.868,1.832,0.451,5.764,3.139,0.011,4.182,4.383,4.485,1.998,5.882,5.284,1.571,0.000,0.000,-1.540,1.849,0.451,5.767,3.201,6.153,
117.589,154.805,-1.692,1.625,1.633,-0.006,0.157,0.000,0.000,0.587,0.535,1.163,0.000,3.890,1.229,0.000,0.000,0.000,3.142,0.000,0.000,0.000,0.000,0.000,0.000,0.000,0.000,0.000,0.000,0.000,3.142,0.001,0.000,2.100,1.897,1.799,4.285,0.398,1.000,4.712,0.000,0.000,-1.870,1.830,0.451,5.764,3.145,6.283,4.182,4.383,4.485,1.998,5.882,5.284,1.571,0.000,0.000,-1.542,1.850,0.451,5.768,3.207,6.142,
117.700,154.917,-1.692,1.625,1.639,-0.004,0.135,0.000,0.000,0.587,0.536,1.175,0.000,3.911,1.227,0.000,0.000,0.000,3.142,0.000,0.000,0.000,0.000,0.000,0.000,0.000,0.000,0.000,0.000,0.000,3.142,0.001,0.000,2.100,1.897,1.799,4.285,0.398,1.000,4.712,0.000,0.000,-1.871,1.828,0.451,5.764,3.149,6.276,4.182,4.383,4.485,1.998,5.882,5.284,1.571,0.000,0.000,-1.543,1.851,0.451,5.769,3.210,6.134,
117.800,155.017,-1.692,1.625,1.644,-0.002,0.127,0.000,0.000,0.586,0.537,1.184,0.000,3.925,1.226,0.000,0.000,0.000,3.142,0.000,0.000,0.000,0.000,0.000,0.000,0.000,0.000,0.000,0.000,0.000,3.142,0.001,0.000,2.100,1.897,1.799,4.285,0.398,1.000,4.712,0.000,0.000,-1.872,1.827,0.451,5.764,3.151,6.271,4.182,4.383,4.485,1.998,5.882,5.284,1.571,0.000,0.000,-1.544,1.851,0.451,5.769,3.213,6.130,
117.900,155.117,-1.692,1.625,1.650,-0.002,0.113,0.000,0.000,0.585,0.539,1.196,0.000,3.944,1.224,0.000,0.000,0.000,3.142,0.000,0.000,0.000,0.000,0.000,0.000,0.000,0.000,0.000,0.000,0.000,3.142,0.001,0.000,2.100,1.897,1.799,4.285,0.398,1.000,4.712,0.000,0.000,-1.873,1.826,0.451,5.765,3.154,6.264,4.182,4.383,4.485,1.998,5.882,5.284,1.571,0.000,0.000,-1.545,1.852,0.451,5.769,3.216,6.123,
117.991,155.208,-1.692,1.625,1.654,0.000,0.105,0.000,0.000,0.585,0.540,1.205,0.000,3.959,1.223,0.000,0.000,0.000,3.142,0.000,0.000,0.000,0.000,0.000,0.000,0.000,0.000,0.000,0.000,0.000,3.142,0.001,0.000,2.100,1.897,1.799,4.285,0.398,1.000,4.712,0.000,0.000,-1.874,1.826,0.451,5.765,3.157,6.259,4.182,4.383,4.485,1.998,5.882,5.284,1.571,0.000,0.000,-1.546,1.853,0.451,5.770,3.219,6.118,
118.100,155.317,-1.694,1.645,1.659,0.540,6.260,0.000,0.000,0.582,0.539,1.213,0.000,3.988,1.223,0.000,0.000,0.000,3.142,0.000,0.000,0.000,0.000,0.000,0.000,0.000,0.000,0.000,0.000,0.000,3.142,6.278,6.283,2.106,1.898,1.796,4.285,0.400,0.996,4.709,0.000,0.000,-1.878,1.842,0.450,5.768,3.163,6.247,4.181,4.386,4.481,1.997,5.883,5.283,1.570,0.000,0.000,-1.550,1.872,0.451,5.773,3.224,6.106,
118.200,155.417,-1.700,1.713,1.659,1.181,0.041,0.000,0.000,1.327,0.533,1.202,0.000,3.995,1.229,0.000,0.000,0.000,3.142,0.000,0.000,0.000,0.000,0.000,0.000,0.000,0.000,0.000,0.000,0.000,3.142,6.278,6.283,2.106,1.898,1.797,4.285,0.399,0.996,4.709,0.000,0.000,-1.884,1.910,0.450,5.767,3.163,6.247,4.182,4.386,4.482,1.997,5.883,5.283,1.570,0.000,0.000,-1.556,1.941,0.451,5.772,3.224,6.106,
118.300,155.517,-1.712,1.847,1.660,1.366,0.000,0.000,0.000,1.314,0.608,1.178,0.000,4.168,1.241,4.902,0.000,0.000,3.142,0.000,0.000,0.000,0.000,0.000,0.000,0.000,0.000,0.000,0.000,0.000,3.142,6.283,0.000,2.100,1.897,1.799,4.285,0.398,1.000,4.711,0.000,0.000,-1.895,2.047,0.451,5.764,3.160,6.252,4.183,4.383,4.484,1.998,5.882,5.283,1.571,0.000,0.000,-1.567,2.076,0.451,5.770,3.222,6.110,
118.400,155.617,-1.724,1.977,1.660,0.852,6.283,0.000,0.000,0.639,0.596,0.948,0.000,4.341,1.253,4.915,0.000,0.000,3.142,0.000,0.000,0.000,0.000,0.000,0.000,0.000,0.000,0.000,0.000,0.000,3.142,0.001,0.001,2.098,1.897,1.799,4.285,0.397,1.001,4.712,0.000,0.000,-1.906,2.177,0.451,5.763,3.160,6.253,4.183,4.383,4.485,1.998,5.882,5.284,1.571,0.000,0.000,-1.579,2.206,0.452,5.769,3.222,6.111,
