deveshdatwani/Gopher/Assets/Data/07-13 17-36-34/Reading_robot_value.csv
game_time,true_time,x,y,az,vx,vaz,dis_to_obs_0,dis_to_obs_36,dis_to_obs_72,dis_to_obs_108,dis_to_obs_144,dis_to_obs_180,dis_to_obs_-144,dis_to_obs_-108,dis_to_obs_-72,dis_to_obs_-36,dis_to_min_obs,direction_to_min_obs,dis_to_human_0,dis_to_human_36,dis_to_human_72,dis_to_human_108,dis_to_human_144,dis_to_human_180,dis_to_human_-144,dis_to_human_-108,dis_to_human_-72,dis_to_human_-36,dis_to_min_human,direction_to_min_human,main_cam_yaw,main_cam_pitch,left_joint_1,left_joint_2,left_joint_3,left_joint_4,left_joint_5,left_joint_6,left_joint_7,left_joint_gripper,left_is_grasping,left_end_x,left_end_y,left_end_z,left_end_ax,left_end_ay,left_end_az,right_joint_1,right_joint_2,right_joint_3,right_joint_4,right_joint_5,right_joint_6,right_joint_7,right_joint_gripper,right_is_grasping,right_end_x,right_end_y,right_end_z,right_end_ax,right_end_ay,right_end_az,
192.940,232.539,-5.886,10.784,2.410,0.135,1.202,2.003,0.000,3.325,0.000,0.000,2.639,2.279,1.037,1.216,0.000,0.000,3.071,0.000,0.000,0.000,0.000,0.000,0.000,0.000,0.000,0.000,0.000,0.000,3.142,0.000,6.283,2.102,1.897,1.798,4.285,0.399,0.999,4.710,0.000,0.000,-6.155,10.804,0.451,5.925,3.524,5.435,4.182,4.384,4.484,1.998,5.883,5.284,1.571,0.000,0.000,-5.936,11.049,0.451,5.967,3.560,5.313,
193.040,232.639,-5.897,10.793,2.517,0.124,1.155,1.831,0.000,2.862,0.000,0.000,3.448,2.279,1.071,2.495,0.000,0.000,2.966,0.000,0.000,0.000,0.000,0.000,0.000,0.000,0.000,0.000,0.000,0.000,3.142,0.002,0.000,2.100,1.897,1.799,4.285,0.398,1.000,4.712,0.000,0.000,-6.167,10.785,0.451,5.966,3.559,5.333,4.182,4.383,4.485,1.999,5.882,5.284,1.571,0.000,0.000,-5.975,11.052,0.452,6.011,3.589,5.213,
193.123,232.722,-5.899,10.795,2.625,-0.060,1.074,1.710,0.000,2.526,0.000,0.000,3.220,2.296,1.627,2.426,0.000,0.000,2.861,0.000,0.000,0.000,0.000,0.000,0.000,0.000,0.000,0.000,0.000,0.000,3.142,0.002,0.000,2.099,1.897,1.800,4.286,0.398,1.001,4.712,0.000,0.000,-6.167,10.758,0.451,6.010,3.589,5.230,4.182,4.383,4.485,1.999,5.882,5.284,1.571,0.000,0.000,-6.004,11.044,0.452,6.059,3.614,5.114,
193.221,232.820,-5.894,10.792,2.718,-0.051,1.154,1.794,0.000,2.308,0.000,0.000,3.065,2.327,1.487,2.457,0.000,0.000,2.755,0.000,0.000,0.000,0.000,0.000,0.000,0.000,0.000,0.000,0.000,0.000,3.142,0.002,0.000,2.100,1.897,1.799,4.285,0.398,1.000,4.711,0.000,0.000,-6.158,10.731,0.451,6.052,3.611,5.143,4.182,4.383,4.485,1.998,5.882,5.284,1.571,0.000,0.000,-6.022,11.030,0.451,6.103,3.631,5.029,
193.340,232.939,-5.893,10.792,2.795,0.009,1.201,2.197,0.000,2.183,0.000,0.000,2.969,1.025,1.396,3.109,0.000,0.000,2.685,0.000,0.000,0.000,0.000,0.000,0.000,0.000,0.000,0.000,0.000,0.000,3.142,0.001,0.000,2.100,1.897,1.799,4.285,0.398,1.000,4.711,0.000,0.000,-6.151,10.710,0.451,6.088,3.625,5.073,4.182,4.384,4.485,1.998,5.882,5.284,1.571,0.000,0.000,-6.039,11.019,0.451,6.139,3.642,4.960,
193.440,233.039,-5.895,10.793,2.892,0.032,1.119,4.115,0.000,0.000,0.000,0.000,2.350,1.026,1.304,1.759,0.000,0.000,2.615,0.000,0.000,0.000,0.000,0.000,0.000,0.000,0.000,0.000,0.000,0.000,3.142,0.002,0.000,2.100,1.897,1.799,4.286,0.398,1.000,4.711,0.000,0.000,-6.144,10.686,0.451,6.133,3.640,4.987,4.182,4.383,4.485,1.999,5.882,5.284,1.571,0.000,0.000,-6.063,11.005,0.451,6.186,3.652,4.875,
193.540,233.139,-5.898,10.793,2.988,0.009,1.205,4.040,0.000,0.000,0.000,2.665,2.307,1.036,1.236,2.649,0.000,0.000,2.510,0.000,0.000,0.000,0.000,0.000,0.000,0.000,0.000,0.000,0.000,0.000,3.142,0.002,0.000,2.100,1.897,1.799,4.286,0.398,1.000,4.711,0.000,0.000,-6.135,10.663,0.451,6.180,3.651,4.902,4.182,4.383,4.485,1.999,5.882,5.284,1.571,0.000,0.000,-6.085,10.988,0.451,6.233,3.658,4.791,
193.640,233.239,-5.925,10.797,3.075,0.633,0.590,3.979,0.000,0.000,0.000,2.648,2.312,1.077,2.556,2.696,0.000,0.000,2.440,0.000,0.000,0.000,0.000,0.000,0.000,0.000,0.000,0.000,0.000,0.000,3.142,6.280,6.283,2.106,1.899,1.796,4.285,0.400,0.996,4.709,0.000,0.000,-6.148,10.645,0.450,6.226,3.654,4.821,4.182,4.386,4.481,1.998,5.884,5.283,1.570,0.000,0.000,-6.128,10.974,0.451,6.279,3.660,4.711,
193.740,233.339,-6.020,10.802,3.111,1.220,0.467,3.880,0.000,0.000,0.000,2.722,2.403,1.176,2.517,2.718,0.000,0.000,2.510,0.000,0.000,0.000,0.000,0.000,0.000,0.000,0.000,0.000,0.000,0.000,3.142,6.281,6.283,2.103,1.898,1.798,4.286,0.399,0.998,4.710,0.000,0.000,-6.238,10.644,0.450,6.241,3.657,4.792,4.182,4.385,4.483,1.998,5.883,5.283,1.571,0.000,0.000,-6.229,10.973,0.451,0.011,3.660,4.682,
193.840,233.439,-6.144,10.805,3.130,1.189,0.069,3.756,0.000,1.895,0.000,0.000,2.526,1.883,2.497,3.254,0.000,0.000,2.580,0.000,0.000,0.000,0.000,0.000,0.000,0.000,0.000,0.000,0.000,0.000,3.142,0.001,0.000,2.099,1.897,1.799,4.285,0.398,1.001,4.712,0.000,0.000,-6.361,10.643,0.451,6.250,3.660,4.778,4.183,4.383,4.485,1.998,5.882,5.284,1.571,0.000,0.000,-6.357,10.972,0.452,0.020,3.661,4.667,
193.940,233.539,-6.246,10.806,3.131,0.899,6.281,3.654,0.000,2.833,0.000,0.000,2.628,1.880,2.495,3.253,0.000,0.000,2.650,0.000,0.000,0.000,0.000,0.000,0.000,0.000,0.000,0.000,0.000,0.000,3.142,0.001,0.000,2.099,1.897,1.799,4.285,0.398,1.001,4.712,0.000,0.000,-6.463,10.644,0.451,6.250,3.660,4.777,4.183,4.383,4.485,1.998,5.882,5.284,1.571,0.000,0.000,-6.459,10.973,0.452,0.021,3.661,4.666,
194.040,233.639,-6.332,10.807,3.131,0.922,6.282,3.568,0.000,2.834,0.000,0.000,2.715,1.877,2.494,2.814,0.000,0.000,2.685,0.000,0.000,0.000,0.000,0.000,0.000,0.000,0.000,0.000,0.000,0.000,3.142,6.282,0.000,2.101,1.897,1.798,4.285,0.398,0.999,4.711,0.000,0.000,-6.549,10.644,0.451,6.251,3.659,4.776,4.183,4.384,4.484,1.998,5.882,5.283,1.571,0.000,0.000,-6.545,10.973,0.451,0.022,3.660,4.665,
194.129,233.728,-6.452,10.808,3.131,1.082,6.283,3.448,0.000,2.495,0.000,0.000,2.835,1.875,2.564,3.251,0.000,0.000,2.755,0.000,0.000,0.000,0.000,0.000,0.000,0.000,0.000,0.000,0.000,0.000,3.142,6.282,0.000,2.101,1.897,1.798,4.285,0.398,0.999,4.711,0.000,0.000,-6.669,10.646,0.451,6.251,3.659,4.776,4.183,4.384,4.484,1.998,5.882,5.283,1.571,0.000,0.000,-6.665,10.975,0.451,0.022,3.660,4.665,
194.225,233.824,-6.558,10.809,3.131,1.038,6.282,3.342,0.000,2.139,0.000,0.000,2.940,1.873,1.892,2.722,0.000,0.000,2.791,0.000,0.000,0.000,0.000,0.000,0.000,0.000,0.000,0.000,0.000,0.000,3.142,6.283,0.000,2.100,1.897,1.799,4.285,0.398,1.000,4.711,0.000,0.000,-6.774,10.647,0.451,6.250,3.660,4.776,4.183,4.384,4.484,1.998,5.882,5.283,1.571,0.000,0.000,-6.771,10.976,0.451,0.021,3.660,4.665,
194.334,233.933,-6.656,10.810,3.119,0.973,5.689,3.244,0.000,1.853,2.819,0.000,3.039,1.905,1.843,2.502,0.000,0.000,2.826,0.000,0.000,0.000,0.000,0.000,0.000,0.000,0.000,0.000,0.000,0.000,3.142,6.281,0.001,2.101,1.897,1.797,4.285,0.398,0.999,4.711,0.000,0.000,-6.874,10.650,0.451,6.246,3.659,4.786,4.183,4.384,4.483,1.998,5.882,5.283,1.570,0.000,0.000,-6.867,10.979,0.451,0.016,3.661,4.675,
194.436,234.035,-6.753,10.814,3.063,1.000,5.800,3.153,0.000,1.894,2.123,0.000,3.144,2.065,1.869,2.652,0.000,0.000,2.896,0.000,0.000,0.000,0.000,0.000,0.000,0.000,0.000,0.000,0.000,0.000,3.142,6.281,0.000,2.100,1.897,1.798,4.285,0.398,0.999,4.711,0.000,0.000,-6.980,10.667,0.451,6.217,3.657,4.834,4.182,4.384,4.484,1.998,5.882,5.283,1.570,0.000,0.000,-6.954,10.994,0.451,6.271,3.660,4.724,
194.526,234.125,-6.853,10.822,3.054,1.030,6.283,3.055,0.000,1.910,1.888,0.000,3.247,2.082,1.957,2.331,0.000,0.000,2.931,0.000,0.000,0.000,0.000,0.000,0.000,0.000,0.000,0.000,0.000,0.000,3.142,6.282,0.000,2.101,1.897,1.798,4.285,0.398,0.999,4.711,0.000,0.000,-7.081,10.677,0.451,6.213,3.656,4.843,4.183,4.384,4.484,1.998,5.882,5.283,1.570,0.000,0.000,-7.052,11.005,0.451,6.266,3.660,4.732,
194.639,234.238,-6.953,10.831,3.054,1.016,0.000,2.954,0.000,1.919,1.897,0.000,3.348,2.065,2.217,1.904,0.000,0.000,2.931,0.000,0.000,0.000,0.000,0.000,0.000,0.000,0.000,0.000,0.000,0.000,3.142,6.282,0.000,2.100,1.897,1.798,4.285,0.398,1.000,4.711,0.000,0.000,-7.182,10.686,0.451,6.212,3.656,4.843,4.183,4.384,4.484,1.998,5.882,5.283,1.570,0.000,0.000,-7.153,11.013,0.451,6.266,3.660,4.732,
194.729,234.328,-7.052,10.840,3.054,1.001,0.000,2.855,0.000,1.929,1.906,0.000,3.447,2.049,2.473,1.484,0.000,0.000,2.966,0.000,0.000,0.000,0.000,0.000,0.000,0.000,0.000,0.000,0.000,0.000,3.142,6.282,0.000,2.100,1.897,1.798,4.285,0.398,1.000,4.711,0.000,0.000,-7.280,10.695,0.451,6.212,3.656,4.843,4.183,4.384,4.484,1.998,5.882,5.283,1.570,0.000,0.000,-7.251,11.022,0.451,6.266,3.660,4.732,
194.840,234.439,-7.150,10.849,3.054,1.008,0.000,2.757,0.000,1.938,1.915,0.000,3.546,2.037,2.728,1.066,0.000,0.000,2.966,0.000,0.000,0.000,0.000,0.000,0.000,0.000,0.000,0.000,0.000,0.000,3.142,6.282,0.000,2.100,1.897,1.798,4.285,0.398,1.000,4.711,0.000,0.000,-7.379,10.703,0.451,6.212,3.656,4.843,4.183,4.384,4.484,1.998,5.882,5.283,1.570,0.000,0.000,-7.350,11.031,0.451,6.266,3.660,4.733,
194.936,234.535,-7.250,10.857,3.053,1.016,0.000,2.657,0.000,1.948,2.048,0.000,3.646,2.103,2.985,0.662,0.000,0.000,2.966,0.000,0.000,0.000,0.000,0.000,0.000,0.000,0.000,0.000,0.000,0.000,3.142,6.282,0.000,2.100,1.897,1.798,4.285,0.398,1.000,4.711,0.000,0.000,-7.478,10.712,0.451,6.212,3.656,4.844,4.183,4.384,4.484,1.998,5.882,5.283,1.570,0.000,0.000,-7.449,11.040,0.451,6.266,3.660,4.733,
195.039,234.638,-7.349,10.866,3.053,1.012,0.000,2.557,0.000,1.958,2.171,0.000,3.746,2.286,3.242,0.653,0.000,0.000,3.001,0.000,0.000,0.000,0.000,0.000,0.000,0.000,0.000,0.000,0.000,0.000,3.142,6.282,0.000,2.100,1.897,1.798,4.285,0.398,1.000,4.711,0.000,0.000,-7.577,10.721,0.451,6.212,3.656,4.844,4.183,4.384,4.484,1.998,5.882,5.283,1.570,0.000,0.000,-7.549,11.049,0.451,6.266,3.660,4.733,
195.137,234.736,-7.448,10.875,3.053,1.008,0.000,2.458,0.000,1.967,2.521,0.000,3.845,2.638,2.740,0.644,0.000,0.000,3.001,0.000,0.000,0.000,0.000,0.000,0.000,0.000,0.000,0.000,0.000,0.000,3.142,6.282,0.000,2.100,1.897,1.798,4.285,0.398,1.000,4.711,0.000,0.000,-7.676,10.730,0.451,6.212,3.656,4.844,4.183,4.384,4.484,1.998,5.882,5.283,1.570,0.000,0.000,-7.648,11.057,0.451,6.266,3.660,4.733,
195.238,234.837,-7.547,10.884,3.053,1.010,0.000,2.359,0.000,1.977,2.876,4.124,3.944,0.000,2.730,0.635,0.000,0.000,2.475,0.000,0.000,0.000,0.000,0.000,0.000,0.000,0.000,0.000,0.000,0.000,3.142,6.282,0.000,2.100,1.897,1.798,4.285,0.398,1.000,4.711,0.000,0.000,-7.775,10.739,0.451,6.212,3.656,4.844,4.183,4.384,4.484,1.998,5.882,5.283,1.570,0.000,0.000,-7.746,11.066,0.451,6.266,3.660,4.733,
195.340,234.939,-7.626,10.891,3.053,1.012,6.283,2.279,0.000,1.984,2.883,4.198,4.024,0.000,2.723,0.627,0.000,0.000,2.475,0.000,0.000,0.000,0.000,0.000,0.000,0.000,0.000,0.000,0.000,0.000,3.142,6.282,0.000,2.100,1.897,1.798,4.285,0.398,1.000,4.711,0.000,0.000,-7.855,10.746,0.451,6.212,3.656,4.844,4.183,4.384,4.484,1.998,5.882,5.283,1.570,0.000,0.000,-7.826,11.073,0.451,6.266,3.660,4.733,
195.440,235.039,-7.745,10.901,3.082,1.011,0.912,2.156,0.000,1.974,1.931,4.289,4.135,0.000,0.642,0.621,0.000,0.000,2.475,0.000,0.000,0.000,0.000,0.000,0.000,0.000,0.000,0.000,0.000,0.000,3.142,0.001,0.000,2.100,1.897,1.800,4.285,0.398,1.000,4.711,0.000,0.000,-7.970,10.750,0.451,6.225,3.658,4.820,4.183,4.384,4.485,1.998,5.882,5.284,1.571,0.000,0.000,-7.950,11.079,0.451,6.279,3.660,4.709,
195.540,235.139,-7.825,10.905,3.157,0.990,0.935,2.077,0.000,1.930,2.994,4.329,4.207,3.767,0.622,0.632,0.000,0.000,2.791,0.000,0.000,0.000,0.000,0.000,0.000,0.000,0.000,0.000,0.000,0.000,3.142,0.001,0.000,2.100,1.898,1.799,4.286,0.399,1.000,4.711,0.000,0.000,-8.037,10.737,0.451,6.263,3.660,4.754,4.182,4.384,4.485,1.999,5.883,5.283,1.571,0.000,0.000,-8.042,11.066,0.452,0.034,3.660,4.643,
195.640,235.239,-7.939,10.901,3.183,0.953,0.001,1.964,0.000,1.913,2.000,4.421,4.325,3.650,0.621,0.642,0.000,0.000,2.826,0.000,0.000,0.000,0.000,0.000,0.000,0.000,0.000,0.000,0.000,0.000,3.142,6.282,0.000,2.100,1.897,1.798,4.285,0.398,1.000,4.711,0.000,0.000,-8.147,10.728,0.451,6.276,3.660,4.731,4.183,4.384,4.484,1.998,5.882,5.283,1.570,0.000,0.000,-8.160,11.057,0.451,0.047,3.658,4.620,
195.740,235.339,-8.014,10.898,3.182,0.960,0.001,1.889,0.000,1.910,1.996,4.485,4.400,3.657,0.624,0.645,0.000,0.000,2.896,0.000,0.000,0.000,0.000,0.000,0.000,0.000,0.000,0.000,0.000,0.000,3.142,6.282,0.000,2.101,1.897,1.798,4.285,0.398,0.999,4.711,0.000,0.000,-8.222,10.725,0.451,6.276,3.660,4.731,4.183,4.384,4.484,1.998,5.882,5.283,1.570,0.000,0.000,-8.235,11.054,0.451,0.047,3.658,4.621,
195.840,235.439,-8.129,10.894,3.182,0.980,0.001,1.774,0.000,1.906,1.416,4.582,4.514,2.655,0.629,0.650,0.000,0.000,2.931,0.000,0.000,0.000,0.000,0.000,0.000,0.000,0.000,0.000,0.000,0.000,3.142,6.282,0.000,2.101,1.897,1.798,4.285,0.398,0.999,4.711,0.000,0.000,-8.336,10.720,0.451,6.276,3.660,4.732,4.183,4.384,4.484,1.998,5.882,5.283,1.570,0.000,0.000,-8.350,11.049,0.451,0.047,3.658,4.621,
195.931,235.530,-8.225,10.890,3.181,0.974,0.001,1.678,0.000,1.902,1.986,4.663,4.610,0.982,0.633,2.435,0.000,0.000,2.931,0.000,0.000,0.000,0.000,0.000,0.000,0.000,0.000,0.000,0.000,0.000,3.142,6.282,0.000,2.100,1.897,1.798,4.285,0.398,1.000,4.711,0.000,0.000,-8.433,10.717,0.451,6.276,3.660,4.732,4.183,4.384,4.484,1.998,5.882,5.283,1.570,0.000,0.000,-8.446,11.045,0.451,0.046,3.658,4.621,
196.040,235.639,-8.320,10.886,3.181,0.966,0.001,1.583,0.000,1.898,1.982,4.744,4.706,0.988,0.637,3.225,0.000,0.000,2.931,0.000,0.000,0.000,0.000,0.000,0.000,0.000,0.000,0.000,0.000,0.000,3.142,6.282,0.000,2.100,1.897,1.798,4.285,0.398,1.000,4.711,0.000,0.000,-8.528,10.713,0.451,6.275,3.660,4.732,4.183,4.384,4.484,1.998,5.882,5.283,1.570,0.000,0.000,-8.541,11.042,0.451,0.046,3.658,4.622,
196.132,235.731,-8.408,10.883,3.173,0.756,5.825,1.494,0.000,1.899,1.972,4.820,4.792,1.004,0.642,3.219,0.000,0.000,2.931,0.000,0.000,0.000,0.000,0.000,0.000,0.000,0.000,0.000,0.000,0.000,3.142,6.283,0.001,2.099,1.897,1.798,4.285,0.398,1.000,4.712,0.000,0.000,-8.618,10.711,0.451,6.272,3.661,4.740,4.184,4.383,4.484,1.998,5.882,5.283,1.570,0.000,0.000,-8.628,11.040,0.452,0.042,3.660,4.629,
196.232,235.831,-8.469,10.882,3.088,0.540,4.878,1.432,0.000,2.953,1.914,0.000,4.857,1.132,0.662,2.370,0.000,0.000,3.036,0.000,0.000,0.000,0.000,0.000,0.000,0.000,0.000,0.000,0.000,0.000,3.142,6.281,0.001,2.100,1.897,1.798,4.285,0.398,1.000,4.711,0.000,0.000,-8.692,10.728,0.451,6.230,3.658,4.813,4.183,4.383,4.483,1.998,5.882,5.283,1.570,0.000,0.000,-8.675,11.057,0.452,0.001,3.661,4.702,
196.326,235.925,-8.525,10.886,2.971,0.663,5.089,1.391,0.000,1.260,1.867,1.244,0.000,0.000,0.692,2.305,0.000,0.000,3.142,0.000,0.000,0.000,0.000,0.000,0.000,0.000,0.000,0.000,0.000,0.000,3.142,6.280,0.000,2.102,1.897,1.798,4.285,0.398,0.999,4.710,0.000,0.000,-8.764,10.760,0.451,6.172,3.649,4.915,4.182,4.384,4.483,1.998,5.882,5.283,1.570,0.000,0.000,-8.709,11.084,0.451,6.225,3.657,4.804,
196.425,236.024,-8.596,10.900,2.887,0.767,5.384,1.342,0.000,0.946,1.860,2.823,0.000,3.703,0.710,2.270,0.000,0.000,3.142,0.000,0.000,0.000,0.000,0.000,0.000,0.000,0.000,0.000,0.000,0.000,3.142,6.281,0.000,2.101,1.897,1.798,4.285,0.398,0.999,4.711,0.000,0.000,-8.845,10.794,0.451,6.132,3.639,4.989,4.182,4.384,4.484,1.998,5.882,5.283,1.570,0.000,0.000,-8.762,11.113,0.451,6.184,3.651,4.877,
196.540,236.139,-8.652,10.915,2.825,0.718,5.291,1.306,0.000,0.760,1.869,1.687,0.000,3.356,0.721,2.249,0.000,0.000,3.142,0.000,0.000,0.000,0.000,0.000,0.000,0.000,0.000,0.000,0.000,0.000,3.142,6.281,0.001,2.100,1.897,1.798,4.286,0.398,1.000,4.711,0.000,0.000,-8.908,10.826,0.451,6.102,3.630,5.045,4.182,4.383,4.484,1.998,5.882,5.283,1.570,0.000,0.000,-8.805,11.138,0.451,6.154,3.645,4.932,
196.640,236.239,-8.726,10.942,2.719,0.644,5.176,1.277,0.000,0.848,1.901,2.225,0.000,4.606,0.750,2.972,0.000,0.000,3.142,0.000,0.000,0.000,0.000,0.000,0.000,0.000,0.000,0.000,0.000,0.000,3.142,6.281,0.000,2.101,1.897,1.798,4.285,0.398,0.999,4.711,0.000,0.000,-8.990,10.879,0.451,6.054,3.611,5.141,4.182,4.383,4.484,1.998,5.882,5.283,1.570,0.000,0.000,-8.855,11.179,0.451,6.104,3.631,5.026,
196.740,236.339,-8.773,10.963,2.646,0.672,5.211,1.270,0.000,0.938,2.897,2.159,0.000,3.755,0.773,2.192,0.000,0.000,3.142,0.000,0.000,0.000,0.000,0.000,0.000,0.000,0.000,0.000,0.000,0.000,3.142,6.280,0.000,2.101,1.897,1.798,4.285,0.398,0.999,4.711,0.000,0.000,-9.040,10.920,0.451,6.021,3.594,5.208,4.182,4.384,4.484,1.998,5.882,5.283,1.570,0.000,0.000,-8.884,11.210,0.451,6.070,3.618,5.092,
196.840,236.439,-8.844,11.005,2.542,0.710,5.252,1.265,0.000,1.119,0.949,2.103,0.000,3.918,0.805,1.633,0.000,0.000,3.142,0.000,0.000,0.000,0.000,0.000,0.000,0.000,0.000,0.000,0.000,0.000,3.142,6.281,0.000,2.101,1.897,1.798,4.285,0.398,0.999,4.711,0.000,0.000,-9.114,10.990,0.451,5.977,3.567,5.307,4.182,4.384,4.484,1.998,5.882,5.283,1.570,0.000,0.000,-8.928,11.261,0.451,6.023,3.595,5.188,
196.936,236.535,-8.899,11.044,2.455,0.688,5.243,1.276,0.000,1.208,0.791,1.056,3.233,0.000,0.836,1.411,0.000,0.000,0.755,0.000,0.000,0.000,0.000,0.000,0.000,0.000,0.000,0.000,0.000,0.000,3.142,6.281,0.000,2.100,1.897,1.798,4.285,0.398,0.999,4.711,0.000,0.000,-9.170,11.053,0.451,5.942,3.540,5.391,4.182,4.383,4.484,1.998,5.882,5.283,1.570,0.000,0.000,-8.962,11.307,0.451,5.986,3.573,5.270,
197.034,236.633,-8.950,11.088,2.367,0.675,5.225,1.307,0.000,1.087,0.867,2.082,3.099,0.000,0.879,1.265,0.000,0.000,0.755,0.000,0.000,0.000,0.000,0.000,0.000,0.000,0.000,0.000,0.000,0.000,3.142,6.281,0.000,2.101,1.897,1.798,4.286,0.398,0.999,4.711,0.000,0.000,-9.219,11.120,0.451,5.909,3.509,5.478,4.182,4.383,4.484,1.998,5.882,5.283,1.570,0.000,0.000,-8.989,11.355,0.451,5.950,3.547,5.354,
197.127,236.726,-8.977,11.115,2.282,0.032,5.279,1.386,0.000,1.011,0.937,2.081,2.729,0.000,0.983,1.132,0.000,0.000,0.755,0.000,0.000,0.000,0.000,0.000,0.000,0.000,0.000,0.000,0.000,0.000,3.142,0.001,0.001,2.096,1.896,1.800,4.285,0.396,1.002,4.713,0.000,0.000,-9.243,11.172,0.452,5.876,3.477,5.568,4.183,4.381,4.486,1.999,5.881,5.284,1.571,0.000,0.000,-8.993,11.385,0.452,5.915,3.518,5.441,
197.221,236.820,-8.967,11.101,2.191,-0.278,5.110,1.568,0.000,0.987,0.976,2.055,2.525,0.000,1.297,0.967,0.000,0.000,0.755,0.000,0.000,0.000,0.000,0.000,0.000,0.000,0.000,0.000,0.000,0.000,3.142,6.282,0.000,2.100,1.897,1.799,4.285,0.398,1.000,4.711,0.000,0.000,-9.226,11.180,0.451,5.850,3.438,5.660,4.182,4.383,4.484,1.998,5.881,5.284,1.571,0.000,0.000,-8.958,11.371,0.451,5.885,3.483,5.531,
197.340,236.939,-8.959,11.089,2.110,-0.095,5.154,1.783,0.000,0.971,1.023,2.994,2.379,0.000,3.629,0.860,0.000,0.000,0.755,0.000,0.000,0.000,0.000,0.000,0.000,0.000,0.000,0.000,0.000,0.000,3.142,6.280,0.000,2.102,1.898,1.798,4.285,0.398,0.998,4.710,0.000,0.000,-9.210,11.188,0.451,5.830,3.401,5.745,4.182,4.384,4.484,1.998,5.882,5.283,1.570,0.000,0.000,-8.928,11.357,0.451,5.860,3.450,5.614,
197.440,237.039,-8.976,11.121,2.056,0.751,6.265,1.916,0.000,0.942,1.115,0.985,2.346,0.000,4.387,0.836,0.000,0.000,0.790,0.000,0.000,0.000,0.000,0.000,0.000,0.000,0.000,0.000,0.000,0.000,3.142,6.279,6.283,2.105,1.898,1.797,4.285,0.399,0.997,4.709,0.000,0.000,-9.222,11.232,0.450,5.818,3.376,5.800,4.182,4.386,4.482,1.997,5.883,5.283,1.570,0.000,0.000,-8.931,11.387,0.450,5.846,3.427,5.668,
197.520,237.119,-9.017,11.198,2.056,0.870,6.283,1.832,0.000,0.901,1.220,0.904,2.433,0.000,3.955,0.895,0.000,0.000,0.755,0.000,0.000,0.000,0.000,0.000,0.000,0.000,0.000,0.000,0.000,0.000,3.142,0.000,0.000,2.099,1.897,1.799,4.285,0.398,1.000,4.712,0.000,0.000,-9.263,11.312,0.451,5.815,3.375,5.804,4.183,4.383,4.484,1.998,5.882,5.283,1.571,0.000,0.000,-8.972,11.465,0.451,5.843,3.427,5.671,
197.622,237.221,-9.047,11.257,2.056,0.482,6.283,1.768,0.000,0.869,1.260,0.962,2.499,0.000,1.375,0.939,0.000,0.000,0.755,0.000,0.000,0.000,0.000,0.000,0.000,0.000,0.000,0.000,0.000,0.000,3.142,0.001,0.001,2.098,1.897,1.799,4.285,0.397,1.001,4.712,0.000,0.000,-9.294,11.371,0.451,5.814,3.375,5.805,4.183,4.383,4.485,1.998,5.882,5.284,1.571,0.000,0.000,-9.003,11.524,0.452,5.842,3.427,5.672,
197.740,237.339,-9.063,11.285,2.057,0.403,6.283,1.736,0.000,0.854,1.238,0.991,2.531,0.000,1.214,0.961,0.000,0.000,0.755,0.000,0.000,0.000,0.000,0.000,0.000,0.000,0.000,0.000,0.000,0.000,3.142,6.282,0.000,2.100,1.897,1.798,4.285,0.398,1.000,4.711,0.000,0.000,-9.308,11.398,0.451,5.816,3.376,5.803,4.183,4.384,4.484,1.998,5.882,5.283,1.570,0.000,0.000,-9.018,11.552,0.451,5.844,3.427,5.670,
197.840,237.439,-9.090,11.338,2.057,0.631,6.283,1.679,0.000,0.825,1.197,1.044,2.591,0.000,0.918,1.002,0.000,0.000,0.755,0.000,0.000,0.000,0.000,0.000,0.000,0.000,0.000,0.000,0.000,0.000,3.142,6.282,0.000,2.102,1.897,1.798,4.285,0.398,0.999,4.711,0.000,0.000,-9.336,11.450,0.451,5.817,3.376,5.802,4.183,4.384,4.484,1.997,5.882,5.283,1.570,0.000,0.000,-9.045,11.604,0.451,5.844,3.427,5.669,
197.940,237.539,-9.114,11.383,2.056,0.669,0.001,1.629,0.000,0.801,1.161,1.090,2.642,0.000,0.726,1.037,0.000,0.000,0.755,0.000,0.000,0.000,0.000,0.000,0.000,0.000,0.000,0.000,0.000,0.000,3.142,6.282,0.000,2.101,1.897,1.798,4.285,0.398,1.000,4.711,0.000,0.000,-9.360,11.496,0.451,5.816,3.376,5.803,4.183,4.384,4.484,1.998,5.882,5.283,1.570,0.000,0.000,-9.070,11.650,0.451,5.844,3.427,5.670,
198.040,237.639,-9.143,11.438,2.029,0.584,5.397,1.652,0.000,0.768,1.087,1.149,2.666,0.000,0.752,1.048,0.000,0.000,0.755,0.000,0.000,0.000,0.000,0.000,0.000,0.000,0.000,0.000,0.000,0.000,3.142,6.281,0.001,2.100,1.897,1.797,4.285,0.398,0.999,4.711,0.000,0.000,-9.386,11.557,0.451,5.810,3.363,5.832,4.183,4.383,4.483,1.998,5.882,5.283,1.570,0.000,0.000,-9.092,11.703,0.452,5.836,3.415,5.698,
198.136,237.735,-9.170,11.498,1.896,0.570,4.905,2.172,0.000,0.730,0.929,1.243,2.587,0.000,0.770,0.968,0.000,0.000,0.755,0.000,0.000,0.000,0.000,0.000,0.000,0.000,0.000,0.000,0.000,0.000,3.142,6.280,0.000,2.101,1.897,1.798,4.285,0.398,0.999,4.711,0.000,0.000,-9.395,11.648,0.451,5.785,3.293,5.980,4.182,4.383,4.484,1.998,5.882,5.283,1.570,0.000,0.000,-9.083,11.754,0.451,5.805,3.350,5.844,
198.227,237.825,-9.188,11.554,1.799,0.622,5.351,2.419,0.000,0.714,0.847,1.344,2.574,0.000,4.241,0.925,0.000,0.000,0.755,0.000,0.000,0.000,0.000,0.000,0.000,0.000,0.000,0.000,0.000,0.000,3.142,6.281,0.000,2.101,1.897,1.798,4.285,0.398,0.999,4.711,0.000,0.000,-9.397,11.725,0.451,5.773,3.240,6.090,4.182,4.384,4.484,1.998,5.882,5.283,1.570,0.000,0.000,-9.076,11.800,0.451,5.787,3.299,5.951,
198.340,237.939,-9.198,11.601,1.740,0.620,5.376,2.339,0.000,0.707,0.805,1.430,2.591,3.743,0.000,0.906,0.000,0.000,0.755,0.000,0.000,0.000,0.000,0.000,0.000,0.000,0.000,0.000,0.000,0.000,3.142,6.281,0.000,2.100,1.897,1.798,4.285,0.398,0.999,4.711,0.000,0.000,-9.397,11.785,0.451,5.768,3.206,6.158,4.182,4.384,4.484,1.998,5.882,5.283,1.570,0.000,0.000,-9.072,11.840,0.451,5.779,3.267,6.018,
198.440,238.039,-9.208,11.671,1.638,0.583,5.201,2.237,0.000,0.710,0.754,1.370,1.374,3.797,0.000,0.874,0.000,0.000,0.755,0.000,0.000,0.000,0.000,0.000,0.000,0.000,0.000,0.000,0.000,0.000,3.142,6.281,0.000,2.101,1.897,1.798,4.285,0.398,0.999,4.711,0.000,0.000,-9.387,11.874,0.451,5.765,3.149,6.275,4.182,4.383,4.484,1.998,5.882,5.283,1.570,0.000,0.000,-9.059,11.896,0.451,5.769,3.210,6.134,
198.540,238.139,-9.210,11.716,1.565,0.587,5.213,2.184,0.000,0.721,0.730,1.216,1.416,3.293,0.000,0.853,0.000,0.000,0.755,0.000,0.000,0.000,0.000,0.000,0.000,0.000,0.000,0.000,0.000,0.000,3.142,6.281,0.000,2.101,1.897,1.798,4.285,0.398,0.999,4.711,0.000,0.000,-9.374,11.932,0.451,5.766,3.107,0.077,4.182,4.383,4.484,1.998,5.882,5.283,1.570,0.000,0.000,-9.045,11.930,0.451,5.765,3.169,6.219,
198.635,238.234,-9.208,11.786,1.460,0.607,5.270,1.384,0.000,0.752,0.711,1.065,1.495,3.158,0.000,0.827,0.000,0.000,0.755,0.000,0.000,0.000,0.000,0.000,0.000,0.000,0.000,0.000,0.000,0.000,3.142,6.281,0.000,2.101,1.897,1.798,4.285,0.398,0.999,4.711,0.000,0.000,-9.348,12.018,0.451,5.772,3.048,0.196,4.182,4.383,4.484,1.998,5.882,5.283,1.570,0.000,0.000,-9.021,11.981,0.451,5.766,3.109,0.056,
198.725,238.324,-9.201,11.842,1.375,0.443,5.271,1.344,0.000,0.791,0.707,0.982,1.572,3.083,0.000,0.807,0.000,0.000,0.755,0.000,0.000,0.000,0.000,0.000,0.000,0.000,0.000,0.000,0.000,0.000,3.142,6.283,0.001,2.098,1.896,1.799,4.286,0.397,1.001,4.712,0.000,0.000,-9.320,12.085,0.451,5.782,2.999,0.296,4.183,4.382,4.485,1.999,5.881,5.283,1.570,0.000,0.000,-8.998,12.021,0.452,5.770,3.060,0.156,
198.821,238.420,-9.199,11.852,1.287,-0.172,5.159,1.360,0.000,0.834,0.702,0.909,1.617,2.984,0.000,0.800,0.000,0.000,0.755,0.000,0.000,0.000,0.000,0.000,0.000,0.000,0.000,0.000,0.000,0.000,3.142,0.000,0.001,2.097,1.896,1.800,4.285,0.397,1.001,4.712,0.000,0.000,-9.296,12.105,0.452,5.796,2.952,0.395,4.183,4.382,4.485,1.999,5.881,5.284,1.571,0.000,0.000,-8.981,12.012,0.452,5.779,3.010,0.257,
198.940,238.539,-9.204,11.836,1.205,-0.220,5.066,1.413,0.000,0.878,0.696,0.848,1.645,2.338,0.000,0.805,0.000,0.000,0.755,0.000,0.000,0.000,0.000,0.000,0.000,0.000,0.000,0.000,0.000,0.000,3.142,6.281,0.000,2.101,1.897,1.799,4.285,0.398,0.999,4.711,0.000,0.000,-9.281,12.095,0.451,5.814,2.912,0.483,4.182,4.383,4.484,1.998,5.882,5.284,1.571,0.000,0.000,-8.974,11.977,0.451,5.792,2.968,0.347,
199.040,238.639,-9.208,11.828,1.092,0.028,5.220,1.815,0.000,0.963,0.699,0.787,1.503,2.814,4.004,0.817,0.000,0.000,0.755,0.000,0.000,0.000,0.000,0.000,0.000,0.000,0.000,0.000,0.000,0.000,3.142,6.280,0.000,2.102,1.898,1.798,4.285,0.398,0.999,4.711,0.000,0.000,-9.256,12.094,0.451,5.843,2.860,0.603,4.182,4.384,4.483,1.998,5.882,5.283,1.570,0.000,0.000,-8.963,11.943,0.451,5.815,2.911,0.470,
199.140,238.739,-9.205,11.832,1.022,0.092,5.183,1.589,0.000,1.039,0.710,0.762,1.331,2.795,3.770,0.826,0.000,0.000,0.755,0.000,0.000,0.000,0.000,0.000,0.000,0.000,0.000,0.000,0.000,0.000,3.142,6.281,0.000,2.101,1.897,1.798,4.285,0.398,0.999,4.711,0.000,0.000,-9.234,12.101,0.451,5.863,2.828,0.678,4.182,4.384,4.484,1.998,5.882,5.283,1.570,0.000,0.000,-8.953,11.930,0.451,5.832,2.877,0.547,
199.240,238.839,-9.203,11.837,0.927,0.006,5.127,1.370,0.000,1.171,0.730,0.737,1.162,1.537,3.429,0.845,0.000,0.000,0.755,0.000,0.000,0.000,0.000,0.000,0.000,0.000,0.000,0.000,0.000,0.000,3.142,6.281,0.001,2.100,1.897,1.799,4.285,0.398,1.000,4.711,0.000,0.000,-9.206,12.107,0.451,5.894,2.789,0.775,4.182,4.383,4.484,1.998,5.882,5.283,1.570,0.000,0.000,-8.942,11.910,0.451,5.859,2.834,0.647,
199.340,238.939,-9.205,11.835,0.826,-0.052,5.037,1.211,0.000,1.360,0.755,0.714,1.025,1.545,3.210,0.000,0.000,0.000,0.755,0.000,0.000,0.000,0.000,0.000,0.000,0.000,0.000,0.000,0.000,0.000,3.142,6.281,0.000,2.101,1.897,1.798,4.285,0.398,1.000,4.711,0.000,0.000,-9.181,12.104,0.451,5.931,2.753,0.877,4.182,4.383,4.484,1.998,5.882,5.283,1.570,0.000,0.000,-8.939,11.881,0.451,5.892,2.792,0.752,
199.440,239.039,-9.207,11.833,0.717,0.005,5.268,1.088,0.000,1.670,0.794,0.698,0.919,1.571,3.038,0.000,0.000,0.000,0.755,0.000,0.000,0.000,0.000,0.000,0.000,0.000,0.000,0.000,0.000,0.000,3.142,6.281,0.000,2.101,1.897,1.798,4.285,0.398,0.999,4.711,0.000,0.000,-9.154,12.098,0.451,5.974,2.719,0.982,4.182,4.384,4.484,1.998,5.882,5.283,1.570,0.000,0.000,-8.938,11.850,0.451,5.931,2.753,0.860,
199.539,239.138,-9.206,11.834,0.626,0.006,5.018,1.008,0.000,2.101,0.842,0.694,0.856,1.612,2.935,0.000,0.000,0.000,0.755,0.000,0.000,0.000,0.000,0.000,0.000,0.000,0.000,0.000,0.000,0.000,3.142,6.281,0.001,2.101,1.897,1.798,4.285,0.398,0.999,4.711,0.000,0.000,-9.129,12.093,0.451,6.012,2.694,1.068,4.182,4.383,4.484,1.998,5.882,5.283,1.570,0.000,0.000,-8.936,11.827,0.451,5.966,2.724,0.949,
199.640,239.239,-9.206,11.834,0.520,-0.002,5.062,0.939,0.000,2.122,0.914,0.696,0.799,1.705,2.852,0.000,0.000,0.000,0.755,0.000,0.000,0.000,0.000,0.000,0.000,0.000,0.000,0.000,0.000,0.000,3.142,6.281,0.000,2.101,1.897,1.798,4.285,0.398,0.999,4.711,0.000,0.000,-9.102,12.084,0.451,6.060,2.670,1.166,4.182,4.384,4.484,1.998,5.882,5.283,1.570,0.000,0.000,-8.938,11.798,0.451,6.011,2.694,1.050,
199.740,239.339,-9.207,11.834,0.426,-0.006,5.184,0.893,0.000,2.085,0.998,0.703,0.761,1.412,2.807,3.882,0.000,0.000,0.755,0.000,0.000,0.000,0.000,0.000,0.000,0.000,0.000,0.000,0.000,0.000,3.142,6.281,0.000,2.101,1.897,1.798,4.285,0.398,0.999,4.711,0.000,0.000,-9.080,12.073,0.451,6.103,2.653,1.251,4.182,4.384,4.484,1.998,5.882,5.283,1.570,0.000,0.000,-8.944,11.773,0.451,6.053,2.673,1.137,
199.840,239.439,-9.207,11.834,0.334,-0.012,5.143,0.860,0.000,2.068,1.106,0.717,0.733,1.218,1.535,3.908,0.000,0.000,0.755,0.000,0.000,0.000,0.000,0.000,0.000,0.000,0.000,0.000,0.000,0.000,3.142,6.281,0.000,2.101,1.897,1.798,4.285,0.398,0.999,4.711,0.000,0.000,-9.059,12.060,0.451,6.146,2.640,1.333,4.182,4.384,4.484,1.998,5.882,5.283,1.570,0.000,0.000,-8.951,11.750,0.451,6.095,2.655,1.220,
199.940,239.539,-9.209,11.834,0.238,-0.004,5.093,0.836,0.000,1.332,1.262,0.739,0.711,1.072,1.538,3.295,0.000,0.000,0.755,0.000,0.000,0.000,0.000,0.000,0.000,0.000,0.000,0.000,0.000,0.000,3.142,6.281,0.000,2.101,1.897,1.798,4.285,0.398,0.999,4.711,0.000,0.000,-9.039,12.045,0.451,6.193,2.630,1.418,4.182,4.384,4.484,1.998,5.882,5.283,1.570,0.000,0.000,-8.961,11.725,0.451,6.140,2.641,1.306,
200.040,239.639,-9.208,11.834,0.163,0.010,5.145,0.822,0.000,1.341,1.429,0.762,0.701,0.988,1.551,3.156,0.000,0.000,0.755,0.000,0.000,0.000,0.000,0.000,0.000,0.000,0.000,0.000,0.000,0.000,3.142,6.281,0.000,2.101,1.897,1.798,4.285,0.398,0.999,4.711,0.000,0.000,-9.023,12.032,0.451,6.230,2.626,1.483,4.182,4.384,4.484,1.998,5.882,5.283,1.570,0.000,0.000,-8.970,11.707,0.451,6.177,2.633,1.372,
200.140,239.739,-9.207,11.835,0.050,-0.004,5.074,0.809,0.000,1.369,1.811,0.811,0.693,0.892,1.587,2.996,0.000,0.000,0.755,0.000,0.000,0.000,0.000,0.000,0.000,0.000,0.000,0.000,0.000,0.000,3.142,6.281,0.000,2.101,1.897,1.798,4.285,0.398,0.999,4.711,0.000,0.000,-9.002,12.010,0.451,0.003,2.623,1.581,4.182,4.384,4.484,1.998,5.882,5.283,1.570,0.000,0.000,-8.985,11.682,0.451,6.232,2.625,1.471,
200.240,239.839,-9.208,11.835,6.255,-0.010,5.111,0.808,0.000,1.399,2.171,0.853,0.692,0.841,1.626,2.916,0.000,0.000,0.755,0.000,0.000,0.000,0.000,0.000,0.000,0.000,0.000,0.000,0.000,0.000,3.142,6.281,0.000,2.101,1.897,1.798,4.285,0.398,0.999,4.711,0.000,0.000,-8.989,11.994,0.451,0.042,2.625,1.649,4.182,4.384,4.484,1.998,5.882,5.283,1.570,0.000,0.000,-8.998,11.665,0.451,6.271,2.623,1.539,
200.340,239.939,-9.209,11.835,6.161,-0.003,5.143,0.813,0.000,1.450,2.116,0.918,0.696,0.792,1.662,2.847,0.000,0.000,0.755,0.000,0.000,0.000,0.000,0.000,0.000,0.000,0.000,0.000,0.000,0.000,3.142,6.281,0.000,2.101,1.897,1.798,4.285,0.398,0.999,4.711,0.000,0.000,-8.976,11.973,0.451,0.088,2.630,1.731,4.182,4.384,4.484,1.998,5.882,5.283,1.570,0.000,0.000,-9.016,11.646,0.451,0.034,2.624,1.620,
200.440,240.039,-9.209,11.836,6.067,0.001,5.122,0.825,0.000,1.670,2.081,1.005,0.708,0.756,1.384,2.806,0.000,0.000,0.755,0.000,0.000,0.000,0.000,0.000,0.000,0.000,0.000,0.000,0.000,0.000,3.142,6.281,0.000,2.101,1.897,1.798,4.285,0.398,0.999,4.711,0.000,0.000,-8.964,11.951,0.451,0.133,2.639,1.814,4.182,4.384,4.484,1.998,5.882,5.283,1.570,0.000,0.000,-9.034,11.629,0.451,0.080,2.629,1.702,
200.540,240.139,-9.209,11.836,5.951,-0.004,5.141,0.850,0.000,1.389,2.064,1.154,0.731,0.724,1.160,1.536,0.000,0.000,0.755,0.000,0.000,0.000,0.000,0.000,0.000,0.000,0.000,0.000,0.000,0.000,3.142,6.281,0.000,2.101,1.897,1.798,4.285,0.398,0.999,4.711,0.000,0.000,-8.952,11.922,0.451,0.188,2.656,1.917,4.182,4.384,4.484,1.998,5.882,5.283,1.570,0.000,0.000,-9.059,11.611,0.451,0.137,2.640,1.804,
200.622,240.221,-9.209,11.836,5.856,-0.002,5.093,0.000,0.000,1.231,1.333,1.330,0.760,0.706,1.031,1.544,0.000,0.000,0.755,0.000,0.000,0.000,0.000,0.000,0.000,0.000,0.000,0.000,0.000,0.000,3.142,6.281,0.000,2.101,1.897,1.798,4.285,0.398,0.999,4.711,0.000,0.000,-8.945,11.897,0.451,0.232,2.674,2.004,4.182,4.384,4.484,1.998,5.882,5.283,1.570,0.000,0.000,-9.082,11.598,0.451,0.182,2.653,1.890,
200.740,240.339,-9.209,11.837,5.763,-0.005,5.166,0.000,0.000,1.118,1.349,1.575,0.796,0.696,0.939,1.566,0.000,0.000,0.755,0.000,0.000,0.000,0.000,0.000,0.000,0.000,0.000,0.000,0.000,0.000,3.142,6.281,0.000,2.101,1.897,1.798,4.285,0.398,0.999,4.711,0.000,0.000,-8.941,11.873,0.451,0.273,2.695,2.089,4.182,4.384,4.484,1.998,5.882,5.283,1.570,0.000,0.000,-9.104,11.588,0.451,0.225,2.670,1.973,
200.840,240.439,-9.209,11.837,5.691,-0.005,5.137,0.000,0.000,1.048,1.370,1.855,0.833,0.692,0.883,1.594,0.000,0.000,0.755,0.000,0.000,0.000,0.000,0.000,0.000,0.000,0.000,0.000,0.000,0.000,3.142,6.281,0.000,2.101,1.897,1.798,4.285,0.398,0.999,4.711,0.000,0.000,-8.939,11.854,0.451,0.304,2.715,2.158,4.182,4.384,4.484,1.998,5.882,5.283,1.570,0.000,0.000,-9.123,11.581,0.451,0.257,2.686,2.040,
200.940,240.539,-9.206,11.835,5.575,0.226,5.216,0.000,0.000,0.959,1.424,2.141,0.914,0.696,0.817,1.655,0.000,0.000,0.755,0.000,0.000,0.000,0.000,0.000,0.000,0.000,0.000,0.000,0.000,0.000,3.142,6.278,6.283,2.105,1.898,1.797,4.285,0.399,0.997,4.709,0.000,0.000,-8.936,11.822,0.450,0.348,2.751,2.268,4.182,4.385,4.482,1.997,5.882,5.283,1.570,0.000,0.000,-9.149,11.571,0.451,0.305,2.716,2.147,
201.040,240.639,-9.172,11.806,5.539,0.853,6.217,0.000,0.000,0.898,1.973,2.151,0.990,0.733,0.839,1.649,0.000,0.000,0.790,0.000,0.000,0.000,0.000,0.000,0.000,0.000,0.000,0.000,0.000,0.000,3.142,6.277,6.283,2.106,1.899,1.797,4.285,0.400,0.996,4.709,0.000,0.000,-8.904,11.784,0.450,0.361,2.763,2.302,4.182,4.386,4.482,1.997,5.883,5.283,1.570,0.000,0.000,-9.126,11.541,0.450,0.319,2.728,2.180,
201.140,240.739,-9.067,11.709,5.515,1.371,5.462,0.000,0.000,0.766,1.616,2.238,1.158,0.841,0.947,1.560,0.000,0.000,0.790,0.000,0.000,0.000,0.000,0.000,0.000,0.000,0.000,0.000,0.000,0.000,3.142,6.280,0.000,2.102,1.898,1.797,4.285,0.398,0.999,4.710,0.000,0.000,-8.798,11.680,0.450,0.370,2.771,2.328,4.183,4.384,4.482,1.998,5.882,5.283,1.570,0.000,0.000,-9.026,11.442,0.451,0.330,2.733,2.205,
201.240,240.839,-8.996,11.640,5.433,1.100,4.818,3.574,0.000,0.656,1.225,2.278,1.371,0.926,0.987,1.549,0.000,0.000,0.755,0.000,0.000,0.000,0.000,0.000,0.000,0.000,0.000,0.000,0.000,0.000,3.142,6.282,0.001,2.099,1.896,1.798,4.285,0.397,1.001,4.711,0.000,0.000,-8.730,11.587,0.451,0.401,2.803,2.414,4.183,4.382,4.484,1.999,5.881,5.283,1.570,0.000,0.000,-8.977,11.370,0.452,0.363,2.761,2.288,
201.340,240.939,-8.955,11.598,5.322,-0.100,5.253,3.647,0.000,0.585,0.957,1.567,1.650,0.998,0.990,1.589,0.000,0.000,0.755,0.000,0.000,0.000,0.000,0.000,0.000,0.000,0.000,0.000,0.000,0.000,3.142,0.003,0.001,2.094,1.895,1.801,4.285,0.395,1.004,4.714,0.000,0.000,-8.696,11.513,0.452,0.439,2.850,2.533,4.183,4.380,4.486,1.999,5.880,5.284,1.571,0.000,0.000,-8.967,11.327,0.452,0.404,2.804,2.404,
201.440,241.039,-8.969,11.618,5.247,-0.425,5.128,3.020,0.000,0.586,0.890,1.550,1.826,1.013,0.956,1.427,0.000,0.000,0.825,0.000,0.000,0.000,0.000,0.000,0.000,0.000,0.000,0.000,0.000,0.000,3.142,6.283,0.000,2.099,1.897,1.800,4.286,0.397,1.000,4.712,0.000,0.000,-8.718,11.516,0.451,0.457,2.885,2.610,4.182,4.383,4.485,1.999,5.881,5.284,1.571,0.000,0.000,-9.001,11.349,0.452,0.426,2.836,2.479,
201.540,241.139,-8.982,11.641,5.131,0.017,5.205,2.862,0.000,0.587,0.803,1.548,2.258,1.058,0.924,1.248,0.000,0.000,0.895,0.000,0.000,0.000,0.000,0.000,0.000,0.000,0.000,0.000,0.000,0.000,3.142,6.279,0.000,2.104,1.898,1.797,4.285,0.399,0.998,4.710,0.000,0.000,-8.744,11.513,0.450,0.480,2.941,2.733,4.182,4.385,4.483,1.998,5.882,5.283,1.570,0.000,0.000,-9.044,11.379,0.451,0.456,2.887,2.598,
201.640,241.239,-8.974,11.625,5.065,0.507,5.744,2.766,0.000,0.575,0.748,2.345,2.425,1.111,0.927,1.188,0.000,0.000,1.000,0.000,0.000,0.000,0.000,0.000,0.000,0.000,0.000,0.000,0.000,0.000,3.142,6.277,6.283,2.106,1.899,1.797,4.285,0.400,0.996,4.709,0.000,0.000,-8.746,11.483,0.450,0.491,2.975,2.804,4.182,4.386,4.482,1.997,5.883,5.283,1.570,0.000,0.000,-9.054,11.367,0.451,0.470,2.919,2.668,
201.740,241.339,-8.936,11.517,5.041,1.327,5.962,2.626,0.000,0.536,0.684,2.020,2.517,1.177,0.965,1.214,0.000,0.000,1.106,0.000,0.000,0.000,0.000,0.000,0.000,0.000,0.000,0.000,0.000,0.000,3.142,6.279,0.000,2.104,1.898,1.796,4.285,0.399,0.997,4.709,0.000,0.000,-8.710,11.369,0.450,0.495,2.987,2.832,4.182,4.386,4.482,1.997,5.883,5.283,1.570,0.000,0.000,-9.021,11.262,0.451,0.476,2.930,2.695,
201.833,241.432,-8.895,11.396,4.980,1.035,5.472,2.448,0.000,3.904,0.604,1.531,2.596,1.283,1.005,1.210,0.000,0.000,1.211,0.000,0.000,0.000,0.000,0.000,0.000,0.000,0.000,0.000,0.000,0.000,3.142,0.001,0.001,2.096,1.896,1.800,4.286,0.397,1.002,4.712,0.000,0.000,-8.680,11.231,0.451,0.508,3.023,2.908,4.183,4.382,4.486,1.999,5.881,5.284,1.570,0.000,0.000,-8.997,11.145,0.452,0.491,2.965,2.769,
201.940,241.539,-8.881,11.345,4.966,0.376,0.126,2.385,0.000,3.930,0.581,1.429,2.640,1.316,1.020,1.216,0.000,0.000,1.422,0.000,0.000,0.000,0.000,0.000,0.000,0.000,0.000,0.000,0.000,0.000,3.142,0.004,0.001,2.094,1.896,1.801,4.286,0.396,1.003,4.713,0.000,0.000,-8.669,11.175,0.452,0.512,3.032,2.926,4.183,4.381,4.487,1.999,5.881,5.284,1.571,0.000,0.000,-8.987,11.095,0.452,0.494,2.973,2.787,
202.040,241.639,-8.874,11.318,5.060,0.338,1.525,2.432,0.000,3.959,0.614,1.925,2.747,1.236,1.027,1.312,0.000,0.000,1.141,0.000,0.000,0.000,0.000,0.000,0.000,0.000,0.000,0.000,0.000,0.000,3.142,0.000,6.283,2.102,1.898,1.799,4.285,0.399,0.998,4.710,0.000,0.000,-8.646,11.173,0.451,0.494,2.978,2.813,4.182,4.385,4.484,1.998,5.883,5.283,1.571,0.000,0.000,-8.955,11.060,0.451,0.473,2.922,2.677,
202.140,241.739,-8.859,11.280,5.166,0.698,1.381,2.507,0.000,1.351,0.656,2.647,2.375,1.177,1.052,1.396,0.000,0.000,1.035,0.000,0.000,0.000,0.000,0.000,0.000,0.000,0.000,0.000,0.000,0.000,3.142,6.283,6.283,2.103,1.898,1.798,4.285,0.399,0.998,4.710,0.000,0.000,-8.617,11.161,0.450,0.473,2.923,2.695,4.182,4.385,4.483,1.998,5.883,5.283,1.570,0.000,0.000,-8.913,11.015,0.451,0.448,2.871,2.561,
202.240,241.839,-8.816,11.201,5.274,0.716,0.836,2.573,0.000,1.118,0.673,1.965,2.036,1.166,1.120,1.163,0.000,0.000,1.141,0.000,0.000,0.000,0.000,0.000,0.000,0.000,0.000,0.000,0.000,0.000,3.142,0.002,0.000,2.100,1.898,1.799,4.286,0.398,1.000,4.712,0.000,0.000,-8.563,11.106,0.451,0.449,2.873,2.582,4.183,4.384,4.485,1.999,5.882,5.284,1.571,0.000,0.000,-8.841,10.931,0.452,0.418,2.824,2.450,
202.327,241.926,-8.784,11.152,5.349,0.500,1.015,3.234,0.000,1.024,0.689,2.014,1.876,1.169,1.179,1.039,0.000,0.000,0.895,0.000,0.000,0.000,0.000,0.000,0.000,0.000,0.000,0.000,0.000,0.000,3.142,0.002,0.000,2.099,1.897,1.800,4.286,0.398,1.000,4.712,0.000,0.000,-8.524,11.077,0.451,0.428,2.838,2.501,4.183,4.384,4.485,1.999,5.882,5.284,1.571,0.000,0.000,-8.789,10.881,0.452,0.393,2.793,2.373,
202.440,242.039,-8.756,11.117,5.443,0.370,1.124,2.972,0.000,0.900,0.746,2.066,1.714,1.169,1.254,0.939,0.000,0.000,0.790,0.000,0.000,0.000,0.000,0.000,0.000,0.000,0.000,0.000,0.000,0.000,3.142,0.003,0.000,2.099,1.897,1.800,4.286,0.398,1.001,4.712,0.000,0.000,-8.491,11.066,0.451,0.398,2.799,2.405,4.183,4.383,4.485,1.999,5.882,5.284,1.571,0.000,0.000,-8.736,10.846,0.452,0.360,2.759,2.279,
202.525,242.124,-8.750,11.109,5.536,-0.110,1.034,3.171,0.000,0.770,0.887,2.865,1.568,1.158,1.323,0.887,0.000,0.000,0.755,0.000,0.000,0.000,0.000,0.000,0.000,0.000,0.000,0.000,0.000,0.000,3.142,0.004,0.000,2.097,1.896,1.800,4.286,0.397,1.002,4.712,0.000,0.000,-8.480,11.082,0.451,0.367,2.764,2.312,4.182,4.382,4.486,1.999,5.882,5.284,1.571,0.000,0.000,-8.704,10.842,0.452,0.324,2.728,2.189,
202.640,242.239,-8.743,11.103,5.622,0.375,0.830,0.000,0.000,0.684,1.095,2.939,1.465,1.157,1.404,1.036,0.000,0.000,0.755,0.000,0.000,0.000,0.000,0.000,0.000,0.000,0.000,0.000,0.000,0.000,3.142,6.281,6.283,2.105,1.898,1.797,4.285,0.400,0.997,4.709,0.000,0.000,-8.474,11.104,0.450,0.328,2.736,2.222,4.182,4.385,4.482,1.997,5.883,5.283,1.570,0.000,0.000,-8.675,10.843,0.451,0.285,2.703,2.102,
202.740,242.339,-8.703,11.073,5.666,0.881,0.651,0.000,0.000,0.695,1.114,3.017,1.468,1.197,1.283,1.324,0.000,0.000,0.790,0.000,0.000,0.000,0.000,0.000,0.000,0.000,0.000,0.000,0.000,0.000,3.142,6.281,6.283,2.104,1.898,1.798,4.286,0.399,0.997,4.709,0.000,0.000,-8.434,11.084,0.450,0.312,2.723,2.181,4.182,4.386,4.483,1.998,5.883,5.283,1.570,0.000,0.000,-8.623,10.815,0.451,0.267,2.692,2.062,
202.840,242.439,-8.610,11.010,5.772,0.839,1.282,0.000,0.000,0.704,1.252,2.887,1.479,1.299,1.039,1.998,0.000,0.000,0.895,0.000,0.000,0.000,0.000,0.000,0.000,0.000,0.000,0.000,0.000,0.000,3.142,0.003,0.000,2.099,1.898,1.800,4.286,0.398,1.001,4.712,0.000,0.000,-8.342,11.047,0.451,0.271,2.693,2.083,4.182,4.384,4.486,1.999,5.882,5.284,1.571,0.000,0.000,-8.504,10.761,0.452,0.223,2.668,1.967,
202.940,242.539,-8.563,10.985,5.857,0.558,1.110,0.000,0.000,0.684,1.937,2.568,1.469,1.366,0.922,1.948,0.000,0.000,0.825,0.000,0.000,0.000,0.000,0.000,0.000,0.000,0.000,0.000,0.000,0.000,3.142,0.003,0.000,2.098,1.898,1.800,4.286,0.398,1.001,4.712,0.000,0.000,-8.299,11.045,0.451,0.233,2.673,2.005,4.183,4.383,4.485,1.999,5.882,5.284,1.571,0.000,0.000,-8.435,10.745,0.452,0.183,2.652,1.890,
203.040,242.639,-8.486,10.952,5.900,0.997,6.261,4.980,0.000,0.701,2.115,2.537,1.525,1.459,0.942,1.909,0.000,0.000,0.825,0.000,0.000,0.000,0.000,0.000,0.000,0.000,0.000,0.000,0.000,0.000,3.142,6.280,6.283,2.104,1.898,1.797,4.285,0.399,0.998,4.710,0.000,0.000,-8.226,11.026,0.450,0.209,2.666,1.961,4.182,4.385,4.482,1.997,5.883,5.283,1.570,0.000,0.000,-8.348,10.721,0.451,0.159,2.647,1.847,
203.140,242.739,-8.402,10.918,5.900,1.245,0.001,4.889,0.000,0.745,0.583,2.689,1.616,1.546,1.074,1.875,0.000,0.000,0.895,0.000,0.000,0.000,0.000,0.000,0.000,0.000,0.000,0.000,0.000,0.000,3.142,6.281,0.000,2.102,1.898,1.798,4.285,0.398,0.999,4.711,0.000,0.000,-8.141,10.992,0.451,0.211,2.665,1.963,4.183,4.384,4.483,1.997,5.882,5.283,1.570,0.000,0.000,-8.264,10.686,0.451,0.160,2.647,1.849,
203.240,242.839,-8.274,10.867,5.900,1.013,0.001,4.751,0.000,0.810,0.634,2.919,1.753,1.677,1.274,1.823,0.000,0.000,0.930,0.000,0.000,0.000,0.000,0.000,0.000,0.000,0.000,0.000,0.000,0.000,3.142,0.000,0.001,2.099,1.897,1.799,4.285,0.398,1.001,4.712,0.000,0.000,-8.013,10.939,0.451,0.213,2.664,1.965,4.183,4.383,4.485,1.998,5.882,5.283,1.571,0.000,0.000,-8.136,10.634,0.452,0.162,2.646,1.851,
203.340,242.939,-8.206,10.840,5.900,0.889,0.001,4.677,0.000,0.845,0.662,3.041,1.827,1.748,1.381,1.796,0.000,0.000,0.930,0.000,0.000,0.000,0.000,0.000,0.000,0.000,0.000,0.000,0.000,0.000,3.142,6.283,0.000,2.100,1.897,1.798,4.285,0.398,1.000,4.711,0.000,0.000,-7.945,10.912,0.451,0.212,2.664,1.964,4.183,4.384,4.484,1.998,5.882,5.283,1.570,0.000,0.000,-8.068,10.607,0.451,0.161,2.646,1.850,
203.440,243.039,-8.104,10.799,5.925,1.012,0.848,0.000,0.000,0.881,0.702,3.111,1.918,1.866,1.590,1.753,0.000,0.000,0.930,0.000,0.000,0.000,0.000,0.000,0.000,0.000,0.000,0.000,0.000,0.000,3.142,0.000,6.283,2.101,1.897,1.799,4.285,0.398,0.999,4.711,0.000,0.000,-7.845,10.877,0.451,0.201,2.660,1.942,4.182,4.384,4.485,1.998,5.882,5.284,1.571,0.000,0.000,-7.960,10.569,0.451,0.150,2.644,1.828,
203.540,243.139,-8.025,10.771,6.009,1.071,1.448,0.000,0.000,0.864,0.732,2.910,1.947,1.344,2.411,1.726,0.000,0.000,0.860,0.000,0.000,0.000,0.000,0.000,0.000,0.000,0.000,0.000,0.000,0.000,3.142,0.001,0.000,2.101,1.898,1.800,4.286,0.399,0.999,4.711,0.000,0.000,-7.775,10.870,0.451,0.162,2.647,1.866,4.182,4.385,4.485,1.999,5.883,5.284,1.571,0.000,0.000,-7.864,10.553,0.451,0.110,2.633,1.754,
203.640,243.239,-7.905,10.742,6.143,1.016,0.977,4.319,0.000,0.835,0.775,2.694,2.015,1.339,1.880,1.724,0.000,0.000,0.755,0.000,0.000,0.000,0.000,0.000,0.000,0.000,0.000,0.000,0.000,0.000,3.142,0.001,0.000,2.100,1.898,1.799,4.286,0.399,1.000,4.711,0.000,0.000,-7.669,10.874,0.451,0.097,2.631,1.748,4.182,4.385,4.485,1.999,5.883,5.283,1.571,0.000,0.000,-7.715,10.549,0.452,0.043,2.624,1.637,
203.740,243.339,-7.826,10.732,6.201,0.991,0.817,4.217,0.000,0.825,0.795,2.665,2.081,1.476,1.822,1.736,0.000,0.000,0.755,0.000,0.000,0.000,0.000,0.000,0.000,0.000,0.000,0.000,0.000,0.000,3.142,0.001,0.000,2.100,1.898,1.799,4.286,0.398,1.000,4.711,0.000,0.000,-7.599,10.878,0.451,0.069,2.627,1.698,4.183,4.384,4.485,1.999,5.882,5.284,1.571,0.000,0.000,-7.626,10.550,0.452,0.015,2.622,1.587,
203.823,243.422,-7.709,10.724,6.238,1.009,0.005,4.092,0.000,0.822,0.812,2.735,2.193,1.653,1.787,1.746,0.000,0.000,0.755,0.000,0.000,0.000,0.000,0.000,0.000,0.000,0.000,0.000,0.000,0.000,3.142,6.283,0.000,2.101,1.897,1.798,4.285,0.398,1.000,4.711,0.000,0.000,-7.487,10.880,0.451,0.049,2.625,1.664,4.183,4.384,4.484,1.998,5.882,5.283,1.571,0.000,0.000,-7.501,10.551,0.451,6.279,2.622,1.554,
203.936,243.535,-7.609,10.720,6.238,1.020,6.283,3.992,0.000,2.840,0.817,2.860,2.293,1.773,1.782,2.726,0.000,0.000,0.755,0.000,0.000,0.000,0.000,0.000,0.000,0.000,0.000,0.000,0.000,0.000,3.142,6.282,0.000,2.100,1.897,1.798,4.285,0.398,1.000,4.711,0.000,0.000,-7.387,10.875,0.451,0.050,2.625,1.664,4.183,4.384,4.484,1.998,5.882,5.283,1.571,0.000,0.000,-7.402,10.546,0.451,6.279,2.623,1.553,
204.040,243.639,-7.509,10.716,6.238,1.011,6.283,3.892,0.000,2.845,0.821,2.985,2.393,1.893,1.778,2.512,0.000,0.000,0.755,0.000,0.000,0.000,0.000,0.000,0.000,0.000,0.000,0.000,0.000,0.000,3.142,6.283,0.000,2.100,1.897,1.798,4.285,0.398,1.000,4.711,0.000,0.000,-7.287,10.870,0.451,0.050,2.625,1.664,4.183,4.384,4.484,1.998,5.882,5.283,1.571,0.000,0.000,-7.302,10.542,0.451,6.279,2.623,1.554,
204.140,243.739,-7.430,10.712,6.238,1.006,6.283,3.813,0.000,2.849,0.825,3.084,2.473,1.988,1.774,2.226,0.000,0.000,0.755,0.000,0.000,0.000,0.000,0.000,0.000,0.000,0.000,0.000,0.000,0.000,3.142,6.282,0.000,2.100,1.897,1.798,4.285,0.398,1.000,4.711,0.000,0.000,-7.208,10.867,0.451,0.050,2.625,1.664,4.183,4.384,4.484,1.998,5.882,5.283,1.571,0.000,0.000,-7.222,10.538,0.451,6.279,2.623,1.554,
204.240,243.839,-7.311,10.707,6.246,1.010,0.439,3.694,0.000,2.847,0.832,1.340,2.591,2.142,1.764,2.033,0.000,0.000,0.755,0.000,0.000,0.000,0.000,0.000,0.000,0.000,0.000,0.000,0.000,0.000,3.142,0.000,0.000,2.100,1.897,1.799,4.285,0.398,1.000,4.711,0.000,0.000,-7.090,10.863,0.451,0.047,2.624,1.659,4.182,4.384,4.485,1.998,5.882,5.284,1.571,0.000,0.000,-7.102,10.534,0.451,6.276,2.623,1.548,
204.340,243.939,-7.231,10.704,0.024,1.013,1.311,3.616,0.000,2.797,0.853,3.176,2.670,3.367,1.726,1.818,0.000,0.000,0.755,0.000,0.000,0.000,0.000,0.000,0.000,0.000,0.000,0.000,0.000,0.000,3.142,0.001,0.000,2.100,1.898,1.800,4.286,0.398,1.000,4.711,0.000,0.000,-7.020,10.873,0.451,0.017,2.623,1.605,4.182,4.384,4.485,1.999,5.882,5.284,1.571,0.000,0.000,-7.013,10.544,0.451,6.246,2.624,1.495,
204.440,244.039,-7.131,10.710,0.133,1.014,0.745,2.259,0.000,2.727,0.890,3.095,2.793,2.401,1.688,1.911,0.000,0.000,0.755,0.000,0.000,0.000,0.000,0.000,0.000,0.000,0.000,0.000,0.000,0.000,3.142,0.001,0.000,2.101,1.898,1.798,4.286,0.399,0.999,4.711,0.000,0.000,-6.941,10.901,0.451,6.244,2.625,1.509,4.183,4.385,4.484,1.999,5.883,5.283,1.571,0.000,0.000,-6.896,10.575,0.452,6.191,2.629,1.399,
204.540,244.139,-7.032,10.724,0.144,1.017,0.001,2.154,0.000,2.708,0.879,3.189,2.898,2.394,1.699,2.885,0.000,0.000,0.755,0.000,0.000,0.000,0.000,0.000,0.000,0.000,0.000,0.000,0.000,0.000,3.142,6.282,0.000,2.101,1.897,1.798,4.285,0.398,0.999,4.711,0.000,0.000,-6.844,10.918,0.451,6.239,2.625,1.499,4.183,4.384,4.484,1.998,5.882,5.283,1.570,0.000,0.000,-6.796,10.592,0.451,6.185,2.631,1.388,
204.640,244.239,-6.934,10.738,0.144,1.008,0.002,2.055,0.000,2.694,0.999,3.299,2.997,2.416,1.714,2.900,0.000,0.000,0.755,0.000,0.000,0.000,0.000,0.000,0.000,0.000,0.000,0.000,0.000,0.000,3.142,6.282,0.000,2.101,1.897,1.798,4.285,0.398,0.999,4.711,0.000,0.000,-6.745,10.932,0.451,6.239,2.625,1.500,4.183,4.384,4.484,1.998,5.882,5.283,1.570,0.000,0.000,-6.697,10.606,0.451,6.186,2.631,1.389,
204.740,244.339,-6.835,10.752,0.143,1.008,0.001,1.957,0.000,2.680,1.210,1.708,3.096,2.437,2.167,0.000,0.000,0.000,0.755,0.000,0.000,0.000,0.000,0.000,0.000,0.000,0.000,0.000,0.000,0.000,3.142,6.282,0.000,2.101,1.897,1.798,4.285,0.398,0.999,4.711,0.000,0.000,-6.647,10.946,0.451,6.239,2.625,1.501,4.183,4.384,4.484,1.998,5.882,5.283,1.570,0.000,0.000,-6.599,10.620,0.451,6.186,2.631,1.389,
204.840,244.439,-6.737,10.766,0.143,1.012,0.001,1.858,0.000,2.665,1.422,1.674,3.195,2.459,2.703,0.000,0.000,0.000,0.755,0.000,0.000,0.000,0.000,0.000,0.000,0.000,0.000,0.000,0.000,0.000,3.142,6.282,0.000,2.101,1.897,1.798,4.285,0.398,0.999,4.711,0.000,0.000,-6.548,10.960,0.451,6.240,2.625,1.501,4.183,4.384,4.484,1.998,5.882,5.283,1.570,0.000,0.000,-6.501,10.635,0.451,6.186,2.631,1.390,
204.940,244.539,-6.644,10.780,0.120,0.886,5.503,3.055,0.000,3.165,1.695,1.572,3.280,2.537,2.727,0.000,0.000,0.000,0.755,0.000,0.000,0.000,0.000,0.000,0.000,0.000,0.000,0.000,0.000,0.000,3.142,6.281,0.001,2.100,1.897,1.797,4.285,0.398,1.000,4.711,0.000,0.000,-6.450,10.970,0.451,6.250,2.624,1.520,4.183,4.383,4.483,1.998,5.882,5.283,1.570,0.000,0.000,-6.411,10.643,0.452,6.196,2.629,1.409,
205.040,244.639,-6.562,10.788,0.018,0.814,4.842,2.946,0.000,1.842,2.378,1.302,3.338,2.879,2.199,2.801,0.000,0.000,0.755,0.000,0.000,0.000,0.000,0.000,0.000,0.000,0.000,0.000,0.000,0.000,3.142,6.280,0.001,2.101,1.897,1.798,4.285,0.398,0.999,4.710,0.000,0.000,-6.351,10.957,0.451,0.018,2.624,1.609,4.182,4.383,4.483,1.998,5.882,5.283,1.570,0.000,0.000,-6.344,10.628,0.452,6.247,2.624,1.499,
205.134,244.733,-6.462,10.786,6.172,0.901,5.259,2.856,0.000,2.596,3.199,1.236,3.460,2.430,1.904,2.748,0.000,0.000,0.755,0.000,0.000,0.000,0.000,0.000,0.000,0.000,0.000,0.000,0.000,0.000,3.142,6.280,0.000,2.101,1.897,1.798,4.285,0.398,0.999,4.710,0.000,0.000,-6.230,10.926,0.451,0.082,2.629,1.722,4.182,4.383,4.483,1.998,5.882,5.283,1.570,0.000,0.000,-6.267,10.599,0.451,0.028,2.624,1.611,
205.240,244.839,-6.372,10.774,6.095,0.921,5.366,2.795,0.000,2.705,2.660,1.454,3.592,3.003,1.964,2.699,0.000,0.000,0.755,0.000,0.000,0.000,0.000,0.000,0.000,0.000,0.000,0.000,0.000,0.000,3.142,6.281,0.000,2.100,1.897,1.798,4.285,0.398,0.999,4.711,0.000,0.000,-6.130,10.896,0.451,0.120,2.636,1.790,4.182,4.383,4.484,1.998,5.882,5.283,1.570,0.000,0.000,-6.192,10.573,0.451,0.067,2.627,1.678,
205.340,244.939,-6.302,10.760,6.029,0.883,5.234,3.294,0.000,2.823,2.653,1.665,3.717,2.994,2.024,2.667,0.000,0.000,0.755,0.000,0.000,0.000,0.000,0.000,0.000,0.000,0.000,0.000,0.000,0.000,3.142,6.281,0.001,2.100,1.897,1.798,4.285,0.398,0.999,4.711,0.000,0.000,-6.053,10.866,0.451,0.151,2.644,1.848,4.182,4.383,4.484,1.998,5.882,5.283,1.570,0.000,0.000,-6.136,10.548,0.451,0.099,2.631,1.736,
205.440,245.039,-6.220,10.737,5.938,0.861,5.194,3.295,0.000,1.444,3.163,2.005,2.257,2.450,2.127,2.198,0.000,0.000,0.755,0.000,0.000,0.000,0.000,0.000,0.000,0.000,0.000,0.000,0.000,0.000,3.142,6.281,0.000,2.101,1.897,1.798,4.285,0.398,0.999,4.711,0.000,0.000,-5.963,10.820,0.451,0.194,2.658,1.929,4.182,4.383,4.483,1.998,5.882,5.283,1.570,0.000,0.000,-6.074,10.511,0.451,0.143,2.641,1.816,
205.540,245.139,-6.124,10.700,5.832,0.891,5.256,3.333,0.000,1.627,3.219,2.555,1.837,3.010,2.277,1.718,0.000,0.000,0.755,0.000,0.000,0.000,0.000,0.000,0.000,0.000,0.000,0.000,0.000,0.000,3.142,6.281,0.000,2.101,1.897,1.798,4.285,0.398,0.999,4.711,0.000,0.000,-5.859,10.755,0.451,0.243,2.679,2.026,4.182,4.383,4.483,1.998,5.882,5.283,1.570,0.000,0.000,-6.002,10.459,0.451,0.193,2.657,1.911,
205.640,245.239,-6.061,10.668,5.763,0.897,5.255,3.379,0.000,1.785,2.548,3.052,1.675,3.301,2.395,1.705,0.000,0.000,0.755,0.000,0.000,0.000,0.000,0.000,0.000,0.000,0.000,0.000,0.000,0.000,3.142,6.281,0.000,2.101,1.897,1.798,4.285,0.398,0.999,4.711,0.000,0.000,-5.793,10.705,0.451,0.273,2.695,2.089,4.182,4.383,4.483,1.998,5.882,5.283,1.570,0.000,0.000,-5.956,10.419,0.451,0.224,2.670,1.973,
205.739,245.338,-5.972,10.614,5.658,0.880,5.232,2.580,0.000,1.215,2.668,3.497,1.761,3.929,2.628,1.694,0.000,0.000,0.755,0.000,0.000,0.000,0.000,0.000,0.000,0.000,0.000,0.000,0.000,0.000,3.142,6.281,0.000,2.101,1.897,1.798,4.285,0.398,0.999,4.711,0.000,0.000,-5.701,10.622,0.451,0.317,2.724,2.189,4.182,4.383,4.483,1.998,5.882,5.283,1.570,0.000,0.000,-5.893,10.355,0.451,0.271,2.694,2.070,
205.840,245.439,-5.903,10.562,5.570,0.879,5.227,2.523,0.000,1.138,1.436,2.941,1.980,4.011,2.895,1.693,0.000,0.000,0.755,0.000,0.000,0.000,0.000,0.000,0.000,0.000,0.000,0.000,0.000,0.000,3.142,6.281,0.000,2.101,1.897,1.798,4.285,0.398,0.999,4.711,0.000,0.000,-5.632,10.546,0.451,0.351,2.752,2.275,4.182,4.383,4.483,1.998,5.882,5.283,1.570,0.000,0.000,-5.847,10.298,0.451,0.308,2.718,2.153,
205.940,245.539,-5.838,10.504,5.483,0.887,5.245,2.484,0.000,1.281,1.556,2.944,2.242,4.120,3.260,1.697,0.000,0.000,0.755,0.000,0.000,0.000,0.000,0.000,0.000,0.000,0.000,0.000,0.000,0.000,3.142,6.281,0.000,2.101,1.897,1.798,4.285,0.398,0.999,4.711,0.000,0.000,-5.570,10.465,0.451,0.383,2.783,2.362,4.182,4.383,4.483,1.998,5.882,5.283,1.570,0.000,0.000,-5.806,10.236,0.451,0.343,2.745,2.238,
206.040,245.639,-5.790,10.453,5.413,0.888,5.242,2.466,0.000,2.370,1.674,2.122,2.496,4.229,4.451,1.705,0.000,0.000,0.755,0.000,0.000,0.000,0.000,0.000,0.000,0.000,0.000,0.000,0.000,0.000,3.142,6.281,0.000,2.101,1.897,1.798,4.285,0.398,0.999,4.711,0.000,0.000,-5.526,10.396,0.451,0.407,2.811,2.433,4.182,4.383,4.483,1.998,5.882,5.283,1.570,0.000,0.000,-5.777,10.184,0.451,0.369,2.769,2.307,
206.140,245.739,-5.735,10.386,5.326,0.884,5.227,2.463,0.000,2.233,1.234,3.515,2.893,4.396,3.514,2.459,0.000,0.000,0.755,0.000,0.000,0.000,0.000,0.000,0.000,0.000,0.000,0.000,0.000,0.000,3.142,6.281,0.000,2.101,1.897,1.798,4.285,0.398,0.999,4.711,0.000,0.000,-5.477,10.305,0.451,0.434,2.848,2.524,4.182,4.383,4.484,1.998,5.882,5.283,1.570,0.000,0.000,-5.746,10.116,0.451,0.400,2.802,2.395,
206.240,245.839,-5.678,10.299,5.221,0.883,5.233,2.517,0.000,2.110,1.128,2.888,3.540,2.878,3.478,2.247,0.000,0.000,0.755,0.000,0.000,0.000,0.000,0.000,0.000,0.000,0.000,0.000,0.000,0.000,3.142,6.281,0.000,2.101,1.897,1.798,4.285,0.398,0.999,4.711,0.000,0.000,-5.429,10.192,0.451,0.462,2.897,2.637,4.182,4.383,4.483,1.998,5.882,5.283,1.570,0.000,0.000,-5.716,10.032,0.451,0.433,2.846,2.504,
206.340,245.939,-5.644,10.237,5.163,0.949,5.754,0.000,0.000,2.052,1.133,1.676,3.607,2.695,3.477,2.164,0.000,0.000,0.755,0.000,0.000,0.000,0.000,0.000,0.000,0.000,0.000,0.000,0.000,0.000,3.142,6.281,0.000,2.101,1.897,1.798,4.285,0.398,0.999,4.710,0.000,0.000,-5.402,10.115,0.451,0.475,2.925,2.699,4.182,4.384,4.484,1.998,5.882,5.283,1.570,0.000,0.000,-5.698,9.972,0.451,0.448,2.873,2.566,
206.440,246.039,-5.591,10.127,5.154,1.078,6.282,0.000,0.000,1.996,1.440,1.795,3.722,2.882,3.526,2.219,0.000,0.000,0.755,0.000,0.000,0.000,0.000,0.000,0.000,0.000,0.000,0.000,0.000,0.000,3.142,6.282,0.000,2.101,1.897,1.798,4.285,0.398,0.999,4.711,0.000,0.000,-5.351,10.003,0.451,0.477,2.929,2.709,4.183,4.384,4.484,1.998,5.882,5.283,1.570,0.000,0.000,-5.648,9.862,0.451,0.451,2.876,2.575,
206.536,246.135,-5.547,10.033,5.155,1.024,6.282,0.000,0.000,1.951,1.686,1.890,3.825,3.080,3.571,1.495,0.000,0.000,0.755,0.000,0.000,0.000,0.000,0.000,0.000,0.000,0.000,0.000,0.000,0.000,3.142,6.283,0.000,2.100,1.897,1.799,4.285,0.398,1.000,4.711,0.000,0.000,-5.306,9.909,0.451,0.477,2.930,2.710,4.183,4.384,4.484,1.998,5.882,5.283,1.571,0.000,0.000,-5.603,9.768,0.451,0.452,2.876,2.575,
206.640,246.239,-5.513,9.962,5.155,0.979,6.282,4.979,0.000,1.917,1.872,1.962,3.904,3.229,3.605,1.393,0.000,0.000,0.755,0.000,0.000,0.000,0.000,0.000,0.000,0.000,0.000,0.000,0.000,0.000,3.142,6.283,0.000,2.100,1.897,1.798,4.285,0.398,1.000,4.711,0.000,0.000,-5.272,9.838,0.451,0.477,2.929,2.710,4.183,4.384,4.484,1.998,5.882,5.283,1.571,0.000,0.000,-5.570,9.697,0.451,0.451,2.876,2.575,
206.738,246.337,-5.463,9.857,5.155,1.005,6.283,4.861,0.000,2.142,2.607,2.068,4.020,0.000,2.156,1.241,0.000,0.000,0.755,0.000,0.000,0.000,0.000,0.000,0.000,0.000,0.000,0.000,0.000,0.000,3.142,6.282,0.000,2.101,1.897,1.798,4.285,0.398,0.999,4.711,0.000,0.000,-5.223,9.733,0.451,0.477,2.929,2.709,4.183,4.384,4.484,1.998,5.882,5.283,1.571,0.000,0.000,-5.520,9.592,0.451,0.451,2.876,2.575,
206.840,246.439,-5.429,9.784,5.154,1.028,6.283,4.780,0.000,2.356,2.558,2.141,4.101,0.000,4.512,1.160,0.000,0.000,0.755,0.000,0.000,0.000,0.000,0.000,0.000,0.000,0.000,0.000,0.000,0.000,3.142,6.282,0.000,2.100,1.897,1.798,4.285,0.398,1.000,4.711,0.000,0.000,-5.188,9.661,0.451,0.477,2.929,2.709,4.183,4.384,4.484,1.998,5.882,5.283,1.571,0.000,0.000,-5.486,9.520,0.451,0.451,2.876,2.575,
206.930,246.529,-5.377,9.675,5.154,1.014,6.283,4.658,0.000,2.304,2.485,2.252,4.222,0.000,4.564,1.232,0.000,0.000,0.755,0.000,0.000,0.000,0.000,0.000,0.000,0.000,0.000,0.000,0.000,0.000,3.142,6.283,0.000,2.100,1.897,1.798,4.285,0.398,1.000,4.711,0.000,0.000,-5.137,9.551,0.451,0.477,2.930,2.710,4.183,4.384,4.484,1.998,5.882,5.283,1.571,0.000,0.000,-5.434,9.410,0.451,0.451,2.876,2.575,
207.040,246.639,-5.335,9.585,5.154,1.001,6.283,4.558,0.000,2.261,2.425,1.888,4.322,0.000,4.607,1.183,0.000,0.000,0.755,0.000,0.000,0.000,0.000,0.000,0.000,0.000,0.000,0.000,0.000,0.000,3.142,6.282,0.000,2.100,1.897,1.798,4.285,0.398,1.000,4.711,0.000,0.000,-5.094,9.462,0.451,0.477,2.930,2.710,4.183,4.384,4.484,1.998,5.882,5.283,1.571,0.000,0.000,-5.392,9.321,0.451,0.451,2.876,2.575,
207.140,246.739,-5.303,9.517,5.157,0.872,0.251,4.488,0.000,2.229,2.386,1.882,4.394,0.000,3.429,1.227,0.000,0.000,0.755,0.000,0.000,0.000,0.000,0.000,0.000,0.000,0.000,0.000,0.000,0.000,3.142,0.001,0.000,2.098,1.897,1.800,4.285,0.397,1.001,4.712,0.000,0.000,-5.062,9.393,0.451,0.478,2.929,2.709,4.183,4.383,4.485,1.998,5.881,5.284,1.571,0.000,0.000,-5.359,9.252,0.451,0.452,2.876,2.574,
207.236,246.835,-5.284,9.476,5.209,-0.124,0.694,4.375,0.000,2.232,2.493,2.436,4.441,0.000,2.280,1.322,0.000,0.000,0.755,0.000,0.000,0.000,0.000,0.000,0.000,0.000,0.000,0.000,0.000,0.000,3.142,0.006,0.001,2.094,1.896,1.801,4.286,0.397,1.004,4.714,0.000,0.000,-5.037,9.363,0.452,0.469,2.904,2.655,4.183,4.381,4.487,1.999,5.881,5.285,1.571,0.000,0.000,-5.326,9.208,0.452,0.440,2.852,2.522,
207.340,246.939,-5.298,9.501,5.298,-0.339,1.382,1.585,0.000,2.299,2.804,2.399,3.800,4.904,1.967,1.445,0.000,0.000,0.755,0.000,0.000,0.000,0.000,0.000,0.000,0.000,0.000,0.000,0.000,0.000,3.142,0.002,6.283,2.099,1.897,1.800,4.286,0.398,1.000,4.711,0.000,0.000,-5.042,9.413,0.451,0.443,2.860,2.555,4.182,4.383,4.485,1.999,5.882,5.284,1.571,0.000,0.000,-5.317,9.232,0.451,0.410,2.814,2.426,
207.433,247.032,-5.307,9.514,5.417,0.023,1.226,1.526,0.000,1.845,1.994,4.412,3.233,4.723,1.340,1.650,0.000,0.000,0.755,0.000,0.000,0.000,0.000,0.000,0.000,0.000,0.000,0.000,0.000,0.000,3.142,0.000,6.283,2.102,1.897,1.798,4.285,0.399,0.999,4.710,0.000,0.000,-5.043,9.458,0.450,0.404,2.809,2.429,4.182,4.384,4.483,1.998,5.883,5.284,1.571,0.000,0.000,-5.293,9.244,0.451,0.368,2.767,2.303,
207.540,247.139,-5.300,9.506,5.513,0.135,1.134,1.474,0.000,1.928,1.810,3.454,2.925,3.822,1.096,1.558,0.000,0.000,0.755,0.000,0.000,0.000,0.000,0.000,0.000,0.000,0.000,0.000,0.000,0.000,3.142,0.001,0.000,2.100,1.897,1.799,4.285,0.398,1.000,4.711,0.000,0.000,-5.031,9.475,0.451,0.373,2.772,2.333,4.182,4.384,4.485,1.998,5.882,5.284,1.571,0.000,0.000,-5.260,9.238,0.451,0.332,2.735,2.209,
207.624,247.223,-5.294,9.501,5.603,0.012,1.088,1.442,0.000,2.033,1.678,4.077,3.181,3.796,1.163,1.494,0.000,0.000,0.755,0.000,0.000,0.000,0.000,0.000,0.000,0.000,0.000,0.000,0.000,0.000,3.142,0.003,0.000,2.099,1.897,1.800,4.285,0.398,1.001,4.712,0.000,0.000,-5.023,9.493,0.451,0.340,2.741,2.245,4.182,4.383,4.485,1.999,5.882,5.284,1.571,0.000,0.000,-5.231,9.238,0.452,0.296,2.708,2.124,
207.740,247.339,-5.297,9.502,5.696,-0.065,1.160,1.433,0.000,2.183,1.614,4.212,3.606,3.793,1.179,1.401,0.000,0.000,0.755,0.000,0.000,0.000,0.000,0.000,0.000,0.000,0.000,0.000,0.000,0.000,3.142,0.002,0.000,2.099,1.897,1.799,4.285,0.398,1.000,4.711,0.000,0.000,-5.026,9.520,0.451,0.302,2.713,2.155,4.182,4.383,4.485,1.999,5.882,5.284,1.571,0.000,0.000,-5.209,9.247,0.451,0.256,2.685,2.037,
207.836,247.435,-5.300,9.505,5.793,-0.018,1.173,1.437,0.000,2.393,1.901,4.513,0.000,3.243,1.236,3.642,0.000,0.000,3.142,0.000,0.000,0.000,0.000,0.000,0.000,0.000,0.000,0.000,0.000,0.000,3.142,0.002,0.000,2.100,1.897,1.799,4.285,0.398,1.000,4.711,0.000,0.000,-5.033,9.549,0.451,0.260,2.688,2.063,4.182,4.383,4.485,1.998,5.882,5.284,1.571,0.000,0.000,-5.188,9.259,0.451,0.211,2.664,1.947,
207.940,247.539,-5.300,9.504,5.871,0.032,1.151,1.447,0.000,2.605,2.401,3.942,0.000,2.101,1.343,3.970,0.000,0.000,3.142,0.000,0.000,0.000,0.000,0.000,0.000,0.000,0.000,0.000,0.000,0.000,3.142,0.002,0.000,2.100,1.897,1.799,4.286,0.398,1.000,4.711,0.000,0.000,-5.037,9.569,0.451,0.226,2.670,1.991,4.182,4.383,4.485,1.999,5.882,5.284,1.571,0.000,0.000,-5.169,9.268,0.451,0.175,2.651,1.877,
208.036,247.635,-5.296,9.503,5.986,0.008,1.177,1.475,0.000,2.878,2.399,3.358,4.814,2.004,1.705,0.000,0.000,0.000,3.036,0.000,0.000,0.000,0.000,0.000,0.000,0.000,0.000,0.000,0.000,0.000,3.142,0.002,0.000,2.100,1.897,1.799,4.286,0.398,1.000,4.711,0.000,0.000,-5.043,9.598,0.451,0.173,2.650,1.887,4.182,4.383,4.485,1.999,5.882,5.284,1.571,0.000,0.000,-5.139,9.283,0.451,0.120,2.636,1.775,
208.140,247.739,-5.297,9.503,6.079,-0.017,1.142,1.517,0.000,1.945,4.439,3.022,3.869,1.226,1.610,0.000,0.000,0.000,2.931,0.000,0.000,0.000,0.000,0.000,0.000,0.000,0.000,0.000,0.000,0.000,3.142,0.002,0.000,2.100,1.897,1.799,4.286,0.398,1.000,4.711,0.000,0.000,-5.053,9.621,0.451,0.128,2.637,1.805,4.182,4.383,4.485,1.999,5.882,5.284,1.571,0.000,0.000,-5.120,9.299,0.451,0.075,2.628,1.694,
208.240,247.839,-5.298,9.504,6.155,-0.006,1.184,2.212,0.000,1.796,3.171,3.012,3.818,1.104,1.548,0.000,0.000,0.000,2.861,0.000,0.000,0.000,0.000,0.000,0.000,0.000,0.000,0.000,0.000,0.000,3.142,0.002,0.000,2.100,1.897,1.799,4.285,0.398,1.000,4.711,0.000,0.000,-5.064,9.639,0.451,0.091,2.630,1.738,4.182,4.383,4.485,1.999,5.882,5.284,1.571,0.000,0.000,-5.106,9.313,0.451,0.037,2.624,1.627,
208.329,247.928,-5.297,9.504,6.272,0.026,1.185,2.197,0.000,1.624,4.124,3.498,3.788,1.190,1.425,4.209,0.000,0.000,2.720,0.000,0.000,0.000,0.000,0.000,0.000,0.000,0.000,0.000,0.000,0.000,3.142,0.002,6.283,2.100,1.897,1.799,4.286,0.398,1.000,4.711,0.000,0.000,-5.081,9.666,0.451,0.033,2.624,1.636,4.182,4.383,4.485,1.999,5.882,5.284,1.571,0.000,0.000,-5.084,9.337,0.451,6.263,2.623,1.525,
208.426,248.025,-5.296,9.504,0.084,-0.003,1.122,2.207,0.000,1.713,4.828,0.000,4.620,1.177,1.393,4.363,0.000,0.000,2.650,0.000,0.000,0.000,0.000,0.000,0.000,0.000,0.000,0.000,0.000,0.000,3.142,0.002,0.000,2.100,1.897,1.799,4.286,0.398,1.000,4.711,0.000,0.000,-5.096,9.685,0.451,6.270,2.623,1.554,4.182,4.383,4.485,1.999,5.882,5.284,1.571,0.000,0.000,-5.068,9.358,0.451,6.216,2.627,1.443,
208.529,248.128,-5.297,9.504,0.178,-0.012,1.132,2.239,0.000,2.412,4.234,0.000,2.587,1.286,4.037,4.377,0.000,0.000,2.545,0.000,0.000,0.000,0.000,0.000,0.000,0.000,0.000,0.000,0.000,0.000,3.142,0.002,0.000,2.100,1.897,1.799,4.286,0.398,1.000,4.711,0.000,0.000,-5.114,9.703,0.451,6.223,2.626,1.472,4.182,4.383,4.485,1.999,5.882,5.284,1.571,0.000,0.000,-5.057,9.380,0.451,6.170,2.634,1.361,
208.625,248.224,-5.296,9.504,0.275,0.022,1.181,2.293,0.000,2.396,3.637,4.853,1.967,1.440,0.000,1.588,0.000,0.000,2.440,0.000,0.000,0.000,0.000,0.000,0.000,0.000,0.000,0.000,0.000,0.000,3.142,0.002,0.000,2.100,1.897,1.799,4.286,0.398,1.000,4.711,0.000,0.000,-5.134,9.720,0.451,6.176,2.633,1.387,4.182,4.383,4.485,1.999,5.882,5.284,1.571,0.000,0.000,-5.045,9.404,0.451,6.123,2.646,1.275,
208.725,248.324,-5.295,9.504,0.374,0.014,1.202,1.814,0.000,3.685,3.206,2.364,1.393,1.663,0.000,1.522,0.000,0.000,2.334,0.000,0.000,0.000,0.000,0.000,0.000,0.000,0.000,0.000,0.000,0.000,3.142,0.002,0.000,2.100,1.897,1.799,4.286,0.398,1.000,4.711,0.000,0.000,-5.155,9.736,0.451,6.128,2.644,1.299,4.182,4.383,4.485,1.999,5.882,5.284,1.571,0.000,0.000,-5.035,9.429,0.451,6.077,2.662,1.186,
208.831,248.430,-5.295,9.504,0.466,-0.022,1.101,1.895,0.000,4.011,2.910,3.823,1.131,1.577,0.000,1.479,0.000,0.000,2.264,0.000,0.000,0.000,0.000,0.000,0.000,0.000,0.000,0.000,0.000,0.000,3.142,0.002,0.000,2.100,1.897,1.799,4.286,0.398,1.000,4.711,0.000,0.000,-5.177,9.747,0.451,6.084,2.659,1.217,4.182,4.383,4.485,1.999,5.882,5.284,1.571,0.000,0.000,-5.030,9.454,0.451,6.035,2.681,1.101,
208.930,248.529,-5.297,9.503,0.559,-0.005,1.180,2.002,0.000,4.046,3.218,3.791,1.142,1.511,4.082,1.451,0.000,0.000,2.159,0.000,0.000,0.000,0.000,0.000,0.000,0.000,0.000,0.000,0.000,0.000,3.142,0.002,0.000,2.100,1.897,1.799,4.285,0.398,1.000,4.711,0.000,0.000,-5.202,9.757,0.451,6.042,2.678,1.132,4.182,4.383,4.485,1.999,5.882,5.284,1.571,0.000,0.000,-5.027,9.478,0.451,5.995,2.704,1.015,
209.040,248.639,-5.296,9.504,0.657,0.013,1.160,2.149,0.000,4.178,0.000,4.612,1.210,1.409,4.262,1.434,0.000,0.000,2.053,0.000,0.000,0.000,0.000,0.000,0.000,0.000,0.000,0.000,0.000,0.000,3.142,0.002,0.000,2.100,1.897,1.799,4.286,0.398,1.000,4.711,0.000,0.000,-5.226,9.765,0.451,5.999,2.701,1.041,4.182,4.383,4.485,1.999,5.882,5.284,1.571,0.000,0.000,-5.026,9.505,0.451,5.954,2.733,0.921,
209.134,248.733,-5.295,9.505,0.755,0.024,1.201,2.341,0.000,4.691,0.000,2.906,1.221,3.412,4.443,1.431,0.000,0.000,1.983,0.000,0.000,0.000,0.000,0.000,0.000,0.000,0.000,0.000,0.000,0.000,3.142,0.002,0.000,2.100,1.897,1.799,4.286,0.398,1.000,4.711,0.000,0.000,-5.251,9.772,0.451,5.959,2.729,0.947,4.182,4.383,4.485,1.999,5.882,5.284,1.571,0.000,0.000,-5.026,9.532,0.451,5.917,2.766,0.825,
209.240,248.839,-5.295,9.505,0.849,-0.015,1.095,2.589,0.000,3.967,4.958,1.957,1.346,3.971,1.706,1.442,0.000,0.000,1.878,0.000,0.000,0.000,0.000,0.000,0.000,0.000,0.000,0.000,0.000,0.000,3.142,0.002,0.000,2.100,1.897,1.799,4.286,0.398,1.000,4.711,0.000,0.000,-5.276,9.775,0.451,5.922,2.760,0.855,4.182,4.383,4.485,1.999,5.882,5.284,1.571,0.000,0.000,-5.029,9.558,0.451,5.884,2.801,0.730,
209.340,248.939,-5.296,9.504,0.939,-0.010,1.124,2.933,0.000,3.481,4.805,1.516,1.504,0.000,1.564,1.465,0.000,0.000,1.773,0.000,0.000,0.000,0.000,0.000,0.000,0.000,0.000,0.000,0.000,0.000,3.142,0.002,0.000,2.100,1.897,1.799,4.286,0.398,1.000,4.711,0.000,0.000,-5.301,9.774,0.451,5.890,2.794,0.765,4.182,4.383,4.485,1.998,5.882,5.284,1.571,0.000,0.000,-5.036,9.580,0.451,5.855,2.838,0.637,
209.440,249.039,-5.295,9.504,1.034,0.010,1.165,2.002,0.000,3.106,3.863,1.201,1.634,0.000,1.508,1.503,0.000,0.000,1.702,0.000,0.000,0.000,0.000,0.000,0.000,0.000,0.000,0.000,0.000,0.000,3.142,0.002,0.000,2.100,1.897,1.799,4.286,0.398,1.000,4.711,0.000,0.000,-5.327,9.773,0.451,5.859,2.833,0.667,4.182,4.383,4.485,1.999,5.882,5.284,1.571,0.000,0.000,-5.044,9.604,0.451,5.829,2.882,0.535,
209.540,249.139,-5.295,9.505,1.114,0.017,1.247,1.833,0.000,2.940,3.815,1.116,1.566,0.000,1.473,2.214,0.000,0.000,1.597,0.000,0.000,0.000,0.000,0.000,0.000,0.000,0.000,0.000,0.000,0.000,3.142,0.002,0.000,2.100,1.897,1.799,4.286,0.398,1.000,4.711,0.000,0.000,-5.347,9.771,0.451,5.836,2.868,0.582,4.182,4.383,4.485,1.999,5.882,5.284,1.571,0.000,0.000,-5.052,9.625,0.451,5.810,2.921,0.448,
209.640,249.239,-5.294,9.506,1.216,-0.009,1.120,1.670,0.000,3.320,3.791,1.192,1.500,4.165,1.445,2.195,0.000,0.000,1.492,0.000,0.000,0.000,0.000,0.000,0.000,0.000,0.000,0.000,0.000,0.000,3.142,0.002,0.000,2.100,1.897,1.799,4.286,0.398,1.000,4.711,0.000,0.000,-5.374,9.765,0.451,5.811,2.917,0.472,4.182,4.383,4.485,1.999,5.882,5.284,1.571,0.000,0.000,-5.065,9.651,0.452,5.790,2.973,0.336,
209.740,249.339,-5.295,9.505,1.320,-0.013,1.093,1.639,0.000,0.000,4.625,1.187,1.398,4.314,1.431,2.201,0.000,0.000,1.387,0.000,0.000,0.000,0.000,0.000,0.000,0.000,0.000,0.000,0.000,0.000,3.142,0.002,0.000,2.100,1.897,1.799,4.286,0.398,1.000,4.711,0.000,0.000,-5.401,9.753,0.451,5.791,2.971,0.357,4.182,4.383,4.485,1.998,5.882,5.284,1.571,0.000,0.000,-5.082,9.672,0.451,5.775,3.030,0.218,
209.840,249.439,-5.295,9.504,1.394,0.006,1.200,1.853,0.000,0.000,2.772,1.273,3.448,4.459,1.432,2.219,0.000,0.000,1.316,0.000,0.000,0.000,0.000,0.000,0.000,0.000,0.000,0.000,0.000,0.000,3.142,0.002,0.000,2.100,1.897,1.799,4.286,0.398,1.000,4.711,0.000,0.000,-5.419,9.745,0.451,5.780,3.011,0.273,4.182,4.383,4.485,1.999,5.882,5.284,1.571,0.000,0.000,-5.095,9.687,0.451,5.769,3.071,0.133,
209.940,249.539,-5.295,9.506,1.500,0.017,1.265,2.397,0.000,4.922,1.967,1.436,4.097,1.655,1.447,2.267,0.000,0.000,1.211,0.000,0.000,0.000,0.000,0.000,0.000,0.000,0.000,0.000,0.000,0.000,3.142,0.002,0.000,2.100,1.897,1.799,4.286,0.398,1.000,4.711,0.000,0.000,-5.443,9.732,0.451,5.769,3.069,0.153,4.182,4.383,4.485,1.999,5.882,5.284,1.571,0.000,0.000,-5.115,9.709,0.451,5.764,3.131,0.012,
210.040,249.639,-5.295,9.507,1.619,-0.015,1.093,2.449,0.000,4.743,1.345,1.649,0.000,1.534,1.483,1.852,0.000,0.000,3.142,0.000,0.000,0.000,0.000,0.000,0.000,0.000,0.000,0.000,0.000,0.000,3.142,0.002,0.000,2.100,1.897,1.799,4.285,0.398,1.000,4.711,0.000,0.000,-5.469,9.714,0.451,5.764,3.137,0.016,4.182,4.383,4.485,1.999,5.882,5.284,1.571,0.000,0.000,-5.141,9.730,0.451,5.767,3.199,6.158,
210.140,249.739,-5.295,9.506,1.688,-0.017,1.068,4.434,0.000,3.848,1.152,1.585,0.000,1.497,1.514,1.854,0.000,0.000,3.142,0.000,0.000,0.000,0.000,0.000,0.000,0.000,0.000,0.000,0.000,0.000,3.142,0.002,0.000,2.100,1.897,1.799,4.285,0.398,1.000,4.711,0.000,0.000,-5.483,9.700,0.451,5.765,3.176,6.220,4.182,4.383,4.485,1.998,5.882,5.284,1.571,0.000,0.000,-5.156,9.738,0.451,5.772,3.238,6.079,
210.240,249.839,-5.295,9.506,1.798,0.008,1.151,3.136,0.000,3.798,1.152,1.508,4.060,1.457,2.202,1.968,0.000,0.000,3.106,0.000,0.000,0.000,0.000,0.000,0.000,0.000,0.000,0.000,0.000,0.000,3.142,0.002,0.000,2.100,1.897,1.799,4.286,0.398,1.000,4.711,0.000,0.000,-5.503,9.678,0.451,5.773,3.238,6.094,4.182,4.383,4.485,1.999,5.882,5.284,1.571,0.000,0.000,-5.182,9.752,0.451,5.786,3.298,5.955,
210.340,249.939,-5.295,9.507,1.894,0.023,1.225,4.134,0.000,3.793,1.202,1.409,4.225,1.438,2.195,2.103,0.000,0.000,3.001,0.000,0.000,0.000,0.000,0.000,0.000,0.000,0.000,0.000,0.000,0.000,3.142,0.002,6.283,2.100,1.897,1.799,4.286,0.398,1.000,4.711,0.000,0.000,-5.519,9.658,0.451,5.784,3.291,5.985,4.182,4.383,4.485,1.999,5.882,5.284,1.571,0.000,0.000,-5.207,9.763,0.451,5.804,3.348,5.848,
210.440,250.039,-5.295,9.508,2.000,0.000,1.233,4.408,0.000,3.310,1.240,3.631,4.409,1.433,2.212,2.301,0.000,0.000,2.896,0.000,0.000,0.000,0.000,0.000,0.000,0.000,0.000,0.000,0.000,0.000,3.142,0.002,0.000,2.100,1.897,1.799,4.286,0.398,1.000,4.711,0.000,0.000,-5.534,9.635,0.451,5.803,3.347,5.866,4.182,4.383,4.485,1.999,5.882,5.284,1.571,0.000,0.000,-5.235,9.772,0.451,5.828,3.400,5.732,
210.540,250.139,-5.295,9.507,2.076,-0.020,1.069,4.214,0.000,2.150,1.344,3.974,4.390,1.438,2.239,2.485,0.000,0.000,2.826,0.000,0.000,0.000,0.000,0.000,0.000,0.000,0.000,0.000,0.000,0.000,3.142,0.002,0.000,2.100,1.897,1.799,4.285,0.398,1.000,4.711,0.000,0.000,-5.543,9.616,0.451,5.820,3.385,5.783,4.182,4.383,4.485,1.999,5.882,5.284,1.571,0.000,0.000,-5.255,9.775,0.451,5.849,3.436,5.650,
210.640,250.239,-5.319,9.548,2.143,0.860,0.305,3.743,0.000,1.948,1.418,0.000,1.671,1.491,2.299,2.725,0.000,0.000,2.755,0.000,0.000,0.000,0.000,0.000,0.000,0.000,0.000,0.000,0.000,0.000,3.142,6.279,6.283,2.106,1.899,1.796,4.285,0.400,0.996,4.709,0.000,0.000,-5.573,9.637,0.450,5.841,3.417,5.706,4.182,4.387,4.481,1.997,5.884,5.283,1.570,0.000,0.000,-5.297,9.816,0.451,5.872,3.465,5.576,
210.740,250.339,-5.368,9.624,2.150,1.368,0.003,3.614,0.000,2.020,1.350,0.000,1.741,1.575,2.074,2.896,0.000,0.000,2.755,0.000,0.000,0.000,0.000,0.000,0.000,0.000,0.000,0.000,0.000,0.000,3.142,6.281,6.283,2.103,1.898,1.797,4.285,0.399,0.998,4.710,0.000,0.000,-5.623,9.712,0.450,5.842,3.420,5.701,4.182,4.385,4.483,1.997,5.882,5.283,1.570,0.000,0.000,-5.348,9.893,0.451,5.873,3.467,5.570,
210.840,250.439,-5.441,9.735,2.151,1.193,6.281,3.482,0.000,2.404,1.231,0.000,1.873,1.695,1.893,1.946,0.000,0.000,2.791,0.000,0.000,0.000,0.000,0.000,0.000,0.000,0.000,0.000,0.000,0.000,3.142,0.001,0.001,2.098,1.897,1.800,4.285,0.397,1.001,4.712,0.000,0.000,-5.697,9.826,0.451,5.838,3.420,5.704,4.183,4.383,4.485,1.998,5.881,5.284,1.571,0.000,0.000,-5.421,10.006,0.452,5.871,3.467,5.573,
210.940,250.539,-5.494,9.816,2.153,0.823,0.185,3.378,0.000,2.668,1.280,0.000,1.968,1.783,1.949,1.763,0.000,0.000,2.791,0.000,0.000,0.000,0.000,0.000,0.000,0.000,0.000,0.000,0.000,0.000,3.142,0.001,0.000,2.098,1.897,1.800,4.285,0.397,1.001,4.712,0.000,0.000,-5.750,9.906,0.451,5.839,3.421,5.701,4.183,4.383,4.485,1.998,5.881,5.284,1.571,0.000,0.000,-5.475,10.086,0.452,5.872,3.468,5.571,
211.040,250.639,-5.540,9.884,2.214,0.923,1.257,3.029,0.000,2.417,1.313,0.000,1.993,2.550,2.036,1.469,0.000,0.000,2.720,0.000,0.000,0.000,0.000,0.000,0.000,0.000,0.000,0.000,0.000,0.000,3.142,0.000,6.283,2.101,1.898,1.799,4.286,0.399,0.999,4.711,0.000,0.000,-5.800,9.958,0.451,5.858,3.448,5.635,4.182,4.385,4.485,1.998,5.882,5.284,1.571,0.000,0.000,-5.537,10.155,0.451,5.893,3.492,5.507,
211.128,250.727,-5.618,9.980,2.344,1.116,0.688,2.505,0.000,2.005,1.353,0.000,2.024,2.553,2.240,1.424,0.000,0.000,2.896,0.000,0.000,0.000,0.000,0.000,0.000,0.000,0.000,0.000,0.000,0.000,3.142,0.000,0.000,2.102,1.899,1.798,4.286,0.399,0.999,4.711,0.000,0.000,-5.885,10.018,0.451,5.902,3.500,5.500,4.183,4.385,4.484,1.999,5.883,5.283,1.570,0.000,0.000,-5.651,10.248,0.452,5.941,3.540,5.376,
211.228,250.827,-5.694,10.056,2.353,1.035,0.003,2.378,0.000,2.132,1.324,0.000,2.126,2.626,2.335,1.498,0.000,0.000,2.896,0.000,0.000,0.000,0.000,0.000,0.000,0.000,0.000,0.000,0.000,0.000,3.142,6.283,0.000,2.100,1.897,1.798,4.285,0.398,1.000,4.711,0.000,0.000,-5.962,10.092,0.451,5.904,3.505,5.492,4.183,4.384,4.484,1.998,5.882,5.283,1.570,0.000,0.000,-5.729,10.324,0.451,5.944,3.543,5.368,
211.331,250.930,-5.762,10.125,2.353,0.955,0.002,2.284,0.000,2.279,1.252,0.000,2.223,2.695,2.411,1.985,0.000,0.000,2.896,0.000,0.000,0.000,0.000,0.000,0.000,0.000,0.000,0.000,0.000,0.000,3.142,6.282,0.000,2.100,1.897,1.798,4.285,0.398,1.000,4.711,0.000,0.000,-6.030,10.161,0.451,5.904,3.504,5.492,4.183,4.384,4.484,1.998,5.882,5.283,1.570,0.000,0.000,-5.797,10.393,0.451,5.944,3.542,5.368,
211.440,251.039,-5.829,10.193,2.353,1.000,0.002,2.191,0.000,2.425,1.328,0.000,2.319,2.763,2.486,1.909,0.000,0.000,2.896,0.000,0.000,0.000,0.000,0.000,0.000,0.000,0.000,0.000,0.000,0.000,3.142,6.282,0.000,2.101,1.897,1.798,4.285,0.398,0.999,4.711,0.000,0.000,-6.097,10.229,0.451,5.904,3.504,5.492,4.183,4.384,4.484,1.998,5.882,5.283,1.570,0.000,0.000,-5.864,10.461,0.451,5.945,3.542,5.368,
211.533,251.132,-5.900,10.264,2.352,1.040,0.001,2.093,0.000,2.579,1.407,0.000,2.420,2.836,2.565,1.830,0.000,0.000,2.931,0.000,0.000,0.000,0.000,0.000,0.000,0.000,0.000,0.000,0.000,0.000,3.142,6.282,0.000,2.101,1.897,1.798,4.285,0.398,0.999,4.711,0.000,0.000,-6.169,10.301,0.451,5.904,3.504,5.493,4.183,4.384,4.484,1.998,5.882,5.283,1.570,0.000,0.000,-5.935,10.532,0.451,5.944,3.542,5.369,
211.640,251.239,-5.972,10.336,2.352,1.016,0.001,1.994,0.000,2.734,1.488,0.000,2.522,2.908,2.645,1.749,0.000,0.000,2.931,0.000,0.000,0.000,0.000,0.000,0.000,0.000,0.000,0.000,0.000,0.000,3.142,6.282,0.000,2.100,1.897,1.798,4.285,0.398,1.000,4.711,0.000,0.000,-6.240,10.373,0.451,5.903,3.504,5.493,4.183,4.384,4.484,1.998,5.882,5.283,1.570,0.000,0.000,-6.007,10.605,0.451,5.944,3.542,5.369,
211.740,251.339,-6.041,10.407,2.351,0.996,0.001,1.898,0.000,1.767,1.566,2.295,2.621,2.979,1.537,1.671,0.000,0.000,2.931,0.000,0.000,0.000,0.000,0.000,0.000,0.000,0.000,0.000,0.000,0.000,3.142,6.282,0.000,2.100,1.897,1.798,4.285,0.398,1.000,4.711,0.000,0.000,-6.309,10.443,0.451,5.903,3.504,5.494,4.183,4.384,4.484,1.998,5.882,5.283,1.570,0.000,0.000,-6.076,10.675,0.451,5.944,3.542,5.370,
211.840,251.439,-6.111,10.477,2.351,1.009,0.001,1.801,0.000,3.035,2.488,2.366,2.720,3.049,1.346,1.589,0.000,0.000,2.931,0.000,0.000,0.000,0.000,0.000,0.000,0.000,0.000,0.000,0.000,0.000,3.142,6.282,0.000,2.101,1.897,1.798,4.285,0.398,0.999,4.711,0.000,0.000,-6.379,10.513,0.451,5.903,3.504,5.494,4.183,4.384,4.484,1.998,5.882,5.283,1.570,0.000,0.000,-6.145,10.745,0.451,5.944,3.542,5.370,
211.940,251.539,-6.167,10.533,2.351,1.018,0.001,1.723,0.000,3.157,2.358,2.424,2.800,3.106,1.379,1.585,0.000,0.000,2.931,0.000,0.000,0.000,0.000,0.000,0.000,0.000,0.000,0.000,0.000,0.000,3.142,6.282,0.000,2.101,1.897,1.798,4.285,0.398,1.000,4.711,0.000,0.000,-6.435,10.570,0.451,5.903,3.503,5.494,4.183,4.384,4.484,1.998,5.882,5.283,1.570,0.000,0.000,-6.201,10.802,0.451,5.944,3.542,5.370,
212.040,251.639,-6.237,10.605,2.350,1.014,0.001,1.625,0.000,4.151,2.194,2.547,2.900,2.653,1.421,2.879,0.000,0.000,2.931,0.000,0.000,0.000,0.000,0.000,0.000,0.000,0.000,0.000,0.000,0.000,3.142,6.282,0.000,2.100,1.897,1.798,4.285,0.398,1.000,4.711,0.000,0.000,-6.505,10.641,0.451,5.903,3.503,5.495,4.183,4.384,4.484,1.998,5.882,5.283,1.570,0.000,0.000,-6.272,10.873,0.451,5.943,3.541,5.371,
212.140,251.739,-6.307,10.675,2.350,1.007,0.001,1.528,0.000,4.072,2.032,2.619,3.000,2.724,1.463,2.800,0.000,0.000,2.966,0.000,0.000,0.000,0.000,0.000,0.000,0.000,0.000,0.000,0.000,0.000,3.142,6.282,0.000,2.100,1.897,1.798,4.285,0.398,1.000,4.711,0.000,0.000,-6.575,10.712,0.451,5.903,3.503,5.495,4.183,4.384,4.484,1.998,5.882,5.283,1.570,0.000,0.000,-6.341,10.944,0.451,5.943,3.541,5.371,
212.240,251.839,-6.366,10.735,2.334,0.635,5.602,1.470,0.000,3.056,1.889,2.671,3.097,2.791,1.495,2.757,0.000,0.000,2.966,0.000,0.000,0.000,0.000,0.000,0.000,0.000,0.000,0.000,0.000,0.000,3.142,6.283,0.001,2.098,1.897,1.798,4.285,0.398,1.001,4.712,0.000,0.000,-6.634,10.777,0.451,5.896,3.498,5.512,4.184,4.383,4.484,1.998,5.882,5.283,1.570,0.000,0.000,-6.396,11.004,0.452,5.936,3.537,5.387,
212.340,251.939,-6.398,10.770,2.234,0.444,4.828,1.592,0.000,2.886,2.041,1.778,3.256,3.428,1.505,2.882,0.000,0.000,3.071,0.000,0.000,0.000,0.000,0.000,0.000,0.000,0.000,0.000,0.000,0.000,3.142,6.280,0.001,2.101,1.897,1.798,4.285,0.398,0.999,4.711,0.000,0.000,-6.661,10.837,0.451,5.864,3.457,5.614,4.183,4.383,4.483,1.998,5.882,5.283,1.570,0.000,0.000,-6.401,11.040,0.452,5.900,3.501,5.486,
212.440,252.039,-6.429,10.812,2.120,0.646,5.175,1.810,0.000,2.748,2.270,1.819,0.000,3.600,1.529,1.614,0.000,0.000,3.142,0.000,0.000,0.000,0.000,0.000,0.000,0.000,0.000,0.000,0.000,0.000,3.142,6.280,0.000,2.102,1.897,1.798,4.285,0.398,0.998,4.710,0.000,0.000,-6.681,10.908,0.451,5.832,3.406,5.734,4.182,4.384,4.483,1.998,5.882,5.283,1.570,0.000,0.000,-6.401,11.080,0.451,5.863,3.454,5.603,
212.540,252.139,-6.464,10.872,2.041,0.733,5.398,1.997,0.000,3.187,2.515,1.892,0.000,3.771,1.559,1.476,0.000,0.000,3.142,0.000,0.000,0.000,0.000,0.000,0.000,0.000,0.000,0.000,0.000,0.000,3.142,6.281,0.000,2.101,1.897,1.798,4.285,0.398,0.999,4.711,0.000,0.000,-6.708,10.989,0.451,5.812,3.368,5.820,4.182,4.384,4.484,1.998,5.882,5.283,1.570,0.000,0.000,-6.415,11.138,0.451,5.840,3.420,5.686,
212.640,252.239,-6.490,10.925,1.963,0.329,5.311,2.285,0.000,3.428,2.804,2.886,0.000,3.970,1.594,1.484,0.000,0.000,3.142,0.000,0.000,0.000,0.000,0.000,0.000,0.000,0.000,0.000,0.000,0.000,3.142,0.001,0.001,2.096,1.896,1.800,4.286,0.397,1.002,4.713,0.000,0.000,-6.725,11.063,0.452,5.794,3.327,5.910,4.183,4.382,4.486,1.999,5.881,5.284,1.571,0.000,0.000,-6.420,11.187,0.452,5.818,3.382,5.774,
212.740,252.339,-6.490,10.923,1.879,-0.266,5.139,2.845,0.000,3.411,3.098,2.458,2.910,3.193,2.872,1.652,0.000,0.000,0.755,0.000,0.000,0.000,0.000,0.000,0.000,0.000,0.000,0.000,0.000,0.000,3.142,0.000,0.001,2.098,1.896,1.799,4.285,0.397,1.001,4.712,0.000,0.000,-6.712,11.079,0.451,5.781,3.282,6.003,4.182,4.382,4.485,1.999,5.881,5.284,1.571,0.000,0.000,-6.398,11.178,0.452,5.800,3.340,5.865,
212.840,252.439,-6.483,10.900,1.773,-0.150,5.042,3.074,0.000,3.430,3.041,2.007,2.858,3.231,2.881,1.990,0.000,0.000,0.755,0.000,0.000,0.000,0.000,0.000,0.000,0.000,0.000,0.000,0.000,0.000,3.142,6.280,0.000,2.102,1.897,1.798,4.285,0.398,0.999,4.711,0.000,0.000,-6.688,11.076,0.451,5.771,3.225,6.120,4.182,4.384,4.483,1.998,5.882,5.283,1.571,0.000,0.000,-6.366,11.142,0.451,5.784,3.285,5.981,
212.940,252.539,-6.483,10.899,1.663,0.087,5.163,2.519,0.000,3.484,2.869,2.116,1.912,3.329,2.933,2.469,0.000,0.000,0.755,0.000,0.000,0.000,0.000,0.000,0.000,0.000,0.000,0.000,0.000,0.000,3.142,6.280,0.000,2.102,1.897,1.798,4.285,0.398,0.999,4.711,0.000,0.000,-6.668,11.097,0.451,5.765,3.163,6.245,4.182,4.384,4.483,1.998,5.882,5.283,1.570,0.000,0.000,-6.340,11.128,0.451,5.771,3.225,6.105,
213.040,252.639,-6.484,10.906,1.586,0.086,5.159,2.499,0.000,3.548,2.777,2.224,1.910,3.431,3.533,1.540,0.000,0.000,0.755,0.000,0.000,0.000,0.000,0.000,0.000,0.000,0.000,0.000,0.000,0.000,3.142,6.281,0.000,2.101,1.897,1.798,4.285,0.398,1.000,4.711,0.000,0.000,-6.652,11.117,0.451,5.765,3.119,0.052,4.182,4.383,4.484,1.998,5.882,5.283,1.570,0.000,0.000,-6.323,11.123,0.451,5.766,3.181,6.194,
213.133,252.732,-6.484,10.908,1.476,-0.036,5.121,3.001,0.000,1.581,2.683,1.750,1.922,0.000,3.677,1.550,0.000,0.000,0.755,0.000,0.000,0.000,0.000,0.000,0.000,0.000,0.000,0.000,0.000,0.000,3.142,6.281,0.000,2.100,1.897,1.798,4.285,0.398,1.000,4.711,0.000,0.000,-6.628,11.138,0.451,5.771,3.056,0.179,4.182,4.383,4.484,1.998,5.882,5.283,1.570,0.000,0.000,-6.301,11.107,0.451,5.765,3.118,0.038,
213.239,252.838,-6.485,10.904,1.376,-0.039,5.088,2.182,0.000,1.281,3.452,2.643,2.858,0.000,3.862,1.579,0.000,0.000,0.755,0.000,0.000,0.000,0.000,0.000,0.000,0.000,0.000,0.000,0.000,0.000,3.142,6.281,0.000,2.101,1.897,1.798,4.285,0.398,0.999,4.711,0.000,0.000,-6.605,11.146,0.451,5.782,3.001,0.292,4.182,4.384,4.484,1.998,5.882,5.283,1.570,0.000,0.000,-6.282,11.083,0.451,5.770,3.061,0.153,
213.340,252.939,-6.486,10.903,1.284,0.016,5.161,1.699,0.000,1.096,3.420,2.926,2.487,0.000,3.169,2.870,0.000,0.000,0.755,0.000,0.000,0.000,0.000,0.000,0.000,0.000,0.000,0.000,0.000,0.000,3.142,6.281,0.000,2.101,1.897,1.798,4.285,0.398,0.999,4.711,0.000,0.000,-6.583,11.155,0.451,5.798,2.952,0.395,4.182,4.384,4.484,1.998,5.882,5.283,1.570,0.000,0.000,-6.267,11.062,0.451,5.780,3.010,0.257,
213.424,253.023,-6.485,10.904,1.188,0.013,5.151,2.432,0.000,1.169,3.417,4.114,2.002,2.894,3.206,2.872,0.000,0.000,0.755,0.000,0.000,0.000,0.000,0.000,0.000,0.000,0.000,0.000,0.000,0.000,3.142,6.281,0.000,2.101,1.897,1.798,4.285,0.398,0.999,4.711,0.000,0.000,-6.558,11.165,0.451,5.818,2.904,0.500,4.182,4.384,4.484,1.998,5.882,5.283,1.570,0.000,0.000,-6.253,11.042,0.451,5.795,2.959,0.365,
213.521,253.120,-6.485,10.905,1.098,-0.004,5.148,2.528,0.000,1.264,3.444,2.965,2.087,2.841,3.268,2.899,0.000,0.000,0.755,0.000,0.000,0.000,0.000,0.000,0.000,0.000,0.000,0.000,0.000,0.000,3.142,6.281,0.000,2.101,1.897,1.798,4.285,0.398,0.999,4.711,0.000,0.000,-6.534,11.171,0.451,5.841,2.862,0.597,4.182,4.384,4.484,1.998,5.882,5.283,1.570,0.000,0.000,-6.241,11.021,0.451,5.813,2.913,0.464,
213.623,253.222,-6.486,10.904,1.003,-0.009,5.080,2.665,0.000,1.397,3.503,2.830,2.204,1.913,3.368,2.955,0.000,0.000,0.755,0.000,0.000,0.000,0.000,0.000,0.000,0.000,0.000,0.000,0.000,0.000,3.142,6.281,0.000,2.101,1.897,1.798,4.285,0.398,0.999,4.711,0.000,0.000,-6.510,11.174,0.451,5.869,2.820,0.697,4.182,4.384,4.484,1.998,5.882,5.283,1.570,0.000,0.000,-6.232,10.997,0.451,5.837,2.868,0.567,
213.722,253.321,-6.484,10.908,0.902,0.230,5.206,2.851,0.000,1.593,1.851,2.728,2.371,1.914,0.000,3.594,0.000,0.000,0.755,0.000,0.000,0.000,0.000,0.000,0.000,0.000,0.000,0.000,0.000,0.000,3.142,6.278,6.283,2.105,1.898,1.797,4.285,0.399,0.997,4.709,0.000,0.000,-6.482,11.177,0.450,5.903,2.782,0.797,4.182,4.385,4.482,1.997,5.882,5.283,1.570,0.000,0.000,-6.223,10.974,0.451,5.866,2.825,0.670,
213.822,253.421,-6.445,10.956,0.867,0.970,6.216,2.869,0.000,1.749,1.540,2.740,1.805,1.966,0.000,3.601,0.000,0.000,0.790,0.000,0.000,0.000,0.000,0.000,0.000,0.000,0.000,0.000,0.000,0.000,3.142,6.279,6.283,2.104,1.898,1.797,4.285,0.399,0.997,4.709,0.000,0.000,-6.434,11.225,0.450,5.915,2.770,0.832,4.182,4.385,4.482,1.997,5.883,5.283,1.570,0.000,0.000,-6.182,11.013,0.451,5.878,2.811,0.706,
213.927,253.526,-6.382,11.031,0.867,0.872,0.001,2.773,0.000,1.865,1.329,2.805,1.903,2.041,0.000,3.532,0.000,0.000,0.755,0.000,0.000,0.000,0.000,0.000,0.000,0.000,0.000,0.000,0.000,0.000,3.142,0.001,0.001,2.098,1.897,1.799,4.285,0.397,1.001,4.712,0.000,0.000,-6.367,11.302,0.451,5.915,2.766,0.838,4.183,4.383,4.485,1.998,5.882,5.284,1.571,0.000,0.000,-6.117,11.089,0.452,5.877,2.807,0.711,
214.028,253.627,-6.342,11.078,0.868,0.422,0.079,2.710,0.000,1.936,1.198,2.905,1.963,2.088,3.625,3.489,0.000,0.000,0.755,0.000,0.000,0.000,0.000,0.000,0.000,0.000,0.000,0.000,0.000,0.000,3.142,0.002,0.001,2.097,1.897,1.800,4.285,0.397,1.001,4.712,0.000,0.000,-6.328,11.349,0.451,5.915,2.765,0.838,4.183,4.382,4.485,1.998,5.881,5.284,1.571,0.000,0.000,-6.077,11.136,0.452,5.877,2.807,0.711,
214.140,253.739,-6.324,11.099,0.899,0.364,0.943,2.617,0.000,1.880,1.240,2.892,2.622,2.106,3.473,3.428,0.000,0.000,0.755,0.000,0.000,0.000,0.000,0.000,0.000,0.000,0.000,0.000,0.000,0.000,3.142,0.001,0.000,2.100,1.897,1.800,4.285,0.398,1.000,4.711,0.000,0.000,-6.319,11.370,0.451,5.904,2.778,0.805,4.183,4.384,4.485,1.998,5.882,5.284,1.571,0.000,0.000,-6.061,11.165,0.451,5.868,2.821,0.678,
214.240,253.839,-6.297,11.136,1.012,0.590,1.421,2.381,0.000,1.669,1.695,3.047,2.465,3.044,3.306,2.754,0.000,0.000,0.755,0.000,0.000,0.000,0.000,0.000,0.000,0.000,0.000,0.000,0.000,0.000,3.142,0.000,6.283,2.102,1.898,1.799,4.285,0.399,0.999,4.710,0.000,0.000,-6.323,11.405,0.451,5.866,2.824,0.688,4.182,4.385,4.484,1.999,5.883,5.283,1.571,0.000,0.000,-6.043,11.231,0.451,5.835,2.872,0.557,
214.321,253.920,-6.259,11.202,1.130,0.640,0.876,2.164,0.000,1.531,3.658,3.282,2.383,3.109,3.195,1.372,0.000,0.000,0.755,0.000,0.000,0.000,0.000,0.000,0.000,0.000,0.000,0.000,0.000,0.000,3.142,0.001,0.000,2.100,1.898,1.799,4.286,0.398,1.000,4.711,0.000,0.000,-6.316,11.467,0.451,5.832,2.876,0.564,4.183,4.384,4.485,1.999,5.882,5.284,1.571,0.000,0.000,-6.019,11.327,0.452,5.806,2.929,0.430,
214.432,254.031,-6.237,11.254,1.204,0.512,0.955,2.046,0.000,1.469,3.664,4.461,2.657,0.000,4.014,1.285,0.000,0.000,0.755,0.000,0.000,0.000,0.000,0.000,0.000,0.000,0.000,0.000,0.000,0.000,3.142,0.002,0.000,2.099,1.897,1.800,4.286,0.398,1.000,4.711,0.000,0.000,-6.313,11.513,0.451,5.814,2.911,0.485,4.183,4.384,4.485,1.999,5.882,5.284,1.571,0.000,0.000,-6.006,11.395,0.452,5.792,2.966,0.349,
214.524,254.123,-6.221,11.299,1.294,0.507,1.109,2.219,0.000,1.397,3.687,3.507,3.326,0.000,3.740,1.212,0.000,0.000,0.755,0.000,0.000,0.000,0.000,0.000,0.000,0.000,0.000,0.000,0.000,0.000,3.142,0.001,0.000,2.100,1.898,1.799,4.286,0.399,1.000,4.711,0.000,0.000,-6.320,11.550,0.451,5.796,2.957,0.385,4.182,4.384,4.485,1.999,5.882,5.283,1.571,0.000,0.000,-6.004,11.461,0.451,5.778,3.015,0.247,
214.640,254.239,-6.210,11.340,1.369,0.565,1.063,1.281,0.000,1.349,3.726,3.286,2.393,0.000,3.562,1.163,0.000,0.000,0.755,0.000,0.000,0.000,0.000,0.000,0.000,0.000,0.000,0.000,0.000,0.000,3.142,0.001,0.000,2.101,1.898,1.799,4.286,0.399,0.999,4.711,0.000,0.000,-6.328,11.583,0.451,5.784,2.997,0.300,4.182,4.384,4.484,1.999,5.883,5.283,1.571,0.000,0.000,-6.006,11.517,0.451,5.770,3.057,0.161,
214.740,254.339,-6.201,11.395,1.456,0.582,1.004,1.190,0.000,1.305,3.797,3.102,2.416,3.664,2.831,2.425,0.000,0.000,0.755,0.000,0.000,0.000,0.000,0.000,0.000,0.000,0.000,0.000,0.000,0.000,3.142,0.001,0.000,2.100,1.898,1.799,4.286,0.398,1.000,4.711,0.000,0.000,-6.339,11.627,0.451,5.773,3.044,0.203,4.183,4.384,4.485,1.999,5.882,5.284,1.571,0.000,0.000,-6.012,11.590,0.452,5.765,3.106,0.062,
214.839,254.438,-6.195,11.460,1.555,0.521,0.763,2.440,0.000,1.263,3.615,2.949,2.696,3.509,2.718,1.444,0.000,0.000,0.755,0.000,0.000,0.000,0.000,0.000,0.000,0.000,0.000,0.000,0.000,0.000,3.142,0.001,0.000,2.100,1.898,1.799,4.286,0.398,1.000,4.711,0.000,0.000,-6.356,11.678,0.451,5.766,3.101,0.088,4.183,4.384,4.484,1.999,5.882,5.283,1.571,0.000,0.000,-6.028,11.673,0.452,5.764,3.163,6.230,
214.931,254.530,-6.195,11.506,1.574,0.435,0.001,2.394,0.000,1.256,3.561,2.967,2.742,3.504,1.338,1.222,0.000,0.000,0.755,0.000,0.000,0.000,0.000,0.000,0.000,0.000,0.000,0.000,0.000,0.000,3.142,6.283,0.000,2.100,1.897,1.798,4.285,0.398,1.000,4.711,0.000,0.000,-6.361,11.721,0.451,5.765,3.112,0.066,4.183,4.384,4.484,1.998,5.882,5.283,1.570,0.000,0.000,-6.032,11.722,0.451,5.765,3.174,6.208,
215.040,254.639,-6.195,11.540,1.574,0.439,0.000,2.361,0.000,1.256,3.661,3.007,2.775,3.523,1.324,1.119,0.000,0.000,0.755,0.000,0.000,0.000,0.000,0.000,0.000,0.000,0.000,0.000,0.000,0.000,3.142,6.282,0.000,2.101,1.897,1.798,4.285,0.398,0.999,4.711,0.000,0.000,-6.361,11.754,0.451,5.765,3.112,0.066,4.183,4.384,4.484,1.998,5.882,5.283,1.570,0.000,0.000,-6.032,11.755,0.451,5.765,3.174,6.208,
215.140,254.739,-6.196,11.584,1.574,0.489,0.000,2.316,0.000,1.256,3.796,3.062,2.820,3.548,1.305,0.980,0.000,0.000,0.755,0.000,0.000,0.000,0.000,0.000,0.000,0.000,0.000,0.000,0.000,0.000,3.142,6.282,0.000,2.101,1.897,1.798,4.285,0.398,0.999,4.711,0.000,0.000,-6.361,11.799,0.451,5.765,3.112,0.066,4.183,4.384,4.484,1.998,5.882,5.283,1.570,0.000,0.000,-6.032,11.800,0.451,5.765,3.174,6.208,
215.240,254.839,-6.196,11.642,1.573,0.486,0.000,2.259,0.000,1.256,3.936,2.509,2.877,3.580,1.281,0.827,0.000,0.000,0.755,0.000,0.000,0.000,0.000,0.000,0.000,0.000,0.000,0.000,0.000,0.000,3.142,6.282,0.000,2.100,1.897,1.798,4.285,0.398,1.000,4.711,0.000,0.000,-6.361,11.856,0.451,5.765,3.112,0.067,4.183,4.384,4.484,1.998,5.882,5.283,1.570,0.000,0.000,-6.032,11.857,0.451,5.765,3.174,6.209,
215.321,254.920,-6.196,11.688,1.573,0.463,0.000,2.213,0.000,1.256,3.936,2.544,2.923,3.605,1.261,0.791,0.000,0.000,0.755,0.000,0.000,0.000,0.000,0.000,0.000,0.000,0.000,0.000,0.000,0.000,3.142,6.282,0.000,2.100,1.897,1.798,4.285,0.398,1.000,4.711,0.000,0.000,-6.361,11.902,0.451,5.765,3.112,0.067,4.183,4.384,4.484,1.998,5.882,5.283,1.570,0.000,0.000,-6.032,11.903,0.451,5.765,3.174,6.209,
215.430,255.029,-6.196,11.732,1.573,0.468,0.000,2.168,0.000,1.256,3.935,3.242,2.968,3.630,1.242,0.801,0.000,0.000,0.755,0.000,0.000,0.000,0.000,0.000,0.000,0.000,0.000,0.000,0.000,0.000,3.142,6.282,0.000,2.100,1.897,1.798,4.285,0.398,1.000,4.711,0.000,0.000,-6.361,11.947,0.451,5.765,3.111,0.067,4.183,4.384,4.484,1.998,5.882,5.283,1.570,0.000,0.000,-6.032,11.948,0.451,5.765,3.174,6.209,
215.540,255.139,-6.196,11.769,1.573,0.478,0.000,2.131,0.000,1.255,3.935,3.286,3.004,3.650,1.227,0.853,0.000,0.000,0.755,0.000,0.000,0.000,0.000,0.000,0.000,0.000,0.000,0.000,0.000,0.000,3.142,6.282,0.000,2.100,1.897,1.798,4.285,0.398,1.000,4.711,0.000,0.000,-6.361,11.983,0.451,5.765,3.111,0.067,4.183,4.384,4.484,1.998,5.882,5.283,1.570,0.000,0.000,-6.032,11.984,0.451,5.765,3.174,6.209,
215.640,255.239,-6.196,11.809,1.557,0.335,5.624,2.091,0.000,1.261,3.914,3.371,3.045,3.698,1.224,0.833,0.000,0.000,0.755,0.000,0.000,0.000,0.000,0.000,0.000,0.000,0.000,0.000,0.000,0.000,3.142,6.282,0.001,2.100,1.897,1.798,4.285,0.398,1.000,4.711,0.000,0.000,-6.358,12.026,0.451,5.766,3.103,0.085,4.183,4.383,4.483,1.998,5.882,5.283,1.570,0.000,0.000,-6.030,12.022,0.452,5.764,3.165,6.226,
215.735,255.334,-6.195,11.840,1.430,0.249,4.724,0.762,0.000,1.326,1.230,3.773,2.873,3.977,1.357,0.760,0.000,0.000,0.755,0.000,0.000,0.000,0.000,0.000,0.000,0.000,0.000,0.000,0.000,0.000,3.142,6.280,0.000,2.101,1.897,1.798,4.285,0.398,0.999,4.711,0.000,0.000,-6.329,12.075,0.451,5.775,3.032,0.230,4.183,4.383,4.483,1.998,5.882,5.283,1.570,0.000,0.000,-6.003,12.030,0.452,5.766,3.092,0.090,
215.827,255.426,-6.190,11.867,1.308,0.341,5.138,0.710,0.000,1.421,1.214,3.823,3.900,0.000,1.540,0.772,0.000,0.000,0.755,0.000,0.000,0.000,0.000,0.000,0.000,0.000,0.000,0.000,0.000,0.000,3.142,6.280,0.000,2.101,1.897,1.798,4.285,0.398,0.999,4.711,0.000,0.000,-6.294,12.117,0.451,5.793,2.965,0.367,4.182,4.384,4.484,1.998,5.882,5.283,1.570,0.000,0.000,-5.976,12.031,0.451,5.777,3.024,0.229,
215.940,255.539,-6.183,11.894,1.243,0.384,5.390,1.736,0.000,1.493,1.218,3.635,3.124,0.000,3.830,3.083,0.000,0.000,0.755,0.000,0.000,0.000,0.000,0.000,0.000,0.000,0.000,0.000,0.000,0.000,3.142,6.281,0.000,2.101,1.897,1.798,4.285,0.398,0.999,4.711,0.000,0.000,-6.270,12.150,0.451,5.805,2.931,0.441,4.182,4.384,4.484,1.998,5.882,5.283,1.570,0.000,0.000,-5.958,12.044,0.451,5.786,2.988,0.304,
216.040,255.639,-6.171,11.927,1.164,0.335,5.261,1.368,0.000,1.602,1.232,3.457,3.135,0.000,4.061,2.561,0.000,0.000,0.755,0.000,0.000,0.000,0.000,0.000,0.000,0.000,0.000,0.000,0.000,0.000,3.142,6.281,0.001,2.100,1.897,1.798,4.285,0.398,1.000,4.711,0.000,0.000,-6.237,12.189,0.451,5.823,2.893,0.526,4.183,4.383,4.484,1.998,5.882,5.283,1.570,0.000,0.000,-5.935,12.059,0.451,5.799,2.947,0.391,
216.140,255.739,-6.158,11.954,1.072,0.302,5.139,1.379,0.000,1.761,1.257,3.615,3.311,3.838,4.417,1.608,0.000,0.000,0.755,0.000,0.000,0.000,0.000,0.000,0.000,0.000,0.000,0.000,0.000,0.000,3.142,6.281,0.000,2.101,1.897,1.798,4.285,0.398,0.999,4.711,0.000,0.000,-6.201,12.221,0.451,5.848,2.850,0.625,4.183,4.383,4.484,1.998,5.882,5.283,1.570,0.000,0.000,-5.912,12.064,0.451,5.819,2.901,0.493,
216.240,255.839,-6.144,11.979,0.977,0.247,5.216,1.427,0.000,1.978,1.297,4.046,3.536,3.882,3.660,1.419,0.000,0.000,0.755,0.000,0.000,0.000,0.000,0.000,0.000,0.000,0.000,0.000,0.000,0.000,3.142,6.281,0.001,2.100,1.897,1.798,4.285,0.398,1.000,4.711,0.000,0.000,-6.161,12.249,0.451,5.877,2.809,0.724,4.183,4.383,4.484,1.998,5.882,5.283,1.570,0.000,0.000,-5.888,12.065,0.452,5.844,2.856,0.595,
216.340,255.939,-6.140,11.985,0.891,-0.061,5.250,1.510,0.000,1.844,1.335,1.316,3.778,2.993,3.804,1.277,0.000,0.000,0.755,0.000,0.000,0.000,0.000,0.000,0.000,0.000,0.000,0.000,0.000,0.000,3.142,6.282,0.001,2.099,1.897,1.799,4.285,0.397,1.000,4.712,0.000,0.000,-6.133,12.256,0.451,5.907,2.775,0.813,4.183,4.383,4.485,1.999,5.881,5.283,1.570,0.000,0.000,-5.877,12.049,0.452,5.870,2.818,0.686,
216.440,256.039,-6.128,12.000,0.787,0.527,5.556,1.633,0.000,1.597,1.407,1.295,3.458,3.039,4.032,1.203,0.000,0.000,0.790,0.000,0.000,0.000,0.000,0.000,0.000,0.000,0.000,0.000,0.000,0.000,3.142,6.277,6.283,2.105,1.899,1.797,4.285,0.399,0.996,4.709,0.000,0.000,-6.095,12.267,0.450,5.946,2.742,0.911,4.182,4.386,4.482,1.997,5.883,5.283,1.570,0.000,0.000,-5.861,12.035,0.451,5.905,2.780,0.788,
216.532,256.131,-6.072,12.054,0.767,0.925,6.280,1.588,0.000,1.519,1.483,1.347,4.737,3.105,4.059,1.179,0.000,0.000,0.790,0.000,0.000,0.000,0.000,0.000,0.000,0.000,0.000,0.000,0.000,0.000,3.142,6.282,0.000,2.101,1.897,1.798,4.285,0.398,0.999,4.711,0.000,0.000,-6.033,12.322,0.451,5.953,2.734,0.933,4.183,4.384,4.484,1.997,5.882,5.283,1.570,0.000,0.000,-5.804,12.085,0.451,5.912,2.771,0.810,
216.638,256.237,-6.016,12.109,0.767,0.617,0.000,1.510,0.000,1.458,1.545,1.404,4.815,3.160,4.032,1.222,0.000,0.000,0.755,0.000,0.000,0.000,0.000,0.000,0.000,0.000,0.000,0.000,0.000,0.000,3.142,0.001,0.001,2.098,1.897,1.799,4.285,0.397,1.001,4.712,0.000,0.000,-5.975,12.377,0.451,5.953,2.732,0.936,4.183,4.383,4.485,1.998,5.882,5.284,1.571,0.000,0.000,-5.747,12.140,0.452,5.912,2.769,0.813,
216.740,256.339,-5.988,12.135,0.767,0.423,0.000,1.472,0.000,1.427,1.576,1.433,4.853,3.187,4.019,1.244,0.000,0.000,0.755,0.000,0.000,0.000,0.000,0.000,0.000,0.000,0.000,0.000,0.000,0.000,3.142,0.000,0.000,2.099,1.897,1.799,4.285,0.398,1.000,4.712,0.000,0.000,-5.948,12.403,0.451,5.953,2.733,0.935,4.183,4.383,4.484,1.998,5.882,5.283,1.571,0.000,0.000,-5.719,12.167,0.451,5.912,2.770,0.811,
216.829,256.428,-5.949,12.173,0.798,0.565,0.929,1.378,0.000,1.407,1.597,1.480,4.369,3.210,3.925,0.580,0.000,0.000,0.755,0.000,0.000,0.000,0.000,0.000,0.000,0.000,0.000,0.000,0.000,0.000,3.142,0.000,6.283,2.101,1.898,1.799,4.285,0.398,0.999,4.711,0.000,0.000,-5.917,12.442,0.451,5.942,2.743,0.905,4.182,4.384,4.485,1.998,5.882,5.284,1.571,0.000,0.000,-5.682,12.212,0.451,5.902,2.781,0.781,
216.940,256.539,-5.916,12.209,0.886,0.661,1.444,1.231,0.000,1.443,1.576,1.548,4.084,4.115,3.722,0.542,0.000,0.000,3.001,0.000,0.000,0.000,0.000,0.000,0.000,0.000,0.000,0.000,0.000,0.000,3.142,0.001,0.000,2.101,1.898,1.799,4.286,0.399,0.999,4.711,0.000,0.000,-5.907,12.479,0.451,5.909,2.774,0.817,4.182,4.385,4.485,1.999,5.883,5.283,1.571,0.000,0.000,-5.653,12.271,0.451,5.872,2.816,0.691,
217.040,256.639,-5.878,12.259,0.999,0.614,1.071,1.078,0.000,1.508,1.563,1.655,3.186,4.117,1.507,0.544,0.000,0.000,2.896,0.000,0.000,0.000,0.000,0.000,0.000,0.000,0.000,0.000,0.000,0.000,3.142,0.001,0.000,2.100,1.898,1.799,4.286,0.399,1.000,4.711,0.000,0.000,-5.900,12.529,0.451,5.870,2.818,0.702,4.182,4.384,4.485,1.999,5.882,5.283,1.571,0.000,0.000,-5.623,12.351,0.452,5.838,2.865,0.572,
217.140,256.739,-5.851,12.303,1.037,0.432,0.012,1.004,0.000,1.501,1.578,1.713,3.782,0.000,1.255,0.590,0.000,0.000,2.861,0.000,0.000,0.000,0.000,0.000,0.000,0.000,0.000,0.000,0.000,0.000,3.142,0.000,0.000,2.100,1.897,1.798,4.285,0.398,1.000,4.712,0.000,0.000,-5.883,12.572,0.451,5.858,2.835,0.663,4.183,4.383,4.484,1.998,5.882,5.283,1.570,0.000,0.000,-5.600,12.405,0.452,5.827,2.883,0.531,
217.240,256.839,-5.828,12.341,1.036,0.378,6.156,0.960,0.000,0.287,1.602,1.737,3.829,0.000,1.165,0.615,0.000,0.000,2.861,0.000,0.000,0.000,0.000,0.000,0.000,0.000,0.000,0.000,0.000,0.000,3.142,6.282,0.000,2.101,1.898,1.798,4.285,0.398,0.999,4.711,0.000,0.000,-5.861,12.610,0.451,5.858,2.835,0.662,4.183,4.384,4.483,1.998,5.882,5.283,1.570,0.000,0.000,-5.577,12.443,0.451,5.828,2.884,0.531,
217.340,256.939,-5.812,12.367,1.015,0.119,0.449,0.942,0.000,0.280,1.624,1.738,3.908,0.000,0.534,0.620,0.000,0.000,2.896,0.000,0.000,0.000,0.000,0.000,0.000,0.000,0.000,0.000,0.000,0.000,3.142,6.279,6.281,2.094,1.901,1.802,4.280,0.406,0.994,4.708,0.000,0.000,-5.835,12.642,0.457,5.849,2.815,0.687,4.182,4.381,4.488,1.999,5.880,5.284,1.571,0.000,0.000,-5.558,12.462,0.452,5.836,2.870,0.560,
217.438,257.037,-5.810,12.371,1.031,0.004,0.296,0.929,0.000,0.278,1.622,1.753,3.875,0.000,0.534,0.631,0.000,0.000,2.896,0.000,0.000,0.000,0.000,0.000,0.000,0.000,0.000,0.000,0.000,0.000,3.142,6.278,6.281,2.096,1.899,1.798,4.282,0.403,0.994,4.707,0.000,0.000,-5.839,12.645,0.454,5.847,2.827,0.667,4.182,4.383,4.485,1.999,5.881,5.284,1.571,0.000,0.000,-5.559,12.471,0.451,5.830,2.880,0.539,
217.537,257.136,-5.806,12.374,1.047,0.068,0.478,0.917,0.000,0.279,1.620,1.770,3.843,0.000,0.533,0.641,0.000,0.000,2.896,0.000,0.000,0.000,0.000,0.000,0.000,0.000,0.000,0.000,0.000,0.000,3.142,6.277,6.282,2.102,1.898,1.796,4.282,0.401,0.995,4.708,0.000,0.000,-5.842,12.644,0.452,5.848,2.839,0.647,4.183,4.387,4.482,1.998,5.884,5.282,1.570,0.000,0.000,-5.557,12.478,0.451,5.825,2.890,0.517,
217.628,257.227,-5.799,12.379,1.078,0.105,0.402,0.896,0.000,0.280,1.619,1.806,3.782,0.000,0.532,0.662,0.000,0.000,2.861,0.000,0.000,0.000,0.000,0.000,0.000,0.000,0.000,0.000,0.000,0.000,3.142,6.278,0.000,2.104,1.901,1.796,4.284,0.402,0.997,4.710,0.000,0.000,-5.844,12.646,0.451,5.844,2.856,0.614,4.184,4.388,4.481,1.998,5.886,5.281,1.570,0.000,0.000,-5.553,12.492,0.451,5.816,2.906,0.481,
217.724,257.323,-5.789,12.388,1.124,0.119,0.656,0.867,0.000,0.281,1.620,4.148,3.704,0.000,0.531,0.697,0.000,0.000,2.791,0.000,0.000,0.000,0.000,0.000,0.000,0.000,0.000,0.000,0.000,0.000,3.142,6.277,0.000,2.106,1.902,1.796,4.284,0.402,0.996,4.709,0.000,0.000,-5.847,12.651,0.451,5.832,2.878,0.563,4.185,4.388,4.480,1.998,5.886,5.281,1.570,0.000,0.000,-5.549,12.512,0.452,5.805,2.930,0.430,
217.840,257.439,-5.778,12.397,1.167,0.177,0.944,0.841,0.000,0.283,1.625,3.930,3.643,0.000,0.482,0.734,0.000,0.000,2.755,0.000,0.000,0.000,0.000,0.000,0.000,0.000,0.000,0.000,0.000,0.000,3.142,6.278,6.281,2.101,1.899,1.798,4.281,0.403,0.994,4.707,0.000,0.000,-5.845,12.662,0.454,5.813,2.893,0.520,4.182,4.388,4.484,1.999,5.885,5.284,1.572,0.000,0.000,-5.542,12.529,0.451,5.798,2.949,0.387,
217.940,257.539,-5.762,12.411,1.232,0.194,0.922,0.806,0.000,0.287,1.638,4.130,4.300,4.659,0.493,0.803,0.000,0.000,2.685,0.000,0.000,0.000,0.000,0.000,0.000,0.000,0.000,0.000,0.000,0.000,3.142,6.278,6.282,2.108,1.903,1.797,4.282,0.406,0.995,4.709,0.000,0.000,-5.848,12.666,0.451,5.806,2.931,0.446,4.183,4.391,4.479,2.000,5.887,5.282,1.571,0.000,0.000,-5.536,12.559,0.452,5.784,2.986,0.310,
218.040,257.639,-5.753,12.421,1.271,-0.018,6.218,0.786,0.000,0.289,1.649,4.268,4.522,4.350,0.503,0.854,0.000,0.000,2.650,0.000,0.000,0.000,0.000,0.000,0.000,0.000,0.000,0.000,0.000,0.000,3.142,0.000,6.283,2.101,1.899,1.800,4.285,0.400,1.000,4.712,0.000,0.000,-5.846,12.674,0.452,5.799,2.945,0.411,4.183,4.385,4.484,1.999,5.884,5.284,1.571,0.000,0.000,-5.532,12.577,0.452,5.780,3.003,0.273,
218.140,257.739,-5.753,12.421,1.271,0.000,0.008,0.787,0.000,0.289,1.649,4.267,4.522,4.350,0.503,0.854,0.000,0.000,2.650,0.000,0.000,0.000,0.000,0.000,0.000,0.000,0.000,0.000,0.000,0.000,3.142,6.283,0.000,2.100,1.897,1.799,4.285,0.398,1.000,4.711,0.000,0.000,-5.847,12.674,0.451,5.800,2.946,0.410,4.183,4.384,4.484,1.998,5.882,5.284,1.571,0.000,0.000,-5.532,12.577,0.451,5.782,3.003,0.272,
218.240,257.839,-5.768,12.375,1.263,-0.852,6.216,0.836,0.000,0.311,1.633,4.220,4.486,4.369,0.471,0.791,0.000,0.000,2.650,0.000,0.000,0.000,0.000,0.000,0.000,0.000,0.000,0.000,0.000,0.000,3.142,0.005,0.001,2.094,1.896,1.801,4.286,0.396,1.004,4.714,0.000,0.000,-5.858,12.631,0.452,5.800,2.938,0.425,4.184,4.381,4.487,1.999,5.881,5.284,1.571,0.000,0.000,-5.545,12.530,0.452,5.781,2.996,0.287,
218.328,257.927,-5.804,12.262,1.259,-1.415,0.000,0.955,0.000,1.936,1.597,4.162,4.373,4.414,0.458,0.659,0.000,0.000,0.755,0.000,0.000,0.000,0.000,0.000,0.000,0.000,0.000,0.000,0.000,0.000,3.142,0.002,0.000,2.098,1.897,1.800,4.285,0.397,1.001,4.712,0.000,0.000,-5.893,12.518,0.451,5.802,2.937,0.426,4.183,4.383,4.486,1.998,5.881,5.284,1.571,0.000,0.000,-5.581,12.416,0.451,5.783,2.995,0.288,
