deveshdatwani/Gopher/Assets/Data/07-21 01-40-40/Obstacle Handling_robot_value.csv
game_time,true_time,x,y,az,vx,vaz,dis_to_obs_0,dis_to_obs_36,dis_to_obs_72,dis_to_obs_108,dis_to_obs_144,dis_to_obs_180,dis_to_obs_-144,dis_to_obs_-108,dis_to_obs_-72,dis_to_obs_-36,dis_to_min_obs,direction_to_min_obs,dis_to_human_0,dis_to_human_36,dis_to_human_72,dis_to_human_108,dis_to_human_144,dis_to_human_180,dis_to_human_-144,dis_to_human_-108,dis_to_human_-72,dis_to_human_-36,dis_to_min_human,direction_to_min_human,main_cam_yaw,main_cam_pitch,left_joint_1,left_joint_2,left_joint_3,left_joint_4,left_joint_5,left_joint_6,left_joint_7,left_joint_gripper,left_is_grasping,left_end_x,left_end_y,left_end_z,left_end_ax,left_end_ay,left_end_az,right_joint_1,right_joint_2,right_joint_3,right_joint_4,right_joint_5,right_joint_6,right_joint_7,right_joint_gripper,right_is_grasping,right_end_x,right_end_y,right_end_z,right_end_ax,right_end_ay,right_end_az,
7.336,12.994,0.995,-9.843,1.578,0.996,6.265,3.344,0.000,1.712,1.255,2.121,0.000,3.363,2.099,1.699,4.071,0.000,3.142,0.000,0.000,0.000,0.000,0.000,0.000,0.000,0.000,0.000,0.000,0.000,3.142,6.282,0.000,1.004,1.569,1.569,4.085,6.281,1.199,4.712,0.000,0.000,0.662,-9.256,0.990,4.721,4.121,5.302,5.281,4.711,4.711,2.198,6.282,5.083,1.570,0.000,0.000,1.318,-9.251,0.990,4.721,4.154,5.270,
7.440,13.097,0.995,-9.764,1.578,1.003,6.265,3.265,0.000,1.671,1.252,2.121,0.000,3.362,2.099,1.700,3.437,0.000,3.142,0.000,0.000,0.000,0.000,0.000,0.000,0.000,0.000,0.000,0.000,0.000,3.142,6.282,0.000,1.004,1.569,1.569,4.085,6.281,1.199,4.712,0.000,0.000,0.661,-9.178,0.990,4.721,4.164,5.260,5.281,4.711,4.711,2.198,6.282,5.083,1.570,0.000,0.000,1.317,-9.173,0.990,4.721,4.181,5.243,
7.540,13.197,0.994,-9.665,1.580,1.019,0.154,3.166,0.000,1.620,1.328,2.127,0.000,3.353,2.098,0.000,3.334,0.000,3.142,0.000,0.000,0.000,0.000,0.000,0.000,0.000,0.000,0.000,0.000,0.000,3.142,0.000,0.000,1.003,1.570,1.570,4.086,6.281,1.199,4.712,0.000,0.000,0.660,-9.079,0.990,4.722,4.181,5.242,5.281,4.712,4.712,2.199,6.282,5.083,1.570,0.000,0.000,1.316,-9.073,0.990,4.722,4.285,5.139,
7.637,13.294,0.991,-9.545,1.655,1.012,1.288,3.060,0.000,1.590,1.375,2.398,0.000,3.060,2.060,0.000,3.529,0.000,3.142,0.000,0.000,0.000,0.000,0.000,0.000,0.000,0.000,0.000,0.000,0.000,3.142,0.002,0.000,1.003,1.571,1.572,4.086,6.281,1.199,4.712,0.000,0.000,0.616,-8.985,0.990,4.794,4.652,4.772,5.282,4.713,4.714,2.199,6.282,5.083,1.571,0.000,0.000,1.270,-8.930,0.991,4.794,4.677,4.748,
7.740,13.397,0.980,-9.446,1.778,1.009,1.313,3.022,0.000,1.604,1.388,3.067,0.000,2.715,1.630,0.000,3.208,0.000,3.142,0.000,0.000,0.000,0.000,0.000,0.000,0.000,0.000,0.000,0.000,0.000,3.142,0.001,0.000,1.003,1.570,1.569,4.085,6.282,1.199,4.712,0.000,0.000,0.537,-8.937,0.990,4.920,4.691,4.733,5.282,4.713,4.712,2.198,6.283,5.083,1.570,0.000,0.000,1.180,-8.801,0.991,4.919,4.696,4.727,
7.840,13.497,0.962,-9.368,1.846,1.018,0.515,2.995,0.000,1.599,1.412,3.628,0.000,2.587,1.641,0.000,3.041,0.000,3.142,0.000,3.076,0.000,0.000,0.000,0.000,0.000,0.000,0.000,0.000,0.000,3.142,6.283,0.000,1.004,1.569,1.567,4.085,6.282,1.199,4.712,0.000,0.000,0.484,-8.891,0.990,4.991,4.696,4.726,5.282,4.711,4.709,2.198,6.283,5.083,1.570,0.000,0.000,1.116,-8.712,0.991,4.991,4.698,4.725,
7.928,13.586,0.929,-9.252,1.852,1.014,6.275,2.880,0.000,1.505,1.470,3.589,0.000,2.617,1.673,4.832,2.912,0.000,3.142,0.000,3.037,0.000,0.000,0.000,0.000,0.000,0.000,0.000,0.000,0.000,3.142,6.282,0.000,1.004,1.569,1.569,4.084,6.281,1.199,4.712,0.000,0.000,0.449,-8.778,0.990,4.994,4.696,4.728,5.281,4.711,4.711,2.197,6.282,5.083,1.570,0.000,0.000,1.079,-8.595,0.990,4.994,4.695,4.729,
8.040,13.697,0.901,-9.157,1.852,1.007,6.272,2.780,4.865,1.423,1.519,3.498,0.000,2.652,1.701,4.666,2.811,0.000,3.142,0.000,0.000,0.000,0.000,0.000,0.000,0.000,0.000,0.000,0.000,0.000,3.142,6.282,0.000,1.004,1.569,1.569,4.085,6.281,1.199,4.712,0.000,0.000,0.422,-8.682,0.990,4.994,4.696,4.727,5.281,4.711,4.711,2.197,6.282,5.083,1.570,0.000,0.000,1.052,-8.500,0.990,4.994,4.695,4.728,
8.140,13.797,0.879,-9.081,1.852,1.009,6.272,2.700,4.838,1.357,1.557,3.426,0.000,2.680,1.893,4.533,2.731,0.000,3.142,0.000,0.000,0.000,0.000,0.000,0.000,0.000,0.000,0.000,0.000,0.000,3.142,6.282,0.000,1.004,1.569,1.569,4.084,6.281,1.199,4.712,0.000,0.000,0.400,-8.606,0.990,4.994,4.696,4.727,5.281,4.711,4.711,2.197,6.282,5.083,1.570,0.000,0.000,1.030,-8.424,0.990,4.994,4.695,4.728,
8.229,13.887,0.846,-8.966,1.867,1.013,0.594,2.592,4.745,1.291,1.612,3.479,0.000,2.691,3.027,4.241,2.596,0.000,3.142,0.000,0.000,0.000,0.000,0.000,0.000,0.000,0.000,0.000,0.000,0.000,3.142,0.001,0.000,1.003,1.571,1.572,4.086,6.281,1.199,4.712,0.000,0.000,0.362,-8.497,0.990,5.005,4.695,4.729,5.281,4.712,4.714,2.199,6.281,5.083,1.571,0.000,0.000,0.989,-8.307,0.991,5.006,4.701,4.724,
8.336,13.993,0.815,-8.871,1.959,1.011,1.410,2.581,0.000,1.257,1.642,0.000,4.207,2.563,0.000,3.624,1.980,0.000,3.036,0.000,2.668,0.000,0.000,0.000,0.000,0.000,0.000,0.000,0.000,0.000,3.142,0.002,0.000,1.003,1.571,1.571,4.086,6.281,1.199,4.712,0.000,0.000,0.289,-8.450,0.990,5.099,4.700,4.723,5.282,4.713,4.714,2.198,6.282,5.083,1.571,0.000,0.000,0.897,-8.201,0.991,5.098,4.705,4.719,
8.440,14.097,0.775,-8.780,2.080,1.015,1.190,2.724,0.000,1.277,1.679,0.000,4.473,2.010,0.000,3.077,2.292,0.000,2.931,0.000,2.697,0.000,0.000,0.000,0.000,0.000,0.000,0.000,0.000,0.000,3.142,0.001,0.000,1.003,1.570,1.569,4.085,6.282,1.199,4.712,0.000,0.000,0.200,-8.426,0.990,5.223,4.703,4.719,5.282,4.712,4.712,2.198,6.283,5.083,1.570,0.000,0.000,0.773,-8.106,0.991,5.222,4.705,4.718,
8.528,14.185,0.724,-8.693,2.164,1.020,0.818,2.143,0.000,1.260,1.720,0.000,4.073,1.996,0.000,2.762,2.194,0.000,2.861,0.000,0.000,0.000,0.000,0.000,0.000,0.000,0.000,0.000,0.000,0.000,3.142,0.001,0.000,1.003,1.570,1.569,4.085,6.282,1.199,4.712,0.000,0.000,0.122,-8.389,0.990,5.306,4.704,4.718,5.282,4.712,4.712,2.198,6.282,5.083,1.570,0.000,0.000,0.666,-8.022,0.991,5.306,4.706,4.717,
8.640,14.297,0.678,-8.628,2.220,1.015,0.883,2.329,0.000,1.230,1.752,0.000,3.839,2.007,0.000,2.572,2.129,0.000,2.791,0.000,0.000,0.000,0.000,0.000,0.000,0.000,0.000,0.000,0.000,0.000,3.142,0.001,0.000,1.003,1.570,1.570,4.086,6.281,1.199,4.712,0.000,0.000,0.060,-8.357,0.990,5.361,4.704,4.718,5.282,4.712,4.712,2.198,6.282,5.083,1.570,0.000,0.000,0.583,-7.960,0.991,5.361,4.707,4.716,
8.722,14.379,0.603,-8.535,2.325,1.009,1.090,0.000,0.000,1.215,1.814,0.000,3.501,2.531,4.708,2.309,2.055,0.000,2.685,0.000,0.000,0.000,0.000,0.000,0.000,0.000,0.000,0.000,0.000,0.000,3.142,0.001,0.000,1.003,1.570,1.570,4.085,6.282,1.199,4.712,0.000,0.000,-0.040,-8.330,0.990,5.466,4.706,4.716,5.282,4.712,4.713,2.198,6.282,5.083,1.571,0.000,0.000,0.439,-7.880,0.991,5.465,4.708,4.715,
8.840,14.497,0.533,-8.464,2.418,1.013,1.046,4.643,3.793,1.218,1.928,0.000,3.292,0.000,3.820,1.690,2.018,0.000,2.615,0.000,0.000,0.000,0.000,0.000,0.000,0.000,0.000,0.000,0.000,0.000,3.142,0.001,0.000,1.003,1.570,1.569,4.085,6.281,1.199,4.712,0.000,0.000,-0.126,-8.320,0.990,5.560,4.706,4.715,5.282,4.712,4.712,2.198,6.282,5.083,1.570,0.000,0.000,0.308,-7.828,0.991,5.559,4.708,4.714,
8.926,14.583,0.456,-8.399,2.505,1.016,0.982,4.245,3.707,1.210,2.206,0.000,3.164,0.000,3.239,1.996,2.001,0.000,2.545,0.000,0.000,0.000,0.000,0.000,0.000,0.000,0.000,0.000,0.000,0.000,3.142,0.001,0.000,1.003,1.570,1.570,4.085,6.282,1.199,4.712,0.000,0.000,-0.212,-8.313,0.990,5.646,4.707,4.715,5.282,4.712,4.712,2.198,6.282,5.083,1.570,0.000,0.000,0.178,-7.785,0.991,5.646,4.708,4.714,
9.040,14.697,0.391,-8.353,2.573,1.015,0.995,3.982,3.653,1.201,2.563,4.801,3.096,0.000,2.894,1.909,2.001,0.000,2.685,0.000,0.000,0.000,0.000,0.000,0.000,0.000,0.000,0.000,0.000,0.000,3.142,0.001,0.000,1.003,1.570,1.570,4.085,6.281,1.199,4.712,0.000,0.000,-0.282,-8.312,0.990,5.714,4.707,4.714,5.282,4.712,4.712,2.198,6.282,5.083,1.570,0.000,0.000,0.072,-7.759,0.991,5.714,4.708,4.714,
9.135,14.792,0.289,-8.291,2.678,1.013,1.020,0.000,3.842,1.207,3.900,0.000,2.587,0.000,2.498,1.809,1.536,0.000,2.580,1.859,0.000,0.000,0.000,0.000,0.000,0.000,0.000,0.000,0.000,0.000,3.142,0.001,0.000,1.003,1.570,1.570,4.085,6.282,1.199,4.712,0.000,0.000,-0.385,-8.321,0.990,5.819,4.707,4.714,5.282,4.712,4.712,2.198,6.282,5.083,1.570,0.000,0.000,-0.092,-7.734,0.991,5.819,4.709,4.713,
9.240,14.897,0.221,-8.259,2.729,0.863,0.410,0.000,3.313,1.126,0.000,0.000,2.599,0.000,2.340,1.766,1.707,0.000,2.545,1.732,0.000,0.000,0.000,0.000,0.000,0.000,0.000,0.000,0.000,0.000,3.142,0.001,0.001,1.003,1.569,1.568,4.087,6.282,1.199,4.712,0.000,0.000,-0.451,-8.324,0.990,5.872,4.706,4.713,5.281,4.712,4.711,2.198,6.282,5.083,1.570,0.000,0.000,-0.187,-7.723,0.991,5.872,4.708,4.713,
9.340,14.997,0.153,-8.229,2.734,0.701,6.271,0.000,3.247,0.958,0.000,0.000,2.667,0.000,1.705,1.735,1.677,0.000,2.580,1.617,0.000,0.000,0.000,0.000,0.000,0.000,0.000,0.000,0.000,0.000,3.142,6.283,0.001,1.003,1.569,1.569,4.085,6.281,1.199,4.712,0.000,0.000,-0.518,-8.297,0.990,5.876,4.707,4.714,5.281,4.711,4.711,2.198,6.282,5.083,1.570,0.000,0.000,-0.259,-7.695,0.990,5.876,4.707,4.714,
9.440,15.097,0.073,-8.195,2.734,0.807,6.269,0.000,3.359,0.948,3.963,0.000,2.754,0.000,1.704,1.701,1.637,0.000,2.580,1.500,0.000,0.000,0.000,0.000,0.000,0.000,0.000,0.000,0.000,0.000,3.142,6.282,0.000,1.004,1.569,1.568,4.084,6.281,1.199,4.712,0.000,0.000,-0.598,-8.264,0.990,5.877,4.708,4.713,5.281,4.711,4.711,2.197,6.282,5.083,1.570,0.000,0.000,-0.339,-7.661,0.990,5.877,4.707,4.714,
9.525,15.182,-0.003,-8.162,2.734,0.862,6.268,0.000,3.495,0.938,2.797,0.000,2.837,0.000,2.200,1.668,1.599,0.000,2.615,1.403,0.000,0.000,0.000,0.000,0.000,0.000,0.000,0.000,0.000,0.000,3.142,6.282,0.000,1.004,1.569,1.569,4.085,6.281,1.199,4.712,0.000,0.000,-0.674,-8.231,0.990,5.877,4.707,4.713,5.281,4.711,4.711,2.198,6.282,5.083,1.570,0.000,0.000,-0.415,-7.628,0.990,5.877,4.707,4.714,
9.640,15.297,-0.079,-8.129,2.735,0.806,6.268,0.000,3.627,0.929,2.039,0.000,2.919,0.000,2.156,1.635,1.561,0.000,2.615,1.314,0.000,0.000,0.000,0.000,0.000,0.000,0.000,0.000,0.000,0.000,3.142,6.282,0.000,1.003,1.569,1.569,4.085,6.281,1.199,4.712,0.000,0.000,-0.750,-8.198,0.990,5.876,4.707,4.714,5.281,4.711,4.711,2.198,6.282,5.083,1.570,0.000,0.000,-0.490,-7.596,0.990,5.877,4.707,4.714,
9.740,15.397,-0.135,-8.105,2.735,0.779,6.268,0.000,3.209,0.921,2.009,0.000,2.980,0.000,2.123,1.610,1.533,0.000,2.650,1.261,0.000,0.000,0.000,0.000,0.000,0.000,0.000,0.000,0.000,0.000,3.142,6.282,0.000,1.004,1.569,1.569,4.085,6.281,1.199,4.712,0.000,0.000,-0.806,-8.174,0.990,5.877,4.707,4.713,5.281,4.711,4.711,2.198,6.282,5.083,1.570,0.000,0.000,-0.547,-7.571,0.990,5.877,4.707,4.714,
9.840,15.497,-0.205,-8.075,2.708,0.496,5.500,0.000,3.117,0.917,1.928,0.000,3.093,0.000,2.133,1.584,1.474,0.000,2.685,1.222,0.000,0.000,0.000,0.000,0.000,0.000,0.000,0.000,0.000,0.000,3.142,6.282,0.001,1.003,1.568,1.566,4.086,6.281,1.199,4.712,0.000,0.000,-0.879,-8.127,0.990,5.853,4.706,4.713,5.281,4.710,4.709,2.197,6.282,5.083,1.570,0.000,0.000,-0.604,-7.532,0.990,5.853,4.706,4.714,
9.940,15.597,-0.236,-8.060,2.628,0.433,4.890,0.000,3.041,0.932,1.798,0.000,3.259,0.000,2.289,1.588,1.396,0.000,2.755,1.169,0.000,0.000,0.000,0.000,0.000,0.000,0.000,0.000,0.000,0.000,3.142,6.280,0.001,1.004,1.568,1.566,4.085,6.281,1.199,4.712,0.000,0.000,-0.912,-8.059,0.990,5.773,4.707,4.713,5.282,4.711,4.709,2.197,6.282,5.083,1.570,0.000,0.000,-0.590,-7.486,0.991,5.772,4.707,4.714,
10.040,15.697,-0.283,-8.031,2.534,0.506,6.152,0.000,2.970,0.964,0.928,0.000,3.998,0.000,1.859,1.594,1.312,0.000,2.861,1.149,0.000,0.000,0.000,0.000,0.000,0.000,0.000,0.000,0.000,0.000,3.142,6.282,0.000,1.004,1.571,1.572,4.085,6.280,1.199,4.712,0.000,0.000,-0.953,-7.963,0.990,5.673,4.707,4.715,5.282,4.712,4.714,2.198,6.281,5.083,1.571,0.000,0.000,-0.579,-7.425,0.991,5.673,4.708,4.715,
10.140,15.797,-0.315,-8.009,2.535,0.501,6.269,0.000,2.937,0.967,0.932,0.000,4.034,0.000,2.469,1.571,1.289,0.000,2.896,1.166,0.000,0.000,0.000,0.000,0.000,0.000,0.000,0.000,0.000,0.000,3.142,6.283,0.000,1.003,1.569,1.569,4.086,6.281,1.199,4.712,0.000,0.000,-0.987,-7.943,0.990,5.677,4.706,4.715,5.281,4.711,4.711,2.198,6.282,5.083,1.570,0.000,0.000,-0.613,-7.404,0.990,5.677,4.707,4.715,
10.238,15.895,-0.361,-7.977,2.537,0.466,6.265,3.170,2.892,0.971,0.937,0.000,4.086,0.000,2.412,1.537,1.256,0.000,2.896,0.000,0.000,0.000,0.000,0.000,0.000,0.000,0.000,0.000,0.000,0.000,3.142,6.283,0.000,1.003,1.569,1.569,4.086,6.281,1.199,4.712,0.000,0.000,-1.033,-7.912,0.990,5.678,4.706,4.715,5.281,4.711,4.712,2.198,6.282,5.083,1.570,0.000,0.000,-0.660,-7.373,0.990,5.678,4.707,4.715,
10.340,15.997,-0.391,-7.957,2.538,0.469,6.265,3.132,3.148,1.915,0.940,0.000,4.119,0.000,2.376,1.515,1.234,0.000,2.896,0.000,0.000,0.000,0.000,0.000,0.000,0.000,0.000,0.000,0.000,0.000,3.142,6.283,0.000,1.003,1.569,1.569,4.085,6.281,1.199,4.712,0.000,0.000,-1.062,-7.893,0.990,5.679,4.706,4.715,5.281,4.711,4.711,2.198,6.282,5.083,1.570,0.000,0.000,-0.690,-7.353,0.990,5.680,4.707,4.715,
10.426,16.083,-0.437,-7.925,2.539,0.487,6.261,3.075,0.000,1.963,0.945,0.000,4.172,0.000,2.322,1.482,1.201,0.000,2.931,0.000,0.000,0.000,0.000,0.000,0.000,0.000,0.000,0.000,0.000,0.000,3.142,6.283,0.000,1.003,1.569,1.569,4.085,6.281,1.199,4.712,0.000,0.000,-1.108,-7.862,0.990,5.681,4.706,4.715,5.281,4.711,4.711,2.198,6.282,5.083,1.570,0.000,0.000,-0.736,-7.321,0.990,5.681,4.707,4.715,
10.540,16.197,-0.475,-7.899,2.540,0.483,6.260,3.027,0.000,3.245,0.949,0.000,4.216,0.000,2.276,1.454,1.173,0.000,2.931,0.000,0.000,0.000,0.000,0.000,0.000,0.000,0.000,0.000,0.000,0.000,3.142,6.283,0.000,1.003,1.569,1.569,4.085,6.281,1.199,4.712,0.000,0.000,-1.147,-7.836,0.990,5.681,4.706,4.715,5.281,4.711,4.711,2.198,6.282,5.083,1.570,0.000,0.000,-0.776,-7.295,0.990,5.681,4.707,4.715,
10.640,16.297,-0.506,-7.878,2.540,0.477,6.261,2.989,0.000,3.207,0.952,0.000,4.252,0.000,2.240,1.432,1.151,0.000,2.931,0.000,0.000,0.000,0.000,0.000,0.000,0.000,0.000,0.000,0.000,0.000,3.142,6.283,0.000,1.003,1.569,1.569,4.085,6.281,1.199,4.712,0.000,0.000,-1.178,-7.815,0.990,5.682,4.706,4.715,5.281,4.711,4.711,2.198,6.282,5.083,1.570,0.000,0.000,-0.807,-7.274,0.990,5.682,4.707,4.715,
10.730,16.387,-0.551,-7.846,2.541,0.478,6.262,2.933,0.000,3.151,0.957,0.000,4.304,0.000,2.187,1.399,1.118,0.000,2.931,0.000,0.000,0.000,0.000,0.000,0.000,0.000,0.000,0.000,0.000,0.000,3.142,6.282,0.000,1.004,1.569,1.569,4.085,6.281,1.199,4.712,0.000,0.000,-1.223,-7.785,0.990,5.683,4.707,4.715,5.281,4.711,4.711,2.198,6.282,5.083,1.570,0.000,0.000,-0.853,-7.243,0.990,5.683,4.707,4.715,
10.840,16.497,-0.590,-7.820,2.542,0.482,6.262,2.886,0.000,3.103,0.961,0.000,4.349,0.000,2.143,1.372,1.091,0.000,2.966,0.000,0.000,0.000,0.000,0.000,0.000,0.000,0.000,0.000,0.000,0.000,3.142,6.282,0.000,1.004,1.569,1.569,4.085,6.281,1.199,4.712,0.000,0.000,-1.262,-7.759,0.990,5.684,4.707,4.715,5.281,4.711,4.711,2.198,6.282,5.083,1.570,0.000,0.000,-0.891,-7.217,0.990,5.684,4.707,4.715,
10.940,16.597,-0.621,-7.799,2.542,0.481,6.262,2.848,0.000,3.065,0.964,0.000,4.385,0.000,2.107,1.350,1.068,0.000,2.966,0.000,0.000,0.000,0.000,0.000,0.000,0.000,0.000,0.000,0.000,0.000,3.142,6.282,0.000,1.004,1.569,1.569,4.085,6.281,1.199,4.712,0.000,0.000,-1.292,-7.738,0.990,5.684,4.706,4.715,5.281,4.711,4.711,2.198,6.282,5.083,1.570,0.000,0.000,-0.922,-7.197,0.990,5.684,4.707,4.715,
11.040,16.697,-0.666,-7.768,2.543,0.479,6.263,2.792,0.000,3.007,0.968,0.000,4.438,0.000,2.055,0.862,0.000,0.000,2.966,0.000,0.000,0.000,0.000,0.000,0.000,0.000,0.000,0.000,1.663,0.000,3.142,6.282,0.000,1.004,1.569,1.569,4.085,6.281,1.199,4.712,0.000,0.000,-1.338,-7.707,0.990,5.685,4.707,4.715,5.281,4.711,4.711,2.198,6.282,5.083,1.570,0.000,0.000,-0.969,-7.165,0.990,5.685,4.707,4.715,
11.140,16.797,-0.697,-7.747,2.543,0.479,6.264,2.755,0.000,2.969,0.971,0.000,4.474,0.000,2.020,0.840,0.000,0.000,3.001,0.000,0.000,0.000,0.000,0.000,0.000,0.000,0.000,0.000,1.721,0.000,3.142,6.282,0.000,1.004,1.569,1.569,4.085,6.281,1.199,4.712,0.000,0.000,-1.369,-7.687,0.990,5.685,4.707,4.715,5.281,4.711,4.711,2.198,6.282,5.083,1.570,0.000,0.000,-1.000,-7.145,0.990,5.685,4.707,4.715,
11.240,16.897,-0.743,-7.716,2.544,0.480,6.264,2.698,0.000,2.911,0.976,0.000,4.528,0.000,1.968,0.862,0.000,0.000,3.001,0.000,0.000,0.000,0.000,0.000,0.000,0.000,0.000,0.000,1.879,0.000,3.142,6.282,0.000,1.004,1.569,1.569,4.085,6.281,1.199,4.712,0.000,0.000,-1.415,-7.656,0.990,5.686,4.707,4.715,5.281,4.711,4.711,2.198,6.282,5.083,1.570,0.000,0.000,-1.046,-7.114,0.990,5.686,4.707,4.715,
11.340,16.997,-0.774,-7.695,2.544,0.480,6.264,2.661,0.000,2.872,0.979,0.000,4.564,0.000,1.933,1.241,0.000,0.000,3.001,0.000,0.000,0.000,0.000,0.000,0.000,0.000,0.000,0.000,0.000,0.000,3.142,6.282,0.000,1.004,1.569,1.569,4.085,6.281,1.199,4.712,0.000,0.000,-1.446,-7.635,0.990,5.686,4.707,4.715,5.281,4.711,4.711,2.198,6.282,5.083,1.570,0.000,0.000,-1.077,-7.093,0.990,5.686,4.707,4.715,
11.440,17.097,-0.820,-7.664,2.545,0.479,6.264,2.605,0.000,2.814,0.983,0.000,4.617,0.000,1.881,1.208,0.000,0.000,3.036,0.000,0.000,0.000,0.000,0.000,0.000,0.000,0.000,0.000,0.000,0.000,3.142,6.282,0.000,1.004,1.569,1.569,4.085,6.281,1.199,4.712,0.000,0.000,-1.492,-7.605,0.990,5.687,4.707,4.715,5.281,4.711,4.711,2.198,6.282,5.083,1.570,0.000,0.000,-1.123,-7.062,0.990,5.687,4.707,4.715,
11.540,17.197,-0.858,-7.638,2.545,0.480,6.265,2.559,0.000,2.766,0.986,0.000,4.662,0.000,1.838,0.871,0.000,0.000,3.036,0.000,0.000,0.000,0.000,0.000,0.000,0.000,0.000,0.000,0.000,0.000,3.142,6.282,0.000,1.004,1.569,1.569,4.085,6.281,1.199,4.712,0.000,0.000,-1.530,-7.579,0.990,5.687,4.707,4.715,5.281,4.711,4.711,2.198,6.282,5.083,1.570,0.000,0.000,-1.162,-7.036,0.990,5.687,4.707,4.715,
11.628,17.285,-0.896,-7.612,2.546,0.480,6.265,2.512,0.000,2.717,1.091,0.000,4.707,0.000,1.795,0.844,0.000,0.000,3.036,0.000,0.000,0.000,0.000,0.000,0.000,0.000,0.000,0.000,0.000,0.000,3.142,6.282,0.000,1.004,1.569,1.569,4.085,6.281,1.199,4.712,0.000,0.000,-1.568,-7.553,0.990,5.688,4.707,4.715,5.281,4.711,4.711,2.198,6.282,5.083,1.570,0.000,0.000,-1.201,-7.010,0.990,5.688,4.707,4.715,
11.740,17.397,-0.927,-7.591,2.546,0.480,6.265,2.475,0.000,2.679,1.228,0.000,4.743,0.000,1.761,0.823,0.000,0.000,3.036,0.000,0.000,0.000,0.000,0.000,0.000,0.000,0.000,0.000,0.000,0.000,3.142,6.282,0.000,1.004,1.569,1.569,4.085,6.281,1.199,4.712,0.000,0.000,-1.599,-7.533,0.990,5.688,4.707,4.715,5.281,4.711,4.711,2.198,6.282,5.083,1.570,0.000,0.000,-1.232,-6.989,0.990,5.688,4.707,4.715,
11.840,17.497,-0.973,-7.560,2.547,0.480,6.265,2.419,0.000,2.459,1.433,0.000,4.797,0.000,1.709,0.790,0.000,0.000,3.071,0.000,0.000,0.000,0.000,0.000,0.000,0.000,0.000,0.000,0.000,0.000,3.142,6.282,0.000,1.004,1.569,1.569,4.085,6.281,1.199,4.712,0.000,0.000,-1.645,-7.502,0.990,5.689,4.707,4.715,5.281,4.711,4.711,2.198,6.282,5.083,1.570,0.000,0.000,-1.278,-6.958,0.990,5.689,4.707,4.715,
11.940,17.597,-1.012,-7.534,2.547,0.480,6.265,2.372,0.000,2.437,1.676,1.557,4.842,0.000,1.666,0.763,0.000,0.000,3.071,0.000,0.000,0.000,0.000,0.000,0.000,0.000,0.000,0.000,0.000,0.000,3.142,6.282,0.000,1.004,1.569,1.569,4.085,6.281,1.199,4.712,0.000,0.000,-1.684,-7.476,0.990,5.689,4.707,4.715,5.281,4.711,4.711,2.198,6.282,5.083,1.570,0.000,0.000,-1.317,-6.933,0.990,5.689,4.707,4.715,
12.038,17.695,-1.050,-7.508,2.548,0.480,6.265,2.326,0.000,2.523,1.703,1.563,4.887,0.000,1.624,0.736,0.000,0.000,3.106,0.000,0.000,0.000,0.000,0.000,0.000,0.000,0.000,0.000,0.000,0.000,3.142,6.282,0.000,1.004,1.569,1.569,4.085,6.281,1.199,4.712,0.000,0.000,-1.722,-7.451,0.990,5.690,4.707,4.715,5.281,4.711,4.711,2.198,6.282,5.083,1.570,0.000,0.000,-1.355,-6.907,0.990,5.690,4.707,4.715,
12.140,17.797,-1.081,-7.487,2.548,0.480,6.265,2.289,0.000,2.484,1.724,1.568,4.923,0.000,1.590,0.715,3.576,0.000,3.106,0.000,0.000,0.000,0.000,0.000,0.000,0.000,0.000,0.000,0.000,0.000,3.142,6.282,0.000,1.004,1.569,1.569,4.085,6.281,1.199,4.712,0.000,0.000,-1.753,-7.430,0.990,5.690,4.707,4.715,5.281,4.711,4.711,2.198,6.282,5.083,1.570,0.000,0.000,-1.386,-6.886,0.990,5.690,4.707,4.715,
12.240,17.897,-1.127,-7.456,2.548,0.480,6.265,2.233,0.000,2.431,1.756,1.575,4.977,0.000,0.834,0.682,3.442,0.000,3.106,0.000,0.000,0.000,0.000,0.000,0.000,0.000,0.000,0.000,0.000,0.000,3.142,6.282,0.000,1.004,1.569,1.569,4.085,6.281,1.199,4.712,0.000,0.000,-1.799,-7.399,0.990,5.690,4.707,4.715,5.281,4.711,4.711,2.198,6.282,5.083,1.570,0.000,0.000,-1.433,-6.855,0.990,5.690,4.707,4.715,
12.340,17.997,-1.158,-7.435,2.549,0.480,6.265,2.196,0.000,2.463,1.777,1.580,0.000,0.000,0.826,0.661,3.353,0.000,3.142,0.000,0.000,0.000,0.000,0.000,0.000,0.000,0.000,0.000,0.000,0.000,3.142,6.282,0.000,1.004,1.569,1.569,4.085,6.281,1.199,4.712,0.000,0.000,-1.830,-7.379,0.990,5.691,4.707,4.715,5.281,4.711,4.711,2.198,6.282,5.083,1.570,0.000,0.000,-1.463,-6.835,0.990,5.691,4.707,4.715,
12.440,18.097,-1.204,-7.404,2.549,0.480,6.265,2.140,0.000,2.510,1.809,1.587,0.000,0.000,1.454,0.782,3.219,0.000,3.142,0.000,0.000,0.000,0.000,0.000,0.000,0.000,0.000,0.000,0.000,0.000,3.142,6.282,0.000,1.004,1.569,1.569,4.085,6.281,1.199,4.712,0.000,0.000,-1.876,-7.348,0.990,5.691,4.707,4.715,5.281,4.711,4.711,2.198,6.282,5.083,1.570,0.000,0.000,-1.510,-6.804,0.990,5.691,4.707,4.715,
12.528,18.185,-1.242,-7.378,2.550,0.480,6.266,2.094,0.000,2.550,1.836,1.593,0.000,0.000,1.412,0.928,3.108,0.000,3.142,0.000,0.000,0.000,0.000,0.000,0.000,0.000,0.000,0.000,0.000,0.000,3.142,6.282,0.000,1.004,1.569,1.569,4.085,6.281,1.199,4.712,0.000,0.000,-1.914,-7.323,0.990,5.692,4.707,4.715,5.281,4.711,4.711,2.198,6.282,5.083,1.570,0.000,0.000,-1.549,-6.778,0.990,5.692,4.707,4.715,
12.640,18.297,-1.281,-7.353,2.550,0.480,6.265,2.048,0.000,2.589,1.862,1.599,0.000,0.000,1.369,1.075,2.997,0.000,3.142,0.000,0.000,0.000,0.000,0.000,0.000,0.000,0.000,0.000,0.000,0.000,3.142,6.282,0.000,1.004,1.569,1.569,4.085,6.281,1.199,4.712,0.000,0.000,-1.953,-7.297,0.990,5.692,4.707,4.715,5.281,4.711,4.711,2.198,6.282,5.083,1.570,0.000,0.000,-1.587,-6.752,0.990,5.692,4.707,4.715,
12.739,18.396,-1.319,-7.327,2.550,0.480,6.266,2.001,0.000,2.629,1.889,1.605,0.000,0.000,0.849,2.955,2.886,0.000,3.142,0.000,0.000,0.000,0.000,0.000,0.000,0.000,0.000,0.000,0.000,0.000,3.142,6.282,0.000,1.004,1.569,1.569,4.085,6.281,1.199,4.712,0.000,0.000,-1.991,-7.272,0.990,5.692,4.707,4.715,5.281,4.711,4.711,2.198,6.282,5.083,1.570,0.000,0.000,-1.626,-6.727,0.990,5.692,4.707,4.715,
12.840,18.497,-1.357,-7.301,2.543,0.747,5.930,1.965,0.000,2.440,1.918,1.596,0.000,0.000,0.815,2.989,2.830,0.000,3.142,0.000,0.000,0.000,0.000,0.000,0.000,0.000,0.000,0.000,0.000,0.000,3.142,6.279,0.000,1.006,1.567,1.565,4.080,6.282,1.199,4.712,0.000,0.000,-2.030,-7.245,0.990,5.690,4.709,4.713,5.282,4.709,4.708,2.197,6.282,5.083,1.570,0.000,0.000,-1.662,-6.701,0.990,5.690,4.706,4.715,
12.940,18.597,-1.448,-7.237,2.448,1.028,4.926,1.991,4.757,2.165,3.902,1.445,0.000,0.000,0.814,2.960,0.000,0.000,3.142,0.000,0.000,0.000,0.000,0.000,0.000,0.000,0.000,0.000,0.000,0.000,3.142,6.280,0.001,1.005,1.568,1.565,4.084,6.281,1.199,4.712,0.000,0.000,-2.112,-7.115,0.990,5.594,4.706,4.714,5.282,4.710,4.708,2.197,6.282,5.083,1.570,0.000,0.000,-1.693,-6.610,0.991,5.593,4.707,4.714,
13.040,18.697,-1.506,-7.188,2.349,0.886,4.964,2.091,4.822,1.976,3.434,1.590,0.000,0.000,0.858,1.129,0.000,0.000,3.142,0.000,0.000,0.000,0.000,0.000,0.000,0.000,0.000,0.000,0.000,0.000,3.142,6.281,0.001,1.003,1.569,1.568,4.087,6.281,1.199,4.712,0.000,0.000,-2.154,-6.999,0.989,5.492,4.704,4.717,5.282,4.711,4.711,2.198,6.281,5.083,1.570,0.000,0.000,-1.687,-6.538,0.991,5.491,4.707,4.715,
13.140,18.797,-1.560,-7.131,2.253,0.752,5.366,2.237,2.657,4.890,2.771,2.034,0.000,0.000,0.908,1.052,3.846,0.000,3.142,0.000,0.000,0.000,0.000,0.000,0.000,0.000,0.000,0.000,0.000,0.000,3.142,6.281,0.001,1.004,1.569,1.569,4.086,6.281,1.199,4.712,0.000,0.000,-2.186,-6.880,0.990,5.395,4.704,4.718,5.282,4.711,4.711,2.197,6.282,5.083,1.570,0.000,0.000,-1.677,-6.467,0.991,5.394,4.706,4.717,
13.240,18.897,-1.616,-7.057,2.161,0.849,5.375,2.423,1.574,4.801,2.419,2.100,0.000,0.000,0.925,1.016,3.695,0.000,3.142,0.000,0.000,0.000,0.000,0.000,0.000,0.000,0.000,0.000,0.000,0.000,3.142,6.280,0.000,1.005,1.568,1.567,4.084,6.281,1.199,4.712,0.000,0.000,-2.218,-6.752,0.990,5.305,4.705,4.717,5.282,4.711,4.710,2.197,6.282,5.083,1.570,0.000,0.000,-1.673,-6.385,0.991,5.305,4.704,4.718,
13.340,18.997,-1.654,-6.999,2.093,0.890,5.260,2.617,1.461,0.000,2.460,2.164,2.208,0.000,0.940,0.993,3.779,0.000,1.457,0.000,0.000,0.000,0.000,0.000,0.000,0.000,0.000,0.000,0.000,0.000,3.142,6.280,0.001,1.004,1.568,1.567,4.085,6.281,1.199,4.712,0.000,0.000,-2.234,-6.654,0.990,5.238,4.703,4.719,5.282,4.711,4.710,2.197,6.282,5.083,1.570,0.000,0.000,-1.665,-6.325,0.991,5.237,4.704,4.719,
13.440,19.097,-1.703,-6.909,1.984,0.840,5.249,2.211,1.485,0.000,2.125,4.093,1.957,4.977,1.047,0.954,3.531,0.000,2.580,0.000,0.000,0.000,0.000,0.000,0.000,0.000,0.000,0.000,0.000,0.000,3.142,6.281,0.001,1.004,1.569,1.568,4.085,6.281,1.199,4.712,0.000,0.000,-2.241,-6.502,0.990,5.127,4.700,4.723,5.282,4.711,4.710,2.197,6.282,5.083,1.570,0.000,0.000,-1.640,-6.238,0.991,5.127,4.702,4.721,
13.540,19.197,-1.728,-6.849,1.913,0.821,5.277,2.082,1.520,4.478,1.979,4.186,1.849,0.000,0.000,0.930,3.271,0.000,1.667,0.000,0.000,0.000,0.000,0.000,0.000,0.000,0.000,0.000,0.000,0.000,3.142,6.281,0.001,1.004,1.569,1.568,4.085,6.281,1.199,4.712,0.000,0.000,-2.236,-6.405,0.990,5.056,4.698,4.725,5.282,4.711,4.710,2.197,6.282,5.083,1.570,0.000,0.000,-1.618,-6.184,0.991,5.056,4.700,4.723,
13.640,19.297,-1.758,-6.756,1.809,0.847,5.291,2.341,1.601,3.997,4.684,3.538,2.123,0.000,0.000,0.900,3.424,0.000,2.791,0.000,0.000,0.000,0.000,0.000,0.000,0.000,0.000,0.000,0.000,0.000,3.142,6.280,0.001,1.004,1.569,1.567,4.085,6.281,1.199,4.712,0.000,0.000,-2.218,-6.261,0.990,4.953,4.693,4.730,5.282,4.711,4.710,2.197,6.282,5.083,1.570,0.000,0.000,-1.580,-6.106,0.991,4.952,4.694,4.729,
13.740,19.397,-1.773,-6.691,1.739,0.856,5.279,4.487,1.681,1.579,4.724,2.654,2.502,0.000,1.283,0.881,2.953,0.000,2.861,0.000,0.000,0.000,0.000,0.000,0.000,0.000,0.000,0.000,0.000,0.000,3.142,6.281,0.001,1.004,1.569,1.567,4.085,6.281,1.199,4.712,0.000,0.000,-2.197,-6.165,0.990,4.883,4.684,4.739,5.282,4.711,4.710,2.197,6.282,5.083,1.570,0.000,0.000,-1.550,-6.055,0.991,4.882,4.687,4.737,
13.840,19.497,-1.787,-6.591,1.634,0.843,5.270,3.781,1.856,1.245,4.795,2.798,2.571,0.000,0.814,0.854,2.483,0.000,2.966,0.000,0.000,0.000,0.000,0.000,0.000,0.000,0.000,0.000,0.000,0.000,3.142,6.281,0.001,1.004,1.569,1.567,4.085,6.281,1.199,4.712,0.000,0.000,-2.153,-6.024,0.990,4.777,4.637,4.786,5.282,4.711,4.710,2.197,6.282,5.083,1.570,0.000,0.000,-1.498,-5.982,0.991,4.777,4.645,4.779,
13.940,19.597,-1.791,-6.526,1.563,0.838,5.274,3.239,2.020,1.265,0.000,2.569,2.632,0.000,0.835,0.835,4.791,0.000,3.036,0.000,0.000,0.000,0.000,0.000,0.000,0.000,0.000,0.000,0.000,0.000,3.142,6.281,0.001,1.004,1.569,1.567,4.085,6.281,1.199,4.712,0.000,0.000,-2.116,-5.934,0.990,4.720,2.288,0.853,5.282,4.711,4.710,2.197,6.282,5.083,1.570,0.000,0.000,-1.460,-5.938,0.991,4.720,2.182,0.958,
14.040,19.697,-1.787,-6.426,1.458,0.845,5.279,3.098,1.776,1.318,0.000,2.246,0.000,0.000,0.865,0.808,4.786,0.000,3.142,0.000,0.000,0.000,0.000,0.000,0.000,0.000,0.000,0.000,0.000,0.000,3.142,6.281,0.001,1.004,1.569,1.567,4.085,6.281,1.199,4.712,0.000,0.000,-2.049,-5.804,0.990,4.823,1.614,1.526,5.282,4.711,4.710,2.197,6.282,5.083,1.570,0.000,0.000,-1.396,-5.877,0.991,4.824,1.610,1.531,
14.140,19.797,-1.778,-6.358,1.398,0.932,5.708,3.172,1.642,1.365,1.346,2.424,4.610,2.882,0.881,0.791,4.969,0.000,2.440,0.000,0.000,0.000,0.000,0.000,0.000,0.000,0.000,0.000,0.000,0.000,3.142,6.281,0.000,1.005,1.569,1.569,4.084,6.281,1.199,4.712,0.000,0.000,-2.001,-5.722,0.990,4.885,1.595,1.546,5.282,4.711,4.711,2.198,6.281,5.083,1.571,0.000,0.000,-1.355,-5.834,0.991,4.885,1.594,1.547,
14.240,19.897,-1.756,-6.238,1.386,1.096,6.266,3.733,1.497,1.398,1.259,2.623,4.742,3.034,0.862,1.269,4.859,0.000,2.475,0.000,0.000,0.000,0.000,0.000,0.000,0.000,0.000,0.000,0.000,0.000,3.142,6.282,0.000,1.004,1.569,1.569,4.085,6.281,1.199,4.712,0.000,0.000,-1.972,-5.599,0.990,4.896,1.596,1.545,5.281,4.711,4.711,2.198,6.282,5.083,1.570,0.000,0.000,-1.327,-5.719,0.990,4.896,1.595,1.547,
14.332,19.990,-1.737,-6.135,1.387,1.029,6.263,3.633,1.381,1.419,1.279,2.767,4.847,0.000,0.839,1.250,4.706,0.000,3.071,0.000,0.000,0.000,0.000,0.000,0.000,0.000,0.000,0.000,0.000,0.000,3.142,6.283,0.000,1.003,1.570,1.570,4.086,6.281,1.199,4.712,0.000,0.000,-1.952,-5.495,0.990,4.897,1.600,1.541,5.281,4.711,4.712,2.198,6.282,5.083,1.570,0.000,0.000,-1.307,-5.615,0.990,4.897,1.595,1.546,
14.440,20.097,-1.723,-6.058,1.387,0.971,6.262,3.559,1.396,1.435,1.293,2.873,4.925,0.000,0.823,1.235,4.593,0.000,3.071,0.000,0.000,0.000,0.000,0.000,0.000,0.000,0.000,0.000,0.000,0.000,3.142,6.283,0.000,1.003,1.569,1.569,4.086,6.281,1.199,4.712,0.000,0.000,-1.938,-5.418,0.990,4.896,1.599,1.543,5.281,4.711,4.711,2.198,6.282,5.083,1.570,0.000,0.000,-1.293,-5.538,0.990,4.896,1.595,1.546,
14.540,20.197,-1.702,-5.944,1.388,1.004,6.263,3.447,1.440,1.458,1.315,0.000,0.000,0.000,0.799,1.214,4.427,0.000,3.142,0.000,0.000,0.000,0.000,0.000,0.000,0.000,0.000,0.000,0.000,0.000,3.142,6.282,0.000,1.004,1.569,1.569,4.085,6.281,1.199,4.712,0.000,0.000,-1.918,-5.305,0.990,4.895,1.596,1.545,5.281,4.711,4.711,2.198,6.282,5.083,1.570,0.000,0.000,-1.273,-5.424,0.990,4.895,1.595,1.546,
14.640,20.297,-1.687,-5.865,1.389,1.033,6.263,3.368,1.471,1.474,1.330,0.000,0.000,0.000,0.782,1.199,4.312,0.000,3.142,0.000,0.000,0.000,0.000,0.000,0.000,0.000,0.000,0.000,0.000,0.000,3.142,6.282,0.000,1.004,1.569,1.569,4.085,6.281,1.199,4.712,0.000,0.000,-1.904,-5.226,0.990,4.894,1.597,1.544,5.281,4.711,4.711,2.198,6.282,5.083,1.570,0.000,0.000,-1.259,-5.345,0.990,4.894,1.596,1.546,
14.740,20.397,-1.666,-5.746,1.415,1.014,0.805,2.529,1.445,1.479,1.358,0.000,0.000,0.000,0.923,1.132,1.768,0.000,3.142,0.000,0.000,0.000,0.000,0.000,0.000,0.000,0.000,0.000,0.000,0.000,3.142,0.001,0.000,1.003,1.571,1.572,4.086,6.281,1.199,4.712,0.000,0.000,-1.896,-5.113,0.990,4.872,1.604,1.538,5.281,4.713,4.714,2.199,6.281,5.083,1.571,0.000,0.000,-1.249,-5.215,0.991,4.872,1.592,1.550,
14.832,20.489,-1.652,-5.648,1.521,1.000,1.437,2.256,1.236,1.429,1.407,3.072,3.514,1.192,1.230,4.457,1.870,0.000,3.071,0.000,0.000,0.000,0.000,0.000,0.000,0.000,0.000,0.000,0.000,0.000,3.142,0.002,0.000,1.003,1.571,1.571,4.086,6.282,1.199,4.712,0.000,0.000,-1.950,-5.043,0.990,4.764,1.660,1.481,5.282,4.713,4.713,2.198,6.282,5.083,1.571,0.000,0.000,-1.295,-5.075,0.991,4.764,1.629,1.513,
14.940,20.597,-1.650,-5.568,1.596,1.008,0.568,2.143,1.121,1.399,1.447,3.009,3.590,1.069,1.197,4.597,2.070,0.000,3.001,0.000,0.000,0.000,0.000,0.000,0.000,0.000,0.000,0.000,0.000,0.000,3.142,0.000,0.000,1.004,1.569,1.566,4.085,6.282,1.199,4.712,0.000,0.000,-1.996,-4.988,0.990,4.742,4.565,4.858,5.282,4.711,4.709,2.198,6.283,5.083,1.570,0.000,0.000,-1.339,-4.971,0.991,4.741,4.575,4.849,
15.040,20.697,-1.653,-5.449,1.603,1.007,6.269,2.047,1.106,1.392,1.447,3.138,3.710,1.066,1.199,4.174,2.098,0.000,3.001,0.000,0.000,0.000,0.000,0.000,0.000,0.000,0.000,0.000,0.000,0.000,3.142,6.282,0.000,1.004,1.569,1.569,4.084,6.281,1.199,4.712,0.000,0.000,-2.001,-4.871,0.990,4.745,4.573,4.851,5.281,4.711,4.711,2.197,6.282,5.083,1.570,0.000,0.000,-1.346,-4.850,0.990,4.746,4.563,4.862,
15.140,20.797,-1.656,-5.370,1.603,1.000,6.274,1.964,1.102,1.390,1.444,3.232,3.789,1.070,1.201,4.090,2.101,0.000,3.001,0.000,0.000,0.000,0.000,0.000,0.000,0.000,0.000,0.000,0.000,0.000,3.142,6.282,0.000,1.004,1.569,1.569,4.084,6.281,1.199,4.712,0.000,0.000,-2.004,-4.792,0.990,4.745,4.572,4.852,5.281,4.711,4.711,2.197,6.282,5.083,1.570,0.000,0.000,-1.348,-4.771,0.990,4.746,4.565,4.859,
15.240,20.897,-1.660,-5.252,1.602,1.002,6.273,1.841,1.097,1.386,1.440,3.372,3.907,1.149,1.153,4.094,1.862,0.000,3.001,0.000,0.000,0.000,0.000,0.000,0.000,0.000,0.000,0.000,0.000,0.000,3.142,6.282,0.000,1.004,1.569,1.569,4.084,6.281,1.199,4.712,0.000,0.000,-2.007,-4.674,0.990,4.745,4.571,4.853,5.281,4.711,4.711,2.197,6.282,5.083,1.570,0.000,0.000,-1.352,-4.653,0.990,4.745,4.565,4.859,
15.340,20.997,-1.662,-5.174,1.602,1.005,6.272,1.759,1.093,1.071,1.437,3.466,3.986,1.249,1.225,4.096,1.536,0.000,3.001,0.000,0.000,0.000,0.000,0.000,0.000,0.000,0.000,0.000,0.000,0.000,3.142,6.282,0.000,1.004,1.569,1.569,4.084,6.281,1.199,4.712,0.000,0.000,-2.010,-4.595,0.990,4.745,4.570,4.854,5.281,4.711,4.711,2.197,6.282,5.083,1.570,0.000,0.000,-1.354,-4.574,0.990,4.745,4.565,4.859,
15.440,21.097,-1.666,-5.055,1.602,1.004,6.271,1.636,1.087,0.707,1.433,3.607,4.104,1.399,4.938,4.100,1.625,0.000,3.001,0.000,0.000,0.000,0.000,0.000,0.000,0.000,0.000,0.000,0.000,0.000,3.142,6.282,0.000,1.004,1.569,1.569,4.085,6.281,1.199,4.712,0.000,0.000,-2.013,-4.477,0.990,4.745,4.567,4.857,5.281,4.711,4.711,2.197,6.282,5.083,1.570,0.000,0.000,-1.358,-4.456,0.990,4.745,4.565,4.859,
15.540,21.197,-1.668,-4.976,1.602,1.002,6.270,1.555,1.083,0.705,1.430,3.700,4.183,1.500,0.000,4.103,1.531,0.000,3.001,0.000,0.000,0.000,0.000,0.000,0.000,0.000,0.000,0.000,0.000,0.000,3.142,6.282,0.000,1.004,1.569,1.569,4.085,6.281,1.199,4.712,0.000,0.000,-2.016,-4.398,0.990,4.745,4.567,4.857,5.281,4.711,4.711,2.198,6.282,5.083,1.570,0.000,0.000,-1.360,-4.377,0.990,4.745,4.566,4.858,
15.640,21.297,-1.671,-4.877,1.571,0.648,5.445,1.417,2.195,0.708,1.411,0.000,4.280,1.588,0.000,1.252,1.442,0.000,3.036,0.000,0.000,0.000,0.000,0.000,0.000,0.000,0.000,0.000,0.000,0.000,3.142,6.282,0.001,1.003,1.568,1.567,4.087,6.281,1.199,4.712,0.000,0.000,-2.002,-4.287,0.990,4.719,3.712,5.711,5.281,4.711,4.709,2.197,6.282,5.083,1.570,0.000,0.000,-1.346,-4.287,0.990,4.719,3.711,5.713,
15.725,21.382,-1.670,-4.823,1.485,0.510,5.503,1.438,2.490,0.731,1.374,2.107,0.000,1.562,4.116,3.960,1.471,0.000,3.142,0.000,0.000,0.000,0.000,0.000,0.000,0.000,0.000,0.000,0.000,0.000,3.142,6.281,0.001,1.004,1.570,1.570,4.086,6.281,1.199,4.712,0.000,0.000,-1.947,-4.207,0.990,4.800,1.631,1.510,5.282,4.712,4.712,2.198,6.281,5.083,1.571,0.000,0.000,-1.293,-4.264,0.991,4.800,1.618,1.523,
15.840,21.497,-1.665,-4.770,1.461,0.602,6.258,1.409,2.598,0.743,1.372,2.057,0.000,1.601,4.027,3.933,1.430,0.000,3.142,0.000,0.000,0.000,0.000,0.000,0.000,0.000,0.000,0.000,0.000,0.000,3.142,6.282,0.000,1.004,1.569,1.570,4.084,6.281,1.199,4.712,0.000,0.000,-1.927,-4.149,0.990,4.822,1.610,1.531,5.281,4.711,4.712,2.198,6.282,5.083,1.570,0.000,0.000,-1.275,-4.220,0.990,4.822,1.610,1.531,
15.938,21.595,-1.658,-4.707,1.462,0.667,6.260,1.346,2.607,0.750,0.711,2.069,0.000,1.674,4.189,1.135,1.346,0.000,3.142,0.000,0.000,0.000,0.000,0.000,0.000,0.000,0.000,0.000,0.000,0.000,3.142,6.282,0.000,1.004,1.569,1.569,4.085,6.281,1.199,4.712,0.000,0.000,-1.921,-4.086,0.990,4.821,1.615,1.526,5.281,4.711,4.711,2.198,6.282,5.083,1.570,0.000,0.000,-1.269,-4.157,0.990,4.821,1.611,1.530,
16.040,21.697,-1.653,-4.657,1.463,0.633,6.263,1.295,2.615,0.756,0.717,2.079,0.000,1.734,4.321,1.129,1.278,0.000,3.142,0.000,0.000,0.000,0.000,0.000,0.000,0.000,0.000,0.000,0.000,0.000,3.142,6.283,0.000,1.003,1.569,1.569,4.086,6.281,1.199,4.712,0.000,0.000,-1.916,-4.035,0.990,4.821,1.618,1.522,5.281,4.711,4.712,2.198,6.282,5.083,1.570,0.000,0.000,-1.264,-4.106,0.990,4.821,1.612,1.529,
16.140,21.797,-1.646,-4.598,1.463,0.589,6.262,1.236,2.624,0.763,0.723,2.091,0.000,1.802,4.474,1.123,1.199,0.000,3.142,0.000,0.000,0.000,0.000,0.000,0.000,0.000,0.000,0.000,0.000,0.000,3.142,6.283,0.000,1.003,1.569,1.569,4.085,6.281,1.199,4.712,0.000,0.000,-1.910,-3.977,0.990,4.820,1.617,1.523,5.281,4.711,4.711,2.198,6.282,5.083,1.570,0.000,0.000,-1.258,-4.047,0.990,4.820,1.613,1.529,
16.240,21.897,-1.639,-4.529,1.464,0.613,6.262,1.167,2.635,0.771,0.731,2.104,0.000,1.883,4.654,1.167,1.106,0.000,3.142,0.000,0.000,0.000,0.000,0.000,0.000,0.000,0.000,0.000,0.000,0.000,3.142,6.282,0.000,1.004,1.569,1.569,4.085,6.281,1.199,4.712,0.000,0.000,-1.903,-3.908,0.990,4.819,1.615,1.526,5.281,4.711,4.711,2.198,6.282,5.083,1.570,0.000,0.000,-1.251,-3.978,0.990,4.819,1.613,1.528,
16.334,21.991,-1.633,-4.468,1.465,0.629,6.263,1.106,2.645,0.777,0.738,2.116,0.000,1.953,4.811,1.160,1.025,0.000,3.142,0.000,0.000,0.000,0.000,0.000,0.000,0.000,0.000,0.000,0.000,0.000,3.142,6.282,0.000,1.004,1.569,1.569,4.085,6.281,1.199,4.712,0.000,0.000,-1.897,-3.848,0.990,4.818,1.616,1.524,5.281,4.711,4.711,2.198,6.282,5.083,1.570,0.000,0.000,-1.245,-3.917,0.990,4.818,1.614,1.528,
16.440,22.097,-1.628,-4.422,1.472,0.558,0.411,1.054,2.621,0.780,0.744,2.143,0.000,2.016,0.000,1.157,0.965,0.000,3.142,0.000,0.000,0.000,0.000,0.000,0.000,0.000,0.000,0.000,0.000,0.000,3.142,0.001,0.000,1.002,1.571,1.572,4.087,6.281,1.200,4.712,0.000,0.000,-1.895,-3.803,0.990,4.814,1.627,1.514,5.281,4.712,4.714,2.199,6.281,5.083,1.570,0.000,0.000,-1.242,-3.868,0.991,4.813,1.608,1.533,
16.540,22.197,-1.623,-4.363,1.572,0.484,1.177,0.936,2.273,0.758,0.772,2.453,4.794,1.900,0.000,1.186,1.089,0.000,3.036,0.000,0.000,0.000,0.000,0.000,0.000,0.000,0.000,0.000,0.000,0.000,3.142,0.001,0.000,1.003,1.570,1.570,4.086,6.281,1.199,4.712,0.000,0.000,-1.952,-3.774,0.990,4.717,3.333,6.091,5.282,4.712,4.712,2.198,6.282,5.083,1.570,0.000,0.000,-1.296,-3.774,0.991,4.716,3.248,6.176,
16.630,22.287,-1.625,-4.315,1.626,0.513,0.065,0.863,2.124,0.746,0.786,0.000,4.702,1.696,0.000,1.211,1.183,0.000,3.001,0.000,0.000,0.000,0.000,0.000,0.000,0.000,0.000,0.000,0.000,0.000,3.142,6.282,0.000,1.004,1.568,1.566,4.085,6.282,1.199,4.711,0.000,0.000,-1.988,-3.745,0.990,4.772,4.632,4.791,5.281,4.710,4.709,2.198,6.283,5.083,1.570,0.000,0.000,-1.332,-3.709,0.990,4.771,4.638,4.785,
16.740,22.397,-1.627,-4.275,1.625,0.522,6.274,0.823,2.121,0.743,0.784,0.000,4.743,1.699,0.000,1.213,1.187,0.000,3.001,0.000,0.000,0.000,0.000,0.000,0.000,0.000,0.000,0.000,0.000,0.000,3.142,6.282,0.000,1.004,1.569,1.569,4.084,6.281,1.199,4.712,0.000,0.000,-1.988,-3.705,0.990,4.768,4.628,4.796,5.281,4.711,4.711,2.197,6.282,5.083,1.570,0.000,0.000,-1.333,-3.668,0.990,4.768,4.624,4.800,
16.840,22.497,-1.630,-4.215,1.625,0.508,6.272,0.764,2.117,0.958,0.780,2.654,4.805,1.705,0.000,0.876,1.193,0.000,3.001,0.000,0.000,0.000,0.000,0.000,0.000,0.000,0.000,0.000,0.000,0.000,3.142,6.282,0.000,1.004,1.569,1.569,4.085,6.281,1.199,4.712,0.000,0.000,-1.991,-3.645,0.990,4.768,4.626,4.798,5.281,4.711,4.711,2.197,6.282,5.083,1.570,0.000,0.000,-1.336,-3.609,0.990,4.768,4.625,4.799,
16.940,22.597,-1.632,-4.176,1.625,0.503,6.271,0.725,2.114,0.956,0.778,2.649,4.844,1.721,1.118,1.219,1.196,0.000,3.001,0.000,0.000,0.000,0.000,0.000,0.000,0.000,0.000,0.000,0.000,0.000,3.142,6.282,0.000,1.004,1.569,1.569,4.085,6.281,1.199,4.712,0.000,0.000,-1.993,-3.606,0.990,4.768,4.627,4.797,5.281,4.711,4.711,2.197,6.282,5.083,1.570,0.000,0.000,-1.338,-3.570,0.990,4.768,4.626,4.799,
17.040,22.697,-1.636,-4.117,1.625,0.511,6.270,0.667,2.109,1.403,0.774,2.643,4.903,1.796,1.121,1.222,1.203,0.000,3.106,0.000,0.000,0.000,0.000,0.000,0.000,0.000,0.000,0.000,0.000,0.000,3.142,6.282,0.000,1.004,1.569,1.569,4.085,6.281,1.199,4.712,0.000,0.000,-1.996,-3.547,0.990,4.768,4.627,4.797,5.281,4.711,4.711,2.197,6.282,5.083,1.570,0.000,0.000,-1.341,-3.511,0.990,4.768,4.626,4.798,
17.140,22.797,-1.638,-4.081,1.622,0.377,6.046,0.632,2.114,1.402,0.771,2.625,0.000,1.838,1.124,1.043,1.200,0.000,3.142,0.000,0.000,0.000,0.000,0.000,0.000,0.000,0.000,0.000,0.000,0.000,3.142,6.282,0.001,1.003,1.569,1.568,4.086,6.281,1.199,4.712,0.000,0.000,-1.997,-3.509,0.990,4.765,4.602,4.821,5.281,4.711,4.710,2.197,6.282,5.083,1.570,0.000,0.000,-1.341,-3.476,0.990,4.765,4.611,4.813,
17.240,22.897,-1.639,-4.058,1.535,0.099,4.933,0.639,2.363,1.437,0.746,2.304,0.000,1.938,1.156,1.188,1.061,0.000,3.142,0.000,0.000,0.000,0.000,0.000,0.000,0.000,0.000,0.000,0.000,0.000,3.142,6.280,0.001,1.004,1.568,1.566,4.085,6.281,1.199,4.712,0.000,0.000,-1.948,-3.458,0.990,4.745,1.726,1.414,5.281,4.711,4.709,2.197,6.282,5.083,1.570,0.000,0.000,-1.292,-3.481,0.990,4.746,1.716,1.424,
17.326,22.983,-1.638,-4.048,1.420,0.158,5.399,0.680,2.011,1.506,0.725,1.047,0.000,2.460,0.000,0.834,0.925,0.000,3.142,0.000,0.000,0.000,0.000,0.000,0.000,0.000,0.000,0.000,0.000,0.000,3.142,6.281,0.000,1.004,1.570,1.571,4.085,6.281,1.199,4.712,0.000,0.000,-1.874,-3.416,0.990,4.865,1.600,1.542,5.282,4.712,4.713,2.198,6.281,5.083,1.571,0.000,0.000,-1.225,-3.514,0.991,4.865,1.594,1.548,
17.440,23.097,-1.635,-4.028,1.400,0.263,0.006,0.670,2.007,1.524,0.726,1.030,0.000,2.552,0.000,0.828,0.902,0.000,3.142,0.000,0.000,0.000,0.000,0.000,0.000,0.000,0.000,0.000,0.000,0.000,3.142,6.283,0.000,1.004,1.570,1.570,4.085,6.281,1.199,4.712,0.000,0.000,-1.858,-3.391,0.990,4.884,1.599,1.543,5.281,4.711,4.712,2.198,6.282,5.083,1.570,0.000,0.000,-1.212,-3.503,0.990,4.884,1.595,1.546,
17.530,23.187,-1.631,-4.004,1.402,0.237,6.266,0.646,2.009,1.527,0.730,1.038,0.000,2.533,0.000,1.144,0.898,0.000,3.142,0.000,0.000,0.000,0.000,0.000,0.000,0.000,0.000,0.000,0.000,0.000,3.142,0.000,0.000,1.003,1.570,1.570,4.086,6.281,1.199,4.712,0.000,0.000,-1.855,-3.367,0.990,4.882,1.602,1.539,5.281,4.712,4.712,2.198,6.282,5.083,1.570,0.000,0.000,-1.208,-3.478,0.990,4.882,1.596,1.545,
17.640,23.297,-1.627,-3.985,1.403,0.184,6.269,0.626,2.011,1.530,0.734,1.044,0.000,2.520,0.000,1.141,0.894,0.000,3.142,0.000,0.000,0.000,0.000,0.000,0.000,0.000,0.000,0.000,0.000,0.000,3.142,6.283,0.000,1.003,1.570,1.570,4.086,6.281,1.199,4.712,0.000,0.000,-1.853,-3.349,0.990,4.881,1.602,1.540,5.281,4.711,4.712,2.198,6.282,5.083,1.570,0.000,0.000,-1.206,-3.459,0.990,4.881,1.597,1.545,
17.735,23.392,-1.624,-3.968,1.404,0.199,6.263,0.609,2.061,1.532,0.757,1.049,0.000,2.508,0.000,1.139,0.891,0.000,3.142,0.000,0.000,0.000,0.000,0.000,0.000,0.000,0.000,0.000,0.000,0.000,3.142,6.283,0.000,1.003,1.569,1.569,4.085,6.281,1.199,4.712,0.000,0.000,-1.851,-3.332,0.990,4.879,1.600,1.541,5.281,4.711,4.711,2.198,6.282,5.083,1.570,0.000,0.000,-1.204,-3.441,0.990,4.879,1.597,1.544,
17.840,23.497,-1.622,-3.953,1.405,0.223,6.260,0.593,2.044,1.535,0.842,1.054,0.000,2.499,0.000,1.136,0.888,0.000,3.142,0.000,0.000,0.000,0.000,0.000,0.000,0.000,0.000,0.000,0.000,0.000,3.142,6.283,0.000,1.004,1.569,1.569,4.085,6.281,1.199,4.712,0.000,0.000,-1.849,-3.317,0.990,4.879,1.600,1.541,5.281,4.711,4.711,2.198,6.282,5.083,1.570,0.000,0.000,-1.202,-3.426,0.990,4.878,1.597,1.544,
17.937,23.594,-1.618,-3.928,1.406,0.217,6.260,0.568,2.018,1.539,0.977,1.061,0.000,2.485,1.199,1.132,0.883,0.000,3.142,0.000,0.000,0.000,0.000,0.000,0.000,0.000,0.000,0.000,0.000,0.000,3.142,6.283,0.000,1.003,1.569,1.569,4.085,6.281,1.199,4.712,0.000,0.000,-1.845,-3.293,0.990,4.878,1.601,1.540,5.281,4.711,4.711,2.198,6.282,5.083,1.570,0.000,0.000,-1.198,-3.401,0.990,4.878,1.598,1.543,
18.040,23.697,-1.615,-3.913,1.406,0.205,6.261,0.552,2.001,1.541,1.060,1.065,0.000,2.476,1.196,1.130,0.880,0.000,3.142,0.000,0.000,0.000,0.000,0.000,0.000,0.000,0.000,0.000,0.000,0.000,3.142,6.283,0.000,1.003,1.569,1.569,4.085,6.281,1.199,4.712,0.000,0.000,-1.843,-3.278,0.990,4.877,1.601,1.540,5.281,4.711,4.711,2.198,6.282,5.083,1.570,0.000,0.000,-1.196,-3.385,0.990,4.877,1.598,1.543,
18.140,23.797,-1.612,-3.890,1.407,0.208,6.262,0.530,1.977,1.545,1.181,1.071,0.000,2.464,1.191,1.126,0.876,0.000,3.142,0.000,0.000,0.000,0.000,0.000,0.000,0.000,0.000,0.000,0.000,0.000,3.142,6.282,0.000,1.004,1.569,1.569,4.085,6.281,1.199,4.712,0.000,0.000,-1.840,-3.255,0.990,4.876,1.601,1.540,5.281,4.711,4.711,2.198,6.282,5.083,1.570,0.000,0.000,-1.193,-3.362,0.990,4.876,1.598,1.543,
18.240,23.897,-1.609,-3.875,1.408,0.215,6.262,0.514,1.960,1.547,1.414,1.076,0.000,2.456,1.188,1.124,0.872,0.000,3.142,0.000,0.000,0.000,0.000,0.000,0.000,0.000,0.000,0.000,0.000,0.000,3.142,6.282,0.000,1.004,1.569,1.569,4.085,6.281,1.199,4.712,0.000,0.000,-1.838,-3.240,0.990,4.876,1.601,1.540,5.281,4.711,4.711,2.198,6.282,5.083,1.570,0.000,0.000,-1.190,-3.347,0.990,4.875,1.599,1.543,
18.340,23.997,-1.605,-3.853,1.408,0.127,6.265,0.492,1.936,1.550,1.417,1.082,0.000,2.444,1.184,0.960,0.868,0.000,3.142,0.000,0.000,0.000,0.000,0.000,0.000,0.000,0.000,0.000,0.000,0.000,3.142,0.000,0.001,1.003,1.570,1.570,4.087,6.281,1.199,4.712,0.000,0.000,-1.834,-3.218,0.990,4.876,1.606,1.535,5.281,4.712,4.712,2.198,6.282,5.083,1.570,0.000,0.000,-1.187,-3.325,0.990,4.875,1.600,1.542,
18.434,24.092,-1.605,-3.849,1.409,0.001,6.270,0.488,1.932,1.551,1.418,1.083,0.000,2.440,1.183,0.932,0.867,0.000,3.142,0.000,0.000,0.000,0.000,0.000,0.000,0.000,0.000,0.000,0.000,0.000,3.142,6.283,0.000,1.003,1.569,1.569,4.086,6.281,1.199,4.712,0.000,0.000,-1.834,-3.214,0.990,4.875,1.604,1.537,5.281,4.711,4.712,2.198,6.282,5.083,1.570,0.000,0.000,-1.187,-3.320,0.990,4.874,1.599,1.542,
18.540,24.197,-1.605,-3.849,1.409,0.000,6.272,0.488,1.932,1.551,1.418,1.083,0.000,2.440,1.183,0.931,0.868,0.000,3.142,0.000,0.000,0.000,0.000,0.000,0.000,0.000,0.000,0.000,0.000,0.000,3.142,6.283,0.000,1.003,1.569,1.569,4.085,6.281,1.199,4.712,0.000,0.000,-1.834,-3.215,0.990,4.875,1.602,1.539,5.281,4.711,4.712,2.198,6.282,5.083,1.570,0.000,0.000,-1.187,-3.320,0.990,4.874,1.597,1.544,
18.640,24.297,-1.605,-3.849,1.409,0.000,6.272,0.488,1.932,1.551,1.418,1.083,0.000,2.440,1.183,0.931,0.868,0.000,3.142,0.000,0.000,0.000,0.000,0.000,0.000,0.000,0.000,0.000,0.000,0.000,3.142,6.283,0.000,1.003,1.569,1.569,4.085,6.281,1.199,4.712,0.000,0.000,-1.834,-3.215,0.990,4.875,1.602,1.539,5.281,4.711,4.711,2.198,6.282,5.083,1.570,0.000,0.000,-1.187,-3.320,0.990,4.874,1.598,1.544,
18.721,24.378,-1.605,-3.849,1.409,0.000,6.272,0.488,1.932,1.551,1.418,1.083,0.000,2.440,1.183,0.931,0.868,0.000,3.142,0.000,0.000,0.000,0.000,0.000,0.000,0.000,0.000,0.000,0.000,0.000,3.142,6.283,0.000,1.003,1.569,1.569,4.085,6.281,1.199,4.712,0.000,0.000,-1.834,-3.215,0.990,4.875,1.602,1.539,5.281,4.711,4.711,2.198,6.282,5.083,1.570,0.000,0.000,-1.187,-3.320,0.990,4.874,1.598,1.544,
18.840,24.497,-1.605,-3.849,1.409,0.000,6.272,0.488,1.932,1.551,1.418,1.083,0.000,2.440,1.183,0.931,0.868,0.000,3.142,0.000,0.000,0.000,0.000,0.000,0.000,0.000,0.000,0.000,0.000,0.000,3.142,6.283,0.000,1.003,1.569,1.569,4.085,6.281,1.199,4.712,0.000,0.000,-1.834,-3.215,0.990,4.875,1.602,1.539,5.281,4.711,4.711,2.198,6.282,5.083,1.570,0.000,0.000,-1.187,-3.320,0.990,4.874,1.598,1.544,
18.940,24.597,-1.605,-3.849,1.409,0.000,6.272,0.488,1.932,1.551,1.418,1.083,0.000,2.440,1.183,0.931,0.868,0.000,3.142,0.000,0.000,0.000,0.000,0.000,0.000,0.000,0.000,0.000,0.000,0.000,3.142,6.283,0.000,1.003,1.569,1.569,4.085,6.281,1.199,4.712,0.000,0.000,-1.834,-3.215,0.990,4.875,1.602,1.539,5.281,4.711,4.711,2.198,6.282,5.083,1.570,0.000,0.000,-1.187,-3.320,0.990,4.874,1.598,1.544,
19.040,24.697,-1.605,-3.849,1.409,0.000,6.272,0.488,1.932,1.551,1.418,1.083,0.000,2.440,1.183,0.931,0.868,0.000,3.142,0.000,0.000,0.000,0.000,0.000,0.000,0.000,0.000,0.000,0.000,0.000,3.142,6.283,0.000,1.003,1.569,1.569,4.085,6.281,1.199,4.712,0.000,0.000,-1.834,-3.215,0.990,4.875,1.602,1.539,5.281,4.711,4.711,2.198,6.282,5.083,1.570,0.000,0.000,-1.187,-3.320,0.990,4.874,1.598,1.544,
19.140,24.797,-1.605,-3.849,1.409,0.000,6.272,0.488,1.932,1.551,1.418,1.083,0.000,2.440,1.183,0.931,0.868,0.000,3.142,0.000,0.000,0.000,0.000,0.000,0.000,0.000,0.000,0.000,0.000,0.000,3.142,6.283,0.000,1.003,1.569,1.569,4.085,6.281,1.199,4.712,0.000,0.000,-1.834,-3.215,0.990,4.875,1.602,1.539,5.281,4.711,4.711,2.198,6.282,5.083,1.570,0.000,0.000,-1.187,-3.320,0.990,4.874,1.598,1.544,
19.240,24.897,-1.605,-3.849,1.410,0.000,0.096,0.487,1.933,1.550,1.418,1.084,0.000,2.435,1.182,0.925,0.869,0.000,3.142,0.000,0.000,0.000,0.000,0.000,0.000,0.000,0.000,0.000,0.000,0.000,3.142,0.001,0.000,1.003,1.571,1.570,4.087,6.281,1.199,4.712,0.000,0.000,-1.834,-3.215,0.990,4.875,1.606,1.535,5.280,4.712,4.712,2.199,6.282,5.083,1.570,0.000,0.000,-1.186,-3.320,0.991,4.875,1.592,1.549,
19.322,24.980,-1.605,-3.849,1.456,0.000,1.118,0.471,1.871,1.518,1.112,1.142,0.000,2.234,1.180,0.723,0.913,0.000,3.142,0.000,0.000,0.000,0.000,0.000,0.000,0.000,0.000,0.000,0.000,0.000,3.142,0.002,0.000,1.002,1.571,1.573,4.087,6.281,1.199,4.712,0.000,0.000,-1.861,-3.226,0.990,4.831,1.616,1.526,5.281,4.713,4.715,2.199,6.281,5.083,1.571,0.000,0.000,-1.210,-3.302,0.991,4.831,1.593,1.548,
19.440,25.097,-1.605,-3.849,1.566,0.003,0.824,0.439,2.323,1.458,0.790,2.464,0.000,2.047,1.161,0.640,1.294,0.000,3.142,0.000,0.000,0.000,0.000,0.000,0.000,0.000,0.000,0.000,0.000,0.000,3.142,0.001,0.000,1.003,1.568,1.566,4.085,6.282,1.199,4.711,0.000,0.000,-1.933,-3.258,0.990,4.717,3.057,0.083,5.281,4.711,4.709,2.198,6.283,5.083,1.570,0.000,0.000,-1.276,-3.261,0.991,4.716,2.705,0.435,
19.540,25.197,-1.605,-3.849,1.585,0.000,6.270,0.434,2.264,1.450,0.795,2.538,0.000,2.078,1.154,0.645,1.276,0.000,3.142,0.000,0.000,0.000,0.000,0.000,0.000,0.000,0.000,0.000,0.000,0.000,3.142,6.283,0.000,1.003,1.569,1.569,4.085,6.281,1.199,4.712,0.000,0.000,-1.942,-3.264,0.990,4.728,4.385,5.039,5.281,4.711,4.711,2.198,6.282,5.083,1.570,0.000,0.000,-1.286,-3.255,0.990,4.728,4.439,4.985,
19.640,25.297,-1.605,-3.849,1.585,0.000,6.271,0.434,2.264,1.450,0.795,2.538,0.000,2.078,1.154,0.645,1.276,0.000,3.142,0.000,0.000,0.000,0.000,0.000,0.000,0.000,0.000,0.000,0.000,0.000,3.142,6.283,0.000,1.003,1.569,1.569,4.085,6.281,1.199,4.712,0.000,0.000,-1.942,-3.264,0.990,4.728,4.381,5.043,5.281,4.711,4.712,2.198,6.282,5.083,1.570,0.000,0.000,-1.286,-3.255,0.990,4.728,4.424,5.000,
19.740,25.397,-1.605,-3.852,1.585,-0.230,6.257,0.437,2.264,1.450,0.795,2.538,0.000,2.073,1.154,0.644,1.280,0.000,3.142,0.000,0.000,0.000,0.000,0.000,0.000,0.000,0.000,0.000,0.000,0.000,3.142,0.003,0.001,1.000,1.571,1.571,4.091,6.281,1.200,4.712,0.000,0.000,-1.940,-3.266,0.989,4.727,4.107,5.317,5.280,4.713,4.714,2.199,6.282,5.083,1.570,0.000,0.000,-1.284,-3.259,0.990,4.725,4.390,5.034,
19.840,25.497,-1.604,-3.897,1.583,-0.884,6.172,0.482,2.272,1.451,0.796,2.531,0.000,2.014,1.154,0.643,1.336,0.000,3.142,0.000,0.000,0.000,0.000,0.000,0.000,0.000,0.000,0.000,0.000,0.000,3.142,0.005,0.001,0.999,1.572,1.573,4.095,6.281,1.200,4.712,0.000,0.000,-1.937,-3.309,0.989,4.725,3.804,5.619,5.280,4.714,4.715,2.199,6.282,5.083,1.570,0.000,0.000,-1.281,-3.304,0.990,4.722,4.252,5.172,
19.940,25.597,-1.602,-4.046,1.578,-1.426,6.274,0.632,2.289,1.455,0.796,2.515,0.000,1.820,1.101,1.166,1.062,0.000,3.142,0.000,0.000,0.000,0.000,0.000,0.000,0.000,0.000,0.000,0.000,0.000,3.142,0.000,0.000,1.003,1.570,1.570,4.086,6.281,1.199,4.712,0.000,0.000,-1.935,-3.459,0.990,4.721,4.000,5.423,5.280,4.712,4.712,2.199,6.282,5.083,1.570,0.000,0.000,-1.279,-3.455,0.990,4.720,4.154,5.270,
20.022,25.679,-1.601,-4.168,1.578,-0.992,6.276,0.752,2.290,1.456,0.797,2.517,4.989,1.762,0.000,0.830,1.060,0.000,3.036,0.000,0.000,0.000,0.000,0.000,0.000,0.000,0.000,0.000,0.000,0.000,3.142,6.281,6.283,1.005,1.568,1.568,4.082,6.281,1.199,4.712,0.000,0.000,-1.936,-3.583,0.990,4.723,4.425,4.998,5.281,4.711,4.710,2.199,6.282,5.083,1.570,0.000,0.000,-1.280,-3.576,0.991,4.723,4.316,5.109,
20.140,25.797,-1.601,-4.236,1.579,-0.790,6.276,0.819,2.290,1.001,0.797,2.519,4.922,1.761,0.000,1.165,1.060,0.000,3.036,0.000,0.000,0.000,0.000,0.000,0.000,0.000,0.000,0.000,0.000,0.000,3.142,6.283,0.000,1.004,1.569,1.569,4.085,6.281,1.199,4.712,0.000,0.000,-1.934,-3.649,0.990,4.722,4.188,5.236,5.281,4.711,4.711,2.199,6.282,5.083,1.570,0.000,0.000,-1.278,-3.644,0.990,4.721,4.245,5.179,
20.240,25.897,-1.600,-4.340,1.579,-1.027,6.274,0.922,2.290,0.781,0.798,2.522,4.818,1.842,0.000,1.164,1.059,0.000,3.036,0.000,0.000,0.000,0.000,0.000,0.000,0.000,0.000,0.000,0.000,0.000,3.142,0.001,0.001,1.002,1.570,1.571,4.088,6.281,1.200,4.712,0.000,0.000,-1.932,-3.752,0.990,4.721,3.921,5.503,5.280,4.712,4.713,2.199,6.282,5.083,1.570,0.000,0.000,-1.277,-3.748,0.990,4.720,4.159,5.265,
20.340,25.997,-1.599,-4.426,1.579,-1.126,6.275,1.007,2.290,0.781,0.799,0.000,4.732,1.840,0.000,1.163,1.058,0.000,3.036,0.000,0.000,0.000,0.000,0.000,0.000,0.000,0.000,0.000,0.000,0.000,3.142,0.000,0.000,1.003,1.570,1.570,4.086,6.281,1.199,4.712,0.000,0.000,-1.932,-3.839,0.990,4.722,4.090,5.334,5.280,4.712,4.712,2.199,6.282,5.083,1.570,0.000,0.000,-1.277,-3.834,0.990,4.721,4.231,5.193,
20.440,26.097,-1.598,-4.553,1.580,-1.001,6.276,1.133,2.291,0.782,0.801,0.000,4.605,1.837,0.000,1.162,1.057,0.000,3.036,0.000,0.000,0.000,0.000,0.000,0.000,0.000,0.000,0.000,0.000,0.000,3.142,6.283,0.000,1.004,1.569,1.569,4.085,6.281,1.199,4.712,0.000,0.000,-1.932,-3.967,0.990,4.723,4.242,5.181,5.281,4.711,4.711,2.199,6.282,5.083,1.570,0.000,0.000,-1.276,-3.961,0.990,4.722,4.294,5.130,
20.540,26.197,-1.598,-4.629,1.580,-0.952,6.275,1.208,2.292,0.783,1.494,0.000,4.528,1.835,0.000,1.162,1.132,0.000,3.036,0.000,0.000,0.000,0.000,0.000,0.000,0.000,0.000,0.000,0.000,0.000,3.142,6.283,0.000,1.003,1.570,1.570,4.086,6.281,1.199,4.712,0.000,0.000,-1.931,-4.043,0.990,4.722,4.184,5.240,5.281,4.712,4.712,2.199,6.282,5.083,1.570,0.000,0.000,-1.275,-4.037,0.990,4.722,4.279,5.145,
20.640,26.297,-1.597,-4.699,1.580,-0.455,6.276,1.277,2.292,0.784,1.494,0.000,4.459,1.834,0.000,1.108,1.216,0.000,3.036,0.000,0.000,0.000,0.000,0.000,0.000,0.000,0.000,0.000,0.000,0.000,3.142,0.000,0.000,1.003,1.569,1.569,4.086,6.281,1.199,4.712,0.000,0.000,-1.931,-4.112,0.990,4.723,4.192,5.232,5.280,4.712,4.712,2.199,6.282,5.083,1.570,0.000,0.000,-1.275,-4.107,0.990,4.722,4.299,5.125,
20.721,26.378,-1.596,-4.771,1.580,-1.067,6.275,1.348,2.293,0.784,1.495,0.000,4.387,1.832,0.000,1.108,1.303,0.000,3.036,0.000,0.000,0.000,0.000,0.000,0.000,0.000,0.000,0.000,0.000,0.000,3.142,0.003,0.001,1.000,1.571,1.572,4.092,6.281,1.200,4.712,0.000,0.000,-1.928,-4.182,0.989,4.722,3.725,5.698,5.280,4.713,4.714,2.199,6.282,5.083,1.570,0.000,0.000,-1.272,-4.179,0.990,4.720,4.116,5.308,
20.840,26.497,-1.595,-4.893,1.581,-1.297,6.275,1.469,2.293,0.785,1.497,3.851,4.264,1.578,0.000,1.269,1.453,0.000,3.001,0.000,0.000,0.000,0.000,0.000,0.000,0.000,0.000,0.000,0.000,0.000,3.142,0.000,0.000,1.003,1.570,1.570,4.086,6.281,1.199,4.712,0.000,0.000,-1.929,-4.307,0.990,4.723,4.216,5.207,5.281,4.712,4.712,2.199,6.282,5.083,1.570,0.000,0.000,-1.273,-4.301,0.990,4.723,4.308,5.116,
20.928,26.585,-1.594,-5.007,1.581,-0.977,6.276,1.581,2.295,0.787,1.498,3.714,4.151,1.437,4.760,3.993,1.590,0.000,3.001,0.000,0.000,0.000,0.000,0.000,0.000,0.000,0.000,0.000,0.000,0.000,3.142,6.282,0.000,1.005,1.569,1.568,4.083,6.281,1.199,4.712,0.000,0.000,-1.929,-4.422,0.990,4.724,4.407,5.017,5.281,4.711,4.711,2.199,6.282,5.083,1.570,0.000,0.000,-1.273,-4.414,0.990,4.724,4.369,5.055,
21.040,26.697,-1.593,-5.094,1.581,-0.866,6.275,1.667,1.235,0.788,1.499,3.609,4.064,1.329,4.466,3.992,1.695,0.000,3.001,0.000,0.000,0.000,0.000,0.000,0.000,0.000,0.000,0.000,0.000,0.000,3.142,0.000,0.000,1.003,1.570,1.570,4.086,6.281,1.199,4.712,0.000,0.000,-1.927,-4.508,0.990,4.723,4.209,5.215,5.280,4.712,4.712,2.199,6.282,5.083,1.570,0.000,0.000,-1.271,-4.501,0.990,4.723,4.315,5.109,
21.136,26.793,-1.592,-5.186,1.581,-1.033,6.275,1.759,1.236,1.040,1.500,3.497,3.971,1.213,1.098,3.991,1.924,0.000,3.001,0.000,0.000,0.000,0.000,0.000,0.000,0.000,0.000,0.000,0.000,0.000,3.142,0.001,0.000,1.002,1.570,1.570,4.087,6.281,1.200,4.712,0.000,0.000,-1.926,-4.600,0.990,4.723,4.128,5.296,5.280,4.712,4.713,2.199,6.282,5.083,1.570,0.000,0.000,-1.270,-4.594,0.990,4.723,4.299,5.125,
21.240,26.897,-1.591,-5.271,1.582,-1.093,6.275,1.842,1.237,1.465,1.502,3.395,3.886,1.108,1.089,3.991,1.923,0.000,3.001,0.000,0.000,0.000,0.000,0.000,0.000,0.000,0.000,0.000,0.000,0.000,3.142,0.000,0.000,1.003,1.570,1.570,4.086,6.281,1.199,4.712,0.000,0.000,-1.926,-4.685,0.990,4.724,4.229,5.194,5.280,4.712,4.712,2.199,6.282,5.083,1.570,0.000,0.000,-1.270,-4.678,0.990,4.724,4.335,5.090,
21.340,26.997,-1.590,-5.395,1.582,-0.999,6.275,1.965,1.239,1.467,1.503,3.245,3.762,0.989,1.139,4.257,1.922,0.000,3.001,0.000,0.000,0.000,0.000,0.000,0.000,0.000,0.000,0.000,0.000,0.000,3.142,6.283,0.000,1.004,1.569,1.569,4.085,6.281,1.199,4.712,0.000,0.000,-1.925,-4.810,0.990,4.725,4.310,5.114,5.281,4.711,4.712,2.199,6.282,5.083,1.570,0.000,0.000,-1.269,-4.803,0.990,4.724,4.366,5.058,
21.440,27.097,-1.589,-5.472,1.582,-0.970,6.275,2.041,1.240,1.468,1.504,3.152,3.685,0.987,1.138,4.487,1.921,0.000,3.001,0.000,0.000,0.000,0.000,0.000,0.000,0.000,0.000,0.000,0.000,0.000,3.142,0.000,0.000,1.003,1.570,1.570,4.086,6.281,1.199,4.712,0.000,0.000,-1.924,-4.887,0.990,4.725,4.275,5.148,5.281,4.712,4.712,2.199,6.282,5.083,1.570,0.000,0.000,-1.268,-4.879,0.990,4.724,4.360,5.064,
21.537,27.195,-1.587,-5.589,1.583,-1.019,6.275,2.156,1.242,1.469,1.506,3.012,3.568,0.984,1.137,0.000,1.919,0.000,3.001,0.000,0.000,0.000,0.000,0.000,0.000,0.000,0.000,0.000,0.000,0.000,3.142,0.000,0.000,1.003,1.570,1.570,4.086,6.281,1.199,4.712,0.000,0.000,-1.923,-5.004,0.990,4.725,4.259,5.165,5.280,4.712,4.712,2.199,6.282,5.083,1.570,0.000,0.000,-1.267,-4.996,0.990,4.724,4.364,5.060,
21.640,27.297,-1.587,-5.670,1.583,-1.033,6.275,2.236,1.243,1.470,1.507,3.015,3.487,0.982,1.136,4.391,1.919,0.000,3.001,0.000,0.000,0.000,0.000,0.000,0.000,0.000,0.000,0.000,0.000,0.000,3.142,0.000,0.000,1.003,1.570,1.570,4.086,6.281,1.199,4.712,0.000,0.000,-1.922,-5.085,0.990,4.725,4.290,5.133,5.281,4.712,4.712,2.199,6.282,5.083,1.570,0.000,0.000,-1.266,-5.077,0.990,4.725,4.378,5.047,
21.735,27.392,-1.585,-5.791,1.583,-1.007,6.275,2.355,1.244,1.471,1.509,3.019,3.367,0.979,1.134,4.430,1.917,0.000,3.001,0.000,0.000,0.000,0.000,0.000,0.000,0.000,0.000,0.000,0.000,0.000,3.142,6.283,0.000,1.003,1.570,1.570,4.086,6.281,1.199,4.712,0.000,0.000,-1.921,-5.206,0.990,4.726,4.318,5.106,5.281,4.712,4.712,2.199,6.282,5.083,1.570,0.000,0.000,-1.265,-5.198,0.990,4.725,4.392,5.032,
21.840,27.497,-1.584,-5.870,1.584,-1.001,6.275,2.433,1.246,1.472,1.510,3.023,3.288,0.977,0.994,4.456,1.828,0.000,2.966,0.000,0.000,0.000,0.000,0.000,0.000,0.000,0.000,0.000,0.000,0.000,3.142,0.000,0.000,1.003,1.570,1.570,4.086,6.281,1.199,4.712,0.000,0.000,-1.920,-5.284,0.990,4.726,4.316,5.108,5.281,4.712,4.712,2.199,6.282,5.083,1.570,0.000,0.000,-1.264,-5.276,0.990,4.726,4.396,5.028,
21.930,27.588,-1.583,-5.940,1.584,-0.319,6.277,2.503,1.320,1.473,1.511,3.025,3.217,0.975,0.750,1.095,1.826,0.000,2.966,0.000,0.000,0.000,0.000,0.000,0.000,0.000,0.000,0.000,0.000,0.000,3.142,6.281,6.283,1.005,1.569,1.568,4.082,6.281,1.199,4.712,0.000,0.000,-1.920,-5.357,0.990,4.727,4.491,4.932,5.281,4.711,4.711,2.199,6.282,5.083,1.570,0.000,0.000,-1.264,-5.347,0.991,4.727,4.444,4.980,
22.040,27.697,-1.583,-5.958,1.584,-0.085,6.276,2.520,1.341,1.473,1.512,3.026,3.200,0.975,0.691,1.095,1.826,0.000,2.966,0.000,0.000,0.000,0.000,0.000,0.000,0.000,0.000,0.000,0.000,0.000,3.142,6.282,0.000,1.004,1.569,1.569,4.084,6.281,1.199,4.712,0.000,0.000,-1.919,-5.373,0.990,4.727,4.407,5.017,5.281,4.711,4.711,2.199,6.282,5.083,1.570,0.000,0.000,-1.263,-5.364,0.990,4.726,4.427,4.997,
22.126,27.783,-1.583,-5.960,1.584,-0.001,6.268,2.522,1.344,1.473,1.512,3.026,3.198,0.974,0.685,1.095,1.827,0.000,2.966,0.000,0.000,0.000,0.000,0.000,0.000,0.000,0.000,0.000,0.000,0.000,3.142,6.283,0.000,1.003,1.569,1.569,4.085,6.281,1.199,4.712,0.000,0.000,-1.919,-5.375,0.990,4.727,4.356,5.068,5.281,4.711,4.712,2.198,6.282,5.083,1.570,0.000,0.000,-1.263,-5.366,0.990,4.726,4.405,5.019,
22.240,27.897,-1.583,-5.960,1.584,-0.001,6.268,2.522,1.344,1.473,1.512,3.026,3.198,0.974,0.685,1.095,1.827,0.000,2.966,0.000,0.000,0.000,0.000,0.000,0.000,0.000,0.000,0.000,0.000,0.000,3.142,6.283,0.000,1.003,1.569,1.569,4.085,6.281,1.199,4.712,0.000,0.000,-1.919,-5.375,0.990,4.727,4.352,5.072,5.281,4.711,4.712,2.198,6.282,5.083,1.570,0.000,0.000,-1.263,-5.366,0.990,4.726,4.402,5.022,
22.323,27.980,-1.583,-5.960,1.584,-0.001,6.268,2.522,1.344,1.473,1.512,3.026,3.198,0.974,0.685,1.095,1.827,0.000,2.966,0.000,0.000,0.000,0.000,0.000,0.000,0.000,0.000,0.000,0.000,0.000,3.142,6.283,0.000,1.003,1.569,1.569,4.085,6.281,1.199,4.712,0.000,0.000,-1.919,-5.375,0.990,4.727,4.352,5.072,5.281,4.711,4.712,2.198,6.282,5.083,1.570,0.000,0.000,-1.263,-5.366,0.990,4.726,4.402,5.022,
22.440,28.097,-1.583,-5.960,1.584,-0.001,6.268,2.522,1.344,1.473,1.512,3.026,3.198,0.974,0.685,1.095,1.827,0.000,2.966,0.000,0.000,0.000,0.000,0.000,0.000,0.000,0.000,0.000,0.000,0.000,3.142,6.283,0.000,1.003,1.569,1.569,4.085,6.281,1.199,4.712,0.000,0.000,-1.919,-5.375,0.990,4.727,4.352,5.072,5.281,4.711,4.712,2.198,6.282,5.083,1.570,0.000,0.000,-1.263,-5.366,0.990,4.726,4.402,5.022,
22.540,28.197,-1.583,-5.960,1.584,-0.001,6.268,2.522,1.344,1.473,1.512,3.026,3.198,0.974,0.685,1.095,1.827,0.000,2.966,0.000,0.000,0.000,0.000,0.000,0.000,0.000,0.000,0.000,0.000,0.000,3.142,6.283,0.000,1.003,1.569,1.569,4.085,6.281,1.199,4.712,0.000,0.000,-1.919,-5.375,0.990,4.727,4.352,5.072,5.281,4.711,4.712,2.198,6.282,5.083,1.570,0.000,0.000,-1.263,-5.366,0.990,4.726,4.402,5.022,
22.640,28.297,-1.583,-5.960,1.584,-0.001,6.268,2.522,1.344,1.473,1.512,3.026,3.198,0.974,0.685,1.095,1.827,0.000,2.966,0.000,0.000,0.000,0.000,0.000,0.000,0.000,0.000,0.000,0.000,0.000,3.142,6.283,0.000,1.003,1.569,1.569,4.085,6.281,1.199,4.712,0.000,0.000,-1.919,-5.375,0.990,4.727,4.352,5.072,5.281,4.711,4.712,2.198,6.282,5.083,1.570,0.000,0.000,-1.263,-5.366,0.990,4.726,4.402,5.022,
22.740,28.397,-1.583,-5.960,1.584,-0.001,6.268,2.522,1.344,1.473,1.512,3.026,3.198,0.974,0.685,1.095,1.827,0.000,2.966,0.000,0.000,0.000,0.000,0.000,0.000,0.000,0.000,0.000,0.000,0.000,3.142,6.283,0.000,1.003,1.569,1.569,4.085,6.281,1.199,4.712,0.000,0.000,-1.919,-5.375,0.990,4.727,4.352,5.072,5.281,4.711,4.712,2.198,6.282,5.083,1.570,0.000,0.000,-1.263,-5.366,0.990,4.726,4.402,5.022,
22.840,28.497,-1.583,-5.960,1.584,-0.001,6.268,2.522,1.344,1.473,1.512,3.026,3.198,0.974,0.685,1.095,1.827,0.000,2.966,0.000,0.000,0.000,0.000,0.000,0.000,0.000,0.000,0.000,0.000,0.000,3.142,6.283,0.000,1.003,1.569,1.569,4.085,6.281,1.199,4.712,0.000,0.000,-1.919,-5.375,0.990,4.727,4.352,5.072,5.281,4.711,4.712,2.198,6.282,5.083,1.570,0.000,0.000,-1.263,-5.366,0.990,4.726,4.402,5.022,
22.940,28.597,-1.583,-5.960,1.584,-0.001,6.268,2.522,1.344,1.473,1.512,3.026,3.198,0.974,0.685,1.095,1.827,0.000,2.966,0.000,0.000,0.000,0.000,0.000,0.000,0.000,0.000,0.000,0.000,0.000,3.142,6.283,0.000,1.003,1.569,1.569,4.085,6.281,1.199,4.712,0.000,0.000,-1.919,-5.375,0.990,4.727,4.352,5.072,5.281,4.711,4.712,2.198,6.282,5.083,1.570,0.000,0.000,-1.263,-5.366,0.990,4.726,4.402,5.022,
23.040,28.697,-1.583,-5.960,1.584,-0.001,6.268,2.522,1.344,1.473,1.512,3.026,3.198,0.974,0.685,1.095,1.827,0.000,2.966,0.000,0.000,0.000,0.000,0.000,0.000,0.000,0.000,0.000,0.000,0.000,3.142,6.283,0.000,1.003,1.569,1.569,4.085,6.281,1.199,4.712,0.000,0.000,-1.919,-5.375,0.990,4.727,4.352,5.072,5.281,4.711,4.712,2.198,6.282,5.083,1.570,0.000,0.000,-1.263,-5.366,0.990,4.726,4.402,5.022,
23.140,28.797,-1.583,-5.960,1.584,-0.001,6.268,2.522,1.344,1.473,1.512,3.026,3.198,0.974,0.685,1.095,1.827,0.000,2.966,0.000,0.000,0.000,0.000,0.000,0.000,0.000,0.000,0.000,0.000,0.000,3.142,6.283,0.000,1.003,1.569,1.569,4.085,6.281,1.199,4.712,0.000,0.000,-1.919,-5.375,0.990,4.727,4.352,5.072,5.281,4.711,4.712,2.198,6.282,5.083,1.570,0.000,0.000,-1.263,-5.366,0.990,4.726,4.402,5.022,
23.238,28.895,-1.583,-5.960,1.584,-0.001,6.268,2.522,1.344,1.473,1.512,3.026,3.198,0.974,0.685,1.095,1.827,0.000,2.966,0.000,0.000,0.000,0.000,0.000,0.000,0.000,0.000,0.000,0.000,0.000,3.142,6.283,0.000,1.003,1.569,1.569,4.085,6.281,1.199,4.712,0.000,0.000,-1.919,-5.375,0.990,4.727,4.352,5.072,5.281,4.711,4.712,2.198,6.282,5.083,1.570,0.000,0.000,-1.263,-5.366,0.990,4.726,4.402,5.022,
23.340,28.997,-1.583,-5.960,1.584,-0.001,6.268,2.522,1.344,1.473,1.512,3.026,3.198,0.974,0.685,1.095,1.827,0.000,2.966,0.000,0.000,0.000,0.000,0.000,0.000,0.000,0.000,0.000,0.000,0.000,3.142,6.283,0.000,1.003,1.569,1.569,4.085,6.281,1.199,4.712,0.000,0.000,-1.919,-5.375,0.990,4.727,4.352,5.072,5.281,4.711,4.712,2.198,6.282,5.083,1.570,0.000,0.000,-1.263,-5.366,0.990,4.726,4.402,5.022,
23.421,29.078,-1.583,-5.960,1.584,-0.001,6.268,2.522,1.344,1.473,1.512,3.026,3.198,0.974,0.685,1.095,1.827,0.000,2.966,0.000,0.000,0.000,0.000,0.000,0.000,0.000,0.000,0.000,0.000,0.000,3.142,6.283,0.000,1.003,1.569,1.569,4.085,6.281,1.199,4.712,0.000,0.000,-1.919,-5.375,0.990,4.727,4.352,5.072,5.281,4.711,4.712,2.198,6.282,5.083,1.570,0.000,0.000,-1.263,-5.366,0.990,4.726,4.402,5.022,
23.540,29.197,-1.583,-5.960,1.584,-0.001,6.268,2.522,1.344,1.473,1.512,3.026,3.198,0.974,0.685,1.095,1.827,0.000,2.966,0.000,0.000,0.000,0.000,0.000,0.000,0.000,0.000,0.000,0.000,0.000,3.142,6.283,0.000,1.003,1.569,1.569,4.085,6.281,1.199,4.712,0.000,0.000,-1.919,-5.375,0.990,4.727,4.352,5.072,5.281,4.711,4.712,2.198,6.282,5.083,1.570,0.000,0.000,-1.263,-5.366,0.990,4.726,4.402,5.022,
23.640,29.297,-1.583,-5.960,1.584,-0.001,6.268,2.522,1.344,1.473,1.512,3.026,3.198,0.974,0.685,1.095,1.827,0.000,2.966,0.000,0.000,0.000,0.000,0.000,0.000,0.000,0.000,0.000,0.000,0.000,3.142,6.283,0.000,1.003,1.569,1.569,4.085,6.281,1.199,4.712,0.000,0.000,-1.919,-5.375,0.990,4.727,4.352,5.072,5.281,4.711,4.712,2.198,6.282,5.083,1.570,0.000,0.000,-1.263,-5.366,0.990,4.726,4.402,5.022,
23.740,29.397,-1.583,-5.960,1.584,-0.001,6.268,2.522,1.344,1.473,1.512,3.026,3.198,0.974,0.685,1.095,1.827,0.000,2.966,0.000,0.000,0.000,0.000,0.000,0.000,0.000,0.000,0.000,0.000,0.000,3.142,6.283,0.000,1.003,1.569,1.569,4.085,6.281,1.199,4.712,0.000,0.000,-1.919,-5.375,0.990,4.727,4.352,5.072,5.281,4.711,4.712,2.198,6.282,5.083,1.570,0.000,0.000,-1.263,-5.366,0.990,4.726,4.402,5.022,
23.840,29.497,-1.583,-5.960,1.584,-0.001,6.268,2.522,1.344,1.473,1.512,3.026,3.198,0.974,0.685,1.095,1.827,0.000,2.966,0.000,0.000,0.000,0.000,0.000,0.000,0.000,0.000,0.000,0.000,0.000,3.142,6.283,0.000,1.003,1.569,1.569,4.085,6.281,1.199,4.712,0.000,0.000,-1.919,-5.375,0.990,4.727,4.352,5.072,5.281,4.711,4.712,2.198,6.282,5.083,1.570,0.000,0.000,-1.263,-5.366,0.990,4.726,4.402,5.022,
23.940,29.597,-1.583,-5.960,1.584,-0.001,6.268,2.522,1.344,1.473,1.512,3.026,3.198,0.974,0.685,1.095,1.827,0.000,2.966,0.000,0.000,0.000,0.000,0.000,0.000,0.000,0.000,0.000,0.000,0.000,3.142,6.283,0.000,1.003,1.569,1.569,4.085,6.281,1.199,4.712,0.000,0.000,-1.919,-5.375,0.990,4.727,4.352,5.072,5.281,4.711,4.712,2.198,6.282,5.083,1.570,0.000,0.000,-1.263,-5.366,0.990,4.726,4.402,5.022,
24.040,29.697,-1.583,-5.960,1.584,-0.001,6.268,2.522,1.344,1.473,1.512,3.026,3.198,0.974,0.685,1.095,1.827,0.000,2.966,0.000,0.000,0.000,0.000,0.000,0.000,0.000,0.000,0.000,0.000,0.000,3.142,6.283,0.000,1.003,1.569,1.569,4.085,6.281,1.199,4.712,0.000,0.000,-1.919,-5.375,0.990,4.727,4.352,5.072,5.281,4.711,4.712,2.198,6.282,5.083,1.570,0.000,0.000,-1.263,-5.366,0.990,4.726,4.402,5.022,
24.134,29.791,-1.583,-5.960,1.584,-0.001,6.268,2.522,1.344,1.473,1.512,3.026,3.198,0.974,0.685,1.095,1.827,0.000,2.966,0.000,0.000,0.000,0.000,0.000,0.000,0.000,0.000,0.000,0.000,0.000,3.142,6.283,0.000,1.003,1.569,1.569,4.085,6.281,1.199,4.712,0.000,0.000,-1.919,-5.375,0.990,4.727,4.352,5.072,5.281,4.711,4.712,2.198,6.282,5.083,1.570,0.000,0.000,-1.263,-5.366,0.990,4.726,4.402,5.022,
24.240,29.897,-1.583,-5.960,1.584,-0.001,6.268,2.522,1.344,1.473,1.512,3.026,3.198,0.974,0.685,1.095,1.827,0.000,2.966,0.000,0.000,0.000,0.000,0.000,0.000,0.000,0.000,0.000,0.000,0.000,3.142,6.283,0.000,1.003,1.569,1.569,4.085,6.281,1.199,4.712,0.000,0.000,-1.919,-5.375,0.990,4.727,4.352,5.072,5.281,4.711,4.712,2.198,6.282,5.083,1.570,0.000,0.000,-1.263,-5.366,0.990,4.726,4.402,5.022,
24.340,29.997,-1.583,-5.960,1.584,-0.001,6.268,2.522,1.344,1.473,1.512,3.026,3.198,0.974,0.685,1.095,1.827,0.000,2.966,0.000,0.000,0.000,0.000,0.000,0.000,0.000,0.000,0.000,0.000,0.000,3.142,6.283,0.000,1.003,1.569,1.569,4.085,6.281,1.199,4.712,0.000,0.000,-1.919,-5.375,0.990,4.727,4.352,5.072,5.281,4.711,4.712,2.198,6.282,5.083,1.570,0.000,0.000,-1.263,-5.366,0.990,4.726,4.402,5.022,
24.440,30.097,-1.583,-5.960,1.584,-0.001,6.268,2.522,1.344,1.473,1.512,3.026,3.198,0.974,0.685,1.095,1.827,0.000,2.966,0.000,0.000,0.000,0.000,0.000,0.000,0.000,0.000,0.000,0.000,0.000,3.142,6.283,0.000,1.003,1.569,1.569,4.085,6.281,1.199,4.712,0.000,0.000,-1.919,-5.375,0.990,4.727,4.352,5.072,5.281,4.711,4.712,2.198,6.282,5.083,1.570,0.000,0.000,-1.263,-5.366,0.990,4.726,4.402,5.022,
24.527,30.184,-1.583,-5.960,1.584,-0.001,6.268,2.522,1.344,1.473,1.512,3.026,3.198,0.974,0.685,1.095,1.827,0.000,2.966,0.000,0.000,0.000,0.000,0.000,0.000,0.000,0.000,0.000,0.000,0.000,3.142,6.283,0.000,1.003,1.569,1.569,4.085,6.281,1.199,4.712,0.000,0.000,-1.919,-5.375,0.990,4.727,4.352,5.072,5.281,4.711,4.712,2.198,6.282,5.083,1.570,0.000,0.000,-1.263,-5.366,0.990,4.726,4.402,5.022,
24.640,30.297,-1.583,-5.960,1.584,-0.001,6.268,2.522,1.344,1.473,1.512,3.026,3.198,0.974,0.685,1.095,1.827,0.000,2.966,0.000,0.000,0.000,0.000,0.000,0.000,0.000,0.000,0.000,0.000,0.000,3.142,6.283,0.000,1.003,1.569,1.569,4.085,6.281,1.199,4.712,0.000,0.000,-1.919,-5.375,0.990,4.727,4.352,5.072,5.281,4.711,4.712,2.198,6.282,5.083,1.570,0.000,0.000,-1.263,-5.366,0.990,4.726,4.402,5.022,
24.726,30.383,-1.583,-5.960,1.584,-0.001,6.268,2.522,1.344,1.473,1.512,3.026,3.198,0.974,0.685,1.095,1.827,0.000,2.966,0.000,0.000,0.000,0.000,0.000,0.000,0.000,0.000,0.000,0.000,0.000,3.142,6.283,0.000,1.003,1.569,1.569,4.085,6.281,1.199,4.712,0.000,0.000,-1.919,-5.375,0.990,4.727,4.352,5.072,5.281,4.711,4.712,2.198,6.282,5.083,1.570,0.000,0.000,-1.263,-5.366,0.990,4.726,4.402,5.022,
24.840,30.497,-1.583,-5.960,1.584,-0.001,6.268,2.522,1.344,1.473,1.512,3.026,3.198,0.974,0.685,1.095,1.827,0.000,2.966,0.000,0.000,0.000,0.000,0.000,0.000,0.000,0.000,0.000,0.000,0.000,3.142,6.283,0.000,1.003,1.569,1.569,4.085,6.281,1.199,4.712,0.000,0.000,-1.919,-5.375,0.990,4.727,4.352,5.072,5.281,4.711,4.712,2.198,6.282,5.083,1.570,0.000,0.000,-1.263,-5.366,0.990,4.726,4.402,5.022,
24.940,30.597,-1.583,-5.960,1.584,-0.001,6.268,2.522,1.344,1.473,1.512,3.026,3.198,0.974,0.685,1.095,1.827,0.000,2.966,0.000,0.000,0.000,0.000,0.000,0.000,0.000,0.000,0.000,0.000,0.000,3.142,6.283,0.000,1.003,1.569,1.569,4.085,6.281,1.199,4.712,0.000,0.000,-1.919,-5.375,0.990,4.727,4.352,5.072,5.281,4.711,4.712,2.198,6.282,5.083,1.570,0.000,0.000,-1.263,-5.366,0.990,4.726,4.402,5.022,
25.040,30.697,-1.583,-5.960,1.584,-0.001,6.268,2.522,1.344,1.473,1.512,3.026,3.198,0.974,0.685,1.095,1.827,0.000,2.966,0.000,0.000,0.000,0.000,0.000,0.000,0.000,0.000,0.000,0.000,0.000,3.142,6.283,0.000,1.003,1.569,1.569,4.085,6.281,1.199,4.712,0.000,0.000,-1.919,-5.375,0.990,4.727,4.352,5.072,5.281,4.711,4.712,2.198,6.282,5.083,1.570,0.000,0.000,-1.263,-5.366,0.990,4.726,4.402,5.022,
25.140,30.797,-1.583,-5.960,1.584,-0.001,6.268,2.522,1.344,1.473,1.512,3.026,3.198,0.974,0.685,1.095,1.827,0.000,2.966,0.000,0.000,0.000,0.000,0.000,0.000,0.000,0.000,0.000,0.000,0.000,3.142,6.283,0.000,1.003,1.569,1.569,4.085,6.281,1.199,4.712,0.000,0.000,-1.919,-5.375,0.990,4.727,4.352,5.072,5.281,4.711,4.712,2.198,6.282,5.083,1.570,0.000,0.000,-1.263,-5.366,0.990,4.726,4.402,5.022,
25.240,30.897,-1.583,-5.960,1.584,-0.001,6.268,2.522,1.344,1.473,1.512,3.026,3.198,0.974,0.685,1.095,1.827,0.000,2.966,0.000,0.000,0.000,0.000,0.000,0.000,0.000,0.000,0.000,0.000,0.000,3.142,6.283,0.000,1.003,1.569,1.569,4.085,6.281,1.199,4.712,0.000,0.000,-1.919,-5.375,0.990,4.727,4.352,5.072,5.281,4.711,4.712,2.198,6.282,5.083,1.570,0.000,0.000,-1.263,-5.366,0.990,4.726,4.402,5.022,
25.340,30.997,-1.583,-5.960,1.584,-0.001,6.268,2.522,1.344,1.473,1.512,3.026,3.198,0.974,0.685,1.095,1.827,0.000,2.966,0.000,0.000,0.000,0.000,0.000,0.000,0.000,0.000,0.000,0.000,0.000,3.142,6.283,0.000,1.003,1.569,1.569,4.085,6.281,1.199,4.712,0.000,0.000,-1.919,-5.375,0.990,4.727,4.352,5.072,5.281,4.711,4.712,2.198,6.282,5.083,1.570,0.000,0.000,-1.263,-5.366,0.990,4.726,4.402,5.022,
25.440,31.097,-1.583,-5.960,1.584,-0.001,6.268,2.522,1.344,1.473,1.512,3.026,3.198,0.974,0.685,1.095,1.827,0.000,2.966,0.000,0.000,0.000,0.000,0.000,0.000,0.000,0.000,0.000,0.000,0.000,3.142,6.283,0.000,1.003,1.569,1.569,4.085,6.281,1.199,4.712,0.000,0.000,-1.919,-5.375,0.990,4.727,4.352,5.072,5.281,4.711,4.712,2.198,6.282,5.083,1.570,0.000,0.000,-1.263,-5.366,0.990,4.726,4.402,5.022,
25.540,31.197,-1.583,-5.960,1.584,-0.001,6.268,2.522,1.344,1.473,1.512,3.026,3.198,0.974,0.685,1.095,1.827,0.000,2.966,0.000,0.000,0.000,0.000,0.000,0.000,0.000,0.000,0.000,0.000,0.000,3.142,6.283,0.000,1.003,1.569,1.569,4.085,6.281,1.199,4.712,0.000,0.000,-1.919,-5.375,0.990,4.727,4.352,5.072,5.281,4.711,4.712,2.198,6.282,5.083,1.570,0.000,0.000,-1.263,-5.366,0.990,4.726,4.402,5.022,
25.638,31.295,-1.583,-5.960,1.584,-0.001,6.268,2.522,1.344,1.473,1.512,3.026,3.198,0.974,0.685,1.095,1.827,0.000,2.966,0.000,0.000,0.000,0.000,0.000,0.000,0.000,0.000,0.000,0.000,0.000,3.142,6.283,0.000,1.003,1.569,1.569,4.085,6.281,1.199,4.712,0.000,0.000,-1.919,-5.375,0.990,4.727,4.352,5.072,5.281,4.711,4.712,2.198,6.282,5.083,1.570,0.000,0.000,-1.263,-5.366,0.990,4.726,4.402,5.022,
25.740,31.397,-1.583,-5.960,1.584,-0.001,6.268,2.522,1.344,1.473,1.512,3.026,3.198,0.974,0.685,1.095,1.827,0.000,2.966,0.000,0.000,0.000,0.000,0.000,0.000,0.000,0.000,0.000,0.000,0.000,3.142,6.283,0.000,1.003,1.569,1.569,4.085,6.281,1.199,4.712,0.000,0.000,-1.919,-5.375,0.990,4.727,4.352,5.072,5.281,4.711,4.712,2.198,6.282,5.083,1.570,0.000,0.000,-1.263,-5.366,0.990,4.726,4.402,5.022,
25.840,31.497,-1.583,-5.960,1.584,-0.001,6.268,2.522,1.344,1.473,1.512,3.026,3.198,0.974,0.685,1.095,1.827,0.000,2.966,0.000,0.000,0.000,0.000,0.000,0.000,0.000,0.000,0.000,0.000,0.000,3.142,6.283,0.000,1.003,1.569,1.569,4.085,6.281,1.199,4.712,0.000,0.000,-1.919,-5.