deveshdatwani/Gopher/Assets/Data/07-15 15-18-34/Obstacle Handling_robot_value.csv
game_time,true_time,x,y,az,vx,vaz,dis_to_obs_0,dis_to_obs_36,dis_to_obs_72,dis_to_obs_108,dis_to_obs_144,dis_to_obs_180,dis_to_obs_-144,dis_to_obs_-108,dis_to_obs_-72,dis_to_obs_-36,dis_to_min_obs,direction_to_min_obs,dis_to_human_0,dis_to_human_36,dis_to_human_72,dis_to_human_108,dis_to_human_144,dis_to_human_180,dis_to_human_-144,dis_to_human_-108,dis_to_human_-72,dis_to_human_-36,dis_to_min_human,direction_to_min_human,main_cam_yaw,main_cam_pitch,left_joint_1,left_joint_2,left_joint_3,left_joint_4,left_joint_5,left_joint_6,left_joint_7,left_joint_gripper,left_is_grasping,left_end_x,left_end_y,left_end_z,left_end_ax,left_end_ay,left_end_az,right_joint_1,right_joint_2,right_joint_3,right_joint_4,right_joint_5,right_joint_6,right_joint_7,right_joint_gripper,right_is_grasping,right_end_x,right_end_y,right_end_z,right_end_ax,right_end_ay,right_end_az,
98.140,109.115,0.528,-9.925,1.985,0.992,6.278,3.442,1.299,0.876,0.980,0.000,4.658,2.856,2.384,0.000,3.494,0.000,3.106,0.000,0.000,0.000,0.000,0.000,0.000,0.000,0.000,0.000,0.000,0.000,3.142,6.282,0.000,1.841,1.897,1.798,4.286,0.398,0.999,4.711,0.000,0.000,0.231,-9.659,0.534,5.572,3.488,5.805,4.442,4.384,4.484,1.997,5.883,5.283,1.571,0.000,0.000,0.532,-9.527,0.534,5.601,3.548,5.656,
98.236,109.211,0.481,-9.816,1.985,1.007,6.279,3.323,1.204,0.931,0.915,3.665,4.777,2.911,2.133,4.924,3.384,0.000,3.106,0.000,0.000,0.000,0.000,0.000,0.000,0.000,0.000,0.000,0.000,0.000,3.142,6.282,0.000,1.881,1.897,1.798,4.286,0.398,0.999,4.711,0.000,0.000,0.192,-9.570,0.518,5.607,3.462,5.820,4.402,4.384,4.484,1.997,5.883,5.283,1.571,0.000,0.000,0.493,-9.438,0.519,5.635,3.521,5.674,
98.340,109.315,0.440,-9.724,1.985,1.015,6.279,3.222,1.123,0.977,0.859,3.441,4.878,2.958,2.174,4.788,3.290,0.000,3.106,0.000,0.000,0.000,0.000,0.000,0.000,0.000,0.000,0.000,0.000,0.000,3.142,6.282,0.000,1.919,1.897,1.798,4.285,0.398,0.999,4.711,0.000,0.000,0.160,-9.497,0.505,5.639,3.439,5.833,4.365,4.383,4.484,1.997,5.882,5.283,1.571,0.000,0.000,0.461,-9.365,0.505,5.666,3.497,5.689,
98.440,109.415,0.408,-9.651,1.985,1.005,6.280,3.141,1.059,1.013,0.809,3.264,4.958,2.995,2.206,4.680,3.216,0.000,3.106,0.000,0.000,0.000,0.000,0.000,0.000,0.000,0.000,0.000,0.000,0.000,3.142,6.282,0.000,1.941,1.897,1.798,4.286,0.398,1.000,4.711,0.000,0.000,0.133,-9.436,0.497,5.659,3.425,5.841,4.342,4.384,4.484,1.997,5.882,5.283,1.571,0.000,0.000,0.434,-9.303,0.498,5.686,3.483,5.698,
98.537,109.512,0.360,-9.542,1.985,1.008,6.281,3.021,0.963,1.068,0.844,2.998,0.000,3.051,2.254,4.519,3.105,0.000,3.142,0.000,0.000,0.000,0.000,0.000,0.000,0.000,0.000,0.000,0.000,0.000,3.142,6.282,0.000,1.978,1.897,1.798,4.285,0.398,0.999,4.711,0.000,0.000,0.094,-9.346,0.485,5.691,3.404,5.852,4.305,4.383,4.484,1.998,5.882,5.283,1.571,0.000,0.000,0.395,-9.214,0.486,5.718,3.461,5.711,
98.640,109.615,0.320,-9.451,1.985,1.008,6.281,2.921,0.883,1.114,0.880,2.777,0.000,3.097,2.295,4.384,3.012,0.000,3.142,0.000,0.000,0.000,0.000,0.000,0.000,0.000,0.000,0.000,0.000,0.000,3.142,6.282,0.000,2.018,1.897,1.798,4.285,0.398,0.999,4.711,0.000,0.000,0.063,-9.276,0.473,5.727,3.382,5.863,4.265,4.384,4.484,1.998,5.882,5.283,1.571,0.000,0.000,0.364,-9.144,0.473,5.753,3.438,5.724,
98.733,109.708,0.281,-9.361,1.985,0.978,6.282,2.821,0.000,1.160,0.916,2.557,0.000,3.143,2.735,3.594,2.919,0.000,3.142,0.000,0.000,0.000,0.000,0.000,0.000,0.000,0.000,0.000,0.000,0.000,3.142,6.283,0.000,2.040,1.897,1.798,4.286,0.398,1.000,4.711,0.000,0.000,0.029,-9.198,0.467,5.747,3.370,5.869,4.243,4.384,4.484,1.997,5.882,5.283,1.571,0.000,0.000,0.330,-9.065,0.467,5.772,3.425,5.731,
98.840,109.815,0.245,-9.281,1.985,0.766,0.000,2.733,0.000,0.918,0.947,2.364,0.000,3.184,0.000,3.576,0.000,0.000,3.142,0.000,0.000,0.000,0.000,0.000,0.000,0.000,0.000,0.000,0.000,0.000,3.142,0.000,0.000,2.076,1.897,1.799,4.285,0.397,1.000,4.712,0.000,0.000,0.003,-9.137,0.457,5.779,3.350,5.879,4.206,4.383,4.485,1.998,5.882,5.284,1.571,0.000,0.000,0.304,-9.005,0.457,5.804,3.405,5.742,
98.929,109.904,0.221,-9.224,1.985,0.513,0.000,2.671,0.000,0.856,0.970,2.230,0.000,3.212,0.000,4.046,0.000,0.000,3.142,0.000,0.000,0.000,0.000,0.000,0.000,0.000,0.000,0.000,0.000,0.000,3.142,0.000,0.000,2.099,1.897,1.799,4.286,0.397,1.000,4.712,0.000,0.000,-0.017,-9.094,0.451,5.800,3.339,5.883,4.183,4.383,4.485,1.998,5.882,5.284,1.571,0.000,0.000,0.284,-8.961,0.451,5.824,3.393,5.748,
99.040,110.015,0.203,-9.184,1.985,0.438,6.283,2.626,0.000,0.811,0.986,2.131,0.000,3.233,0.000,3.986,0.000,0.000,3.142,0.000,0.000,0.000,0.000,0.000,0.000,0.000,0.000,0.000,0.000,0.000,3.142,6.283,0.000,2.100,1.897,1.798,4.285,0.398,1.000,4.711,0.000,0.000,-0.035,-9.053,0.451,5.800,3.339,5.882,4.183,4.384,4.484,1.998,5.882,5.283,1.570,0.000,0.000,0.267,-8.921,0.451,5.825,3.394,5.747,
99.124,110.099,0.186,-9.145,1.985,0.428,6.283,2.584,0.000,0.769,1.001,2.037,0.000,3.252,0.000,3.929,0.000,0.000,3.142,0.000,0.000,0.000,0.000,0.000,0.000,0.000,0.000,0.000,0.000,0.000,3.142,6.283,0.000,2.100,1.897,1.798,4.285,0.398,1.000,4.711,0.000,0.000,-0.051,-9.015,0.451,5.800,3.339,5.882,4.183,4.384,4.484,1.998,5.882,5.283,1.570,0.000,0.000,0.250,-8.883,0.451,5.825,3.393,5.747,
99.240,110.215,0.171,-9.111,1.985,0.340,0.000,2.546,0.000,0.731,1.015,1.954,0.000,3.270,0.000,3.878,0.000,0.000,3.142,0.000,0.000,0.000,0.000,0.000,0.000,0.000,0.000,0.000,0.000,0.000,3.142,6.283,0.000,2.100,1.897,1.799,4.285,0.398,1.000,4.711,0.000,0.000,-0.066,-8.980,0.451,5.800,3.339,5.883,4.183,4.383,4.484,1.998,5.882,5.283,1.571,0.000,0.000,0.235,-8.848,0.451,5.824,3.393,5.747,
99.340,110.315,0.162,-9.091,1.985,0.254,6.283,2.524,0.000,0.708,1.023,1.904,0.000,3.280,0.000,3.848,0.000,0.000,3.142,0.000,0.000,0.000,0.000,0.000,0.000,0.000,0.000,0.000,0.000,0.000,3.142,6.283,0.000,2.100,1.897,1.799,4.285,0.398,1.000,4.711,0.000,0.000,-0.075,-8.960,0.451,5.800,3.339,5.883,4.183,4.383,4.484,1.998,5.882,5.283,1.571,0.000,0.000,0.226,-8.828,0.451,5.824,3.393,5.747,
99.440,110.415,0.152,-9.068,1.985,0.205,0.001,2.499,0.000,0.683,1.032,1.849,0.000,3.292,0.000,3.815,0.000,0.000,3.142,0.000,0.000,0.000,0.000,0.000,0.000,0.000,0.000,0.000,0.000,0.000,3.142,6.283,0.000,2.100,1.897,1.798,4.285,0.398,1.000,4.711,0.000,0.000,-0.085,-8.938,0.451,5.800,3.339,5.882,4.183,4.384,4.484,1.998,5.882,5.283,1.570,0.000,0.000,0.216,-8.805,0.451,5.825,3.393,5.747,
99.540,110.515,0.146,-9.055,1.984,0.153,0.000,2.484,0.000,0.669,1.037,1.817,0.000,3.299,0.000,3.796,0.000,0.000,3.142,0.000,0.000,0.000,0.000,0.000,0.000,0.000,0.000,0.000,0.000,0.000,3.142,0.000,0.000,2.099,1.897,1.799,4.285,0.398,1.000,4.712,0.000,0.000,-0.091,-8.924,0.451,5.800,3.339,5.883,4.183,4.383,4.484,1.998,5.882,5.283,1.571,0.000,0.000,0.210,-8.792,0.451,5.824,3.393,5.748,
99.640,110.615,0.145,-9.051,1.987,-0.022,0.093,2.483,0.000,0.666,1.038,1.830,0.000,3.296,0.000,3.782,0.000,0.000,3.142,0.000,0.000,0.000,0.000,0.000,0.000,0.000,0.000,0.000,0.000,0.000,3.142,0.001,0.000,2.099,1.897,1.799,4.286,0.398,1.001,4.712,0.000,0.000,-0.093,-8.921,0.451,5.800,3.339,5.882,4.182,4.383,4.485,1.998,5.882,5.284,1.571,0.000,0.000,0.209,-8.789,0.451,5.825,3.393,5.747,
99.740,110.715,0.145,-9.053,1.992,-0.026,0.213,2.491,0.000,0.670,1.038,1.890,0.000,3.285,0.000,3.761,0.000,0.000,3.142,0.000,0.000,0.000,0.000,0.000,0.000,0.000,0.000,0.000,0.000,0.000,3.142,0.001,0.000,2.100,1.896,1.799,4.285,0.398,1.000,4.712,0.000,0.000,-0.093,-8.924,0.451,5.801,3.342,5.876,4.182,4.383,4.485,1.998,5.881,5.284,1.571,0.000,0.000,0.207,-8.790,0.451,5.826,3.396,5.741,
99.837,110.812,0.146,-9.054,2.015,-0.020,0.296,2.520,0.000,0.684,1.037,2.173,0.000,3.243,0.000,3.674,0.000,0.000,3.142,0.000,0.000,0.000,0.000,0.000,0.000,0.000,0.000,0.000,0.000,0.000,3.142,0.001,0.000,2.100,1.896,1.799,4.285,0.398,1.000,4.712,0.000,0.000,-0.095,-8.931,0.451,5.806,3.354,5.850,4.182,4.383,4.485,1.998,5.882,5.284,1.571,0.000,0.000,0.202,-8.790,0.451,5.832,3.407,5.716,
99.940,110.915,0.146,-9.055,2.031,-0.012,0.207,0.000,0.000,0.694,1.037,2.423,4.639,3.216,0.000,3.617,0.000,0.000,3.106,0.000,0.000,0.000,0.000,0.000,0.000,0.000,0.000,0.000,0.000,0.000,3.142,0.001,0.000,2.100,1.897,1.799,4.285,0.398,1.000,4.712,0.000,0.000,-0.097,-8.936,0.451,5.810,3.362,5.833,4.182,4.383,4.485,1.998,5.882,5.284,1.571,0.000,0.000,0.198,-8.790,0.451,5.836,3.415,5.699,
100.020,110.995,0.146,-9.055,2.039,-0.005,0.177,0.000,0.000,0.700,1.037,2.591,4.557,3.201,0.000,3.586,0.000,0.000,3.106,0.000,0.000,0.000,0.000,0.000,0.000,0.000,0.000,0.000,0.000,0.000,3.142,0.001,0.000,2.100,1.897,1.799,4.285,0.398,1.000,4.712,0.000,0.000,-0.097,-8.938,0.451,5.812,3.366,5.823,4.182,4.383,4.485,1.998,5.882,5.284,1.571,0.000,0.000,0.196,-8.790,0.451,5.839,3.418,5.690,
100.140,111.115,0.147,-9.055,2.050,-0.001,0.195,0.000,0.000,0.706,1.037,2.833,4.460,3.184,0.000,3.548,0.000,0.000,3.106,0.000,0.000,0.000,0.000,0.000,0.000,0.000,0.000,0.000,0.000,0.000,3.142,0.001,0.000,2.100,1.897,1.799,4.285,0.398,1.000,4.712,0.000,0.000,-0.099,-8.941,0.451,5.814,3.372,5.811,4.182,4.383,4.485,1.998,5.882,5.284,1.571,0.000,0.000,0.193,-8.789,0.451,5.842,3.424,5.678,
100.240,111.215,0.146,-9.055,2.058,0.000,0.160,0.000,0.000,0.711,1.037,3.026,4.397,3.172,0.000,3.522,0.000,0.000,3.106,0.000,0.000,0.000,0.000,0.000,0.000,0.000,0.000,0.000,0.000,0.000,3.142,0.001,0.000,2.100,1.897,1.799,4.285,0.398,1.000,4.712,0.000,0.000,-0.099,-8.943,0.451,5.816,3.375,5.803,4.182,4.383,4.485,1.998,5.882,5.284,1.571,0.000,0.000,0.191,-8.789,0.451,5.844,3.427,5.670,
100.340,111.315,0.146,-9.055,2.065,-0.002,0.107,0.000,0.000,0.715,1.038,3.229,4.341,3.161,0.000,3.499,0.000,0.000,3.071,0.000,0.000,0.000,0.000,0.000,0.000,0.000,0.000,0.000,0.000,0.000,3.142,0.001,0.000,2.100,1.897,1.799,4.285,0.398,1.000,4.712,0.000,0.000,-0.100,-8.944,0.451,5.817,3.379,5.796,4.182,4.383,4.485,1.998,5.882,5.284,1.571,0.000,0.000,0.189,-8.788,0.451,5.846,3.430,5.663,
100.427,111.402,0.146,-9.055,2.069,-0.003,0.099,0.000,0.000,0.718,1.038,3.364,4.307,3.155,0.000,3.486,0.000,0.000,3.071,0.000,0.000,0.000,0.000,0.000,0.000,0.000,0.000,0.000,0.000,0.000,3.142,0.001,0.000,2.100,1.897,1.799,4.285,0.398,1.000,4.712,0.000,0.000,-0.101,-8.945,0.451,5.818,3.381,5.791,4.182,4.383,4.485,1.998,5.882,5.284,1.571,0.000,0.000,0.188,-8.788,0.451,5.847,3.432,5.658,
100.538,111.513,0.146,-9.055,2.073,-0.003,0.097,0.000,0.000,0.721,1.038,3.508,4.276,3.149,0.000,3.473,0.000,0.000,3.071,0.000,0.000,0.000,0.000,0.000,0.000,0.000,0.000,0.000,0.000,0.000,3.142,0.001,0.000,2.100,1.897,1.799,4.285,0.398,1.000,4.712,0.000,0.000,-0.101,-8.946,0.451,5.819,3.383,5.787,4.182,4.383,4.485,1.998,5.882,5.284,1.571,0.000,0.000,0.187,-8.788,0.451,5.848,3.434,5.654,
100.640,111.615,0.146,-9.055,2.076,0.042,0.127,4.997,0.000,0.722,1.039,3.635,4.250,3.144,0.000,3.462,0.000,0.000,3.071,0.000,0.000,0.000,0.000,0.000,0.000,0.000,0.000,0.000,0.000,0.000,3.142,6.283,0.000,2.101,1.897,1.799,4.285,0.398,1.000,4.711,0.000,0.000,-0.102,-8.947,0.451,5.820,3.385,5.782,4.182,4.384,4.484,1.998,5.882,5.284,1.571,0.000,0.000,0.186,-8.788,0.451,5.850,3.435,5.649,
100.732,111.707,0.124,-9.015,2.082,0.774,0.001,4.900,0.000,0.672,1.052,3.630,4.301,3.160,0.000,3.388,0.000,0.000,3.071,0.000,0.000,0.000,0.000,0.000,0.000,0.000,0.000,0.000,0.000,0.000,3.142,6.280,6.283,2.104,1.898,1.797,4.285,0.399,0.998,4.710,0.000,0.000,-0.125,-8.910,0.450,5.824,3.388,5.773,4.182,4.385,4.483,1.997,5.883,5.283,1.570,0.000,0.000,0.162,-8.748,0.451,5.853,3.438,5.641,
100.840,111.815,0.091,-8.957,2.083,0.817,6.281,4.829,0.000,0.595,1.070,3.276,4.370,3.195,0.000,3.307,0.000,0.000,3.071,0.000,0.000,0.000,0.000,0.000,0.000,0.000,0.000,0.000,0.000,0.000,3.142,0.000,0.000,2.099,1.897,1.799,4.285,0.398,1.000,4.712,0.000,0.000,-0.158,-8.850,0.451,5.821,3.388,5.775,4.183,4.383,4.485,1.998,5.882,5.284,1.571,0.000,0.000,0.129,-8.689,0.451,5.851,3.438,5.643,
100.932,111.908,0.062,-8.905,2.084,0.175,6.281,4.766,0.000,0.526,1.086,2.960,4.430,3.226,0.000,3.236,0.000,0.000,3.071,0.000,0.000,0.000,0.000,0.000,0.000,0.000,0.000,0.000,0.000,0.000,3.142,0.002,0.001,2.097,1.897,1.800,4.285,0.397,1.002,4.713,0.000,0.000,-0.187,-8.797,0.452,5.820,3.388,5.776,4.183,4.382,4.486,1.999,5.881,5.284,1.571,0.000,0.000,0.100,-8.637,0.452,5.850,3.439,5.643,
101.040,112.015,0.060,-8.901,2.085,0.056,0.005,4.756,0.000,0.520,1.087,2.947,4.437,3.228,0.000,3.229,0.000,0.000,3.071,0.000,0.000,0.000,0.000,0.000,0.000,0.000,0.000,0.000,0.000,0.000,3.142,6.283,0.000,2.101,1.897,1.798,4.285,0.398,1.000,4.711,0.000,0.000,-0.189,-8.795,0.451,5.823,3.389,5.773,4.183,4.384,4.484,1.998,5.882,5.283,1.571,0.000,0.000,0.097,-8.633,0.451,5.852,3.439,5.641,
101.127,112.102,0.051,-8.886,2.085,0.318,6.282,4.737,0.000,0.501,1.092,2.856,4.454,3.237,0.000,3.208,0.000,0.000,3.071,0.000,0.000,0.000,0.000,0.000,0.000,0.000,0.000,0.000,0.000,0.000,3.142,6.282,0.000,2.102,1.897,1.798,4.285,0.398,0.999,4.711,0.000,0.000,-0.198,-8.781,0.451,5.824,3.389,5.772,4.182,4.384,4.483,1.997,5.882,5.283,1.570,0.000,0.000,0.089,-8.619,0.451,5.853,3.439,5.640,
101.240,112.215,0.035,-8.857,2.085,0.332,6.282,4.703,0.000,0.502,1.101,2.661,4.489,3.255,0.000,3.168,0.000,0.000,3.071,0.000,0.000,0.000,0.000,0.000,0.000,0.000,0.000,0.000,0.000,0.000,3.142,6.283,0.000,2.100,1.897,1.799,4.285,0.398,1.000,4.712,0.000,0.000,-0.214,-8.750,0.451,5.822,3.389,5.773,4.183,4.383,4.484,1.998,5.882,5.284,1.571,0.000,0.000,0.072,-8.589,0.451,5.852,3.439,5.641,
101.332,112.307,0.028,-8.844,2.086,-0.007,0.023,4.683,0.000,0.512,1.105,2.600,4.505,3.261,0.000,3.149,0.000,0.000,3.071,0.000,0.000,0.000,0.000,0.000,0.000,0.000,0.000,0.000,0.000,0.000,3.142,0.002,0.000,2.098,1.896,1.800,4.285,0.397,1.001,4.712,0.000,0.000,-0.222,-8.737,0.451,5.821,3.389,5.774,4.183,4.382,4.485,1.998,5.881,5.284,1.571,0.000,0.000,0.065,-8.576,0.452,5.851,3.439,5.641,
101.440,112.415,0.031,-8.850,2.096,-0.112,0.282,4.613,0.000,0.502,1.104,3.014,4.525,3.243,0.000,3.128,0.000,0.000,3.071,0.000,0.000,0.000,0.000,0.000,0.000,0.000,0.000,0.000,0.000,0.000,3.142,0.001,0.000,2.099,1.896,1.800,4.285,0.397,1.001,4.712,0.000,0.000,-0.219,-8.746,0.451,5.825,3.394,5.763,4.182,4.383,4.485,1.998,5.881,5.284,1.571,0.000,0.000,0.066,-8.582,0.451,5.855,3.443,5.630,
101.526,112.501,0.034,-8.855,2.120,-0.028,0.328,4.688,0.000,0.486,1.105,4.627,4.585,3.206,0.000,3.070,0.000,0.000,3.036,0.000,0.000,0.000,0.000,0.000,0.000,0.000,0.000,0.000,0.000,0.000,3.142,0.001,0.000,2.100,1.897,1.799,4.286,0.398,1.000,4.711,0.000,0.000,-0.219,-8.758,0.451,5.832,3.406,5.735,4.182,4.383,4.485,1.998,5.882,5.284,1.571,0.000,0.000,0.062,-8.586,0.451,5.862,3.454,5.604,
101.640,112.615,0.033,-8.854,2.137,0.018,0.263,4.739,0.000,0.481,1.107,0.000,4.539,3.185,0.000,3.026,0.000,0.000,3.001,0.000,0.000,0.000,0.000,0.000,0.000,0.000,0.000,0.000,0.000,0.000,3.142,0.001,0.000,2.100,1.897,1.799,4.285,0.398,1.000,4.712,0.000,0.000,-0.221,-8.761,0.451,5.836,3.413,5.717,4.182,4.383,4.485,1.998,5.882,5.284,1.571,0.000,0.000,0.057,-8.584,0.451,5.867,3.461,5.587,
101.740,112.715,0.033,-8.853,2.148,0.013,0.159,4.771,0.000,0.485,1.109,0.000,4.570,3.173,0.000,3.001,0.000,0.000,3.001,0.000,0.000,0.000,0.000,0.000,0.000,0.000,0.000,0.000,0.000,0.000,3.142,0.001,0.000,2.100,1.897,1.799,4.285,0.398,1.000,4.712,0.000,0.000,-0.222,-8.763,0.451,5.838,3.418,5.706,4.182,4.383,4.485,1.998,5.882,5.284,1.571,0.000,0.000,0.054,-8.583,0.451,5.871,3.466,5.576,
101.840,112.815,0.033,-8.853,2.155,-0.009,0.137,4.794,0.000,0.489,1.110,0.000,4.592,3.165,0.000,2.984,0.000,0.000,3.001,0.000,0.000,0.000,0.000,0.000,0.000,0.000,0.000,0.000,0.000,0.000,3.142,0.001,0.000,2.100,1.897,1.799,4.285,0.398,1.000,4.712,0.000,0.000,-0.223,-8.764,0.451,5.840,3.421,5.699,4.182,4.383,4.485,1.998,5.882,5.284,1.571,0.000,0.000,0.052,-8.583,0.451,5.873,3.469,5.569,
101.940,112.915,0.033,-8.853,2.161,-0.010,0.168,4.815,0.000,0.493,1.111,0.000,4.611,3.157,0.000,2.970,0.000,0.000,3.001,0.000,0.000,0.000,0.000,0.000,0.000,0.000,0.000,0.000,0.000,0.000,3.142,0.001,0.000,2.100,1.897,1.799,4.285,0.398,1.000,4.712,0.000,0.000,-0.223,-8.766,0.451,5.842,3.424,5.692,4.182,4.383,4.485,1.998,5.882,5.284,1.571,0.000,0.000,0.050,-8.583,0.451,5.875,3.471,5.562,
102.040,113.015,0.033,-8.854,2.172,-0.003,0.169,4.852,0.000,0.499,1.113,0.000,4.644,3.145,0.000,2.946,0.000,0.000,2.966,0.000,0.000,0.000,0.000,0.000,0.000,0.000,0.000,0.000,0.000,0.000,3.142,0.001,0.000,2.100,1.897,1.799,4.285,0.398,1.000,4.712,0.000,0.000,-0.224,-8.770,0.451,5.845,3.429,5.681,4.182,4.383,4.485,1.998,5.882,5.284,1.571,0.000,0.000,0.048,-8.584,0.451,5.878,3.476,5.551,
102.140,113.115,0.033,-8.854,2.177,0.003,0.134,4.871,0.000,0.502,1.114,0.000,4.661,3.139,0.000,2.934,0.000,0.000,2.966,0.000,0.000,0.000,0.000,0.000,0.000,0.000,0.000,0.000,0.000,0.000,3.142,0.001,0.000,2.100,1.897,1.799,4.285,0.398,1.000,4.712,0.000,0.000,-0.224,-8.771,0.451,5.847,3.432,5.675,4.182,4.383,4.485,1.998,5.882,5.284,1.571,0.000,0.000,0.046,-8.584,0.451,5.880,3.478,5.546,
102.238,113.213,0.033,-8.853,2.183,0.001,0.104,4.890,0.000,0.505,1.115,0.000,4.679,3.133,0.000,2.922,0.000,0.000,2.966,0.000,0.000,0.000,0.000,0.000,0.000,0.000,0.000,0.000,0.000,0.000,3.142,0.001,0.000,2.100,1.897,1.799,4.285,0.398,1.000,4.712,0.000,0.000,-0.225,-8.772,0.451,5.848,3.434,5.669,4.182,4.383,4.485,1.998,5.882,5.284,1.571,0.000,0.000,0.044,-8.583,0.451,5.882,3.480,5.540,
102.340,113.315,0.033,-8.853,2.185,-0.001,0.092,0.000,0.000,0.506,1.116,0.000,4.689,3.130,0.000,2.915,0.000,0.000,2.966,0.000,0.000,0.000,0.000,0.000,0.000,0.000,0.000,0.000,0.000,0.000,3.142,0.001,0.000,2.100,1.897,1.799,4.285,0.398,1.000,4.712,0.000,0.000,-0.225,-8.773,0.451,5.849,3.435,5.666,4.182,4.383,4.485,1.998,5.882,5.284,1.571,0.000,0.000,0.044,-8.583,0.451,5.883,3.481,5.537,
102.426,113.401,0.027,-8.845,2.191,0.376,6.270,0.000,0.000,0.496,1.118,0.000,4.716,3.131,0.000,2.895,0.000,0.000,2.966,0.000,0.000,0.000,0.000,0.000,0.000,0.000,0.000,0.000,0.000,0.000,3.142,6.279,6.283,2.105,1.898,1.796,4.285,0.400,0.997,4.709,0.000,0.000,-0.231,-8.769,0.450,5.854,3.438,5.656,4.182,4.386,4.482,1.997,5.883,5.283,1.570,0.000,0.000,0.036,-8.576,0.451,5.888,3.484,5.528,
102.540,113.515,-0.018,-8.782,2.193,1.182,0.057,4.999,0.000,0.503,1.132,0.000,4.801,2.757,0.000,2.268,0.000,0.000,2.966,0.000,0.000,0.000,0.000,0.000,0.000,0.000,0.000,0.000,0.000,0.000,3.142,6.278,6.283,2.106,1.898,1.796,4.285,0.399,0.996,4.709,0.000,0.000,-0.276,-8.706,0.450,5.855,3.439,5.654,4.182,4.386,4.481,1.997,5.883,5.283,1.570,0.000,0.000,-0.009,-8.513,0.451,5.889,3.484,5.525,
102.640,113.615,-0.080,-8.695,2.193,1.422,0.000,4.888,0.000,0.562,1.150,0.000,4.911,2.822,0.000,2.175,0.000,0.000,2.966,0.000,0.000,0.000,0.000,0.000,0.000,0.000,0.000,0.000,0.000,0.000,3.142,6.282,0.000,2.101,1.897,1.798,4.285,0.398,0.999,4.711,0.000,0.000,-0.339,-8.617,0.451,5.852,3.439,5.656,4.183,4.384,4.484,1.998,5.882,5.283,1.571,0.000,0.000,-0.072,-8.424,0.451,5.886,3.485,5.527,
102.724,113.699,-0.162,-8.580,2.194,0.914,6.283,4.750,0.000,0.638,0.484,0.000,0.000,2.908,0.000,2.562,0.000,0.000,3.142,0.000,0.000,0.000,0.000,0.000,0.000,0.000,0.000,0.000,0.000,0.000,3.142,0.001,0.001,2.097,1.897,1.800,4.285,0.397,1.001,4.712,0.000,0.000,-0.422,-8.501,0.452,5.850,3.439,5.658,4.184,4.383,4.485,1.998,5.881,5.284,1.571,0.000,0.000,-0.154,-8.309,0.452,5.885,3.485,5.529,
102.840,113.815,-0.210,-8.515,2.194,0.827,6.283,4.670,0.000,0.682,0.517,0.000,0.000,2.958,0.000,2.481,0.000,0.000,3.142,0.000,0.000,0.000,0.000,0.000,0.000,0.000,0.000,0.000,0.000,0.000,3.142,6.282,0.000,2.101,1.897,1.798,4.285,0.398,0.999,4.711,0.000,0.000,-0.469,-8.437,0.451,5.852,3.439,5.656,4.183,4.384,4.484,1.998,5.882,5.283,1.570,0.000,0.000,-0.202,-8.245,0.451,5.887,3.485,5.527,
102.940,113.915,-0.252,-8.456,2.194,1.022,6.283,4.600,0.000,0.722,0.547,1.712,0.000,3.003,0.000,2.409,0.000,0.000,3.142,0.000,0.000,0.000,0.000,0.000,0.000,0.000,0.000,0.000,0.000,0.000,3.142,6.281,0.000,2.102,1.898,1.798,4.285,0.399,0.999,4.710,0.000,0.000,-0.511,-8.378,0.451,5.853,3.439,5.655,4.182,4.384,4.483,1.997,5.882,5.283,1.570,0.000,0.000,-0.244,-8.186,0.451,5.887,3.485,5.527,
103.040,114.015,-0.327,-8.351,2.193,1.104,6.283,4.474,0.000,0.792,0.601,1.742,0.000,3.082,0.000,2.279,0.000,0.000,3.142,0.000,0.000,0.000,0.000,0.000,0.000,0.000,0.000,0.000,0.000,0.000,3.142,6.283,0.000,2.100,1.897,1.798,4.285,0.398,1.000,4.711,0.000,0.000,-0.587,-8.272,0.451,5.852,3.439,5.657,4.183,4.384,4.484,1.998,5.882,5.283,1.571,0.000,0.000,-0.319,-8.080,0.451,5.886,3.485,5.528,
103.140,114.115,-0.376,-8.283,2.193,1.003,0.000,4.393,0.000,2.777,0.635,1.762,0.000,3.133,0.000,2.196,0.000,0.000,3.142,0.000,0.000,0.000,0.000,0.000,0.000,0.000,0.000,0.000,0.000,0.000,3.142,6.283,0.000,2.100,1.897,1.799,4.285,0.398,1.000,4.711,0.000,0.000,-0.635,-8.204,0.451,5.851,3.439,5.657,4.183,4.383,4.484,1.998,5.882,5.283,1.571,0.000,0.000,-0.368,-8.013,0.451,5.886,3.485,5.528,
103.240,114.215,-0.442,-8.191,2.194,0.964,6.283,4.281,0.000,2.706,0.682,1.789,0.000,3.203,0.000,2.082,0.000,0.000,3.142,0.000,0.000,0.000,0.000,0.000,0.000,0.000,0.000,0.000,0.000,0.000,3.142,6.282,0.000,2.101,1.897,1.798,4.285,0.398,1.000,4.711,0.000,0.000,-0.701,-8.112,0.451,5.852,3.439,5.656,4.183,4.384,4.484,1.998,5.882,5.283,1.570,0.000,0.000,-0.434,-7.920,0.451,5.886,3.485,5.527,
103.340,114.315,-0.488,-8.127,2.193,1.017,6.283,4.206,0.000,2.670,0.714,0.835,0.000,3.251,0.000,2.004,0.000,0.000,3.142,0.000,0.000,0.000,0.000,0.000,0.000,0.000,0.000,0.000,0.000,0.000,3.142,6.282,0.000,2.101,1.897,1.798,4.285,0.398,0.999,4.711,0.000,0.000,-0.747,-8.049,0.451,5.852,3.439,5.656,4.183,4.384,4.484,1.998,5.882,5.283,1.570,0.000,0.000,-0.480,-7.857,0.451,5.886,3.485,5.527,
103.440,114.415,-0.559,-8.028,2.193,1.035,6.283,4.087,0.000,2.974,0.765,0.894,0.000,3.542,3.627,1.882,0.000,0.000,3.142,0.000,0.000,0.000,0.000,0.000,0.000,0.000,0.000,0.000,0.000,0.000,3.142,6.283,0.000,2.100,1.897,1.798,4.285,0.398,1.000,4.711,0.000,0.000,-0.818,-7.950,0.451,5.852,3.439,5.657,4.183,4.384,4.484,1.998,5.882,5.283,1.571,0.000,0.000,-0.551,-7.758,0.451,5.886,3.485,5.528,
103.540,114.515,-0.606,-7.963,2.193,1.007,6.283,4.009,0.000,2.798,0.798,0.933,0.000,3.751,4.717,1.802,0.000,0.000,3.142,0.000,0.000,0.000,0.000,0.000,0.000,0.000,0.000,0.000,0.000,0.000,3.142,6.283,0.000,2.100,1.897,1.798,4.285,0.398,1.000,4.711,0.000,0.000,-0.865,-7.884,0.451,5.852,3.439,5.657,4.183,4.384,4.484,1.998,5.882,5.283,1.571,0.000,0.000,-0.598,-7.692,0.451,5.886,3.485,5.528,
103.628,114.603,-0.675,-7.867,2.193,0.999,6.283,3.895,0.000,2.725,1.570,0.989,0.000,3.867,4.410,1.684,0.000,0.000,3.142,0.000,0.000,0.000,0.000,0.000,0.000,0.000,0.000,0.000,0.000,0.000,3.142,6.282,0.000,2.100,1.897,1.798,4.285,0.398,1.000,4.711,0.000,0.000,-0.934,-7.789,0.451,5.852,3.439,5.657,4.183,4.384,4.484,1.998,5.882,5.283,1.570,0.000,0.000,-0.667,-7.597,0.451,5.886,3.485,5.528,
103.740,114.715,-0.732,-7.786,2.193,1.016,6.283,3.799,0.000,2.663,1.668,1.037,0.000,3.928,4.152,1.585,0.000,0.000,3.142,0.000,0.000,0.000,0.000,0.000,0.000,0.000,0.000,0.000,0.000,0.000,3.142,6.282,0.000,2.100,1.897,1.798,4.285,0.398,1.000,4.711,0.000,0.000,-0.991,-7.708,0.451,5.852,3.439,5.657,4.183,4.384,4.484,1.998,5.882,5.283,1.570,0.000,0.000,-0.724,-7.516,0.451,5.886,3.485,5.528,
103.840,114.815,-0.791,-7.705,2.193,1.017,6.283,3.701,0.000,2.602,1.767,1.086,0.000,4.155,3.891,1.485,0.000,0.000,3.142,0.000,0.000,0.000,0.000,0.000,0.000,0.000,0.000,0.000,0.000,0.000,3.142,6.282,0.000,2.100,1.897,1.798,4.285,0.398,1.000,4.711,0.000,0.000,-1.050,-7.627,0.451,5.852,3.439,5.657,4.183,4.384,4.484,1.998,5.882,5.283,1.570,0.000,0.000,-0.783,-7.435,0.451,5.886,3.485,5.528,
103.929,114.904,-0.849,-7.624,2.193,1.008,6.283,3.605,0.000,2.540,1.866,1.134,0.000,4.413,2.205,1.385,0.000,0.000,3.142,0.000,0.000,0.000,0.000,0.000,0.000,0.000,0.000,0.000,0.000,0.000,3.142,6.282,0.000,2.100,1.897,1.798,4.285,0.398,1.000,4.711,0.000,0.000,-1.108,-7.546,0.451,5.852,3.439,5.657,4.183,4.384,4.484,1.998,5.882,5.283,1.570,0.000,0.000,-0.841,-7.354,0.451,5.886,3.485,5.528,
104.040,115.015,-0.907,-7.543,2.193,1.008,6.283,3.508,0.000,2.479,3.671,1.181,0.000,4.670,3.372,0.746,0.000,0.000,3.142,0.000,0.000,0.000,0.000,0.000,0.000,0.000,0.000,0.000,0.000,0.000,3.142,6.282,0.000,2.100,1.897,1.798,4.285,0.398,1.000,4.711,0.000,0.000,-1.166,-7.465,0.451,5.852,3.439,5.657,4.183,4.384,4.484,1.998,5.882,5.283,1.570,0.000,0.000,-0.898,-7.273,0.451,5.886,3.484,5.528,
104.120,115.095,-0.965,-7.463,2.192,1.012,6.283,3.412,0.000,2.418,3.569,1.229,0.000,4.927,3.112,1.187,0.000,0.000,3.142,0.000,0.000,0.000,0.000,0.000,0.000,0.000,0.000,0.000,0.000,0.000,3.142,6.282,0.000,2.100,1.897,1.798,4.285,0.398,1.000,4.711,0.000,0.000,-1.223,-7.384,0.451,5.852,3.439,5.657,4.183,4.384,4.484,1.998,5.882,5.283,1.570,0.000,0.000,-0.956,-7.192,0.451,5.886,3.484,5.528,
104.240,115.215,-1.023,-7.382,2.192,1.013,6.283,3.315,0.000,2.356,3.467,1.278,0.000,0.000,2.851,0.719,0.000,0.000,3.142,0.000,0.000,0.000,0.000,0.000,0.000,0.000,0.000,0.000,0.000,0.000,3.142,6.282,0.000,2.100,1.897,1.798,4.285,0.398,1.000,4.711,0.000,0.000,-1.282,-7.303,0.451,5.852,3.439,5.658,4.183,4.384,4.484,1.998,5.882,5.283,1.570,0.000,0.000,-1.014,-7.111,0.451,5.886,3.484,5.529,
104.340,115.315,-1.069,-7.317,2.192,1.010,6.283,3.238,0.000,2.403,3.385,1.316,0.000,0.000,2.642,0.640,0.000,0.000,3.142,0.000,0.000,0.000,0.000,0.000,0.000,0.000,0.000,0.000,0.000,0.000,3.142,6.282,0.000,2.100,1.897,1.798,4.285,0.398,1.000,4.711,0.000,0.000,-1.328,-7.238,0.451,5.851,3.439,5.658,4.183,4.384,4.484,1.998,5.882,5.283,1.570,0.000,0.000,-1.061,-7.047,0.451,5.886,3.484,5.529,
104.433,115.408,-1.138,-7.220,2.192,0.991,6.283,3.122,0.000,2.701,3.263,1.373,0.000,0.000,2.331,0.520,0.000,0.000,3.142,0.000,0.000,0.000,0.000,0.000,0.000,0.000,0.000,0.000,0.000,0.000,3.142,6.283,0.000,2.100,1.897,1.798,4.285,0.398,1.000,4.711,0.000,0.000,-1.397,-7.142,0.451,5.851,3.439,5.658,4.183,4.384,4.484,1.998,5.882,5.283,1.571,0.000,0.000,-1.130,-6.950,0.451,5.886,3.484,5.529,
104.540,115.515,-1.190,-7.148,2.192,0.797,0.000,3.035,0.000,0.000,3.172,1.492,0.000,0.000,0.715,0.431,0.000,0.000,3.142,0.000,0.000,0.000,0.000,0.000,0.000,0.000,0.000,0.000,0.000,0.000,3.142,0.000,0.000,2.099,1.897,1.799,4.285,0.398,1.001,4.712,0.000,0.000,-1.449,-7.068,0.451,5.850,3.439,5.659,4.183,4.383,4.485,1.998,5.882,5.283,1.571,0.000,0.000,-1.182,-6.877,0.452,5.885,3.484,5.530,
104.640,115.615,-1.221,-7.104,2.192,0.527,0.001,2.983,0.000,0.000,3.118,1.584,0.000,0.000,0.747,0.383,0.000,0.000,3.142,0.000,0.000,0.000,0.000,0.000,0.000,0.000,0.000,0.000,0.000,0.000,3.142,0.001,0.001,2.098,1.897,1.799,4.285,0.397,1.001,4.712,0.000,0.000,-1.480,-7.025,0.451,5.850,3.438,5.660,4.183,4.383,4.485,1.998,5.882,5.284,1.571,0.000,0.000,-1.213,-6.834,0.452,5.884,3.484,5.530,
104.740,115.715,-1.228,-7.095,2.193,-0.234,0.003,2.969,0.000,0.000,3.110,1.602,0.000,0.000,1.921,0.395,0.000,0.000,3.142,0.000,0.000,0.000,0.000,0.000,0.000,0.000,0.000,0.000,0.000,0.000,3.142,0.003,0.000,2.097,1.896,1.800,4.286,0.397,1.002,4.713,0.000,0.000,-1.487,-7.015,0.452,5.849,3.438,5.660,4.183,4.382,4.486,1.999,5.881,5.284,1.571,0.000,0.000,-1.219,-6.824,0.452,5.884,3.484,5.531,
104.840,115.815,-1.216,-7.112,2.194,-0.238,0.062,2.985,0.000,0.000,3.135,1.565,0.000,0.000,0.742,0.386,0.000,0.000,3.142,0.000,0.000,0.000,0.000,0.000,0.000,0.000,0.000,0.000,0.000,0.000,3.142,0.000,6.283,2.100,1.897,1.799,4.285,0.398,1.000,4.711,0.000,0.000,-1.475,-7.034,0.451,5.852,3.439,5.657,4.182,4.383,4.485,1.998,5.882,5.284,1.571,0.000,0.000,-1.207,-6.842,0.451,5.886,3.484,5.528,
104.927,115.902,-1.212,-7.117,2.210,0.059,0.408,2.929,0.000,0.000,3.215,1.514,0.000,0.000,0.742,0.388,0.000,0.000,3.142,0.000,0.000,0.000,0.000,0.000,0.000,0.000,0.000,0.000,0.000,0.000,3.142,6.283,0.000,2.101,1.897,1.799,4.285,0.398,1.000,4.711,0.000,0.000,-1.472,-7.043,0.451,5.857,3.446,5.640,4.182,4.384,4.484,1.998,5.882,5.284,1.571,0.000,0.000,-1.208,-6.847,0.451,5.892,3.491,5.511,
105.040,116.015,-1.215,-7.113,2.242,0.044,0.326,2.808,0.000,2.651,3.374,1.484,0.000,0.000,1.721,0.402,0.000,0.000,3.142,0.000,0.000,0.000,0.000,0.000,0.000,0.000,0.000,0.000,0.000,0.000,3.142,0.000,0.000,2.100,1.897,1.799,4.285,0.398,1.000,4.711,0.000,0.000,-1.478,-7.047,0.451,5.867,3.460,5.606,4.183,4.383,4.484,1.998,5.882,5.284,1.571,0.000,0.000,-1.220,-6.842,0.451,5.903,3.504,5.479,
105.123,116.098,-1.216,-7.112,2.251,0.000,6.282,2.777,0.000,2.595,3.422,1.494,0.000,0.000,1.680,0.408,0.000,0.000,3.142,0.000,0.000,0.000,0.000,0.000,0.000,0.000,0.000,0.000,0.000,0.000,3.142,0.000,0.000,2.100,1.897,1.799,4.285,0.398,1.000,4.711,0.000,0.000,-1.479,-7.049,0.451,5.869,3.464,5.597,4.183,4.383,4.484,1.998,5.882,5.284,1.571,0.000,0.000,-1.223,-6.842,0.451,5.906,3.507,5.470,
105.240,116.215,-1.216,-7.112,2.251,0.000,6.281,2.777,0.000,2.595,3.422,1.494,0.000,0.000,1.680,0.408,0.000,0.000,3.142,0.000,0.000,0.000,0.000,0.000,0.000,0.000,0.000,0.000,0.000,0.000,3.142,0.000,0.000,2.100,1.897,1.799,4.285,0.398,1.000,4.711,0.000,0.000,-1.479,-7.049,0.451,5.869,3.464,5.597,4.182,4.383,4.485,1.998,5.882,5.284,1.571,0.000,0.000,-1.223,-6.842,0.451,5.906,3.506,5.470,
105.340,116.315,-1.216,-7.112,2.251,0.001,0.001,2.776,0.000,2.594,3.423,1.494,0.000,0.000,1.679,0.408,0.000,0.000,3.142,0.000,0.000,0.000,0.000,0.000,0.000,0.000,0.000,0.000,0.000,0.000,3.142,0.000,0.000,2.100,1.897,1.799,4.285,0.398,1.000,4.712,0.000,0.000,-1.479,-7.049,0.451,5.869,3.464,5.597,4.182,4.383,4.485,1.998,5.882,5.284,1.571,0.000,0.000,-1.223,-6.842,0.451,5.906,3.506,5.470,
105.440,116.415,-1.216,-7.112,2.252,0.004,0.017,2.773,0.000,2.587,3.429,1.495,0.000,0.000,1.674,0.409,0.000,0.000,3.142,0.000,0.000,0.000,0.000,0.000,0.000,0.000,0.000,0.000,0.000,0.000,3.142,0.001,0.000,2.100,1.897,1.799,4.285,0.398,1.000,4.712,0.000,0.000,-1.479,-7.049,0.451,5.869,3.464,5.596,4.182,4.383,4.485,1.998,5.882,5.284,1.571,0.000,0.000,-1.223,-6.842,0.451,5.906,3.507,5.469,
105.540,116.515,-1.216,-7.112,2.254,0.007,0.084,2.767,0.000,2.576,3.440,1.497,0.000,0.000,1.666,0.411,0.000,0.000,3.142,0.000,0.000,0.000,0.000,0.000,0.000,0.000,0.000,0.000,0.000,0.000,3.142,0.001,0.000,2.100,1.897,1.799,4.285,0.398,1.000,4.712,0.000,0.000,-1.479,-7.049,0.451,5.870,3.465,5.595,4.182,4.383,4.485,1.998,5.882,5.284,1.571,0.000,0.000,-1.224,-6.842,0.451,5.907,3.507,5.468,
105.623,116.598,-1.216,-7.112,2.258,0.006,0.119,2.752,0.000,2.551,3.463,1.502,0.000,0.000,1.647,0.414,0.000,0.000,3.142,0.000,0.000,0.000,0.000,0.000,0.000,0.000,0.000,0.000,0.000,0.000,3.142,0.001,0.000,2.100,1.897,1.799,4.285,0.398,1.000,4.712,0.000,0.000,-1.480,-7.050,0.451,5.871,3.467,5.590,4.182,4.383,4.485,1.998,5.882,5.284,1.571,0.000,0.000,-1.226,-6.841,0.451,5.908,3.509,5.463,
105.740,116.715,-1.216,-7.111,2.264,-0.004,0.140,2.735,0.000,2.518,3.495,1.508,0.000,0.000,1.625,0.418,0.000,0.000,3.142,0.000,0.000,0.000,0.000,0.000,0.000,0.000,0.000,0.000,0.000,0.000,3.142,0.001,0.000,2.100,1.897,1.799,4.285,0.398,1.000,4.712,0.000,0.000,-1.480,-7.051,0.451,5.873,3.469,5.585,4.182,4.383,4.485,1.998,5.882,5.284,1.571,0.000,0.000,-1.227,-6.841,0.451,5.910,3.511,5.458,
105.840,116.815,-1.216,-7.112,2.269,-0.006,0.127,2.720,0.000,2.490,3.524,1.513,0.000,0.000,1.606,0.421,0.000,0.000,3.142,0.000,0.000,0.000,0.000,0.000,0.000,0.000,0.000,0.000,0.000,0.000,3.142,0.001,0.000,2.100,1.897,1.799,4.285,0.398,1.000,4.712,0.000,0.000,-1.480,-7.053,0.451,5.875,3.471,5.580,4.182,4.383,4.485,1.998,5.882,5.284,1.571,0.000,0.000,-1.228,-6.841,0.451,5.912,3.513,5.453,
105.937,116.912,-1.223,-7.103,2.279,0.383,0.166,2.676,0.000,2.452,3.574,1.529,0.000,0.000,1.544,0.442,0.000,0.000,3.142,0.000,0.000,0.000,0.000,0.000,0.000,0.000,0.000,0.000,0.000,0.000,3.142,6.280,6.283,2.104,1.898,1.797,4.285,0.399,0.998,4.710,0.000,0.000,-1.488,-7.049,0.450,5.881,3.475,5.565,4.182,4.385,4.482,1.997,5.883,5.283,1.570,0.000,0.000,-1.238,-6.834,0.451,5.918,3.517,5.439,
106.040,117.015,-1.266,-7.054,2.283,0.838,6.281,2.603,0.000,2.554,3.510,1.560,0.000,0.000,0.649,0.528,0.000,0.000,3.142,0.000,0.000,0.000,0.000,0.000,0.000,0.000,0.000,0.000,0.000,0.000,3.142,6.282,0.000,2.102,1.897,1.798,4.285,0.398,0.999,4.711,0.000,0.000,-1.530,-6.999,0.451,5.880,3.477,5.564,4.182,4.384,4.484,1.998,5.882,5.283,1.571,0.000,0.000,-1.282,-6.784,0.451,5.918,3.518,5.437,
106.122,117.098,-1.311,-7.001,2.283,0.478,6.281,2.533,0.000,4.749,3.422,1.601,0.000,0.000,0.515,0.618,0.000,0.000,3.142,0.000,0.000,0.000,0.000,0.000,0.000,0.000,0.000,0.000,0.000,0.000,3.142,0.002,0.001,2.097,1.897,1.800,4.285,0.397,1.002,4.713,0.000,0.000,-1.577,-6.945,0.452,5.877,3.477,5.566,4.183,4.382,4.486,1.999,5.881,5.284,1.571,0.000,0.000,-1.327,-6.731,0.452,5.916,3.519,5.439,
106.240,117.215,-1.325,-6.985,2.284,0.050,6.282,2.510,0.000,4.783,3.397,1.634,0.000,0.000,0.474,0.646,0.000,0.000,3.142,0.000,0.000,0.000,0.000,0.000,0.000,0.000,0.000,0.000,0.000,0.000,3.142,0.001,0.001,2.098,1.897,1.799,4.285,0.397,1.001,4.712,0.000,0.000,-1.590,-6.930,0.451,5.879,3.477,5.564,4.183,4.383,4.485,1.998,5.882,5.284,1.571,0.000,0.000,-1.341,-6.715,0.452,5.917,3.519,5.438,
106.340,117.315,-1.327,-6.983,2.284,0.103,6.283,2.506,0.000,4.784,3.395,1.638,0.000,0.000,0.467,0.650,0.000,0.000,3.142,0.000,0.000,0.000,0.000,0.000,0.000,0.000,0.000,0.000,0.000,0.000,3.142,6.282,0.000,2.101,1.897,1.798,4.285,0.398,0.999,4.711,0.000,0.000,-1.592,-6.929,0.451,5.881,3.477,5.562,4.182,4.384,4.484,1.998,5.882,5.283,1.570,0.000,0.000,-1.343,-6.713,0.451,5.919,3.519,5.436,
106.440,117.415,-1.346,-6.961,2.284,0.355,6.283,2.478,0.000,4.833,3.359,1.682,0.000,0.000,0.413,0.687,0.000,0.000,3.142,0.000,0.000,0.000,0.000,0.000,0.000,0.000,0.000,0.000,0.000,0.000,3.142,6.282,0.000,2.101,1.897,1.798,4.285,0.398,0.999,4.711,0.000,0.000,-1.611,-6.907,0.451,5.881,3.478,5.562,4.183,4.384,4.484,1.998,5.882,5.283,1.571,0.000,0.000,-1.362,-6.692,0.451,5.919,3.519,5.436,
106.540,117.515,-1.364,-6.940,2.283,0.152,6.172,2.453,0.000,0.000,3.316,1.729,0.000,0.000,0.399,0.722,0.000,0.000,3.142,0.000,0.000,0.000,0.000,0.000,0.000,0.000,0.000,0.000,0.000,0.000,3.142,0.000,0.001,2.099,1.897,1.799,4.285,0.398,1.001,4.712,0.000,0.000,-1.629,-6.885,0.451,5.879,3.478,5.564,4.184,4.383,4.484,1.998,5.882,5.283,1.570,0.000,0.000,-1.381,-6.670,0.452,5.917,3.519,5.437,
106.640,117.615,-1.364,-6.940,2.249,-0.092,5.235,2.552,0.000,0.000,3.127,1.815,0.000,0.000,0.394,0.683,0.000,0.000,3.142,0.000,0.000,0.000,0.000,0.000,0.000,0.000,0.000,0.000,0.000,0.000,3.142,6.282,0.001,2.099,1.897,1.798,4.285,0.398,1.000,4.711,0.000,0.000,-1.628,-6.876,0.451,5.869,3.463,5.599,4.183,4.383,4.484,1.998,5.882,5.283,1.570,0.000,0.000,-1.372,-6.670,0.452,5.905,3.507,5.471,
106.740,117.715,-1.357,-6.951,2.095,-0.071,4.698,2.394,0.000,0.000,2.688,2.212,0.000,0.000,0.708,0.545,0.000,0.000,3.142,0.000,0.000,0.000,0.000,0.000,0.000,0.000,0.000,0.000,0.000,0.000,3.142,6.280,0.000,2.102,1.898,1.798,4.285,0.398,0.999,4.711,0.000,0.000,-1.607,-6.848,0.451,5.826,3.394,5.760,4.182,4.384,4.484,1.998,5.882,5.283,1.570,0.000,0.000,-1.322,-6.683,0.451,5.855,3.443,5.629,
106.840,117.815,-1.357,-6.951,2.003,0.047,5.116,2.284,0.000,0.000,2.648,2.236,0.000,4.528,3.616,0.495,0.000,0.000,3.142,0.000,0.000,0.000,0.000,0.000,0.000,0.000,0.000,0.000,0.000,0.000,3.142,6.280,0.000,2.101,1.897,1.798,4.285,0.398,0.999,4.711,0.000,0.000,-1.596,-6.826,0.451,5.804,3.348,5.861,4.182,4.384,4.484,1.998,5.882,5.283,1.570,0.000,0.000,-1.297,-6.688,0.451,5.830,3.401,5.727,
106.936,117.911,-1.359,-6.946,1.928,0.036,5.760,2.707,0.000,0.000,2.471,2.276,2.041,4.741,0.850,0.467,0.000,0.000,1.632,0.000,0.000,0.000,0.000,0.000,0.000,0.000,0.000,0.000,0.000,0.000,3.142,6.282,0.000,2.100,1.897,1.799,4.285,0.398,1.000,4.711,0.000,0.000,-1.589,-6.802,0.451,5.789,3.310,5.945,4.182,4.384,4.484,1.998,5.882,5.283,1.570,0.000,0.000,-1.280,-6.687,0.451,5.812,3.365,5.809,
107.040,118.015,-1.360,-6.945,1.891,-0.015,5.737,2.986,0.000,4.843,2.398,2.299,1.956,0.000,0.849,0.454,0.000,0.000,1.667,0.000,0.000,0.000,0.000,0.000,0.000,0.000,0.000,0.000,0.000,0.000,3.142,6.282,0.000,2.100,1.897,1.798,4.285,0.398,1.000,4.711,0.000,0.000,-1.584,-6.793,0.451,5.784,3.291,5.986,4.183,4.384,4.484,1.998,5.882,5.283,1.570,0.000,0.000,-1.272,-6.690,0.451,5.804,3.347,5.849,
107.124,118.099,-1.359,-6.949,1.844,-0.023,5.656,0.000,0.000,4.842,2.317,4.167,1.856,0.000,0.000,0.438,0.000,0.000,1.702,0.000,0.000,0.000,0.000,0.000,0.000,0.000,0.000,0.000,0.000,0.000,3.142,6.281,0.000,2.101,1.897,1.798,4.285,0.398,0.999,4.711,0.000,0.000,-1.575,-6.787,0.451,5.778,3.265,6.039,4.182,4.384,4.484,1.998,5.882,5.283,1.570,0.000,0.000,-1.259,-6.698,0.451,5.795,3.323,5.901,
107.240,118.215,-1.358,-6.950,1.804,0.005,5.830,4.841,0.000,4.850,2.255,4.227,1.783,0.000,0.000,0.426,0.000,0.000,1.738,0.000,0.000,0.000,0.000,0.000,0.000,0.000,0.000,0.000,0.000,0.000,3.142,6.281,0.000,2.101,1.898,1.798,4.285,0.398,0.999,4.711,0.000,0.000,-1.568,-6.779,0.451,5.773,3.242,6.085,4.183,4.384,4.484,1.998,5.882,5.283,1.570,0.000,0.000,-1.248,-6.703,0.451,5.788,3.302,5.946,
107.340,118.315,-1.358,-6.950,1.782,0.020,5.939,4.936,0.000,0.000,2.224,4.365,1.747,0.000,0.000,0.420,0.000,0.000,1.773,0.000,0.000,0.000,0.000,0.000,0.000,0.000,0.000,0.000,0.000,0.000,3.142,6.281,0.000,2.101,1.897,1.798,4.285,0.398,0.999,4.711,0.000,0.000,-1.565,-6.775,0.451,5.771,3.231,6.110,4.183,4.384,4.483,1.997,5.882,5.283,1.570,0.000,0.000,-1.243,-6.706,0.451,5.785,3.290,5.970,
107.440,118.415,-1.358,-6.949,1.757,0.011,5.960,4.909,0.000,4.269,2.282,4.113,1.709,0.000,0.000,0.414,0.000,0.000,1.773,0.000,0.000,0.000,0.000,0.000,0.000,0.000,0.000,0.000,0.000,0.000,3.142,6.281,0.000,2.101,1.898,1.798,4.285,0.398,0.999,4.711,0.000,0.000,-1.560,-6.769,0.451,5.769,3.216,6.138,4.183,4.384,4.484,1.998,5.882,5.283,1.570,0.000,0.000,-1.237,-6.708,0.451,5.781,3.277,5.998,
107.540,118.515,-1.358,-6.950,1.737,0.004,5.983,0.000,0.000,4.279,2.365,3.930,1.680,0.000,0.000,0.410,0.000,0.000,1.808,0.000,0.000,0.000,0.000,0.000,0.000,0.000,0.000,0.000,0.000,0.000,3.142,6.281,0.000,2.101,1.897,1.798,4.285,0.398,0.999,4.711,0.000,0.000,-1.557,-6.765,0.451,5.768,3.205,6.162,4.183,4.384,4.484,1.997,5.882,5.283,1.570,0.000,0.000,-1.232,-6.711,0.451,5.779,3.266,6.021,
107.640,118.615,-1.358,-6.950,1.722,-0.008,6.019,4.116,0.000,2.906,2.426,3.812,1.660,0.000,0.000,0.407,0.000,0.000,1.808,0.000,0.000,0.000,0.000,0.000,0.000,0.000,0.000,0.000,0.000,0.000,3.142,6.281,0.000,2.101,1.897,1.798,4.285,0.398,0.999,4.711,0.000,0.000,-1.554,-6.763,0.451,5.767,3.197,6.178,4.183,4.384,4.483,1.997,5.882,5.283,1.570,0.000,0.000,-1.229,-6.713,0.451,5.777,3.258,6.038,
107.740,118.715,-1.358,-6.950,1.707,-0.002,6.070,3.953,0.000,1.864,2.497,3.694,1.667,0.000,0.000,0.403,0.000,0.000,1.843,0.000,0.000,0.000,0.000,0.000,0.000,0.000,0.000,0.000,0.000,0.000,3.142,6.281,0.000,2.101,1.898,1.798,4.285,0.398,0.999,4.711,0.000,0.000,-1.551,-6.760,0.451,5.766,3.188,6.195,4.183,4.384,4.483,1.997,5.882,5.283,1.570,0.000,0.000,-1.225,-6.715,0.451,5.775,3.249,6.055,
107.840,118.815,-1.358,-6.951,1.697,0.012,6.107,3.855,0.000,1.771,2.546,3.622,1.688,0.000,0.000,0.401,0.000,0.000,1.843,0.000,0.000,0.000,0.000,0.000,0.000,0.000,0.000,0.000,0.000,0.000,3.142,6.281,0.000,2.101,1.898,1.798,4.285,0.398,0.999,4.711,0.000,0.000,-1.549,-6.759,0.451,5.766,3.183,6.207,4.183,4.384,4.484,1.997,5.882,5.283,1.570,0.000,0.000,-1.223,-6.717,0.451,5.774,3.244,6.066,
107.940,118.915,-1.358,-6.950,1.691,0.002,6.114,3.796,0.000,1.772,2.578,3.578,1.702,0.000,0.000,0.400,0.000,0.000,1.843,0.000,0.000,0.000,0.000,0.000,0.000,0.000,0.000,0.000,0.000,0.000,3.142,6.281,0.000,2.101,1.898,1.798,4.285,0.398,0.999,4.711,0.000,0.000,-1.548,-6.757,0.451,5.766,3.179,6.214,4.183,4.384,4.483,1.997,5.882,5.283,1.570,0.000,0.000,-1.221,-6.718,0.451,5.773,3.241,6.073,
108.040,119.015,-1.358,-6.951,1.681,-0.003,6.132,3.708,0.000,1.776,2.628,3.512,1.725,0.000,0.000,0.398,0.000,0.000,1.878,0.000,0.000,0.000,0.000,0.000,0.000,0.000,0.000,0.000,0.000,0.000,3.142,6.281,0.000,2.101,1.898,1.798,4.285,0.398,0.999,4.711,0.000,0.000,-1.546,-6.756,0.451,5.765,3.174,6.225,4.183,4.384,4.483,1.997,5.882,5.283,1.570,0.000,0.000,-1.219,-6.719,0.451,5.773,3.235,6.084,
108.140,119.115,-1.358,-6.951,1.677,0.011,6.160,3.673,0.000,1.777,2.650,3.486,1.734,0.000,0.000,0.398,0.000,0.000,1.878,0.000,0.000,0.000,0.000,0.000,0.000,0.000,0.000,0.000,0.000,0.000,3.142,6.281,0.000,2.101,1.898,1.798,4.285,0.398,0.999,4.711,0.000,0.000,-1.545,-6.755,0.451,5.765,3.171,6.230,4.183,4.384,4.484,1.998,5.882,5.283,1.570,0.000,0.000,-1.218,-6.720,0.451,5.772,3.233,6.089,
108.239,119.214,-1.358,-6.951,1.671,-0.003,6.164,3.622,0.000,1.779,4.678,3.448,1.748,0.000,0.000,0.397,0.000,0.000,1.878,0.000,0.000,0.000,0.000,0.000,0.000,0.000,0.000,0.000,0.000,0.000,3.142,6.281,0.000,2.101,1.898,1.798,4.285,0.398,0.999,4.711,0.000,0.000,-1.544,-6.754,0.451,5.765,3.168,6.237,4.183,4.384,4.483,1.997,5.882,5.283,1.570,0.000,0.000,-1.217,-6.720,0.451,5.772,3.230,6.096,
108.340,119.315,-1.358,-6.951,1.667,-0.007,6.192,3.591,0.000,1.780,4.705,3.424,1.757,0.000,0.000,0.396,0.000,0.000,1.878,0.000,0.000,0.000,0.000,0.000,0.000,0.000,0.000,0.000,0.000,0.000,3.142,6.281,0.000,2.101,1.898,1.798,4.285,0.398,0.999,4.711,0.000,0.000,-1.543,-6.753,0.451,5.765,3.166,6.241,4.183,4.384,4.483,1.997,5.882,5.283,1.570,0.000,0.000,-1.216,-6.721,0.451,5.771,3.228,6.100,
108.425,119.400,-1.363,-6.899,1.663,0.933,0.063,3.499,0.000,1.777,4.994,3.385,1.821,0.000,0.000,0.401,0.000,0.000,1.878,0.000,0.000,0.000,0.000,0.000,0.000,0.000,0.000,0.000,0.000,0.000,3.142,6.278,6.283,2.107,1.899,1.796,4.285,0.401,0.996,4.709,0.000,0.000,-1.548,-6.703,0.450,5.768,3.165,6.242,4.182,4.387,4.481,1.997,5.884,5.283,1.570,0.000,0.000,-1.220,-6.671,0.450,5.773,3.226,6.102,
108.540,119.515,-1.375,-6.774,1.664,1.445,0.002,3.382,0.000,1.657,0.000,3.371,1.942,0.000,0.000,0.413,0.000,0.000,1.913,0.000,0.000,0.000,0.000,0.000,0.000,0.000,0.000,0.000,0.000,0.000,3.142,6.281,0.000,2.102,1.897,1.798,4.285,0.398,0.999,4.711,0.000,0.000,-1.559,-6.577,0.451,5.766,3.164,6.244,4.182,4.384,4.483,1.997,5.882,5.283,1.570,0.000,0.000,-1.231,-6.546,0.451,5.771,3.226,6.103,
108.640,119.615,-1.387,-6.648,1.664,1.059,0.000,3.249,0.000,1.645,0.000,3.347,2.069,0.000,0.399,0.426,0.000,0.000,1.948,0.000,0.000,0.000,0.000,0.000,0.000,0.000,0.000,0.000,0.000,0.000,3.142,0.002,0.001,2.097,1.897,1.800,4.285,0.397,1.001,4.712,0.000,0.000,-1.570,-6.448,0.452,5.763,3.162,6.248,4.184,4.382,4.485,1.998,5.881,5.284,1.571,0.000,0.000,-1.243,-6.417,0.452,5.769,3.224,6.107,
108.738,119.713,-1.395,-6.562,1.665,0.786,6.283,3.161,0.000,1.637,0.000,3.331,2.155,0.000,0.407,0.435,0.000,0.000,2.053,0.000,0.000,0.000,0.000,0.000,0.000,0.000,0.000,0.000,0.000,0.000,3.142,6.283,0.000,2.100,1.897,1.799,4.285,0.398,1.000,4.711,0.000,0.000,-1.579,-6.363,0.451,5.764,3.163,6.246,4.183,4.384,4.484,1.998,5.882,5.283,1.571,0.000,0.000,-1.251,-6.332,0.451,5.770,3.225,6.105,
108.840,119.815,-1.403,-6.477,1.664,0.992,6.283,3.071,0.000,1.629,0.000,3.313,2.241,0.000,0.415,0.444,0.000,0.000,2.053,0.000,0.000,0.000,0.000,0.000,0.000,0.000,0.000,0.000,0.000,0.000,3.142,6.281,0.000,2.102,1.898,1.798,4.285,0.399,0.999,4.710,0.000,0.000,-1.587,-6.279,0.451,5.766,3.164,6.244,4.182,4.384,4.483,1.997,5.882,5.283,1.570,0.000,0.000,-1.259,-6.248,0.451,5.771,3.226,6.103,
108.940,119.915,-1.411,-6.393,1.664,1.124,0.000,2.983,0.000,1.620,0.000,3.066,2.325,0.000,0.423,0.453,0.000,0.000,2.089,0.000,0.000,0.000,0.000,0.000,0.000,0.000,0.000,0.000,0.000,0.000,3.142,6.282,0.000,2.101,1.897,1.798,4.285,0.398,0.999,4.711,0.000,0.000,-1.595,-6.195,0.451,5.765,3.164,6.245,4.183,4.384,4.484,1.998,5.882,5.283,1.570,0.000,0.000,-1.267,-6.164,0.451,5.771,3.225,6.104,
109.036,120.011,-1.423,-6.265,1.664,1.018,0.000,2.848,0.000,1.608,0.000,3.271,2.454,0.642,0.436,1.010,0.000,0.000,2.124,0.000,0.000,0.000,0.000,0.000,0.000,0.000,0.000,0.000,0.000,0.000,3.142,6.283,0.000,2.100,1.897,1.799,4.285,0.398,1.000,4.711,0.000,0.000,-1.607,-6.066,0.451,5.764,3.163,6.246,4.183,4.383,4.484,1.998,5.882,5.283,1.571,0.000,0.000,-1.279,-6.035,0.451,5.770,3.225,6.105,
109.140,120.115,-1.431,-6.169,1.664,0.951,6.283,2.749,0.000,1.599,0.000,3.252,2.550,0.655,0.445,1.019,0.000,0.000,2.159,0.000,0.000,0.000,0.000,0.000,0.000,0.000,0.000,0.000,0.000,0.000,3.142,6.283,0.000,2.100,1.897,1.798,4.285,0.398,1.000,4.711,0.000,0.000,-1.616,-5.971,0.451,5.765,3.163,6.246,4.183,4.384,4.484,1.998,5.882,5.283,1.570,0.000,0.000,-1.288,-5.940,0.451,5.771,3.225,6.105,
109.225,120.200,-1.440,-6.074,1.664,1.008,6.283,2.648,0.000,1.590,0.000,3.340,2.646,0.669,0.454,0.999,0.000,0.000,2.861,0.000,0.000,0.000,0.000,0.000,0.000,0.000,0.000,0.000,0.000,0.000,3.142,6.282,0.000,2.101,1.897,1.798,4.285,0.398,0.999,4.711,0.000,0.000,-1.625,-5.876,0.451,5.765,3.164,6.245,4.183,4.384,4.484,1.998,5.882,5.283,1.570,0.000,0.000,-1.297,-5.845,0.451,5.771,3.225,6.104,
109.340,120.315,-1.450,-5.973,1.664,1.042,6.283,2.542,0.000,1.580,0.000,3.456,2.748,0.683,0.872,0.985,0.000,0.000,2.861,0.000,0.000,0.000,0.000,0.000,0.000,0.000,0.000,0.000,0.000,0.000,3.142,6.282,0.000,2.100,1.897,1.798,4.285,0.398,1.000,4.711,0.000,0.000,-1.634,-5.774,0.451,5.765,3.163,6.246,4.183,4.384,4.484,1.998,5.882,5.283,1.570,0.000,0.000,-1.306,-5.744,0.451,5.771,3.225,6.105,
109.440,120.415,-1.457,-5.892,1.664,1.019,6.283,2.457,0.000,1.573,1.817,3.549,2.830,0.695,0.980,4.683,0.000,0.000,2.861,0.000,0.000,0.000,0.000,0.000,0.000,0.000,0.000,0.000,0.000,0.000,3.142,6.283,0.000,2.100,1.897,1.798,4.285,0.398,1.000,4.711,0.000,0.000,-1.641,-5.693,0.451,5.765,3.163,6.246,4.183,4.384,4.484,1.998,5.882,5.283,1.571,0.000,0.000,-1.314,-5.663,0.451,5.770,3.225,6.105,
109.523,120.498,-1.468,-5.774,1.664,0.995,6.283,2.333,0.000,1.562,1.689,3.683,2.949,0.711,0.991,4.394,0.000,0.000,2.861,0.000,0.000,0.000,0.000,0.000,0.000,0.000,0.000,0.000,0.000,0.000,3.142,6.282,0.000,2.100,1.897,1.798,4.285,0.398,1.000,4.711,0.000,0.000,-1.652,-5.576,0.451,5.765,3.163,6.246,4.183,4.384,4.484,1.998,5.882,5.283,1.570,0.000,0.000,-1.325,-5.545,0.451,5.771,3.225,6.105,
109.640,120.615,-1.476,-5.688,1.664,0.542,6.275,2.243,0.000,1.553,1.680,3.782,3.036,0.723,0.999,4.183,0.000,0.000,2.861,0.000,0.000,0.000,0.000,0.000,0.000,0.000,0.000,0.000,0.000,0.000,3.142,0.004,0.001,2.094,1.896,1.801,4.286,0.396,1.003,4.714,0.000,0.000,-1.660,-5.487,0.452,5.762,3.160,6.251,4.184,4.381,4.487,1.999,5.881,5.284,1.571,0.000,0.000,-1.332,-5.458,0.452,5.768,3.223,6.110,
109.740,120.715,-1.478,-5.677,1.663,-0.189,6.248,2.231,0.000,1.552,1.678,3.669,3.049,0.726,1.001,4.158,0.000,0.000,2.861,0.000,0.000,0.000,0.000,0.000,0.000,0.000,0.000,0.000,0.000,0.000,3.142,0.004,0.001,2.095,1.896,1.801,4.286,0.396,1.003,4.714,0.000,0.000,-1.661,-5.476,0.452,5.762,3.159,6.252,4.184,4.382,4.487,1.999,5.881,5.284,1.571,0.000,0.000,-1.334,-5.447,0.452,5.768,3.222,6.111,
109.838,120.813,-1.475,-5.696,1.662,0.177,0.004,2.241,0.000,1.555,1.680,3.777,3.035,0.723,0.999,4.220,0.000,0.000,2.861,0.000,0.000,0.000,0.000,0.000,0.000,0.000,0.000,0.000,0.000,0.000,3.142,6.278,6.283,2.106,1.898,1.796,4.285,0.399,0.996,4.709,0.000,0.000,-1.660,-5.500,0.450,5.768,3.165,6.243,4.181,4.386,4.481,1.996,5.883,5.283,1.570,0.000,0.000,-1.332,-5.469,0.450,5.774,3.226,6.103,
109.940,120.915,-1.482,-5.632,1.664,1.050,0.085,2.185,0.000,1.548,1.675,3.664,3.091,0.731,1.005,4.043,0.000,0.000,2.896,0.000,0.000,0.000,0.000,0.000,0.000,0.000,0.000,0.000,0.000,0.000,3.142,6.278,6.283,2.106,1.899,1.796,4.285,0.400,0.996,4.709,0.000,0.000,-1.666,-5.436,0.450,5.767,3.166,6.241,4.182,4.386,4.481,1.997,5.884,5.283,1.570,0.000,0.000,-1.339,-5.404,0.451,5.773,3.227,6.100,
110.040,121.015,-1.491,-5.530,1.665,1.442,0.002,2.086,0.000,1.538,1.665,3.655,3.187,0.840,1.014,4.016,0.000,0.000,2.896,0.000,0.000,0.000,0.000,0.000,0.000,0.000,0.000,0.000,0.000,0.000,3.142,6.281,0.000,2.102,1.898,1.798,4.285,0.399,0.999,4.710,0.000,0.000,-1.676,-5.332,0.451,5.766,3.165,6.243,4.182,4.384,4.483,1.997,5.882,5.283,1.570,0.000,0.000,-1.348,-5.301,0.451,5.771,3.226,6.102,
110.140,121.115,-1.505,-5.383,1.666,0.928,6.283,1.933,0.000,1.524,1.650,3.626,3.333,1.036,0.977,4.032,0.000,0.000,2.896,0.000,0.000,0.000,0.000,0.000,0.000,0.000,0.000,0.000,0.000,0.000,3.142,0.002,0.001,2.097,1.897,1.800,4.285,0.397,1.002,4.713,0.000,0.000,-1.689,-5.184,0.452,5.763,3.162,6.247,4.184,4.382,4.486,1.999,5.881,5.284,1.571,0.000,0.000,-1.362,-5.153,0.452,5.769,3.225,6.106,
110.240,121.215,-1.512,-5.310,1.666,0.661,6.283,1.857,0.000,1.517,1.642,3.613,3.406,1.134,0.984,4.039,0.000,0.000,2.896,0.000,0.000,0.000,0.000,0.000,0.000,0.000,0.000,0.000,0.000,0.000,3.142,6.283,0.000,2.100,1.897,1.799,4.285,0.398,1.000,4.711,0.000,0.000,-1.696,-5.112,0.451,5.764,3.164,6.244,4.183,4.384,4.484,1.998,5.882,5.283,1.571,0.000,0.000,-1.369,-5.081,0.451,5.770,3.226,6.103,
110.326,121.301,-1.519,-5.239,1.666,0.833,6.283,1.782,0.000,1.510,1.635,3.598,3.479,1.229,0.000,4.047,0.000,0.000,2.896,0.000,0.000,0.000,0.000,0.000,0.000,0.000,0.000,0.000,0.000,0.000,3.142,6.281,0.000,2.102,1.898,1.798,4.285,0.398,0.999,4.711,0.000,0.000,-1.703,-5.042,0.451,5.766,3.165,6.243,4.183,4.384,4.483,1.997,5.882,5.283,1.570,0.000,0.000,-1.376,-5.010,0.451,5.771,3.226,6.102,
110.440,121.415,-1.527,-5.152,1.665,0.908,6.283,1.691,0.000,1.298,1.626,3.580,3.567,1.346,0.000,4.056,0.000,0.000,2.896,0.000,0.000,0.000,0.000,0.000,0.000,0.000,0.000,0.000,0.000,0.000,3.142,6.282,0.000,2.100,1.897,1.798,4.285,0.398,1.000,4.711,0.000,0.000,-1.711,-4.953,0.451,5.765,3.164,6.244,4.183,4.384,4.484,1.998,5.882,5.283,1.570,0.000,0.000,-1.384,-4.922,0.451,5.771,3.226,6.103,
110.540,121.515,-1.533,-5.085,1.665,0.789,0.000,1.624,0.000,0.953,1.619,3.567,3.634,1.556,0.000,4.063,0.000,0.000,2.896,0.000,0.000,0.000,0.000,0.000,0.000,0.000,0.000,0.000,0.000,0.000,3.142,0.000,0.000,2.099,1.897,1.799,4.285,0.398,1.000,4.712,0.000,0.000,-1.718,-4.886,0.451,5.764,3.164,6.245,4.183,4.383,4.484,1.998,5.882,5.283,1.571,0.000,0.000,-1.390,-4.855,0.451,5.770,3.225,6.104,
110.640,121.615,-1.541,-5.003,1.666,0.648,0.000,1.542,0.000,0.824,1.610,3.551,3.716,1.567,0.000,1.292,0.000,0.000,2.931,0.000,0.000,0.000,0.000,0.000,0.000,0.000,0.000,0.000,0.000,0.000,3.142,6.283,0.000,2.100,1.897,1.798,4.285,0.398,1.000,4.711,0.000,0.000,-1.726,-4.804,0.451,5.765,3.164,6.244,4.183,4.384,4.484,1.998,5.882,5.283,1.570,0.000,0.000,-1.398,-4.773,0.451,5.771,3.226,6.103,
110.740,121.715,-1.546,-4.952,1.665,0.671,6.283,1.492,0.000,0.819,1.605,3.592,3.768,1.575,0.000,1.167,0.000,0.000,2.931,0.000,0.000,0.000,0.000,0.000,0.000,0.000,0.000,0.000,0.000,0.000,3.142,6.282,0.000,2.101,1.897,1.798,4.285,0.398,0.999,4.711,0.000,0.000,-1.730,-4.754,0.451,5.765,3.164,6.244,4.183,4.384,4.484,1.998,5.882,5.283,1.570,0.000,0.000,-1.403,-4.722,0.451,5.771,3.226,6.103,
110.840,121.815,-1.554,-4.872,1.665,0.672,6.283,1.413,0.000,0.812,1.596,3.682,3.848,1.587,0.000,1.099,0.000,0.000,2.931,0.000,0.000,0.000,0.000,0.000,0.000,0.000,0.000,0.000,0.000,0.000,3.142,6.283,0.000,2.100,1.897,1.798,4.285,0.398,1.000,4.711,0.000,0.000,-1.738,-4.674,0.451,5.765,3.164,6.245,4.183,4.384,4.484,1.998,5.882,5.283,1.570,0.000,0.000,-1.410,-4.643,0.451,5.771,3.226,6.103,
110.940,121.915,-1.560,-4.810,1.665,0.611,6.283,1.350,0.000,0.806,1.590,3.754,3.911,1.596,0.000,1.105,0.000,0.000,2.931,0.000,0.000,0.000,0.000,0.000,0.000,0.000,0.000,0.000,0.000,0.000,3.142,6.283,0.000,2.100,1.897,1.798,4.285,0.398,1.000,4.711,0.000,0.000,-1.744,-4.611,0.451,5.765,3.164,6.245,4.183,4.384,4.484,1.998,5.882,5.283,1.571,0.000,0.000,-1.416,-4.580,0.451,5.770,3.225,6.104,
111.027,122.002,-1.565,-4.753,1.665,0.558,6.283,1.294,0.000,0.800,1.584,3.819,3.969,1.604,0.000,1.166,0.000,0.000,2.931,0.000,0.000,0.000,0.000,0.000,0.000,0.000,0.000,0.000,0.000,0.000,3.142,6.283,0.000,2.100,1.897,1.798,4.285,0.398,1.000,4.711,0.000,0.000,-1.749,-4.555,0.451,5.765,3.164,6.245,4.183,4.384,4.484,1.998,5.882,5.283,1.570,0.000,0.000,-1.422,-4.524,0.451,5.771,3.225,6.104,
111.140,122.115,-1.569,-4.711,1.665,0.546,6.283,1.252,0.000,0.796,1.579,3.867,4.012,1.610,0.000,1.170,0.000,0.000,2.931,0.000,0.000,0.000,0.000,0.000,0.000,0.000,0.000,0.000,0.000,0.000,3.142,6.283,0.000,2.100,1.897,1.798,4.285,0.398,1.000,4.711,0.000,0.000,-1.753,-4.513,0.451,5.765,3.164,6.245,4.183,4.384,4.484,1.998,5.882,5.283,1.570,0.000,0.000,-1.426,-4.481,0.451,5.771,3.225,6.104,
111.230,122.205,-1.575,-4.648,1.665,0.528,6.283,1.190,0.000,0.790,1.572,3.939,4.076,1.619,0.000,1.176,0.000,0.000,2.931,0.000,0.000,0.000,0.000,0.000,0.000,0.000,0.000,0.000,0.000,0.000,3.142,6.283,0.000,2.100,1.897,1.798,4.285,0.398,1.000,4.711,0.000,0.000,-1.759,-4.450,0.451,5.765,3.164,6.245,4.183,4.384,4.484,1.998,5.882,5.283,1.570,0.000,0.000,-1.432,-4.419,0.451,5.771,3.225,6.104,
111.340,122.315,-1.580,-4.599,1.665,0.501,6.283,1.140,0.000,0.785,1.567,3.996,4.126,1.627,0.000,1.182,0.000,0.000,2.931,0.000,0.000,0.000,0.000,0.000,0.000,0.000,0.000,0.000,0.000,0.000,3.142,6.283,0.000,2.100,1.897,1.798,4.285,0.398,1.000,4.711,0.000,0.000,-1.764,-4.400,0.451,5.765,3.164,6.245,4.183,4.384,4.484,1.998,5.882,5.283,1.570,0.000,0.000,-1.436,-4.369,0.451,5.771,3.225,6.104,
111.440,122.415,-1.583,-4.561,1.665,0.473,6.283,1.103,0.000,0.782,1.563,4.039,4.165,1.632,0.000,1.185,0.000,0.000,2.931,0.000,0.000,0.000,0.000,0.000,0.000,0.000,0.000,0.000,0.000,0.000,3.142,6.283,0.000,2.100,1.897,1.798,4.285,0.398,1.000,4.711,0.000,0.000,-1.767,-4.363,0.451,5.765,3.164,6.245,4.183,4.384,4.484,1.998,5.882,5.283,1.570,0.000,0.000,-1.440,-4.332,0.451,5.771,3.225,6.104,
111.540,122.515,-1.588,-4.508,1.665,0.444,6.283,1.050,0.000,0.777,0.841,4.099,4.218,1.640,0.000,1.191,0.000,0.000,2.931,0.000,0.000,0.000,0.000,0.000,0.000,0.000,0.000,0.000,0.000,0.000,3.142,6.283,0.000,2.100,1.897,1.798,4.285,0.398,1.000,4.711,0.000,0.000,-1.772,-4.310,0.451,5.765,3.164,6.245,4.183,4.384,4.484,1.998,5.882,5.283,1.570,0.000,0.000,-1.445,-4.279,0.451,5.771,3.225,6.104,
111.640,122.615,-1.591,-4.475,1.664,0.435,6.283,1.017,0.000,0.774,0.837,4.138,4.253,1.569,0.000,1.194,0.000,0.000,2.931,0.000,0.000,0.000,0.000,0.000,0.000,0.000,0.000,0.000,0.000,0.000,3.142,6.283,0.000,2.100,1.897,1.798,4.285,0.398,1.000,4.711,0.000,0.000,-1.775,-4.276,0.451,5.765,3.163,6.245,4.183,4.384,4.484,1.998,5.882,5.283,1.570,0.000,0.000,-1.448,-4.245,0.451,5.771,3.225,6.104,
111.735,122.710,-1.596,-4.426,1.664,0.407,6.283,0.968,0.000,0.769,0.832,4.194,4.302,1.576,0.000,1.199,0.000,0.000,2.931,0.000,0.000,0.000,0.000,0.000,0.000,0.000,0.000,0.000,0.000,0.000,3.142,6.283,0.000,2.100,1.897,1.798,4.285,0.398,1.000,4.711,0.000,0.000,-1.780,-4.228,0.451,5.765,3.163,6.246,4.183,4.384,4.484,1.998,5.882,5.283,1.570,0.000,0.000,-1.452,-4.197,0.451,5.771,3.225,6.105,
111.840,122.815,-1.599,-4.388,1.664,0.386,6.283,0.931,0.000,0.765,0.828,4.237,4.341,1.582,0.000,1.203,0.000,0.000,2.931,0.000,0.000,0.000,0.000,0.000,0.000,0.000,0.000,0.000,0.000,0.000,3.142,6.283,0.000,2.100,1.897,1.798,4.285,0.398,1.000,4.711,0.000,0.000,-1.783,-4.190,0.451,5.765,3.163,6.246,4.183,4.384,4.484,1.998,5.882,5.283,1.570,0.000,0.000,-1.456,-4.159,0.451,5.771,3.225,6.105,
111.929,122.904,-1.603,-4.352,1.664,0.366,6.283,0.895,0.000,0.762,0.824,4.279,4.378,1.587,0.000,1.207,0.000,0.000,2.931,0.000,0.000,0.000,0.000,0.000,0.000,0.000,0.000,0.000,0.000,0.000,3.142,6.283,0.000,2.100,1.897,1.798,4.285,0.398,1.000,4.711,0.000,0.000,-1.787,-4.154,0.451,5.765,3.163,6.246,4.183,4.384,4.484,1.998,5.882,5.283,1.570,0.000,0.000,-1.459,-4.123,0.451,5.771,3.225,6.105,
112.040,123.015,-1.606,-4.318,1.664,0.349,6.283,0.861,0.000,0.759,0.821,4.318,4.413,1.592,0.000,1.210,0.000,0.000,2.931,0.000,0.000,0.000,0.000,0.000,0.000,0.000,0.000,0.000,0.000,0.000,3.142,6.283,0.000,2.100,1.897,1.798,4.285,0.398,1.000,4.711,0.000,0.000,-1.790,-4.120,0.451,5.765,3.163,6.246,4.183,4.384,4.484,1.998,5.882,5.283,1.570,0.000,0.000,-1.462,-4.089,0.451,5.771,3.225,6.105,
112.140,123.115,-1.608,-4.292,1.664,0.336,6.283,0.835,0.000,0.756,0.818,4.348,4.439,1.623,0.000,1.213,0.000,0.000,2.931,0.000,0.000,0.000,0.000,0.000,0.000,0.000,0.000,0.000,0.000,0.000,3.142,6.283,0.000,2.100,1.897,1.798,4.285,0.398,1.000,4.711,0.000,0.000,-1.792,-4.094,0.451,5.765,3.163,6.246,4.183,4.384,4.484,1.998,5.882,5.283,1.570,0.000,0.000,-1.465,-4.063,0.451,5.771,3.225,6.105,
112.240,123.215,-1.612,-4.255,1.664,0.316,6.283,0.798,0.000,0.753,0.814,4.390,4.477,1.672,0.000,0.870,0.000,0.000,2.966,0.000,0.000,0.000,0.000,0.000,0.000,0.000,0.000,0.000,0.000,0.000,3.142,6.283,0.000,2.100,1.897,1.798,4.285,0.398,1.000,4.711,0.000,0.000,-1.796,-4.057,0.451,5.765,3.163,6.246,4.183,4.384,4.484,1.998,5.882,5.283,1.570,0.000,0.000,-1.468,-4.026,0.451,5.771,3.225,6.105,
112.340,123.315,-1.614,-4.232,1.664,0.307,0.010,0.775,0.000,1.413,0.812,4.418,4.502,1.704,1.089,1.219,0.000,0.000,2.966,0.000,0.000,0.000,0.000,0.000,0.000,0.000,0.000,0.000,0.000,0.000,3.142,6.282,0.000,2.100,1.897,1.798,4.285,0.398,1.000,4.711,0.000,0.000,-1.798,-4.033,0.451,5.765,3.163,6.246,4.183,4.384,4.484,1.998,5.882,5.283,1.570,0.000,0.000,-1.470,-4.002,0.451,5.771,3.225,6.105,
112.437,123.412,-1.617,-4.198,1.663,0.287,0.010,0.741,0.000,0.964,0.808,0.000,4.537,1.748,1.092,1.222,0.000,0.000,2.966,0.000,0.000,0.000,0.000,0.000,0.000,0.000,0.000,0.000,0.000,0.000,3.142,6.283,0.000,2.100,1.897,1.798,4.285,0.398,1.000,4.711,0.000,0.000,-1.801,-3.999,0.451,5.765,3.163,6.247,4.183,4.384,4.484,1.998,5.882,5.283,1.570,0.000,0.000,-1.473,-3.969,0.451,5.770,3.225,6.106,
112.540,123.515,-1.619,-4.177,1.663,0.277,0.010,0.720,0.000,0.962,0.806,0.000,4.559,1.776,1.094,1.224,0.000,0.000,2.966,0.000,0.000,0.000,0.000,0.000,0.000,0.000,0.000,0.000,0.000,0.000,3.142,6.282,0.000,2.100,1.897,1.798,4.285,0.398,1.000,4.711,0.000,0.000,-1.803,-3.978,0.451,5.765,3.163,6.247,4.183,4.384,4.484,1.998,5.882,5.283,1.570,0.000,0.000,-1.475,-3.948,0.451,5.770,3.225,6.106,
112.629,123.605,-1.622,-4.147,1.663,0.260,0.010,0.690,0.000,0.959,0.803,0.000,4.590,1.816,1.097,1.107,0.000,0.000,3.071,0.000,0.000,0.000,0.000,0.000,0.000,0.000,0.000,0.000,0.000,0.000,3.142,6.282,0.000,2.100,1.897,1.798,4.285,0.398,1.000,4.711,0.000,0.000,-1.806,-3.948,0.451,5.765,3.163,6.247,4.183,4.384,4.484,1.998,5.882,5.283,1.570,0.000,0.000,-1.478,-3.918,0.451,5.770,3.224,6.106,
112.740,123.715,-1.624,-4.123,1.663,0.249,0.001,0.667,0.000,0.956,0.800,0.000,4.615,1.848,1.099,1.049,0.000,0.000,3.071,0.000,0.000,0.000,0.000,0.000,0.000,0.000,0.000,0.000,0.000,0.000,3.142,6.283,0.000,2.100,1.897,1.798,4.285,0.398,1.000,4.711,0.000,0.000,-1.808,-3.924,0.451,5.765,3.163,6.247,4.183,4.384,4.484,1.998,5.882,5.283,1.570,0.000,0.000,-1.480,-3.894,0.451,5.770,3.224,6.106,
112.840,123.815,-1.626,-4.105,1.663,0.239,0.001,0.649,0.000,1.401,0.798,0.000,4.634,1.872,1.101,1.004,0.000,0.000,3.071,0.000,0.000,0.000,0.000,0.000,0.000,0.000,0.000,0.000,0.000,0.000,3.142,6.283,0.000,2.100,1.897,1.798,4.285,0.398,1.000,4.711,0.000,0.000,-1.810,-3.906,0.451,5.765,3.163,6.247,4.183,4.384,4.484,1.998,5.882,5.283,1.570,0.000,0.000,-1.482,-3.876,0.451,5.770,3.224,6.106,
112.940,123.915,-1.628,-4.079,1.663,0.221,0.001,0.623,0.000,1.399,0.796,0.000,4.661,1.906,1.155,0.941,0.000,0.000,3.071,0.000,0.000,0.000,0.000,0.000,0.000,0.000,0.000,0.000,0.000,0.000,3.142,6.283,0.000,2.100,1.897,1.798,4.285,0.398,1.000,4.711,0.000,0.000,-1.812,-3.880,0.451,5.765,3.162,6.247,4.183,4.384,4.484,1.998,5.882,5.283,1.570,0.000,0.000,-1.484,-3.850,0.451,5.770,3.224,6.106,
113.040,124.015,-1.630,-4.059,1.663,0.213,0.010,0.603,0.000,1.397,0.794,0.000,4.682,1.932,1.157,0.892,0.000,0.000,3.071,0.000,0.000,0.000,0.000,0.000,0.000,0.000,0.000,0.000,0.000,0.000,3.142,6.282,0.000,2.100,1.897,1.798,4.285,0.398,1.000,4.711,0.000,0.000,-1.814,-3.860,0.451,5.765,3.162,6.248,4.183,4.384,4.484,1.998,5.882,5.283,1.570,0.000,0.000,-1.486,-3.830,0.451,5.770,3.224,6.107,
113.139,124.114,-1.632,-4.040,1.662,0.203,0.001,0.584,0.000,1.396,0.792,0.000,4.702,1.965,1.159,0.845,0.000,0.000,3.071,0.000,0.000,0.000,0.000,0.000,0.000,0.000,0.000,0.000,0.000,0.000,3.142,6.283,0.000,2.100,1.897,1.798,4.285,0.398,1.000,4.711,0.000,0.000,-1.815,-3.841,0.451,5.765,3.162,6.248,4.183,4.384,4.484,1.998,5.882,5.283,1.570,0.000,0.000,-1.488,-3.811,0.451,5.770,3.224,6.107,
113.240,124.215,-1.633,-4.022,1.662,0.192,0.010,0.566,0.000,1.394,0.790,2.823,4.721,2.003,1.160,0.801,0.000,0.000,3.071,0.000,0.000,0.000,0.000,0.000,0.000,0.000,0.000,0.000,0.000,0.000,3.142,6.282,0.000,2.100,1.897,1.798,4.285,0.398,1.000,4.711,0.000,0.000,-1.817,-3.823,0.451,5.765,3.162,6.248,4.183,4.384,4.484,1.998,5.882,5.283,1.570,0.000,0.000,-1.490,-3.793,0.451,5.770,3.224,6.107,
113.337,124.312,-1.635,-4.005,1.662,0.184,0.001,0.549,0.000,1.392,0.788,2.819,4.740,2.047,1.162,0.759,0.000,0.000,3.071,0.000,0.000,0.000,0.000,0.000,0.000,0.000,0.000,0.000,0.000,0.000,3.142,6.283,0.000,2.100,1.897,1.798,4.285,0.398,1.000,4.711,0.000,0.000,-1.819,-3.806,0.451,5.765,3.162,6.248,4.183,4.384,4.484,1.998,5.882,5.283,1.570,0.000,0.000,-1.491,-3.776,0.451,5.770,3.224,6.107,
113.440,124.415,-1.636,-3.988,1.662,0.176,0.010,0.533,0.000,1.391,0.786,2.815,4.757,2.088,1.164,0.718,0.000,0.000,3.106,0.000,0.000,0.000,0.000,0.000,0.000,0.000,0.000,0.000,0.000,0.000,3.142,6.282,0.000,2.100,1.897,1.798,4.285,0.398,1.000,4.711,0.000,0.000,-1.820,-3.790,0.451,5.765,3.162,6.248,4.183,4.384,4.484,1.998,5.882,5.283,1.570,0.000,0.000,-1.493,-3.759,0.451,5.770,3.224,6.107,
113.535,124.510,-1.638,-3.973,1.662,0.168,0.001,0.517,0.000,1.389,0.785,2.812,4.774,2.127,1.165,0.701,0.000,0.000,3.106,0.000,0.000,0.000,0.000,0.000,0.000,0.000,0.000,0.000,0.000,0.000,3.142,6.283,0.000,2.100,1.897,1.798,4.285,0.398,1.000,4.711,0.000,0.000,-1.821,-3.774,0.451,5.765,3.162,6.248,4.183,4.384,4.484,1.998,5.882,5.283,1.570,0.000,0.000,-1.494,-3.744,0.451,5.770,3.224,6.107,
113.640,124.615,-1.639,-3.958,1.662,0.160,0.001,0.503,0.000,1.388,0.783,2.808,4.790,2.164,1.166,0.702,0.000,0.000,3.106,0.000,0.000,0.000,0.000,0.000,0.000,0.000,0.000,0.000,0.000,0.000,3.142,6.283,0.000,2.100,1.897,1.798,4.285,0.398,1.000,4.711,0.000,0.000,-1.823,-3.759,0.451,5.765,3.162,6.249,4.183,4.384,4.484,1.998,5.882,5.283,1.570,0.000,0.000,-1.495,-3.729,0.451,5.770,3.224,6.108,
113.740,124.715,-1.641,-3.944,1.661,0.153,0.010,0.489,0.000,1.387,0.782,2.805,4.805,2.199,1.168,0.703,0.000,0.000,3.106,0.000,0.000,0.000,0.000,0.000,0.000,0.000,0.000,0.000,0.000,0.000,3.142,6.282,0.000,2.100,1.897,1.798,4.285,0.398,1.000,4.711,0.000,0.000,-1.824,-3.745,0.451,5.765,3.162,6.249,4.183,4.384,4.484,1.998,5.882,5.283,1.570,0.000,0.000,-1.496,-3.715,0.451,5.770,3.224,6.108,
113.840,124.815,-1.641,-3.933,1.661,0.147,0.001,0.478,0.000,1.386,0.780,2.802,4.816,2.226,1.169,0.704,0.000,0.000,3.106,0.000,0.000,0.000,0.000,0.000,0.000,0.000,0.000,0.000,0.000,0.000,3.142,6.283,0.000,2.100,1.897,1.798,4.285,0.398,1.000,4.711,0.000,0.000,-1.825,-3.734,0.451,5.765,3.162,6.249,4.183,4.384,4.484,1.998,5.882,5.283,1.570,0.000,0.000,-1.497,-3.704,0.451,5.770,3.223,6.108,
113.922,124.897,-1.643,-3.918,1.661,0.140,0.001,0.463,0.000,1.384,0.779,2.798,4.833,2.264,1.170,0.706,0.000,0.000,3.106,0.000,0.000,0.000,0.000,0.000,0.000,0.000,0.000,0.000,0.000,0.000,3.142,6.282,0.000,2.100,1.897,1.798,4.285,0.398,1.000,4.711,0.000,0.000,-1.826,-3.719,0.451,5.765,3.162,6.249,4.183,4.384,4.484,1.998,5.882,5.283,1.570,0.000,0.000,-1.499,-3.689,0.451,5.770,3.223,6.108,
114.040,125.015,-1.644,-3.906,1.661,0.136,0.010,0.451,0.000,1.383,0.778,2.795,4.846,2.295,1.171,0.707,0.000,0.000,3.106,0.000,0.000,0.000,0.000,0.000,0.000,0.000,0.000,0.000,0.000,0.000,3.142,6.282,0.000,2.100,1.897,1.798,4.285,0.398,1.000,4.711,0.000,0.000,-1.827,-3.707,0.451,5.765,3.162,6.249,4.183,4.384,4.484,1.998,5.882,5.283,1.570,0.000,0.000,-1.500,-3.677,0.451,5.770,3.223,6.108,
114.125,125.100,-1.645,-3.894,1.661,0.129,6.283,0.439,0.000,1.382,0.776,2.793,4.858,2.324,1.173,0.708,0.000,0.000,3.106,0.000,0.000,0.000,0.000,0.000,0.000,0.000,0.000,0.000,0.000,0.000,3.142,6.283,0.000,2.100,1.897,1.798,4.285,0.398,1.000,4.711,0.000,0.000,-1.828,-3.695,0.451,5.765,3.161,6.249,4.183,4.384,4.484,1.998,5.882,5.283,1.570,0.000,0.000,-1.501,-3.666,0.451,5.770,3.223,6.108,
114.240,125.215,-1.646,-3.883,1.661,0.122,0.000,0.429,0.000,1.381,0.775,2.790,4.870,2.351,1.174,0.709,0.000,0.000,3.106,0.000,0.000,0.000,0.000,0.000,0.000,0.000,0.000,0.000,0.000,0.000,3.142,6.283,0.000,2.100,1.897,1.798,4.285,0.398,1.000,4.711,0.000,0.000,-1.829,-3.684,0.451,5.765,3.161,6.250,4.183,4.384,4.484,1.998,5.882,5.283,1.570,0.000,0.000,-1.502,-3.655,0.451,5.770,3.223,6.108,
114.340,125.315,-1.647,-3.875,1.661,0.118,6.283,0.420,0.000,1.381,0.774,2.788,4.879,2.371,1.174,0.710,0.000,0.000,3.106,0.000,0.000,0.000,0.000,0.000,0.000,0.000,0.000,0.000,0.000,0.000,3.142,6.282,0.000,2.100,1.897,1.798,4.285,0.398,1.000,4.711,0.000,0.000,-1.830,-3.676,0.451,5.765,3.161,6.250,4.183,4.384,4.484,1.998,5.882,5.283,1.570,0.000,0.000,-1.503,-3.646,0.451,5.770,3.223,6.109,
114.440,125.415,-1.648,-3.863,1.661,0.113,6.283,0.408,0.000,1.380,0.773,2.785,4.892,2.401,1.176,0.711,0.000,0.000,3.106,0.000,0.000,0.000,0.000,0.000,0.000,0.000,0.000,0.000,0.000,0.000,3.142,6.282,0.000,2.100,1.897,1.798,4.285,0.398,1.000,4.711,0.000,0.000,-1.831,-3.664,0.451,5.765,3.161,6.250,4.183,4.384,4.484,1.998,5.882,5.283,1.570,0.000,0.000,-1.504,-3.634,0.451,5.770,3.223,6.109,
114.540,125.515,-1.648,-3.858,1.661,0.028,0.001,0.403,0.000,1.379,0.773,2.784,4.898,2.414,1.176,0.712,0.000,0.000,3.106,0.000,0.000,0.000,0.000,0.000,0.000,0.000,0.000,0.000,0.000,0.000,3.142,6.283,0.000,2.100,1.897,1.799,4.285,0.398,1.000,4.711,0.000,0.000,-1.832,-3.658,0.451,5.764,3.161,6.251,4.183,4.383,4.484,1.998,5.882,5.283,1.571,0.000,0.000,-1.504,-3.629,0.451,5.770,3.223,6.109,
114.640,125.615,-1.648,-3.858,1.661,0.001,0.005,0.403,0.000,1.379,0.773,2.784,4.898,2.415,1.176,0.712,0.000,0.000,3.106,0.000,0.000,0.000,0.000,0.000,0.000,0.000,0.000,0.000,0.000,0.000,3.142,6.283,0.000,2.100,1.897,1.799,4.285,0.398,1.000,4.711,0.000,0.000,-1.832,-3.659,0.451,5.765,3.161,6.250,4.183,4.384,4.484,1.998,5.882,5.283,1.571,0.000,0.000,-1.504,-3.629,0.451,5.770,3.223,6.109,
114.740,125.715,-1.648,-3.858,1.660,0.001,0.003,0.403,0.000,1.379,0.773,2.784,4.898,2.414,1.176,0.712,0.000,0.000,3.106,0.000,0.000,0.000,0.000,0.000,0.000,0.000,0.000,0.000,0.000,0.000,3.142,6.283,0.000,2.100,1.897,1.799,4.285,0.398,1.000,4.711,0.000,0.000,-1.832,-3.659,0.451,5.765,3.161,6.250,4.183,4.384,4.484,1.998,5.882,5.283,1.571,0.000,0.000,-1.504,-3.629,0.451,5.770,3.223,6.109,
114.820,125.795,-1.648,-3.858,1.660,0.001,0.005,0.403,0.000,1.379,0.772,2.781,4.902,2.411,1.176,0.712,0.000,0.000,3.106,0.000,0.000,0.000,0.000,0.000,0.000,0.000,0.000,0.000,0.000,0.000,3.142,6.282,0.000,2.100,1.897,1.798,4.286,0.398,1.000,4.711,0.000,0.000,-1.831,-3.659,0.451,5.765,3.161,6.251,4.183,4.384,4.484,1.998,5.882,5.283,1.570,0.000,0.000,-1.504,-3.629,0.451,5.770,3.222,6.109,
114.940,125.915,-1.648,-3.858,1.659,0.000,0.007,0.403,0.000,1.379,0.772,2.777,4.908,2.404,1.176,0.711,0.000,0.000,3.106,0.000,0.000,0.000,0.000,0.000,0.000,0.000,0.000,0.000,0.000,0.000,3.142,6.282,0.000,2.100,1.898,1.798,4.286,0.398,0.999,4.711,0.000,0.000,-1.831,-3.659,0.451,5.765,3.160,6.251,4.183,4.384,4.484,1.998,5.882,5.283,1.570,0.000,0.000,-1.504,-3.629,0.451,5.770,3.222,6.110,
115.040,126.015,-1.648,-3.858,1.658,0.001,6.281,0.404,0.000,1.380,0.772,2.772,4.915,2.397,1.177,0.711,0.000,0.000,3.106,0.000,0.000,0.000,0.000,0.000,0.000,0.000,0.000,0.000,0.000,0.000,3.142,6.282,0.000,2.101,1.898,1.798,4.286,0.398,0.999,4.711,0.000,0.000,-1.831,-3.658,0.451,5.765,3.160,6.252,4.183,4.384,4.484,1.998,5.882,5.283,1.570,0.000,0.000,-1.503,-3.629,0.451,5.770,3.222,6.111,
115.140,126.115,-1.648,-3.858,1.655,0.001,6.173,0.404,0.000,1.381,0.771,2.754,4.940,2.372,1.178,0.710,0.000,0.000,3.106,0.000,0.000,0.000,0.000,0.000,0.000,0.000,0.000,0.000,0.000,0.000,3.142,6.282,0.000,2.101,1.897,1.798,4.285,0.398,0.999,4.711,0.000,0.000,-1.831,-3.658,0.451,5.765,3.158,6.256,4.183,4.384,4.484,1.998,5.882,5.283,1.570,0.000,0.000,-1.503,-3.630,0.451,5.770,3.220,6.115,
115.240,126.215,-1.648,-3.858,1.649,-0.001,6.121,0.405,0.000,1.382,0.769,2.727,4.981,2.334,1.179,0.708,0.000,0.000,3.106,0.000,0.000,0.000,0.000,0.000,0.000,0.000,0.000,0.000,0.000,0.000,3.142,6.282,0.000,2.101,1.897,1.798,4.285,0.398,0.999,4.711,0.000,0.000,-1.829,-3.657,0.451,5.765,3.155,6.263,4.183,4.384,4.484,1.998,5.882,5.283,1.570,0.000,0.000,-1.502,-3.631,0.451,5.770,3.217,6.122,
115.337,126.312,-1.648,-3.858,1.639,0.000,6.145,0.407,0.000,1.385,0.765,2.683,0.000,2.273,1.182,0.705,0.000,0.000,3.142,0.000,0.000,0.000,0.000,0.000,0.000,0.000,0.000,0.000,0.000,0.000,3.142,6.282,0.000,2.101,1.897,1.798,4.285,0.398,0.999,4.711,0.000,0.000,-1.828,-3.655,0.451,5.764,3.149,6.274,4.183,4.384,4.484,1.998,5.882,5.283,1.570,0.000,0.000,-1.499,-3.632,0.451,5.769,3.211,6.132,
115.440,126.415,-1.648,-3.858,1.635,0.001,6.191,0.408,0.000,1.387,0.764,2.661,0.000,2.244,1.183,0.704,0.000,0.000,3.142,0.000,0.000,0.000,0.000,0.000,0.000,0.000,0.000,0.000,0.000,0.000,3.142,6.282,0.000,2.101,1.897,1.798,4.285,0.398,0.999,4.711,0.000,0.000,-1.827,-3.654,0.451,5.764,3.147,6.279,4.183,4.384,4.484,1.998,5.882,5.283,1.570,0.000,0.000,-1.498,-3.633,0.451,5.769,3.209,6.138,
115.531,126.507,-1.648,-3.858,1.632,0.004,6.217,0.409,0.000,1.388,0.763,2.649,0.000,2.226,1.184,0.703,0.000,0.000,3.142,0.000,0.000,0.000,0.000,0.000,0.000,0.000,0.000,0.000,0.000,0.000,3.142,6.282,0.000,2.101,1.897,1.798,4.285,0.398,0.999,4.711,0.000,0.000,-1.826,-3.654,0.451,5.765,3.145,6.282,4.183,4.384,4.484,1.998,5.882,5.283,1.570,0.000,0.000,-1.498,-3.634,0.451,5.768,3.207,6.141,
115.640,126.615,-1.648,-3.858,1.632,0.001,0.005,0.409,0.000,1.388,0.763,2.648,0.000,2.226,1.184,0.703,0.000,0.000,3.142,0.000,0.000,0.000,0.000,0.000,0.000,0.000,0.000,0.000,0.000,0.000,3.142,6.283,0.000,2.100,1.897,1.799,4.285,0.398,1.000,4.711,0.000,0.000,-1.826,-3.654,0.451,5.764,3.145,0.000,4.183,4.384,4.484,1.998,5.882,5.284,1.571,0.000,0.000,-1.498,-3.634,0.451,5.768,3.207,6.142,
115.726,126.701,-1.648,-3.858,1.632,0.001,0.005,0.409,0.000,1.388,0.763,2.648,0.000,2.226,1.184,0.703,0.000,0.000,3.142,0.000,0.000,0.000,0.000,0.000,0.000,0.000,0.000,0.000,0.000,0.000,3.142,6.283,0.000,2.100,1.897,1.799,4.285,0.398,1.000,4.711,0.000,0.000,-1.826,-3.654,0.451,5.764,3.145,0.000,4.183,4.384,4.484,1.998,5.882,5.284,1.571,0.000,0.000,-1.497,-3.634,0.451,5.768,3.207,6.142,
115.840,126.815,-1.648,-3.858,1.632,0.001,0.005,0.409,0.000,1.388,0.763,2.648,0.000,2.226,1.184,0.703,0.000,0.000,3.142,0.000,0.000,0.000,0.000,0.000,0.000,0.000,0.000,0.000,0.000,0.000,3.142,6.283,0.000,2.100,1.897,1.799,4.285,0.398,1.000,4.711,0.000,0.000,-1.826,-3.654,0.451,5.764,3.145,0.000,4.183,4.384,4.484,1.998,5.882,5.284,1.571,0.000,0.000,-1.498,-3.634,0.451,5.768,3.207,6.142,
115.940,126.915,-1.648,-3.858,1.632,0.001,0.005,0.409,0.000,1.388,0.763,2.648,0.000,2.226,1.184,0.703,0.000,0.000,3.142,0.000,0.000,0.000,0.000,0.000,0.000,0.000,0.000,0.000,0.000,0.000,3.142,6.283,0.000,2.100,1.897,1.799,4.285,0.398,1.000,4.711,0.000,0.000,-1.826,-3.654,0.451,5.764,3.145,0.000,4.183,4.384,4.484,1.998,5.882,5.284,1.571,0.000,0.000,-1.498,-3.634,0.451,5.768,3.207,6.142,
116.040,127.015,-1.648,-3.858,1.632,0.001,0.005,0.409,0.000,1.388,0.763,2.648,0.000,2.226,1.184,0.703,0.000,0.000,3.142,0.000,0.000,0.000,0.000,0.000,0.000,0.000,0.000,0.000,0.000,0.000,3.142,6.283,0.000,2.100,1.897,1.799,4.285,0.398,1.000,4.711,0.000,0.000,-1.826,-3.654,0.451,5.764,3.145,0.000,4.183,4.384,4.484,1.998,5.882,5.284,1.571,0.000,0.000,-1.497,-3.634,0.451,5.768,3.207,6.142,
116.140,127.115,-1.648,-3.858,1.632,0.001,0.005,0.409,0.000,1.388,0.763,2.648,0.000,2.226,1.184,0.703,0.000,0.000,3.142,0.000,0.000,0.000,0.000,0.000,0.000,0.000,0.000,0.000,0.000,0.000,3.142,6.283,0.000,2.100,1.897,1.799,4.285,0.398,1.000,4.711,0.000,0.000,-1.826,-3.654,0.451,5.764,3.145,0.000,4.183,4.384,4.484,1.998,5.882,5.284,1.571,0.000,0.000,-1.498,-3.634,0.451,5.768,3.207,6.142,
116.230,127.206,-1.648,-3.858,1.632,0.001,0.005,0.409,0.000,1.388,0.763,2.648,0.000,2.226,1.184,0.703,0.000,0.000,3.142,0.000,0.000,0.000,0.000,0.000,0.000,0.000,0.000,0.000,0.000,0.000,3.142,6.283,0.000,2.100,1.897,1.799,4.285,0.398,1.000,4.711,0.000,0.000,-1.826,-3.654,0.451,5.764,3.145,0.000,4.183,4.384,4.484,1.998,5.882,5.284,1.571,0.000,0.000,-1.498,-3.634,0.451,5.768,3.207,6.142,
116.340,127.315,-1.648,-3.858,1.632,0.001,0.005,0.409,0.000,1.388,0.763,2.648,0.000,2.226,1.184,0.703,0.000,0.000,3.142,0.000,0.000,0.000,0.000,0.000,0.000,0.000,0.000,0.000,0.000,0.000,3.142,6.283,0.000,2.100,1.897,1.799,4.285,0.398,1.000,4.711,0.000,0.000,-1.826,-3.654,0.451,5.764,3.145,0.000,4.183,4.384,4.484,1.998,5.882,5.284,1.571,0.000,0.000,-1.498,-3.634,0.451,5.768,3.207,6.142,
116.440,127.415,-1.648,-3.858,1.632,0.001,0.005,0.409,0.000,1.388,0.763,2.648,0.000,2.226,1.184,0.703,0.000,0.000,3.142,0.000,0.000,0.000,0.000,0.000,0.000,0.000,0.000,0.000,0.000,0.000,3.142,6.283,0.000,2.100,1.897,1.799,4.285,0.398,1.000,4.711,0.000,0.000,-1.826,-3.654,0.451,5.764,3.145,0.000,4.183,4.384,4.484,1.998,5.882,5.284,1.571,0.000,0.000,-1.498,-3.634,0.451,5.768,3.207,6.142,
116.540,127.515,-1.648,-3.858,1.632,0.001,0.005,0.409,0.000,1.388,0.763,2.648,0.000,2.226,1.184,0.703,0.000,0.000,3.142,0.000,0.000,0.000,0.000,0.000,0.000,0.000,0.000,0.000,0.000,0.000,3.142,6.283,0.000,2.100,1.897,1.799,4.285,0.398,1.000,4.711,0.000,0.000,-1.826,-3.654,0.451,5.764,3.145,0.000,4.183,4.384,4.484,1.998,5.882,5.284,1.571,0.000,0.000,-1.498,-3.634,0.451,5.768,3.207,6.142,
116.640,127.615,-1.648,-3.858,1.632,0.001,0.005,0.409,0.000,1.388,0.763,2.648,0.000,2.226,1.184,0.703,0.000,0.000,3.142,0.000,0.000,0.000,0.000,0.000,0.000,0.000,0.000,0.000,0.000,0.000,3.142,6.283,0.000,2.100,1.897,1.799,4.285,0.398,1.000,4.711,0.000,0.000,-1.826,-3.654,0.451,5.764,3.145,0.000,4.183,4.384,4.484,1.998,5.882,5.284,1.571,0.000,0.000,-1.498,-3.634,0.451,5.768,3.207,6.142,
116.740,127.715,-1.648,-3.858,1.632,0.001,0.005,0.409,0.000,1.388,0.763,2.648,0.000,2.226,1.184,0.703,0.000,0.000,3.142,0.000,0.000,0.000,0.000,0.000,0.000,0.000,0.000,0.000,0.000,0.000,3.142,6.283,0.000,2.100,1.897,1.799,4.285,0.398,1.000,4.711,0.000,0.000,-1.826,-3.654,0.451,5.764,3.145,0.000,4.183,4.384,4.484,1.998,5.882,5.284,1.571,0.000,0.000,-1.498,-3.634,0.451,5.768,3.207,6.142,
116.840,127.815,-1.648,-3.858,1.632,0.001,0.005,0.409,0.000,1.388,0.763,2.648,0.000,2.226,1.184,0.703,0.000,0.000,3.142,0.000,0.000,0.000,0.000,0.000,0.000,0.000,0.000,0.000,0.000,0.000,3.142,6.283,0.000,2.100,1.897,1.799,4.285,0.398,1.000,4.711,0.000,0.000,-1.826,-3.654,0.451,5.764,3.145,0.000,4.183,4.384,4.484,1.998,5.882,5.284,1.571,0.000,0.000,-1.498,-3.634,0.451,5.768,3.207,6.142,
116.940,127.915,-1.648,-3.858,1.632,0.001,0.005,0.409,0.000,1.388,0.763,2.648,0.000,2.226,1.184,0.703,0.000,0.000,3.142,0.000,0.000,0.000,0.000,0.000,0.000,0.000,0.000,0.000,0.000,0.000,3.142,6.283,0.000,2.100,1.897,1.799,4.285,0.398,1.000,4.711,0.000,0.000,-1.826,-3.654,0.451,5.764,3.145,0.000,4.183,4.384,4.484,1.998,5.882,5.284,1.571,0.000,0.000,-1.498,-3.634,0.451,5.768,3.207,6.142,
117.040,128.015,-1.648,-3.858,1.632,0.001,0.005,0.409,0.000,1.388,0.763,2.648,0.000,2.226,1.184,0.703,0.000,0.000,3.142,0.000,0.000,0.000,0.000,0.000,0.000,0.000,0.000,0.000,0.000,0.000,3.142,6.283,0.000,2.100,1.897,1.799,4.285,0.398,1.000,4.711,0.000,0.000,-1.826,-3.654,0.451,5.764,3.145,0.000,4.183,4.384,4.484,1.998,5.882,5.284,1.571,0.000,0.000,-1.498,-3.634,0.451,5.768,3.207,6.142,
117.135,128.110,-1.648,-3.858,1.632,0.001,0.005,0.409,0.000,1.388,0.763,2.648,0.000,2.226,1.184,0.703,0.000,0.000,3.142,0.000,0.000,0.000,0.000,0.000,0.000,0.000,0.000,0.000,0.000,0.000,3.142,6.283,0.000,2.100,1.897,1.799,4.285,0.398,1.000,4.711,0.000,0.000,-1.826,-3.654,0.451,5.764,3.145,0.000,4.183,4.384,4.484,1.998,5.882,5.284,1.571,0.000,0.000,-1.498,-3.634,0.451,5.768,3.207,6.142,
117.240,128.215,-1.648,-3.858,1.632,0.001,0.005,0.409,0.000,1.388,0.763,2.648,0.000,2.226,1.184,0.703,0.000,0.000,3.142,0.000,0.000,0.000,0.000,0.000,0.000,0.000,0.000,0.000,0.000,0.000,3.142,6.283,0.000,2.100,1.897,1.799,4.285,0.398,1.000,4.711,0.000,0.000,-1.826,-3.654,0.451,5.764,3.145,0.000,4.183,4.384,4.484,1.998,5.882,5.284,1.571,0.000,0.000,-1.498,-3.634,0.451,5.768,3.207,6.142,
117.321,128.296,-1.648,-3.858,1.632,0.001,0.005,0.409,0.000,1.388,0.763,2.648,0.000,2.226,1.184,0.703,0.000,0.000,3.142,0.000,0.000,0.000,0.000,0.000,0.000,0.000,0.000,0.000,0.000,0.000,3.142,6.283,0.000,2.100,1.897,1.799,4.285,0.398,1.000,4.711,0.000,0.000,-1.826,-3.654,0.451,5.764,3.145,0.000,4.183,4.384,4.484,1.998,5.882,5.284,1.571,0.000,0.000,-1.498,-3.634,0.451,5.768,3.207,6.142,
117.440,128.415,-1.648,-3.858,1.632,0.001,0.005,0.409,0.000,1.388,0.763,2.648,0.000,2.226,1.184,0.703,0.000,0.000,3.142,0.000,0.000,0.000,0.000,0.000,0.000,0.000,0.000,0.000,0.000,0.000,3.142,6.283,0.000,2.100,1.897,1.799,4.285,0.398,1.000,4.711,0.000,0.000,-1.826,-3.654,0.451,5.764,3.145,0.000,4.183,4.384,4.484,1.998,5.882,5.284,1.571,0.000,0.000,-1.498,-3.634,0.451,5.768,3.207,6.142,
117.531,128.506,-1.648,-3.858,1.632,0.001,0.005,0.409,0.000,1.388,0.763,2.648,0.000,2.226,1.184,0.703,0.000,0.000,3.142,0.000,0.000,0.000,0.000,0.000,0.000,0.000,0.000,0.000,0.000,0.000,3.142,6.283,0.000,2.100,1.897,1.799,4.285,0.398,1.000,4.711,0.000,0.000,-1.826,-3.654,0.451,5.764,3.145,0.000,4.183,4.384,4.484,1.998,5.882,5.284,1.571,0.000,0.000,-1.498,-3.634,0.451,5.768,3.207,6.142,
117.640,128.615,-1.648,-3.858,1.632,0.001,0.005,0.409,0.000,1.388,0.763,2.648,0.000,2.226,1.184,0.703,0.000,0.000,3.142,0.000,0.000,0.000,0.000,0.000,0.000,0.000,0.000,0.000,0.000,0.000,3.142,6.283,0.000,2.100,1.897,1.799,4.285,0.398,1.000,4.711,0.000,0.000,-1.826,-3.654,0.451,5.764,3.145,0.000,4.183,4.384,4.484,1.998,5.882,5.284,1.571,0.000,0.000,-1.498,-3.634,0.451,5.768,3.207,6.142,
117.740,128.715,-1.648,-3.858,1.632,0.001,0.005,0.409,0.000,1.388,0.763,2.648,0.000,2.226,1.184,0.703,0.000,0.000,3.142,0.000,0.000,0.000,0.000,0.000,0.000,0.000,0.000,0.000,0.000,0.000,3.142,6.283,0.000,2.100,1.897,1.799,4.285,0.398,1.000,4.711,0.000,0.000,-1.826,-3.654,0.451,5.764,3.145,0.000,4.183,4.384,4.484,1.998,5.882,5.284,1.571,0.000,0.000,-1.498,-3.634,0.451,5.768,3.207,6.142,
117.840,128.815,-1.648,-3.858,1.632,0.001,0.005,0.409,0.000,1.388,0.763,2.648,0.000,2.226,1.184,0.703,0.000,0.000,3.142,0.000,0.000,0.000,0.000,0.000,0.000,0.000,0.000,0.000,0.000,0.000,3.142,6.283,0.000,2.100,1.897,1.799,4.285,0.398,1.000,4.711,0.000,0.000,-1.826,-3.654,0.451,5.764,3.145,0.000,4.183,4.384,4.484,1.998,5.882,5.284,1.571,0.000,0.000,-1.498,-3.634,0.451,5.768,3.207,6.142,
117.940,128.915,-1.648,-3.858,1.632,0.001,0.005,0.409,0.000,1.388,0.763,2.648,0.000,0.000,1.184,0.703,0.000,0.000,3.142,0.000,0.000,0.000,0.000,0.000,0.000,1.734,0.000,0.000,0.000,0.000,3.142,6.283,0.000,2.100,1.897,1.799,4.285,0.398,1.000,4.711,0.000,0.000,-1.826,-3.654,0.451,5.764,3.145,0.000,4.183,4.384,4.484,1.998,5.882,5.284,1.571,0.000,0.000,-1.498,-3.634,0.451,5.768,3.207,6.142,
118.023,128.998,-1.648,-3.858,1.632,0.001,0.005,0.409,0.000,1.388,0.763,2.648,0.000,0.000,1.184,0.703,0.000,0.000,3.142,0.000,0.000,0.000,0.000,0.000,0.000,1.636,0.000,0.000,0.000,0.000,3.142,6.283,0.000,2.100,1.897,1.799,4.285,0.398,1.000,4.711,0.000,0.000,-1.826,-3.654,0.451,5.764,3.145,0.000,4.183,4.384,4.484,1.998,5.882,5.284,1.571,0.000,0.000,-1.498,-3.634,0.451,5.768,3.207,6.142,
118.140,129.115,-1.648,-3.858,1.632,0.001,0.005,0.409,0.000,1.388,0.763,2.648,0.000,0.000,1.184,0.703,0.000,0.000,3.142,0.000,0.000,0.000,0.000,0.000,0.000,1.509,0.000,0.000,0.000,0.000,3.142,6.283,0.000,2.100,1.897,1.799,4.285,0.398,1.000,4.711,0.000,0.000,-1.826,-3.654,0.451,5.764,3.145,0.000,4.183,4.384,4.484,1.998,5.882,5.284,1.571,0.000,0.000,-1.498,-3.634,0.451,5.768,3.207,6.142,
118.240,129.215,-1.648,-3.858,1.632,0.001,0.005,0.409,0.000,1.388,0.763,2.648,0.000,0.000,1.184,0.703,0.000,0.000,3.142,0.000,0.000,0.000,0.000,0.000,0.000,1.472,0.000,0.000,0.000,0.000,3.142,6.283,0.000,2.100,1.897,1.799,4.285,0.398,1.000,4.711,0.000,0.000,-1.826,-3.654,0.451,5.764,3.145,0.000,4.183,4.384,4.484,1.998,5.882,5.284,1.571,0.000,0.000,-1.498,-3.634,0.451,5.768,3.207,6.142,
118.340,129.315,-1.648,-3.858,1.632,0.001,0.005,0.409,0.000,1.388,0.763,2.648,0.000,0.000,1.184,0.703,0.000,0.000,3.142,0.000,0.000,0.000,0.000,0.000,0.000,1.475,0.000,0.000,0.000,0.000,3.142,6.283,0.000,2.100,1.897,1.799,4.285,0.398,1.000,4.711,0.000,0.000,-1.826,-3.654,0.451,5.764,3.145,0.000,4.183,4.384,4.484,1.998,5.882,5.284,1.571,0.000,0.000,-1.498,-3.634,0.451,5.768,3.207,6.142,
118.422,129.397,-1.648,-3.858,1.632,0.001,0.005,0.409,0.000,1.388,0.763,2.648,0.000,2.226,1.184,0.703,0.000,0.000,3.142,0.000,0.000,0.000,0.000,0.000,0.000,0.000,0.000,0.000,0.000,0.000,3.142,6.283,0.000,2.100,1.897,1.799,4.285,0.398,1.000,4.711,0.000,0.000,-1.826,-3.654,0.451,5.764,3.145,0.000,4.183,4.384,4.484,1.998,5.882,5.284,1.571,0.000,0.000,-1.498,-3.634,0.451,5.768,3.207,6.142,
118.536,129.511,-1.648,-3.858,1.632,0.001,0.005,0.409,0.000,1.388,0.763,2.648,0.000,2.226,1.184,0.703,0.000,0.000,3.142,0.000,0.000,0.000,0.000,0.000,0.000,0.000,0.000,0.000,0.000,0.000,3.142,6.283,0.000,2.100,1.897,1.799,4.285,0.398,1.000,4.711,0.000,0.000,-1.826,-3.654,0.451,5.764,3.145,0.000,4.183,4.384,4.484,1.998,5.882,5.284,1.571,0.000,0.000,-1.498,-3.634,0.451,5.768,3.207,6.142,
118.640,129.615,-1.648,-3.858,1.632,0.001,0.005,0.409,0.000,1.388,0.763,2.648,0.000,2.226,1.184,0.703,0.000,0.000,3.142,0.000,0.000,0.000,0.000,0.000,0.000,0.000,0.000,0.000,0.000,0.000,3.142,6.283,0.000,2.100,1.897,1.799,4.285,0.398,1.000,4.711,0.000,0.000,-1.826,-3.654,0.451,5.764,3.145,0.000,4.183,4.384,4.484,1.998,5.882,5.284,1.571,0.000,0.000,-1.498,-3.634,0.451,5.768,3.207,6.142,
118.729,129.704,-1.648,-3.858,1.632,0.001,0.005,0.409,0.000,1.388,0.763,2.648,0.000,2.226,1.184,0.703,0.000,0.000,3.142,0.000,0.000,0.000,0.000,0.000,0.000,0.000,0.000,0.000,0.000,0.000,3.142,6.283,0.000,2.100,1.897,1.799,4.285,0.398,1.000,4.711,0.000,0.000,-1.826,-3.654,0.451,5.764,3.145,0.000,4.183,4.384,4.484,1.998,5.882,5.284,1.571,0.000,0.000,-1.498,-3.634,0.451,5.768,3.207,6.142,
118.840,129.815,-1.648,-3.858,1.632,0.001,0.005,0.409,0.000,1.388,0.763,2.648,0.000,2.226,1.184,0.703,0.000,0.000,3.142,0.000,0.000,0.000,0.000,0.000,1.398,0.000,0.000,0.000,0.000,0.000,3.106,6.283,0.000,2.100,1.897,1.799,4.285,0.398,1.000,4.711,0.000,0.000,-1.826,-3.654,0.451,5.764,3.145,0.000,4.183,4.384,4.484,1.998,5.882,5.284,1.571,0.000,0.000,-1.498,-3.634,0.451,5.768,3.207,6.142,
118.923,129.899,-1.648,-3.858,1.632,0.001,0.005,0.409,0.000,1.388,0.763,2.648,0.000,2.226,1.184,0.703,0.000,0.000,3.142,0.000,0.000,0.000,0.000,0.000,1.381,0.000,0.000,0.000,0.000,0.000,3.036,6.283,0.000,2.100,1.897,1.799,4.285,0.398,1.000,4.711,0.000,0.000,-1.826,-3.654,0.451,5.764,3.145,0.000,4.183,4.384,4.484,1.998,5.882,5.284,1.571,0.000,0.000,-1.498,-3.634,0.451,5.768,3.207,6.142,
119.040,130.015,-1.648,-3.858,1.632,0.001,0.005,0.409,0.000,1.388,0.763,2.648,0.000,2.226,1.184,0.703,0.000,0.000,3.142,0.000,0.000,0.000,0.000,0.000,1.434,0.000,0.000,0.000,0.000,0.000,3.001,6.283,0.000,2.100,1.897,1.799,4.285,0.398,1.000,4.711,0.000,0.000,-1.826,-3.654,0.451,5.764,3.145,0.000,4.183,4.384,4.484,1.998,5.882,5.284,1.571,0.000,0.000,-1.498,-3.634,0.451,5.768,3.207,6.142,
119.140,130.115,-1.648,-3.858,1.632,0.001,0.005,0.409,0.000,1.388,0.763,2.648,0.000,2.226,1.184,0.703,0.000,0.000,3.142,0.000,0.000,0.000,0.000,0.000,1.478,0.000,0.000,0.000,0.000,0.000,2.966,6.283,0.000,2.100,1.897,1.799,4.285,0.398,1.000,4.711,0.000,0.000,-1.826,-3.654,0.451,5.764,3.145,0.000,4.183,4.384,4.484,1.998,5.882,5.284,1.571,0.000,0.000,-1.498,-3.634,0.451,5.768,3.207,6.142,
119.238,130.213,-1.648,-3.858,1.632,0.001,0.005,0.409,0.000,1.388,0.763,2.648,0.000,2.226,1.184,0.703,0.000,0.000,3.142,0.000,0.000,0.000,0.000,0.000,1.623,0.000,0.000,0.000,0.000,0.000,2.931,6.283,0.000,2.100,1.897,1.799,4.285,0.398,1.000,4.711,0.000,0.000,-1.826,-3.654,0.451,5.764,3.145,0.000,4.183,4.384,4.484,1.998,5.882,5.284,1.571,0.000,0.000,-1.498,-3.634,0.451,5.768,3.207,6.142,
119.340,130.315,-1.648,-3.858,1.632,0.001,0.005,0.409,0.000,1.388,0.763,2.648,0.000,2.226,1.184,0.703,0.000,0.000,3.142,0.000,0.000,0.000,0.000,0.000,1.700,0.000,0.000,0.000,0.000,0.000,2.896,6.283,0.000,2.100,1.897,1.799,4.285,0.398,1.000,4.711,0.000,0.000,-1.826,-3.654,0.451,5.764,3.145,0.000,4.183,4.384,4.484,1.998,5.882,5.284,1.571,0.000,0.000,-1.498,-3.634,0.451,5.768,3.207,6.142,
119.429,130.404,-1.648,-3.858,1.632,0.001,0.005,0.409,0.000,1.388,0.763,2.648,0.000,2.226,1.184,0.703,0.000,0.000,3.142,0.000,0.000,0.000,0.000,0.000,1.907,0.000,0.000,0.000,0.000,0.000,2.896,6.283,0.000,2.100,1.897,1.799,4.285,0.398,1.000,4.711,0.000,0.000,-1.826,-3.654,0.451,5.764,3.145,0.000,4.183,4.384,4.484,1.998,5.882,5.284,1.571,0.000,0.000,-1.498,-3.634,0.451,5.768,3.207,6.142,
119.540,130.515,-1.648,-3.858,1.632,0.001,0.005,0.409,0.000,1.388,0.763,2.648,0.000,2.226,1.184,0.703,0.000,0.000,3.142,0.000,0.000,0.000,0.000,0.000,2.054,0.000,0.000,0.000,0.000,0.000,2.896,6.283,0.000,2.100,1.897,1.799,4.285,0.398,1.000,4.711,0.000,0.000,-1.826,-3.654,0.451,5.764,3.145,0.000,4.183,4.384,4.484,1.998,5.882,5.284,1.571,0.000,0.000,-1.498,-3.634,0.451,5.768,3.207,6.142,
119.640,130.615,-1.648,-3.858,1.632,0.001,0.005,0.409,0.000,1.388,0.763,2.648,0.000,2.226,1.184,0.703,0.000,0.000,3.142,0.000,0.000,0.000,0.000,0.000,0.000,0.000,0.000,0.000,0.000,0.000,3.142,6.283,0.000,2.100,1.897,1.799,4.285,0.398,1.000,4.711,0.000,0.000,-1.826,-3.654,0.451,5.764,3.145,0.000,4.183,4.384,4.484,1.998,5.882,5.284,1.571,0.000,0.000,-1.498,-3.634,0.451,5.768,3.207,6.142,
119.740,130.715,-1.648,-3.858,1.632,0.001,0.005,0.409,0.000,1.388,0.763,2.648,0.000,2.226,1.184,0.703,0.000,0.000,3.142,0.000,0.000,0.000,0.000,0.000,0.000,0.000,0.000,0.000,0.000,0.000,3.142,6.283,0.000,2.100,1.897,1.799,4.285,0.398,1.000,4.711,0.000,0.000,-1.826,-3.654,0.451,5.764,3.145,0.000,4.183,4.384,4.484,1.998,5.882,5.284,1.571,0.000,0.000,-1.498,-3.634,0.451,5.768,3.207,6.142,
119.840,130.815,-1.648,-3.858,1.632,0.001,0.005,0.409,0.000,1.388,0.763,2.648,0.000,2.226,1.184,0.703,0.000,0.000,3.142,0.000,0.000,0.000,0.000,0.000,0.000,0.000,0.000,0.000,0.000,0.000,3.142,6.283,0.000,2.100,1.897,1.799,4.285,0.398,1.000,4.711,0.000,0.000,-1.826,-3.654,0.451,5.764,3.145,0.000,4.183,4.384,4.484,1.998,5.882,5.284,1.571,0.000,0.000,-1.498,-3.634,0.451,5.768,3.207,6.142,
119.940,130.915,-1.648,-3.858,1.632,0.001,0.005,0.409,0.000,1.388,0.763,2.648,0.000,2.226,1.184,0.703,0.000,0.000,3.142,0.000,0.000,0.000,0.000,0.000,0.000,0.000,0.000,0.000,0.000,0.000,3.142,6.283,0.000,2.100,1.897,1.799,4.285,0.398,1.000,4.711,0.000,0.000,-1.826,-3.654,0.451,5.764,3.145,0.000,4.183,4.384,4.484,1.998,5.882,5.284,1.571,0.000,0.000,-1.498,-3.634,0.451,5.768,3.207,6.142,
120.040,131.015,-1.648,-3.858,1.632,0.001,0.005,0.409,0.000,1.388,0.763,2.648,0.000,2.226,1.184,0.703,0.000,0.000,3.142,0.000,0.000,0.000,0.000,0.000,0.000,0.000,0.000,0.000,0.000,0.000,3.142,6.283,0.000,2.100,1.897,1.799,4.285,0.398,1.000,4.711,0.000,0.000,-1.826,-3.654,0.451,5.764,3.145,0.000,4.183,4.384,4.484,1.998,5.882,5.284,1.571,0.000,0.000,-1.498,-3.634,0.451,5.768,3.207,6.142,
120.130,131.105,-1.648,-3.858,1.632,0.001,0.005,0.409,0.000,1.388,0.763,2.648,0.000,2.226,1.184,0.703,0.000,0.000,3.142,0.000,0.000,0.000,0.000,0.000,0.000,0.000,0.000,0.000,0.000,0.000,3.142,6.283,0.000,2.100,1.897,1.799,4.285,0.398,1.000,4.711,0.000,0.000,-1.826,-3.654,0.451,5.764,3.145,0.000,4.183,4.384,4.484,1.998,5.882,5.284,1.571,0.000,0.000,-1.498,-3.634,0.451,5.768,3.207,6.142,
120.240,131.215,-1.648,-3.858,1.632,0.001,0.005,0.409,0.000,1.388,0.763,2.648,0.000,2.226,1.184,0.703,0.000,0.000,3.142,0.000,0.000,0.000,0.000,0.000,0.000,0.000,0.000,0.000,0.000,0.000,3.142,6.283,0.000,2.100,1.897,1.799,4.285,0.398,1.000,4.711,0.000,0.000,-1.826,-3.654,0.451,5.764,3.145,0.000,4.183,4.384,4.484,1.998,5.882,5.284,1.571,0.000,0.000,-1.498,-3.634,0.451,5.768,3.207,6.142,
120.328,131.303,-1.648,-3.858,1.632,0.001,0.005,0.409,0.000,1.388,0.763,2.648,0.000,2.226,1.184,0.703,0.000,0.000,3.142,0.000,0.000,0.000,0.000,0.000,0.000,0.000,0.000,0.000,0.000,0.000,3.142,6.283,0.000,2.100,1.897,1.799,4.285,0.398,1.000,4.711,0.000,0.000,-1.826,-3.654,0.451,5.764,3.145,0.000,4.183,4.384,4.484,1.998,5.882,5.284,1.571,0.000,0.000,-1.498,-3.634,0.451,5.768,3.207,6.142,
120.440,131.415,-1.648,-3.858,1.632,0.001,0.005,0.409,0.000,1.388,0.763,2.648,0.000,2.226,1.184,0.703,0.000,0.000,3.142,0.000,0.000,0.000,0.000,0.000,0.000,0.000,0.000,0.000,0.000,0.000,3.142,6.283,0.000,2.100,1.897,1.799,4.285,0.398,1.000,4.711,0.000,0.000,-1.826,-3.654,0.451,5.764,3.145,0.000,4.183,4.384,4.484,1.998,5.882,5.284,1.571,0.000,0.000,-1.498,-3.634,0.451,5.768,3.207,6.142,
120.540,131.515,-1.648,-3.858,1.632,0.001,0.005,0.409,0.000,1.388,0.763,2.648,0.000,2.226,1.184,0.703,0.000,0.000,3.142,0.000,0.000,0.000,0.000,0.000,0.000,0.000,0.000,0.000,0.000,0.000,3.142,6.283,0.000,2.100,1.897,1.799,4.285,0.398,1.000,4.711,0.000,0.000,-1.826,-3.654,0.451,5.764,3.145,0.000,4.183,4.384,4.484,1.998,5.882,5.284,1.571,0.000,0.000,-1.498,-3.634,0.451,5.768,3.207,6.142,
120.640,131.615,-1.648,-3.858,1.632,0.001,0.005,0.409,0.000,1.388,0.763,2.648,0.000,2.226,1.184,0.703,0.000,0.000,3.142,0.000,0.000,0.000,0.000,0.000,0.000,0.000,0.000,0.000,0.000,0.000,3.142,6.283,0.000,2.100,1.897,1.799,4.285,0.398,1.000,4.711,0.000,0.000,-1.826,-3.654,0.451,5.764,3.145,0.000,4.183,4.384,4.484,1.998,5.882,5.284,1.571,0.000,0.000,-1.498,-3.634,0.451,5.768,3.207,6.142,
120.740,131.715,-1.648,-3.858,1.632,0.001,0.005,0.409,0.000,1.388,0.763,2.648,0.000,2.226,1.184,0.703,0.000,0.000,3.142,0.000,0.000,0.000,0.000,0.000,0.000,0.000,0.000,0.000,0.000,0.000,3.142,6.283,0.000,2.100,1.897,1.799,4.285,0.398,1.000,4.711,0.000,0.000,-1.826,-3.654,0.451,5.764,3.145,0.000,4.183,4.384,4.484,1.998,5.882,5.284,1.571,0.000,0.000,-1.498,-3.634,0.451,5.768,3.207,6.142,
120.840,131.815,-1.648,-3.858,1.632,0.001,0.005,0.409,0.000,1.388,0.763,2.648,0.000,2.226,1.184,0.703,0.000,0.000,3.142,0.000,0.000,0.000,0.000,0.000,0.000,0.000,0.000,0.000,0.000,0.000,3.142,6.283,0.000,2.100,1.897,1.799,4.285,0.398,1.000,4.711,0.000,0.000,-1.826,-3.654,0.451,5.764,3.145,0.000,4.183,4.384,4.484,1.998,5.882,5.284,1.571,0.000,0.000,-1.498,-3.634,0.451,5.768,3.207,6.142,
120.940,131.915,-1.648,-3.858,1.632,0.001,0.005,0.409,0.000,1.388,0.763,2.648,0.000,2.226,1.184,0.703,0.000,0.000,3.142,0.000,0.000,0.000,0.000,0.000,0.000,0.000,0.000,0.000,0.000,0.000,3.142,6.283,0.000,2.100,1.897,1.799,4.285,0.398,1.000,4.711,0.000,0.000,-1.826,-3.654,0.451,5.764,3.145,0.000,4.183,4.384,4.484,1.998,5.882,5.284,1.571,0.000,0.000,-1.498,-3.634,0.451,5.768,3.207,6.142,
121.033,132.008,-1.648,-3.858,1.632,0.001,0.005,0.409,0.000,1.388,0.763,2.648,0.000,2.226,1.184,0.703,0.000,0.000,3.142,0.000,0.000,0.000,0.000,0.000,0.000,0.000,0.000,0.000,0.000,0.000,3.142,6.283,0.000,2.100,1.897,1.799,4.285,0.398,1.000,4.711,0.000,0.000,-1.826,-3.654,0.451,5.764,3.145,0.000,4.183,4.384,4.484,1.998,5.882,5.284,1.571,0.000,0.000,-1.497,-3.634,0.451,5.768,3.207,6.142,
121.140,132.115,-1.648,-3.858,1.632,0.001,0.005,0.409,0.000,1.388,0.763,2.648,0.000,2.226,1.184,0.703,0.000,0.000,3.142,0.000,0.000,0.000,0.000,0.000,0.000,0.000,0.000,0.000,0.000,0.000,3.142,6.283,0.000,2.100,1.897,1.799,4.285,0.398,1.000,4.711,0.000,0.000,-1.826,-3.654,0.451,5.764,3.145,0.000,4.183,4.384,4.484,1.998,5.882,5.284,1.571,0.000,0.000,-1.498,-3.634,0.451,5.768,3.207,6.142,
121.240,132.215,-1.648,-3.858,1.632,0.001,0.005,0.409,0.000,1.388,0.763,2.648,0.000,2.226,1.184,0.703,0.000,0.000,3.142,0.000,0.000,0.000,0.000,0.000,0.000,0.000,0.000,0.000,0.000,0.000,3.142,6.283,0.000,2.100,1.897,1.799,4.285,0.398,1.000,4.711,0.000,0.000,-1.826,-3.654,0.451,5.764,3.145,0.000,4.183,4.384,4.484,1.998,5.882,5.284,1.571,0.000,0.000,-1.497,-3.634,0.451,5.768,3.207,6.142,
121.332,132.307,-1.648,-3.858,1.632,0.001,0.005,0.409,0.000,1.388,0.763,2.648,0.000,2.226,1.184,0.703,0.000,0.000,3.142,0.000,0.000,0.000,0.000,0.000,2.742,0.000,0.000,0.000,0.000,0.000,2.966,6.283,0.000,2.100,1.897,1.799,4.285,0.398,1.000,4.711,0.000,0.000,-1.826,-3.654,0.451,5.764,3.145,0.000,4.183,4.384,4.484,1.998,5.882,5.284,1.571,0.000,0.000,-1.498,-3.634,0.451,5.768,3.207,6.142,
121.440,132.415,-1.648,-3.858,1.632,0.001,0.005,0.409,0.000,1.388,0.763,2.648,0.000,2.226,1.184,0.703,0.000,0.000,3.142,0.000,0.000,0.000,0.000,0.000,2.517,0.000,0.000,0.000,0.000,0.000,2.966,6.283,0.000,2.100,1.897,1.799,4.285,0.398,1.000,4.711,0.000,0.000,-1.826,-3.654,0.451,5.764,3.145,0.000,4.183,4.384,4.484,1.998,5.882,5.284,1.571,0.000,0.000,-1.498,-3.634,0.451,5.768,3.207,6.142,
121.522,132.497,-1.648,-3.858,1.632,0.001,0.005,0.409,0.000,1.388,0.763,2.648,0.000,2.226,1.184,0.703,0.000,0.000,3.142,0.000,0.000,0.000,0.000,0.000,2.402,0.000,0.000,0.000,0.000,0.000,3.001,6.283,0.000,2.100,1.897,1.799,4.285,0.398,1.000,4.711,0.000,0.000,-1.826,-3.654,0.451,5.764,3.145,0.000,4.183,4.384,4.484,1.998,5.882,5.284,1.571,0.000,0.000,-1.498,-3.634,0.451,5.768,3.207,6.142,
121.640,132.615,-1.648,-3.858,1.632,0.001,0.005,0.409,0.000,1.388,0.763,2.648,0.000,2.226,1.184,0.703,0.000,0.000,3.142,0.000,0.000,0.000,0.000,0.000,2.253,0.000,0.000,0.000,0.000,0.000,3.001,6.283,0.000,2.100,1.897,1.799,4.285,0.398,1.000,4.711,0.000,0.000,-1.826,-3.654,0.451,5.764,3.145,0.000,4.183,4.384,4.484,1.998,5.882,5.284,1.571,0.000,0.000,-1.498,-3.634,0.451,5.768,3.207,6.142,
121.725,132.700,-1.648,-3.858,1.632,0.001,0.005,0.409,0.000,1.388,0.763,2.648,0.000,2.226,1.184,0.703,0.000,0.000,3.142,0.000,0.000,0.000,0.000,0.000,2.170,0.000,0.000,0.000,0.000,0.000,3.036,6.283,0.000,2.100,1.897,1.799,4.285,0.398,1.000,4.711,0.000,0.000,-1.826,-3.654,0.451,5.764,3.145,0.000,4.183,4.384,4.484,1.998,5.882,5.284,1.571,0.000,0.000,-1.498,-3.634,0.451,5.768,3.207,6.142,
121.840,132.815,-1.648,-3.858,1.632,0.001,0.005,0.409,0.000,1.388,0.763,2.648,0.000,2.226,1.184,0.703,0.000,0.000,3.142,0.000,0.000,0.000,0.000,0.000,2.067,0.000,0.000,0.000,0.000,0.000,3.071,6.283,0.000,2.100,1.897,1.799,4.285,0.398,1.000,4.711,0.000,0.000,-1.826,-3.654,0.451,5.764,3.145,0.000,4.183,4.384,4.484,1.998,5.882,5.284,1.571,0.000,0.000,-1.498,-3.634,0.451,5.768,3.207,6.142,
121.923,132.898,-1.648,-3.858,1.632,0.001,0.005,0.409,0.000,1.388,0.763,2.648,0.000,2.226,1.184,0.703,0.000,0.000,3.142,0.000,0.000,0.000,0.000,0.000,2.016,0.000,0.000,0.000,0.000,0.000,3.071,6.283,0.000,2.100,1.897,1.799,4.285,0.398,1.000,4.711,0.000,0.000,-1.826,-3.654,0.451,5.764,3.145,0.000,4.183,4.384,4.484,1.998,5.882,5.284,1.571,0.000,0.000,-1.498,-3.634,0.451,5.768,3.207,6.142,
122.040,133.015,-1.648,-3.858,1.632,0.001,0.005,0.409,0.000,1.388,0.763,2.648,0.000,2.226,1.184,0.703,0.000,0.000,3.142,0.000,0.000,0.000,0.000,0.000,2.028,0.000,0.000,0.000,0.000,0.000,3.106,6.283,0.000,2.100,1.897,1.799,4.285,0.398,1.000,4.711,0.000,0.000,-1.826,-3.654,0.451,5.764,3.145,0.000,4.183,4.384,4.484,1.998,5.882,5.284,1.571,0.000,0.000,-1.498,-3.634,0.451,5.768,3.207,6.142,
122.140,133.115,-1.648,-3.858,1.632,0.001,0.005,0.409,0.000,1.388,0.763,2.648,0.000,2.226,1.184,0.703,0.000,0.000,3.142,0.000,0.000,0.000,0.000,0.000,0.000,0.000,0.000,0.000,0.000,0.000,3.142,6.283,0.000,2.100,1.897,1.799,4.285,0.398,1.000,4.711,0.000,0.000,-1.826,-3.654,0.451,5.764,3.145,0.000,4.183,4.384,4.484,1.998,5.882,5.284,1.571,0.000,0.000,-1.498,-3.634,0.451,5.768,3.207,6.142,
122.240,133.215,-1.648,-3.858,1.632,0.001,0.005,0.409,0.000,1.388,0.763,2.648,0.000,2.226,1.184,0.703,0.000,0.000,3.142,0.000,0.000,0.000,0.000,0.000,0.000,0.000,0.000,0.000,0.000,0.000,3.142,6.283,0.000,2.100,1.897,1.799,4.285,0.398,1.000,4.711,0.000,0.000,-1.826,-3.654,0.451,5.764,3.145,0.000,4.183,4.384,4.484,1.998,5.882,5.284,1.571,0.000,0.000,-1.498,-3.634,0.451,5.768,3.207,6.142,
122.340,133.315,-1.648,-3.858,1.632,0.001,0.005,0.409,0.000,1.388,0.763,2.648,0.000,2.226,1.184,0.703,0.000,0.000,3.142,0.000,0.000,0.000,0.000,0.000,0.000,0.000,0.000,0.000,0.000,0.000,3.142,6.283,0.000,2.100,1.897,1.799,4.285,0.398,1.000,4.711,0.000,0.000,-1.826,-3.654,0.451,5.764,3.145,0.000,4.183,4.384,4.484,1.998,5.882,5.284,1.571,0.000,0.000,-1.498,-3.634,0.451,5.768,3.207,6.142,
122.440,133.415,-1.648,-3.858,1.632,0.001,0.005,0.409,0.000,1.388,0.763,2.648,0.000,2.226,1.184,0.703,0.000,0.000,3.142,0.000,0.000,0.000,0.000,0.000,0.000,0.000,0.000,0.000,0.000,0.000,3.142,6.283,0.000,2.100,1.897,1.799,4.285,0.398,1.000,4.711,0.000,0.000,-1.826,-3.654,0.451,5.764,3.145,0.000,4.183,4.384,4.484,1.998,5.882,5.284,1.571,0.000,0.000,-1.498,-3.634,0.451,5.768,3.207,6.142,
122.540,133.515,-1.648,-3.858,1.632,0.001,0.005,0.409,0.000,1.388,0.763,2.648,0.000,2.226,1.184,0.703,0.000,0.000,3.142,0.000,0.000,0.000,0.000,0.000,0.000,0.000,0.000,0.000,0.000,0.000,3.142,6.283,0.000,2.100,1.897,1.799,4.285,0.398,1.000,4.711,0.000,0.000,-1.826,-3.654,0.451,5.764,3.145,0.000,4.183,4.384,4.484,1.998,5.882,5.284,1.571,0.000,0.000,-1.498,-3.634,0.451,5.768,3.207,6.142,
122.628,133.603,-1.648,-3.858,1.632,0.001,0.005,0.409,0.000,1.388,0.763,2.648,0.000,2.226,1.184,0.703,0.000,0.000,3.142,0.000,0.000,0.000,0.000,0.000,0.000,0.000,0.000,0.000,0.000,0.000,3.142,6.283,0.000,2.100,1.897,1.799,4.285,0.398,1.000,4.711,0.000,0.000,-1.826,-3.654,0.451,5.764,3.145,0.000,4.183,4.384,4.484,1.998,5.882,5.284,1.571,0.000,0.000,-1.498,-3.634,0.451,5.768,3.207,6.142,
122.740,133.715,-1.648,-3.858,1.632,0.001,0.005,0.409,0.000,1.388,0.763,2.648,0.000,0.000,1.184,0.703,0.000,0.000,3.142,0.000,0.000,0.000,0.000,0.000,0.000,1.559,0.000,0.000,0.000,0.000,3.142,6.283,0.000,2.100,1.897,1.799,4.285,0.398,1.000,4.711,0.000,0.000,-1.826,-3.654,0.451,5.764,3.145,0.000,4.183,4.384,4.484,1.998,5.882,5.284,1.571,0.000,0.000,-1.498,-3.634,0.451,5.768,3.207,6.142,
122.840,133.815,-1.648,-3.858,1.632,0.001,0.005,0.409,0.000,1.388,0.763,2.648,0.000,0.000,1.184,0.703,0.000,0.000,3.142,0.000,0.000,0.000,0.000,0.000,0.000,1.485,0.000,0.000,0.000,0.000,3.142,6.283,0.000,2.100,1.897,1.799,4.285,0.398,1.000,4.711,0.000,0.000,-1.826,-3.654,0.451,5.764,3.145,0.000,4.183,4.384,4.484,1.998,5.882,5.284,1.571,0.000,0.000,-1.498,-3.634,0.451,5.768,3.207,6.142,
122.940,133.915,-1.648,-3.858,1.632,0.001,0.005,0.409,0.000,1.388,0.763,2.648,0.000,0.000,1.184,0.703,0.000,0.000,3.142,0.000,0.000,0.000,0.000,0.000,0.000,1.430,0.000,0.000,0.000,0.000,3.142,6.283,0.000,2.100,1.897,1.799,4.285,0.398,1.000,4.711,0.000,0.000,-1.826,-3.654,0.451,5.764,3.145,0.000,4.183,4.384,4.484,1.998,5.882,5.284,1.571,0.000,0.000,-1.498,-3.634,0.451,5.768,3.207,6.142,
123.040,134.015,-1.648,-3.858,1.632,0.001,0.005,0.409,0.000,1.388,0.763,2.648,0.000,0.000,1.184,0.703,0.000,0.000,3.142,0.000,0.000,0.000,0.000,0.000,0.000,1.441,0.000,0.000,0.000,0.000,3.142,6.283,0.000,2.100,1.897,1.799,4.285,0.398,1.000,4.711,0.000,0.000,-1.826,-3.654,0.451,5.764,3.145,0.000,4.183,4.384,4.484,1.998,5.882,5.284,1.571,0.000,0.000,-1.498,-3.634,0.451,5.768,3.207,6.142,
123.140,134.115,-1.648,-3.858,1.632,0.001,0.005,0.409,0.000,1.388,0.763,2.648,0.000,0.000,1.184,0.703,0.000,0.000,3.142,0.000,0.000,0.000,0.000,0.000,0.000,1.554,0.000,0.000,0.000,0.000,3.142,6.283,0.000,2.100,1.897,1.799,4.285,0.398,1.000,4.711,0.000,0.000,-1.826,-3.654,0.451,5.764,3.145,0.000,4.183,4.384,4.484,1.998,5.882,5.284,1.571,0.000,0.000,-1.498,-3.634,0.451,5.768,3.207,6.142,
123.240,134.215,-1.648,-3.858,1.632,0.001,0.005,0.409,0.000,1.388,0.763,2.648,0.000,2.226,1.184,0.703,0.000,0.000,3.142,0.000,0.000,0.000,0.000,0.000,0.000,0.000,0.000,0.000,0.000,0.000,3.142,6.283,0.000,2.100,1.897,1.799,4.285,0.398,1.000,4.711,0.000,0.000,-1.826,-3.654,0.451,5.764,3.145,0.000,4.183,4.384,4.484,1.998,5.882,5.284,1.571,0.000,0.000,-1.498,-3.634,0.451,5.768,3.207,6.142,
123.339,134.314,-1.648,-3.858,1.632,0.001,0.005,0.409,0.000,1.388,0.763,2.648,0.000,2.226,1.184,0.703,0.000,0.000,3.142,0.000,0.000,0.000,0.000,0.000,0.000,0.000,0.000,0.000,0.000,0.000,3.142,6.283,0.000,2.100,1.897,1.799,4.285,0.398,1.000,4.711,0.000,0.000,-1.826,-3.654,0.451,5.764,3.145,0.000,4.183,4.384,4.484,1.998,5.882,5.284,1.571,0.000,0.000,-1.498,-3.634,0.451,5.768,3.207,6.142,
123.440,134.415,-1.648,-3.858,1.632,0.001,0.005,0.409,0.000,1.388,0.763,2.648,0.000,2.226,1.184,0.703,0.000,0.000,3.142,0.000,0.000,0.000,0.000,0.000,0.000,0.000,0.000,0.000,0.000,0.000,3.142,6.283,0.000,2.100,1.897,1.799,4.285,0.398,1.000,4.711,0.000,0.000,-1.826,-3.654,0.451,5.764,3.145,0.000,4.183,4.384,4.484,1.998,5.882,5.284,1.571,0.000,0.000,-1.498,-3.634,0.451,5.768,3.207,6.142,
123.522,134.498,-1.648,-3.858,1.632,0.001,0.005,0.409,0.000,1.388,0.763,2.648,0.000,2.226,1.184,0.703,0.000,0.000,3.142,0.000,0.000,0.000,0.000,0.000,0.000,0.000,0.000,0.000,0.000,0.000,3.142,6.283,0.000,2.100,1.897,1.799,4.285,0.398,1.000,4.711,0.000,0.000,-1.826,-3.654,0.451,5.764,3.145,0.000,4.183,4.384,4.484,1.998,5.882,5.284,1.571,0.000,0.000,-1.498,-3.634,0.451,5.768,3.207,6.142,
