deveshdatwani/Gopher/Assets/Data/07-15 15-18-34/Reading_robot_value.csv
game_time,true_time,x,y,az,vx,vaz,dis_to_obs_0,dis_to_obs_36,dis_to_obs_72,dis_to_obs_108,dis_to_obs_144,dis_to_obs_180,dis_to_obs_-144,dis_to_obs_-108,dis_to_obs_-72,dis_to_obs_-36,dis_to_min_obs,direction_to_min_obs,dis_to_human_0,dis_to_human_36,dis_to_human_72,dis_to_human_108,dis_to_human_144,dis_to_human_180,dis_to_human_-144,dis_to_human_-108,dis_to_human_-72,dis_to_human_-36,dis_to_min_human,direction_to_min_human,main_cam_yaw,main_cam_pitch,left_joint_1,left_joint_2,left_joint_3,left_joint_4,left_joint_5,left_joint_6,left_joint_7,left_joint_gripper,left_is_grasping,left_end_x,left_end_y,left_end_z,left_end_ax,left_end_ay,left_end_az,right_joint_1,right_joint_2,right_joint_3,right_joint_4,right_joint_5,right_joint_6,right_joint_7,right_joint_gripper,right_is_grasping,right_end_x,right_end_y,right_end_z,right_end_ax,right_end_ay,right_end_az,
178.320,191.356,-4.623,10.072,3.731,-0.012,1.132,1.999,0.000,1.544,1.897,1.523,1.208,1.294,1.129,2.403,0.000,0.000,1.000,0.000,0.000,0.000,0.000,0.000,0.000,0.000,0.000,0.000,0.000,0.000,3.142,0.002,0.000,2.100,1.897,1.799,4.285,0.398,1.000,4.711,0.000,0.000,-4.710,9.816,0.451,0.255,3.599,4.246,4.182,4.383,4.485,1.998,5.882,5.284,1.571,0.000,0.000,-4.893,10.089,0.451,0.301,3.571,4.127,
178.420,191.456,-4.623,10.072,3.826,0.015,1.161,2.044,0.000,1.425,1.780,1.264,1.297,1.203,1.966,3.282,0.000,0.000,0.930,0.000,0.000,0.000,0.000,0.000,0.000,0.000,0.000,0.000,0.000,0.000,3.142,0.002,0.000,2.100,1.897,1.799,4.286,0.398,1.000,4.711,0.000,0.000,-4.686,9.808,0.451,0.296,3.574,4.157,4.182,4.383,4.485,1.999,5.882,5.284,1.571,0.000,0.000,-4.893,10.063,0.451,0.340,3.542,4.036,
178.520,191.556,-4.647,10.051,3.906,0.685,0.422,2.166,0.000,1.360,1.730,1.043,1.425,1.156,3.066,3.127,0.000,0.000,0.860,0.000,0.000,0.000,0.000,0.000,0.000,0.000,0.000,0.000,0.000,0.000,3.142,6.280,6.283,2.106,1.899,1.796,4.285,0.400,0.996,4.709,0.000,0.000,-4.685,9.785,0.450,0.329,3.546,4.074,4.182,4.386,4.481,1.998,5.884,5.283,1.570,0.000,0.000,-4.915,10.021,0.451,0.371,3.512,3.952,
178.608,191.644,-4.718,9.982,3.934,1.228,0.690,2.125,0.000,1.368,1.786,1.122,1.567,1.185,2.943,0.000,0.000,0.000,0.825,0.000,0.000,0.000,0.000,0.000,0.000,0.000,0.000,0.000,0.000,0.000,3.142,6.282,6.283,2.102,1.898,1.799,4.286,0.399,0.999,4.710,0.000,0.000,-4.752,9.714,0.451,0.339,3.541,4.051,4.182,4.385,4.484,1.998,5.882,5.284,1.571,0.000,0.000,-4.986,9.945,0.451,0.379,3.503,3.927,
178.720,191.756,-4.784,9.914,4.009,1.081,1.387,2.344,0.000,1.337,1.800,1.210,1.803,1.187,4.706,0.000,0.000,0.000,0.755,0.000,0.000,0.000,0.000,0.000,0.000,0.000,0.000,0.000,0.000,0.000,3.142,0.003,0.000,2.098,1.898,1.801,4.286,0.398,1.001,4.712,0.000,0.000,-4.799,9.644,0.451,0.367,3.518,3.980,4.182,4.384,4.486,1.999,5.882,5.284,1.571,0.000,0.000,-5.049,9.857,0.452,0.405,3.476,3.853,
178.820,191.856,-4.846,9.835,4.145,0.708,1.043,2.035,0.000,1.278,1.792,1.338,2.286,1.307,3.981,0.000,0.000,0.000,0.755,0.000,0.000,0.000,0.000,0.000,0.000,0.000,0.000,0.000,0.000,0.000,3.142,0.002,0.000,2.099,1.898,1.799,4.286,0.399,1.000,4.711,0.000,0.000,-4.824,9.565,0.451,0.414,3.464,3.840,4.183,4.384,4.485,1.999,5.882,5.284,1.571,0.000,0.000,-5.101,9.742,0.452,0.447,3.416,3.710,
178.901,191.937,-4.884,9.772,4.222,0.835,0.879,1.822,0.000,1.250,1.804,1.430,2.412,2.149,0.000,0.000,0.000,0.000,0.755,0.000,0.000,0.000,0.000,0.000,0.000,0.000,0.000,0.000,0.000,0.000,3.142,6.283,0.000,2.102,1.898,1.799,4.286,0.399,0.999,4.711,0.000,0.000,-4.840,9.506,0.451,0.437,3.429,3.758,4.183,4.385,4.484,1.998,5.883,5.283,1.571,0.000,0.000,-5.131,9.660,0.451,0.466,3.379,3.625,
179.020,192.056,-4.917,9.708,4.286,0.968,1.029,1.729,0.000,1.228,1.824,1.522,1.724,2.239,0.000,0.000,0.000,0.000,0.755,0.000,0.000,0.000,0.000,0.000,0.000,0.000,0.000,0.000,0.000,0.000,3.142,0.001,0.000,2.101,1.898,1.799,4.286,0.399,0.999,4.711,0.000,0.000,-4.856,9.445,0.451,0.454,3.400,3.690,4.182,4.385,4.485,1.999,5.883,5.283,1.571,0.000,0.000,-5.156,9.581,0.451,0.480,3.347,3.555,
179.120,192.156,-4.959,9.610,4.339,0.796,0.026,3.691,0.000,1.204,1.860,1.625,1.746,4.078,0.000,0.000,0.000,0.000,0.755,0.000,0.000,0.000,0.000,0.000,0.000,0.000,0.000,0.000,0.000,0.000,3.142,0.001,0.000,2.099,1.897,1.799,4.285,0.398,1.000,4.712,0.000,0.000,-4.884,9.349,0.451,0.468,3.375,3.634,4.183,4.383,4.484,1.998,5.882,5.284,1.571,0.000,0.000,-5.191,9.469,0.452,0.491,3.320,3.498,
179.220,192.256,-4.982,9.552,4.339,0.409,6.283,3.630,0.000,1.195,1.883,1.653,1.808,3.989,0.000,0.000,0.000,0.000,0.755,0.000,0.000,0.000,0.000,0.000,0.000,0.000,0.000,0.000,0.000,0.000,3.142,0.001,0.001,2.097,1.897,1.800,4.285,0.397,1.001,4.712,0.000,0.000,-4.908,9.291,0.452,0.469,3.377,3.636,4.184,4.383,4.485,1.998,5.881,5.284,1.571,0.000,0.000,-5.214,9.411,0.452,0.491,3.321,3.499,
179.320,192.356,-4.990,9.530,4.339,0.125,6.283,0.000,0.000,1.191,1.891,1.663,1.831,3.954,0.000,0.000,0.000,0.000,0.755,2.826,0.000,0.000,0.000,0.000,0.000,0.000,0.000,0.000,0.000,0.000,3.142,0.000,0.001,2.099,1.897,1.799,4.285,0.398,1.000,4.712,0.000,0.000,-4.916,9.270,0.451,0.468,3.376,3.634,4.183,4.383,4.485,1.998,5.882,5.283,1.571,0.000,0.000,-5.222,9.390,0.451,0.490,3.320,3.498,
179.420,192.456,-4.992,9.526,4.339,0.000,6.283,0.000,0.000,1.191,1.893,1.665,1.835,3.946,0.000,0.000,0.000,0.000,0.755,2.755,0.000,0.000,0.000,0.000,0.000,0.000,0.000,0.000,0.000,0.000,3.142,6.283,0.000,2.100,1.897,1.799,4.285,0.398,1.000,4.711,0.000,0.000,-4.917,9.266,0.451,0.468,3.375,3.633,4.183,4.384,4.484,1.998,5.882,5.283,1.571,0.000,0.000,-5.223,9.386,0.451,0.490,3.319,3.497,
179.520,192.556,-4.992,9.526,4.339,0.001,0.006,0.000,0.000,1.191,1.893,1.665,1.835,3.947,0.000,0.000,0.000,0.000,0.755,2.728,0.000,0.000,0.000,0.000,0.000,0.000,0.000,0.000,0.000,0.000,3.142,6.283,0.000,2.100,1.897,1.799,4.285,0.398,1.000,4.711,0.000,0.000,-4.917,9.266,0.451,0.468,3.375,3.633,4.183,4.384,4.484,1.998,5.882,5.284,1.571,0.000,0.000,-5.223,9.386,0.451,0.490,3.319,3.497,
179.604,192.640,-4.992,9.526,4.339,0.001,0.006,0.000,0.000,1.191,1.893,1.665,1.835,3.947,0.000,0.000,0.000,0.000,0.755,2.739,0.000,0.000,0.000,0.000,0.000,0.000,0.000,0.000,0.000,0.000,3.142,6.283,0.000,2.100,1.897,1.799,4.285,0.398,1.000,4.711,0.000,0.000,-4.917,9.266,0.451,0.468,3.375,3.633,4.183,4.384,4.484,1.998,5.882,5.284,1.571,0.000,0.000,-5.223,9.386,0.451,0.490,3.319,3.497,
179.720,192.756,-4.992,9.526,4.339,0.001,0.006,3.602,0.000,1.191,1.893,1.665,1.835,3.947,0.000,0.000,0.000,0.000,0.755,0.000,0.000,0.000,0.000,0.000,0.000,0.000,0.000,0.000,0.000,0.000,3.142,6.283,0.000,2.100,1.897,1.799,4.285,0.398,1.000,4.711,0.000,0.000,-4.917,9.266,0.451,0.468,3.375,3.633,4.183,4.384,4.484,1.998,5.882,5.284,1.571,0.000,0.000,-5.223,9.386,0.451,0.490,3.319,3.497,
179.804,192.840,-4.992,9.526,4.319,-0.002,5.475,1.671,0.000,1.194,1.894,1.644,1.868,4.260,0.000,0.000,0.000,0.000,0.755,0.000,0.000,0.000,0.000,0.000,0.000,0.000,0.000,0.000,0.000,0.000,3.142,6.281,0.001,2.101,1.897,1.797,4.285,0.398,0.999,4.711,0.000,0.000,-4.921,9.265,0.451,0.463,3.383,3.652,4.183,4.384,4.483,1.998,5.882,5.283,1.570,0.000,0.000,-5.225,9.390,0.451,0.487,3.328,3.517,
179.905,192.941,-4.991,9.527,4.237,-0.008,4.707,1.535,0.000,1.214,1.908,1.564,2.669,2.403,0.000,0.000,0.000,0.000,0.755,0.000,0.000,0.000,0.000,0.000,0.000,0.000,0.000,0.000,0.000,0.000,3.142,6.280,0.001,2.101,1.897,1.798,4.285,0.398,0.999,4.711,0.000,0.000,-4.943,9.261,0.451,0.442,3.422,3.741,4.182,4.384,4.483,1.998,5.882,5.283,1.570,0.000,0.000,-5.236,9.411,0.452,0.470,3.371,3.608,
180.020,193.056,-4.991,9.527,4.105,-0.007,4.827,1.717,0.000,1.266,1.219,1.827,2.405,1.905,0.000,0.000,0.000,0.000,0.755,0.000,0.000,0.000,0.000,0.000,0.000,0.000,0.000,0.000,0.000,0.000,3.142,6.281,0.000,2.101,1.897,1.799,4.285,0.398,0.999,4.711,0.000,0.000,-4.978,9.257,0.451,0.401,3.480,3.880,4.182,4.384,4.484,1.999,5.881,5.283,1.570,0.000,0.000,-5.248,9.445,0.451,0.435,3.434,3.751,
180.113,193.149,-4.990,9.527,3.987,0.000,5.276,1.878,0.000,1.336,1.190,1.950,2.069,1.523,0.000,0.000,0.000,0.000,0.860,0.000,0.000,0.000,0.000,0.000,0.000,0.000,0.000,0.000,0.000,0.000,3.142,6.281,0.000,2.101,1.897,1.798,4.285,0.398,0.999,4.711,0.000,0.000,-5.009,9.258,0.451,0.360,3.524,3.999,4.182,4.384,4.484,1.998,5.882,5.283,1.570,0.000,0.000,-5.256,9.476,0.451,0.398,3.483,3.873,
180.220,193.256,-4.990,9.527,3.923,0.001,5.246,1.713,0.000,1.386,1.182,1.923,1.934,1.574,4.916,0.000,0.000,0.000,0.930,0.000,0.000,0.000,0.000,0.000,0.000,0.000,0.000,0.000,0.000,0.000,3.142,6.281,0.000,2.101,1.897,1.798,4.285,0.398,0.999,4.711,0.000,0.000,-5.026,9.259,0.451,0.336,3.545,4.061,4.182,4.384,4.484,1.998,5.882,5.283,1.570,0.000,0.000,-5.258,9.492,0.451,0.376,3.507,3.937,
180.320,193.356,-4.990,9.527,3.811,-0.004,5.044,1.545,0.000,1.552,1.179,1.895,1.750,1.690,4.145,0.000,0.000,0.000,1.035,0.000,0.000,0.000,0.000,0.000,0.000,0.000,0.000,0.000,0.000,0.000,3.142,6.281,0.000,2.101,1.897,1.798,4.285,0.398,0.999,4.711,0.000,0.000,-5.056,9.265,0.451,0.289,3.578,4.169,4.182,4.384,4.484,1.998,5.882,5.283,1.570,0.000,0.000,-5.260,9.523,0.451,0.334,3.546,4.049,
180.419,193.455,-4.989,9.527,3.711,-0.004,5.083,1.435,0.000,4.190,1.188,1.890,1.628,1.829,3.900,0.000,0.000,0.000,1.141,0.000,0.000,0.000,0.000,0.000,0.000,0.000,0.000,0.000,0.000,0.000,3.142,6.281,0.000,2.101,1.897,1.798,4.285,0.398,0.999,4.711,0.000,0.000,-5.081,9.273,0.451,0.246,3.603,4.262,4.182,4.384,4.484,1.998,5.882,5.283,1.570,0.000,0.000,-5.259,9.550,0.451,0.293,3.576,4.145,
180.520,193.556,-4.989,9.527,3.631,-0.002,5.092,1.459,0.000,0.000,1.205,1.900,1.554,2.634,2.442,0.000,0.000,0.000,1.281,0.000,0.000,2.727,0.000,0.000,0.000,0.000,0.000,0.000,0.000,0.000,3.142,6.281,0.000,2.101,1.897,1.798,4.285,0.398,0.999,4.711,0.000,0.000,-5.101,9.281,0.451,0.210,3.619,4.335,4.182,4.384,4.484,1.998,5.882,5.283,1.570,0.000,0.000,-5.256,9.571,0.451,0.259,3.596,4.220,
180.620,193.656,-4.989,9.527,3.514,-0.001,5.115,1.399,0.000,0.000,1.245,1.231,1.802,2.553,2.378,0.000,0.000,0.000,1.457,0.000,0.000,0.000,0.000,0.000,0.000,0.000,0.000,0.000,0.000,0.000,3.142,6.281,0.000,2.101,1.897,1.798,4.285,0.398,0.999,4.711,0.000,0.000,-5.129,9.296,0.451,0.155,3.638,4.441,4.182,4.384,4.484,1.998,5.882,5.283,1.570,0.000,0.000,-5.249,9.602,0.451,0.206,3.621,4.328,
180.720,193.756,-4.988,9.527,3.420,-0.003,5.204,1.823,0.000,2.014,1.292,1.201,1.964,2.233,1.641,0.000,0.000,0.000,1.562,0.000,0.000,0.000,0.000,0.000,0.000,0.000,0.000,0.000,0.000,0.000,3.142,6.281,0.000,2.101,1.897,1.798,4.285,0.398,0.999,4.711,0.000,0.000,-5.149,9.310,0.451,0.110,3.649,4.524,4.182,4.384,4.484,1.998,5.882,5.283,1.570,0.000,0.000,-5.240,9.626,0.451,0.162,3.636,4.412,
180.820,193.856,-4.987,9.527,3.327,-0.007,5.124,2.383,0.000,0.000,1.354,1.183,1.920,2.001,1.546,0.000,0.000,0.000,1.702,0.000,0.000,0.000,0.000,0.000,0.000,0.000,0.000,0.000,0.000,0.000,3.142,6.281,0.000,2.101,1.897,1.798,4.285,0.398,0.999,4.711,0.000,0.000,-5.167,9.326,0.451,0.064,3.656,4.605,4.182,4.384,4.484,1.998,5.882,5.283,1.570,0.000,0.000,-5.228,9.649,0.451,0.118,3.648,4.494,
180.920,193.956,-4.988,9.527,3.232,0.014,5.147,4.941,0.000,4.108,1.439,1.176,1.895,1.826,1.632,4.236,0.000,0.000,1.808,0.000,0.000,0.000,0.000,0.000,0.000,0.000,0.000,0.000,0.000,0.000,3.142,6.281,0.000,2.101,1.897,1.798,4.285,0.398,0.999,4.711,0.000,0.000,-5.186,9.343,0.451,0.017,3.660,4.688,4.182,4.384,4.484,1.998,5.882,5.283,1.570,0.000,0.000,-5.216,9.671,0.451,0.071,3.656,4.577,
181.020,194.056,-4.988,9.527,3.137,0.000,5.130,0.000,0.000,3.528,0.000,1.180,1.888,1.693,1.744,3.211,0.000,0.000,1.913,0.000,0.000,0.000,2.723,0.000,0.000,0.000,0.000,0.000,0.000,0.000,3.142,6.281,0.000,2.101,1.897,1.798,4.285,0.398,0.999,4.711,0.000,0.000,-5.204,9.363,0.451,6.254,3.659,4.770,4.182,4.384,4.484,1.998,5.882,5.283,1.570,0.000,0.000,-5.202,9.692,0.451,0.024,3.660,4.660,
181.120,194.156,-4.988,9.526,3.045,-0.002,5.138,0.000,0.000,1.634,4.150,1.193,1.897,1.593,1.889,4.483,0.000,0.000,1.983,0.000,0.000,0.000,0.000,0.000,0.000,0.000,0.000,0.000,0.000,0.000,3.142,6.281,0.000,2.101,1.897,1.798,4.285,0.398,0.999,4.711,0.000,0.000,-5.218,9.383,0.451,6.208,3.655,4.851,4.182,4.384,4.484,1.998,5.882,5.283,1.570,0.000,0.000,-5.186,9.711,0.451,6.262,3.660,4.740,
181.220,194.256,-4.988,9.526,2.951,-0.003,5.117,0.000,0.000,1.552,4.022,1.218,1.923,1.537,2.702,2.395,0.000,0.000,1.878,0.000,0.000,0.000,0.000,0.000,0.000,0.000,0.000,0.000,0.000,0.000,3.142,6.281,0.000,2.101,1.897,1.798,4.285,0.398,0.999,4.711,0.000,0.000,-5.230,9.405,0.451,6.162,3.647,4.933,4.182,4.384,4.484,1.998,5.882,5.283,1.570,0.000,0.000,-5.168,9.728,0.451,6.215,3.656,4.822,
181.320,194.356,-4.988,9.526,2.855,-0.010,5.107,0.000,0.000,1.700,0.000,1.255,1.209,1.940,2.448,2.376,0.000,0.000,1.983,0.000,0.000,0.000,0.000,0.000,0.000,0.000,0.000,0.000,0.000,0.000,3.142,6.281,0.000,2.101,1.897,1.798,4.285,0.398,0.999,4.711,0.000,0.000,-5.240,9.428,0.451,6.116,3.635,5.018,4.182,4.384,4.484,1.998,5.882,5.283,1.570,0.000,0.000,-5.147,9.744,0.451,6.168,3.648,4.906,
181.420,194.456,-4.987,9.525,2.759,-0.002,5.051,0.000,0.000,1.822,0.000,1.308,1.186,1.947,2.151,1.527,0.000,0.000,2.089,0.000,0.000,0.000,0.000,0.000,0.000,0.000,0.000,0.000,0.000,0.000,3.142,6.281,0.000,2.101,1.897,1.798,4.285,0.398,0.999,4.711,0.000,0.000,-5.248,9.453,0.451,6.071,3.618,5.105,4.182,4.384,4.484,1.998,5.882,5.283,1.570,0.000,0.000,-5.125,9.758,0.451,6.122,3.637,4.991,
181.520,194.556,-4.988,9.525,2.663,0.013,5.155,0.000,0.000,1.722,0.000,1.380,1.176,1.910,1.937,1.574,0.000,0.000,2.159,0.000,0.000,0.000,0.000,0.000,0.000,0.000,0.000,0.000,0.000,0.000,3.142,6.281,0.000,2.101,1.897,1.798,4.285,0.398,0.999,4.711,0.000,0.000,-5.254,9.478,0.451,6.028,3.598,5.193,4.182,4.384,4.484,1.998,5.882,5.283,1.570,0.000,0.000,-5.103,9.770,0.451,6.077,3.621,5.077,
181.620,194.656,-4.988,9.525,2.572,-0.011,5.139,0.000,0.000,1.579,4.132,1.468,1.176,1.892,1.782,1.664,0.000,0.000,2.264,0.000,0.000,0.000,0.000,0.000,0.000,0.000,0.000,0.000,0.000,0.000,3.142,6.281,0.000,2.101,1.897,1.798,4.285,0.398,0.999,4.711,0.000,0.000,-5.257,9.502,0.451,5.989,3.575,5.278,4.182,4.384,4.484,1.998,5.882,5.283,1.570,0.000,0.000,-5.080,9.779,0.451,6.036,3.602,5.161,
181.708,194.744,-4.988,9.525,2.477,-0.011,5.096,0.000,0.000,1.467,3.558,4.226,1.186,1.889,1.659,1.787,0.000,0.000,2.369,0.000,0.000,0.000,0.000,0.000,0.000,0.000,0.000,0.000,0.000,0.000,3.142,6.281,0.000,2.101,1.897,1.798,4.285,0.398,0.999,4.711,0.000,0.000,-5.258,9.527,0.451,5.950,3.547,5.369,4.182,4.384,4.484,1.998,5.882,5.283,1.570,0.000,0.000,-5.055,9.786,0.451,5.995,3.579,5.249,
181.820,194.856,-4.987,9.524,2.400,-0.006,5.083,0.000,0.000,1.478,1.588,4.136,1.202,1.899,1.580,1.915,0.000,0.000,2.440,0.000,0.000,0.000,0.000,0.000,0.000,0.000,0.000,0.000,0.000,0.000,3.142,6.281,0.000,2.101,1.897,1.798,4.285,0.398,0.999,4.711,0.000,0.000,-5.257,9.547,0.451,5.921,3.521,5.445,4.182,4.384,4.484,1.998,5.882,5.283,1.570,0.000,0.000,-5.035,9.790,0.451,5.963,3.557,5.322,
181.920,194.956,-4.987,9.524,2.284,0.001,5.117,0.000,0.000,1.401,1.579,0.000,1.243,1.228,1.667,2.759,0.000,0.000,2.545,0.000,0.000,0.000,0.000,0.000,0.000,0.000,0.000,0.000,0.000,0.000,3.142,6.281,0.000,2.101,1.897,1.798,4.285,0.398,0.999,4.711,0.000,0.000,-5.252,9.578,0.451,5.880,3.477,5.562,4.182,4.384,4.484,1.998,5.882,5.283,1.570,0.000,0.000,-5.004,9.794,0.451,5.918,3.518,5.437,
182.020,195.056,-4.988,9.524,2.191,0.013,5.154,0.000,0.000,1.629,1.736,0.000,1.291,1.200,1.985,2.339,0.000,0.000,2.650,0.000,0.000,0.000,0.000,0.000,0.000,0.000,0.000,0.000,0.000,0.000,3.142,6.281,0.000,2.101,1.897,1.798,4.285,0.398,0.999,4.711,0.000,0.000,-5.247,9.603,0.451,5.851,3.438,5.659,4.182,4.384,4.484,1.998,5.882,5.283,1.570,0.000,0.000,-4.979,9.795,0.451,5.885,3.484,5.530,
182.107,195.143,-5.007,9.552,2.119,0.705,5.992,0.000,0.000,2.257,1.867,0.000,1.372,1.216,1.964,2.163,0.000,0.000,2.720,0.000,0.000,0.000,0.000,0.000,0.000,0.000,0.000,0.000,0.000,0.000,3.142,6.277,6.283,2.106,1.900,1.797,4.285,0.400,0.996,4.709,0.000,0.000,-5.259,9.647,0.450,5.834,3.406,5.731,4.182,4.387,4.482,1.997,5.884,5.283,1.570,0.000,0.000,-4.979,9.820,0.450,5.865,3.454,5.601,
182.220,195.256,-5.049,9.621,2.106,1.268,6.121,0.000,0.000,2.362,1.776,0.000,1.463,1.285,2.001,2.192,0.000,0.000,2.755,0.000,0.000,0.000,0.000,0.000,0.000,0.000,0.000,0.000,0.000,0.000,3.142,6.278,6.283,2.105,1.898,1.796,4.285,0.400,0.997,4.709,0.000,0.000,-5.300,9.719,0.450,5.831,3.400,5.746,4.182,4.386,4.482,1.997,5.883,5.282,1.570,0.000,0.000,-5.017,9.888,0.451,5.861,3.449,5.615,
182.315,195.351,-5.128,9.756,2.084,1.183,6.118,0.000,0.000,0.000,1.611,0.000,1.640,1.419,2.072,2.258,0.000,0.000,2.791,0.000,0.000,0.000,0.000,0.000,0.000,0.000,0.000,0.000,0.000,0.000,3.142,0.000,0.001,2.098,1.897,1.799,4.285,0.397,1.001,4.712,0.000,0.000,-5.377,9.863,0.451,5.821,3.389,5.774,4.183,4.383,4.485,1.998,5.882,5.283,1.570,0.000,0.000,-5.091,10.024,0.452,5.851,3.439,5.642,
182.420,195.456,-5.167,9.825,2.083,0.872,0.002,0.000,0.000,0.000,1.548,0.000,1.721,1.487,1.755,2.313,0.000,0.000,2.791,0.000,0.000,0.000,0.000,0.000,0.000,0.000,0.000,0.000,0.000,0.000,3.142,0.000,0.001,2.098,1.897,1.799,4.285,0.398,1.001,4.712,0.000,0.000,-5.416,9.933,0.451,5.821,3.388,5.776,4.184,4.383,4.485,1.998,5.882,5.283,1.570,0.000,0.000,-5.130,10.094,0.452,5.850,3.439,5.643,
182.520,195.556,-5.216,9.913,2.082,0.927,0.002,0.000,0.000,0.000,0.000,4.379,1.822,2.326,1.632,2.384,0.000,0.000,2.791,0.000,0.000,0.000,0.000,0.000,0.000,0.000,0.000,0.000,0.000,0.000,3.142,6.281,0.000,2.102,1.898,1.798,4.285,0.399,0.999,4.711,0.000,0.000,-5.465,10.019,0.451,5.823,3.388,5.774,4.183,4.384,4.483,1.997,5.882,5.283,1.570,0.000,0.000,-5.179,10.180,0.451,5.852,3.439,5.642,
182.620,195.656,-5.266,10.001,2.082,1.103,0.002,0.000,0.000,0.000,0.000,4.468,1.924,2.381,1.683,2.560,0.000,0.000,2.791,0.000,0.000,0.000,0.000,0.000,0.000,0.000,0.000,0.000,0.000,0.000,3.142,6.282,0.000,2.101,1.898,1.798,4.285,0.398,0.999,4.711,0.000,0.000,-5.515,10.107,0.451,5.822,3.388,5.775,4.183,4.384,4.483,1.998,5.882,5.283,1.570,0.000,0.000,-5.228,10.269,0.451,5.852,3.438,5.643,
182.719,195.755,-5.319,10.095,2.081,1.052,0.002,4.132,0.000,2.352,1.460,4.562,2.032,2.439,1.736,1.564,0.000,0.000,2.791,0.000,0.000,0.000,0.000,0.000,0.000,0.000,0.000,0.000,0.000,0.000,3.142,6.283,0.000,2.100,1.897,1.798,4.285,0.398,1.000,4.711,0.000,0.000,-5.567,10.202,0.451,5.821,3.388,5.777,4.183,4.384,4.484,1.998,5.882,5.283,1.570,0.000,0.000,-5.280,10.363,0.451,5.851,3.438,5.644,
182.820,195.856,-5.347,10.147,2.081,0.507,6.283,4.074,0.000,3.831,1.529,4.614,2.091,2.471,1.766,1.439,0.000,0.000,2.826,0.000,0.000,0.000,0.000,0.000,0.000,0.000,0.000,0.000,0.000,0.000,3.142,0.002,0.001,2.097,1.897,1.800,4.285,0.397,1.002,4.713,0.000,0.000,-5.596,10.255,0.452,5.819,3.387,5.779,4.184,4.382,4.486,1.999,5.881,5.284,1.571,0.000,0.000,-5.309,10.415,0.452,5.849,3.438,5.646,
182.917,195.953,-5.364,10.175,2.081,0.129,6.283,4.041,0.000,3.815,1.567,4.642,2.124,2.488,1.782,1.369,0.000,0.000,3.001,0.000,0.000,0.000,0.000,0.000,0.000,0.000,0.000,0.000,0.000,0.000,3.142,0.000,0.001,2.099,1.897,1.799,4.285,0.398,1.000,4.712,0.000,0.000,-5.612,10.283,0.451,5.821,3.387,5.777,4.183,4.383,4.485,1.998,5.882,5.283,1.571,0.000,0.000,-5.325,10.443,0.451,5.850,3.438,5.645,
183.020,196.056,-5.366,10.179,2.081,0.016,0.002,4.036,0.000,3.812,1.571,4.646,2.128,2.491,1.784,1.360,0.000,0.000,3.001,0.000,0.000,0.000,0.000,0.000,0.000,0.000,0.000,0.000,0.000,0.000,3.142,6.283,0.000,2.100,1.897,1.799,4.285,0.398,1.000,4.711,0.000,0.000,-5.614,10.286,0.451,5.821,3.387,5.777,4.183,4.383,4.484,1.998,5.882,5.283,1.570,0.000,0.000,-5.327,10.447,0.451,5.851,3.438,5.644,
183.114,196.150,-5.366,10.179,2.081,0.000,0.008,4.037,0.000,3.812,1.571,4.646,2.128,2.491,1.784,1.360,0.000,0.000,3.001,0.000,0.000,0.000,0.000,0.000,0.000,0.000,0.000,0.000,0.000,0.000,3.142,6.283,0.000,2.100,1.897,1.799,4.285,0.398,1.000,4.711,0.000,0.000,-5.614,10.286,0.451,5.822,3.387,5.777,4.183,4.384,4.484,1.998,5.882,5.284,1.571,0.000,0.000,-5.327,10.447,0.451,5.851,3.438,5.644,
183.220,196.256,-5.366,10.179,2.081,0.000,0.008,4.037,0.000,3.812,1.571,4.646,2.128,2.491,1.784,1.360,0.000,0.000,3.001,0.000,0.000,0.000,0.000,0.000,0.000,0.000,0.000,0.000,0.000,0.000,3.142,6.283,0.000,2.100,1.897,1.799,4.285,0.398,1.000,4.711,0.000,0.000,-5.614,10.286,0.451,5.822,3.387,5.777,4.183,4.384,4.484,1.998,5.882,5.284,1.571,0.000,0.000,-5.327,10.447,0.451,5.851,3.438,5.644,
183.317,196.353,-5.366,10.179,2.081,0.000,0.008,4.037,0.000,3.812,1.571,4.646,2.128,2.491,1.784,1.360,0.000,0.000,3.001,0.000,0.000,0.000,0.000,0.000,0.000,0.000,0.000,0.000,0.000,0.000,3.142,6.283,0.000,2.100,1.897,1.799,4.285,0.398,1.000,4.711,0.000,0.000,-5.614,10.286,0.451,5.822,3.387,5.777,4.183,4.384,4.484,1.998,5.882,5.284,1.571,0.000,0.000,-5.327,10.447,0.451,5.851,3.438,5.644,
183.420,196.456,-5.366,10.179,2.081,0.000,0.008,4.037,0.000,3.812,1.571,4.646,2.128,2.491,1.784,1.360,0.000,0.000,3.001,0.000,0.000,0.000,0.000,0.000,0.000,0.000,0.000,0.000,0.000,0.000,3.142,6.283,0.000,2.100,1.897,1.799,4.285,0.398,1.000,4.711,0.000,0.000,-5.614,10.286,0.451,5.822,3.387,5.777,4.183,4.384,4.484,1.998,5.882,5.284,1.571,0.000,0.000,-5.327,10.447,0.451,5.851,3.438,5.644,
183.514,196.550,-5.366,10.179,2.081,0.000,0.008,4.037,0.000,3.812,1.571,4.646,2.128,2.491,1.784,1.360,0.000,0.000,3.001,0.000,0.000,0.000,0.000,0.000,0.000,0.000,0.000,0.000,0.000,0.000,3.142,6.283,0.000,2.100,1.897,1.799,4.285,0.398,1.000,4.711,0.000,0.000,-5.614,10.286,0.451,5.822,3.387,5.777,4.183,4.384,4.484,1.998,5.882,5.284,1.571,0.000,0.000,-5.327,10.447,0.451,5.851,3.438,5.644,
183.619,196.655,-5.366,10.179,2.081,0.000,0.008,4.037,0.000,3.812,1.571,4.646,2.128,2.491,1.784,1.360,0.000,0.000,3.001,0.000,0.000,0.000,0.000,0.000,0.000,0.000,0.000,0.000,0.000,0.000,3.142,6.283,0.000,2.100,1.897,1.799,4.285,0.398,1.000,4.711,0.000,0.000,-5.614,10.286,0.451,5.822,3.387,5.777,4.183,4.384,4.484,1.998,5.882,5.284,1.571,0.000,0.000,-5.327,10.447,0.451,5.851,3.438,5.644,
183.719,196.755,-5.366,10.179,2.081,0.000,0.008,4.037,0.000,3.812,1.571,4.646,2.128,2.491,1.784,1.360,0.000,0.000,3.001,0.000,0.000,0.000,0.000,0.000,0.000,0.000,0.000,0.000,0.000,0.000,3.142,6.283,0.000,2.100,1.897,1.799,4.285,0.398,1.000,4.711,0.000,0.000,-5.614,10.286,0.451,5.822,3.387,5.777,4.183,4.384,4.484,1.998,5.882,5.284,1.571,0.000,0.000,-5.327,10.447,0.451,5.851,3.438,5.644,
183.820,196.856,-5.366,10.179,2.081,0.000,0.008,4.037,0.000,3.812,1.571,4.646,2.128,2.491,1.784,1.360,0.000,0.000,3.001,0.000,0.000,0.000,0.000,0.000,0.000,0.000,0.000,0.000,0.000,0.000,3.142,6.283,0.000,2.100,1.897,1.799,4.285,0.398,1.000,4.711,0.000,0.000,-5.614,10.286,0.451,5.822,3.387,5.777,4.183,4.384,4.484,1.998,5.882,5.284,1.571,0.000,0.000,-5.327,10.447,0.451,5.851,3.438,5.644,
183.920,196.956,-5.366,10.179,2.081,0.000,0.008,4.037,0.000,3.812,1.571,4.646,2.128,2.491,1.784,1.360,0.000,0.000,3.001,0.000,0.000,0.000,0.000,0.000,0.000,0.000,0.000,0.000,0.000,0.000,3.142,6.283,0.000,2.100,1.897,1.799,4.285,0.398,1.000,4.711,0.000,0.000,-5.614,10.286,0.451,5.822,3.387,5.777,4.183,4.384,4.484,1.998,5.882,5.284,1.571,0.000,0.000,-5.327,10.447,0.451,5.851,3.438,5.644,
184.020,197.056,-5.366,10.179,2.081,0.000,0.008,4.037,0.000,3.812,1.571,4.646,2.128,2.491,1.784,1.360,0.000,0.000,3.001,0.000,0.000,0.000,0.000,0.000,0.000,0.000,0.000,0.000,0.000,0.000,3.142,6.283,0.000,2.100,1.897,1.799,4.285,0.398,1.000,4.711,0.000,0.000,-5.614,10.286,0.451,5.822,3.387,5.777,4.183,4.384,4.484,1.998,5.882,5.284,1.571,0.000,0.000,-5.327,10.447,0.451,5.851,3.438,5.644,
184.120,197.156,-5.366,10.179,2.081,0.000,0.008,4.037,0.000,3.812,1.571,4.646,2.128,2.491,1.784,1.360,0.000,0.000,3.001,0.000,0.000,0.000,0.000,0.000,0.000,0.000,0.000,0.000,0.000,0.000,3.142,6.283,0.000,2.100,1.897,1.799,4.285,0.398,1.000,4.711,0.000,0.000,-5.614,10.286,0.451,5.822,3.387,5.777,4.183,4.384,4.484,1.998,5.882,5.284,1.571,0.000,0.000,-5.327,10.447,0.451,5.851,3.438,5.644,
184.220,197.256,-5.366,10.179,2.081,0.000,0.008,4.037,0.000,3.812,1.571,4.646,2.128,2.491,1.784,1.360,0.000,0.000,3.001,0.000,0.000,0.000,0.000,0.000,0.000,0.000,0.000,0.000,0.000,0.000,3.142,6.283,0.000,2.100,1.897,1.799,4.285,0.398,1.000,4.711,0.000,0.000,-5.614,10.286,0.451,5.822,3.387,5.777,4.183,4.384,4.484,1.998,5.882,5.284,1.571,0.000,0.000,-5.327,10.447,0.451,5.851,3.438,5.644,
184.320,197.356,-5.366,10.179,2.081,0.000,0.008,4.037,0.000,3.812,1.571,4.646,2.128,2.491,1.784,1.360,0.000,0.000,3.001,0.000,0.000,0.000,0.000,0.000,0.000,0.000,0.000,0.000,0.000,0.000,3.142,6.283,0.000,2.100,1.897,1.799,4.285,0.398,1.000,4.711,0.000,0.000,-5.614,10.286,0.451,5.822,3.387,5.777,4.183,4.384,4.484,1.998,5.882,5.284,1.571,0.000,0.000,-5.327,10.447,0.451,5.851,3.438,5.644,
184.420,197.456,-5.366,10.179,2.081,0.000,0.008,4.037,0.000,3.812,1.571,4.646,2.128,2.491,1.784,1.360,0.000,0.000,3.001,0.000,0.000,0.000,0.000,0.000,0.000,0.000,0.000,0.000,0.000,0.000,3.142,6.283,0.000,2.100,1.897,1.799,4.285,0.398,1.000,4.711,0.000,0.000,-5.614,10.286,0.451,5.822,3.387,5.777,4.183,4.384,4.484,1.998,5.882,5.284,1.571,0.000,0.000,-5.327,10.447,0.451,5.851,3.438,5.644,
184.520,197.556,-5.366,10.179,2.081,0.000,0.008,4.037,0.000,3.812,1.571,4.646,2.128,2.491,1.784,1.360,0.000,0.000,3.001,0.000,0.000,0.000,0.000,0.000,0.000,0.000,0.000,0.000,0.000,0.000,3.142,6.283,0.000,2.100,1.897,1.799,4.285,0.398,1.000,4.711,0.000,0.000,-5.614,10.286,0.451,5.822,3.387,5.777,4.183,4.384,4.484,1.998,5.882,5.284,1.571,0.000,0.000,-5.327,10.447,0.451,5.851,3.438,5.644,
184.620,197.656,-5.366,10.179,2.081,0.000,0.008,4.037,0.000,3.812,1.571,4.646,2.128,2.491,1.784,1.360,0.000,0.000,3.001,0.000,0.000,0.000,0.000,0.000,0.000,0.000,0.000,0.000,0.000,0.000,3.142,6.283,0.000,2.100,1.897,1.799,4.285,0.398,1.000,4.711,0.000,0.000,-5.614,10.286,0.451,5.822,3.387,5.777,4.183,4.384,4.484,1.998,5.882,5.284,1.571,0.000,0.000,-5.327,10.447,0.451,5.851,3.438,5.644,
184.713,197.749,-5.366,10.179,2.081,0.000,0.008,4.037,0.000,3.812,1.571,4.646,2.128,2.491,1.784,1.360,0.000,0.000,3.001,0.000,0.000,0.000,0.000,0.000,0.000,0.000,0.000,0.000,0.000,0.000,3.142,6.283,0.000,2.100,1.897,1.799,4.285,0.398,1.000,4.711,0.000,0.000,-5.614,10.286,0.451,5.822,3.387,5.777,4.183,4.384,4.484,1.998,5.882,5.284,1.571,0.000,0.000,-5.327,10.447,0.451,5.851,3.438,5.644,
184.811,197.847,-5.366,10.179,2.081,0.000,0.008,4.037,0.000,3.812,1.571,4.646,2.128,2.491,1.784,1.360,0.000,0.000,3.001,0.000,0.000,0.000,0.000,0.000,0.000,0.000,0.000,0.000,0.000,0.000,3.142,6.283,0.000,2.100,1.897,1.799,4.285,0.398,1.000,4.711,0.000,0.000,-5.614,10.286,0.451,5.822,3.387,5.777,4.183,4.384,4.484,1.998,5.882,5.284,1.571,0.000,0.000,-5.327,10.447,0.451,5.851,3.438,5.644,
184.902,197.938,-5.366,10.179,2.081,0.000,0.008,4.037,0.000,3.812,1.571,4.646,2.128,2.491,1.784,1.360,0.000,0.000,3.001,0.000,0.000,0.000,0.000,0.000,0.000,0.000,0.000,0.000,0.000,0.000,3.142,6.283,0.000,2.100,1.897,1.799,4.285,0.398,1.000,4.711,0.000,0.000,-5.614,10.286,0.451,5.822,3.387,5.777,4.183,4.384,4.484,1.998,5.882,5.284,1.571,0.000,0.000,-5.327,10.447,0.451,5.851,3.438,5.644,
185.015,198.051,-5.366,10.179,2.081,0.000,0.008,4.037,0.000,3.812,1.571,4.646,2.128,2.491,1.784,1.360,0.000,0.000,3.001,0.000,0.000,0.000,0.000,0.000,0.000,0.000,0.000,0.000,0.000,0.000,3.142,6.283,0.000,2.100,1.897,1.799,4.285,0.398,1.000,4.711,0.000,0.000,-5.614,10.286,0.451,5.822,3.387,5.777,4.183,4.384,4.484,1.998,5.882,5.284,1.571,0.000,0.000,-5.327,10.447,0.451,5.851,3.438,5.644,
185.120,198.156,-5.366,10.179,2.081,0.000,0.008,4.037,0.000,3.812,1.571,4.646,2.128,2.491,1.784,1.360,0.000,0.000,3.001,0.000,0.000,0.000,0.000,0.000,0.000,0.000,0.000,0.000,0.000,0.000,3.142,6.283,0.000,2.100,1.897,1.799,4.285,0.398,1.000,4.711,0.000,0.000,-5.614,10.286,0.451,5.822,3.387,5.777,4.183,4.384,4.484,1.998,5.882,5.284,1.571,0.000,0.000,-5.327,10.447,0.451,5.851,3.438,5.644,
185.220,198.256,-5.366,10.179,2.081,0.000,0.008,4.037,0.000,3.812,1.571,4.646,2.128,2.491,1.784,1.360,0.000,0.000,3.001,0.000,0.000,0.000,0.000,0.000,0.000,0.000,0.000,0.000,0.000,0.000,3.142,6.283,0.000,2.100,1.897,1.799,4.285,0.398,1.000,4.711,0.000,0.000,-5.614,10.286,0.451,5.822,3.387,5.777,4.183,4.384,4.484,1.998,5.882,5.284,1.571,0.000,0.000,-5.327,10.447,0.451,5.851,3.438,5.644,
185.320,198.356,-5.366,10.179,2.081,0.000,0.008,4.037,0.000,3.812,1.571,4.646,2.128,2.491,1.784,1.360,0.000,0.000,3.001,0.000,0.000,0.000,0.000,0.000,0.000,0.000,0.000,0.000,0.000,0.000,3.142,6.283,0.000,2.100,1.897,1.799,4.285,0.398,1.000,4.711,0.000,0.000,-5.614,10.286,0.451,5.822,3.387,5.777,4.183,4.384,4.484,1.998,5.882,5.284,1.571,0.000,0.000,-5.327,10.447,0.451,5.851,3.438,5.644,
185.420,198.456,-5.366,10.179,2.081,0.000,0.008,4.037,0.000,3.812,1.571,4.646,2.128,2.491,1.784,1.360,0.000,0.000,3.001,0.000,0.000,0.000,0.000,0.000,0.000,0.000,0.000,0.000,0.000,0.000,3.142,6.283,0.000,2.100,1.897,1.799,4.285,0.398,1.000,4.711,0.000,0.000,-5.614,10.286,0.451,5.822,3.387,5.777,4.183,4.384,4.484,1.998,5.882,5.284,1.571,0.000,0.000,-5.327,10.447,0.451,5.851,3.438,5.644,
185.516,198.552,-5.366,10.179,2.081,0.000,0.008,4.037,0.000,3.812,1.571,4.646,2.128,2.491,1.784,1.360,0.000,0.000,3.001,0.000,0.000,0.000,0.000,0.000,0.000,0.000,0.000,0.000,0.000,0.000,3.142,6.283,0.000,2.100,1.897,1.799,4.285,0.398,1.000,4.711,0.000,0.000,-5.614,10.286,0.451,5.822,3.387,5.777,4.183,4.384,4.484,1.998,5.882,5.284,1.571,0.000,0.000,-5.327,10.447,0.451,5.851,3.438,5.644,
185.620,198.656,-5.366,10.179,2.081,0.000,0.008,4.037,0.000,3.812,1.571,4.646,2.128,2.491,1.784,1.360,0.000,0.000,3.001,0.000,0.000,0.000,0.000,0.000,0.000,0.000,0.000,0.000,0.000,0.000,3.142,6.283,0.000,2.100,1.897,1.799,4.285,0.398,1.000,4.711,0.000,0.000,-5.614,10.286,0.451,5.822,3.387,5.777,4.183,4.384,4.484,1.998,5.882,5.284,1.571,0.000,0.000,-5.327,10.447,0.451,5.851,3.438,5.644,
185.713,198.749,-5.366,10.179,2.081,0.000,0.008,4.037,0.000,3.812,1.571,4.646,2.128,2.491,1.784,1.360,0.000,0.000,3.001,0.000,0.000,0.000,0.000,0.000,0.000,0.000,0.000,0.000,0.000,0.000,3.142,6.283,0.000,2.100,1.897,1.799,4.285,0.398,1.000,4.711,0.000,0.000,-5.614,10.286,0.451,5.822,3.387,5.777,4.183,4.384,4.484,1.998,5.882,5.284,1.571,0.000,0.000,-5.327,10.447,0.451,5.851,3.438,5.644,
185.820,198.856,-5.366,10.179,2.081,0.000,0.008,4.037,0.000,3.812,1.571,4.646,2.128,2.491,1.784,1.360,0.000,0.000,3.001,0.000,0.000,0.000,0.000,0.000,0.000,0.000,0.000,0.000,0.000,0.000,3.142,6.283,0.000,2.100,1.897,1.799,4.285,0.398,1.000,4.711,0.000,0.000,-5.614,10.286,0.451,5.822,3.387,5.777,4.183,4.384,4.484,1.998,5.882,5.284,1.571,0.000,0.000,-5.327,10.447,0.451,5.851,3.438,5.644,
185.908,198.944,-5.366,10.179,2.081,0.000,0.008,4.037,0.000,3.812,1.571,4.646,2.128,2.491,1.784,1.360,0.000,0.000,3.001,0.000,0.000,0.000,0.000,0.000,0.000,0.000,0.000,0.000,0.000,0.000,3.142,6.283,0.000,2.100,1.897,1.799,4.285,0.398,1.000,4.711,0.000,0.000,-5.614,10.286,0.451,5.822,3.387,5.777,4.183,4.384,4.484,1.998,5.882,5.284,1.571,0.000,0.000,-5.327,10.447,0.451,5.851,3.438,5.644,
186.020,199.056,-5.366,10.179,2.081,0.000,0.008,4.037,0.000,3.812,1.571,4.646,2.128,2.491,1.784,1.360,0.000,0.000,3.001,0.000,0.000,0.000,0.000,0.000,0.000,0.000,0.000,0.000,0.000,0.000,3.142,6.283,0.000,2.100,1.897,1.799,4.285,0.398,1.000,4.711,0.000,0.000,-5.614,10.286,0.451,5.822,3.387,5.777,4.183,4.384,4.484,1.998,5.882,5.284,1.571,0.000,0.000,-5.327,10.447,0.451,5.851,3.438,5.644,
186.101,199.137,-5.366,10.179,2.081,0.000,0.008,4.037,0.000,3.812,1.571,4.646,2.128,2.491,1.784,1.360,0.000,0.000,3.001,0.000,0.000,0.000,0.000,0.000,0.000,0.000,0.000,0.000,0.000,0.000,3.142,6.283,0.000,2.100,1.897,1.799,4.285,0.398,1.000,4.711,0.000,0.000,-5.614,10.286,0.451,5.822,3.387,5.777,4.183,4.384,4.484,1.998,5.882,5.284,1.571,0.000,0.000,-5.327,10.447,0.451,5.851,3.438,5.644,
186.205,199.241,-5.366,10.179,2.081,0.000,0.008,4.037,0.000,3.812,1.571,4.646,2.128,2.491,1.784,1.360,0.000,0.000,3.001,0.000,0.000,0.000,0.000,0.000,0.000,0.000,0.000,0.000,0.000,0.000,3.142,6.283,0.000,2.100,1.897,1.799,4.285,0.398,1.000,4.711,0.000,0.000,-5.614,10.286,0.451,5.822,3.387,5.777,4.183,4.384,4.484,1.998,5.882,5.284,1.571,0.000,0.000,-5.327,10.447,0.451,5.851,3.438,5.644,
186.320,199.356,-5.366,10.179,2.081,0.000,0.008,4.037,0.000,3.812,1.571,4.646,2.128,2.491,1.784,1.360,0.000,0.000,3.001,0.000,0.000,0.000,0.000,0.000,0.000,0.000,0.000,0.000,0.000,0.000,3.142,6.283,0.000,2.100,1.897,1.799,4.285,0.398,1.000,4.711,0.000,0.000,-5.614,10.286,0.451,5.822,3.387,5.777,4.183,4.384,4.484,1.998,5.882,5.284,1.571,0.000,0.000,-5.327,10.447,0.451,5.851,3.438,5.644,
186.420,199.456,-5.366,10.179,2.081,0.000,0.008,4.037,0.000,3.812,1.571,4.646,2.128,2.491,1.784,1.360,0.000,0.000,3.001,0.000,0.000,0.000,0.000,0.000,0.000,0.000,0.000,0.000,0.000,0.000,3.142,6.283,0.000,2.100,1.897,1.799,4.285,0.398,1.000,4.711,0.000,0.000,-5.614,10.286,0.451,5.822,3.387,5.777,4.183,4.384,4.484,1.998,5.882,5.284,1.571,0.000,0.000,-5.327,10.447,0.451,5.851,3.438,5.644,
186.520,199.556,-5.366,10.179,2.081,0.000,0.008,4.037,0.000,3.812,1.571,4.646,2.128,2.491,1.784,1.360,0.000,0.000,3.001,0.000,0.000,0.000,0.000,0.000,0.000,0.000,0.000,0.000,0.000,0.000,3.142,6.283,0.000,2.100,1.897,1.799,4.285,0.398,1.000,4.711,0.000,0.000,-5.614,10.286,0.451,5.822,3.387,5.777,4.183,4.384,4.484,1.998,5.882,5.284,1.571,0.000,0.000,-5.327,10.447,0.451,5.851,3.438,5.644,
186.620,199.656,-5.366,10.179,2.081,0.000,0.008,4.037,0.000,3.812,1.571,4.646,2.128,2.491,1.784,1.360,0.000,0.000,3.001,0.000,0.000,0.000,0.000,0.000,0.000,0.000,0.000,0.000,0.000,0.000,3.142,6.283,0.000,2.100,1.897,1.799,4.285,0.398,1.000,4.711,0.000,0.000,-5.614,10.286,0.451,5.822,3.387,5.777,4.183,4.384,4.484,1.998,5.882,5.284,1.571,0.000,0.000,-5.327,10.447,0.451,5.851,3.438,5.644,
186.702,199.738,-5.366,10.179,2.081,0.000,0.008,4.037,0.000,3.812,1.571,4.646,2.128,2.491,1.784,1.360,0.000,0.000,3.001,0.000,0.000,0.000,0.000,0.000,0.000,0.000,0.000,0.000,0.000,0.000,3.142,6.283,0.000,2.100,1.897,1.799,4.285,0.398,1.000,4.711,0.000,0.000,-5.614,10.286,0.451,5.822,3.387,5.777,4.183,4.384,4.484,1.998,5.882,5.284,1.571,0.000,0.000,-5.327,10.447,0.451,5.851,3.438,5.644,
186.803,199.839,-5.366,10.179,2.081,0.000,0.008,4.037,0.000,3.812,1.571,4.646,2.128,2.491,1.784,1.360,0.000,0.000,3.001,0.000,0.000,0.000,0.000,0.000,0.000,0.000,0.000,0.000,0.000,0.000,3.142,6.283,0.000,2.100,1.897,1.799,4.285,0.398,1.000,4.711,0.000,0.000,-5.614,10.286,0.451,5.822,3.387,5.777,4.183,4.384,4.484,1.998,5.882,5.284,1.571,0.000,0.000,-5.327,10.447,0.451,5.851,3.438,5.644,
186.920,199.956,-5.366,10.179,2.081,0.000,0.008,4.037,0.000,3.812,1.571,4.646,2.128,2.491,1.784,1.360,0.000,0.000,3.001,0.000,0.000,0.000,0.000,0.000,0.000,0.000,0.000,0.000,0.000,0.000,3.142,6.283,0.000,2.100,1.897,1.799,4.285,0.398,1.000,4.711,0.000,0.000,-5.614,10.286,0.451,5.822,3.387,5.777,4.183,4.384,4.484,1.998,5.882,5.284,1.571,0.000,0.000,-5.327,10.447,0.451,5.851,3.438,5.644,
187.020,200.056,-5.366,10.179,2.081,0.000,0.008,4.037,0.000,3.812,1.571,4.646,2.128,2.491,1.784,1.360,0.000,0.000,3.001,0.000,0.000,0.000,0.000,0.000,0.000,0.000,0.000,0.000,0.000,0.000,3.142,6.283,0.000,2.100,1.897,1.799,4.285,0.398,1.000,4.711,0.000,0.000,-5.614,10.286,0.451,5.822,3.387,5.777,4.183,4.384,4.484,1.998,5.882,5.284,1.571,0.000,0.000,-5.327,10.447,0.451,5.851,3.438,5.644,
187.107,200.143,-5.366,10.179,2.081,0.000,0.008,4.037,0.000,3.812,1.571,4.646,2.128,2.491,1.784,1.360,0.000,0.000,3.001,0.000,0.000,0.000,0.000,0.000,0.000,0.000,0.000,0.000,0.000,0.000,3.142,6.283,0.000,2.100,1.897,1.799,4.285,0.398,1.000,4.711,0.000,0.000,-5.614,10.286,0.451,5.822,3.387,5.777,4.183,4.384,4.484,1.998,5.882,5.284,1.571,0.000,0.000,-5.327,10.447,0.451,5.851,3.438,5.644,
187.220,200.256,-5.366,10.179,2.081,0.000,0.008,4.037,0.000,3.812,1.571,4.646,2.128,2.491,1.784,1.360,0.000,0.000,3.001,0.000,0.000,0.000,0.000,0.000,0.000,0.000,0.000,0.000,0.000,0.000,3.142,6.283,0.000,2.100,1.897,1.799,4.285,0.398,1.000,4.711,0.000,0.000,-5.614,10.286,0.451,5.822,3.387,5.777,4.183,4.384,4.484,1.998,5.882,5.284,1.571,0.000,0.000,-5.327,10.447,0.451,5.851,3.438,5.644,
187.315,200.351,-5.366,10.179,2.081,0.000,0.008,4.037,0.000,3.812,1.571,4.646,2.128,2.491,1.784,1.360,0.000,0.000,3.001,0.000,0.000,0.000,0.000,0.000,0.000,0.000,0.000,0.000,0.000,0.000,3.142,6.283,0.000,2.100,1.897,1.799,4.285,0.398,1.000,4.711,0.000,0.000,-5.614,10.286,0.451,5.822,3.387,5.777,4.183,4.384,4.484,1.998,5.882,5.284,1.571,0.000,0.000,-5.327,10.447,0.451,5.851,3.438,5.644,
187.420,200.456,-5.366,10.179,2.081,0.000,0.008,4.037,0.000,3.812,1.571,4.646,2.128,2.491,1.784,1.360,0.000,0.000,3.001,0.000,0.000,0.000,0.000,0.000,0.000,0.000,0.000,0.000,0.000,0.000,3.142,6.283,0.000,2.100,1.897,1.799,4.285,0.398,1.000,4.711,0.000,0.000,-5.614,10.286,0.451,5.822,3.387,5.777,4.183,4.384,4.484,1.998,5.882,5.284,1.571,0.000,0.000,-5.327,10.447,0.451,5.851,3.438,5.644,
187.510,200.546,-5.366,10.179,2.081,0.000,0.008,4.037,0.000,3.812,1.571,4.646,2.128,2.491,1.784,1.360,0.000,0.000,3.001,0.000,0.000,0.000,0.000,0.000,0.000,0.000,0.000,0.000,0.000,0.000,3.142,6.283,0.000,2.100,1.897,1.799,4.285,0.398,1.000,4.711,0.000,0.000,-5.614,10.286,0.451,5.822,3.387,5.777,4.183,4.384,4.484,1.998,5.882,5.284,1.571,0.000,0.000,-5.327,10.447,0.451,5.851,3.438,5.644,
187.620,200.656,-5.366,10.179,2.081,0.000,0.008,4.037,0.000,3.812,1.571,4.646,2.128,2.491,1.784,1.360,0.000,0.000,3.001,0.000,0.000,0.000,0.000,0.000,0.000,0.000,0.000,0.000,0.000,0.000,3.142,6.283,0.000,2.100,1.897,1.799,4.285,0.398,1.000,4.711,0.000,0.000,-5.614,10.286,0.451,5.822,3.387,5.777,4.183,4.384,4.484,1.998,5.882,5.284,1.571,0.000,0.000,-5.327,10.447,0.451,5.851,3.438,5.644,
187.711,200.747,-5.366,10.179,2.081,0.000,0.008,4.037,0.000,3.812,1.571,4.646,2.128,2.491,1.784,1.360,0.000,0.000,3.001,0.000,0.000,0.000,0.000,0.000,0.000,0.000,0.000,0.000,0.000,0.000,3.142,6.283,0.000,2.100,1.897,1.799,4.285,0.398,1.000,4.711,0.000,0.000,-5.614,10.286,0.451,5.822,3.387,5.777,4.183,4.384,4.484,1.998,5.882,5.284,1.571,0.000,0.000,-5.327,10.447,0.451,5.851,3.438,5.644,
187.820,200.856,-5.366,10.179,2.081,0.000,0.008,4.037,0.000,3.812,1.571,4.646,2.128,2.491,1.784,1.360,0.000,0.000,3.001,0.000,0.000,0.000,0.000,0.000,0.000,0.000,0.000,0.000,0.000,0.000,3.142,6.283,0.000,2.100,1.897,1.799,4.285,0.398,1.000,4.711,0.000,0.000,-5.614,10.286,0.451,5.822,3.387,5.777,4.183,4.384,4.484,1.998,5.882,5.284,1.571,0.000,0.000,-5.327,10.447,0.451,5.851,3.438,5.644,
187.918,200.954,-5.366,10.179,2.081,0.000,0.008,4.037,0.000,3.812,1.571,4.646,2.128,2.491,1.784,1.360,0.000,0.000,3.001,0.000,0.000,0.000,0.000,0.000,0.000,0.000,0.000,0.000,0.000,0.000,3.142,6.283,0.000,2.100,1.897,1.799,4.285,0.398,1.000,4.711,0.000,0.000,-5.614,10.286,0.451,5.822,3.387,5.777,4.183,4.384,4.484,1.998,5.882,5.284,1.571,0.000,0.000,-5.327,10.447,0.451,5.851,3.438,5.644,
188.020,201.056,-5.366,10.179,2.081,0.000,0.008,4.037,0.000,3.812,1.571,4.646,2.128,2.491,1.784,1.360,0.000,0.000,3.001,0.000,0.000,0.000,0.000,0.000,0.000,0.000,0.000,0.000,0.000,0.000,3.142,6.283,0.000,2.100,1.897,1.799,4.285,0.398,1.000,4.711,0.000,0.000,-5.614,10.286,0.451,5.822,3.387,5.777,4.183,4.384,4.484,1.998,5.882,5.284,1.571,0.000,0.000,-5.327,10.447,0.451,5.851,3.438,5.644,
188.120,201.156,-5.366,10.179,2.081,0.000,0.008,4.037,0.000,3.812,1.571,4.646,2.128,2.491,1.784,1.360,0.000,0.000,3.001,0.000,0.000,0.000,0.000,0.000,0.000,0.000,0.000,0.000,0.000,0.000,3.142,6.283,0.000,2.100,1.897,1.799,4.285,0.398,1.000,4.711,0.000,0.000,-5.614,10.286,0.451,5.822,3.387,5.777,4.183,4.384,4.484,1.998,5.882,5.284,1.571,0.000,0.000,-5.327,10.447,0.451,5.851,3.438,5.644,
188.220,201.256,-5.366,10.179,2.081,0.000,0.008,4.037,0.000,3.812,1.571,4.646,2.128,2.491,1.784,1.360,0.000,0.000,3.001,0.000,0.000,0.000,0.000,0.000,0.000,0.000,0.000,0.000,0.000,0.000,3.142,6.283,0.000,2.100,1.897,1.799,4.285,0.398,1.000,4.711,0.000,0.000,-5.614,10.286,0.451,5.822,3.387,5.777,4.183,4.384,4.484,1.998,5.882,5.284,1.571,0.000,0.000,-5.327,10.447,0.451,5.851,3.438,5.644,
188.312,201.348,-5.366,10.179,2.081,0.000,0.008,4.037,0.000,3.812,1.571,4.646,2.128,2.491,1.784,1.360,0.000,0.000,3.001,0.000,0.000,0.000,0.000,0.000,0.000,0.000,0.000,0.000,0.000,0.000,3.142,6.283,0.000,2.100,1.897,1.799,4.285,0.398,1.000,4.711,0.000,0.000,-5.614,10.286,0.451,5.822,3.387,5.777,4.183,4.384,4.484,1.998,5.882,5.284,1.571,0.000,0.000,-5.327,10.447,0.451,5.851,3.438,5.644,
188.420,201.456,-5.366,10.179,2.081,0.000,0.008,4.037,0.000,3.812,1.571,4.646,2.128,2.491,1.784,1.360,0.000,0.000,3.001,0.000,0.000,0.000,0.000,0.000,0.000,0.000,0.000,0.000,0.000,0.000,3.142,6.283,0.000,2.100,1.897,1.799,4.285,0.398,1.000,4.711,0.000,0.000,-5.614,10.286,0.451,5.822,3.387,5.777,4.183,4.384,4.484,1.998,5.882,5.284,1.571,0.000,0.000,-5.327,10.447,0.451,5.851,3.438,5.644,
188.502,201.539,-5.366,10.179,2.081,0.000,0.008,4.037,0.000,3.812,1.571,4.646,2.128,2.491,1.784,1.360,0.000,0.000,3.001,0.000,0.000,0.000,0.000,0.000,0.000,0.000,0.000,0.000,0.000,0.000,3.142,6.283,0.000,2.100,1.897,1.799,4.285,0.398,1.000,4.711,0.000,0.000,-5.614,10.286,0.451,5.822,3.387,5.777,4.183,4.384,4.484,1.998,5.882,5.284,1.571,0.000,0.000,-5.327,10.447,0.451,5.851,3.438,5.644,
188.604,201.640,-5.366,10.179,2.081,0.000,0.008,4.037,0.000,3.812,1.571,4.646,2.128,2.491,1.784,1.360,0.000,0.000,3.001,0.000,0.000,0.000,0.000,0.000,0.000,0.000,0.000,0.000,0.000,0.000,3.142,6.283,0.000,2.100,1.897,1.799,4.285,0.398,1.000,4.711,0.000,0.000,-5.614,10.286,0.451,5.822,3.387,5.777,4.183,4.384,4.484,1.998,5.882,5.284,1.571,0.000,0.000,-5.327,10.447,0.451,5.851,3.438,5.644,
188.720,201.756,-5.366,10.179,2.081,0.000,0.008,4.037,0.000,3.812,1.571,4.646,2.128,2.491,1.784,1.360,0.000,0.000,3.001,0.000,0.000,0.000,0.000,0.000,0.000,0.000,0.000,0.000,0.000,0.000,3.142,6.283,0.000,2.100,1.897,1.799,4.285,0.398,1.000,4.711,0.000,0.000,-5.614,10.286,0.451,5.822,3.387,5.777,4.183,4.384,4.484,1.998,5.882,5.284,1.571,0.000,0.000,-5.327,10.447,0.451,5.851,3.438,5.644,
188.820,201.856,-5.366,10.179,2.081,0.000,0.008,4.037,0.000,3.812,1.571,4.646,2.128,2.491,1.784,1.360,0.000,0.000,3.001,0.000,0.000,0.000,0.000,0.000,0.000,0.000,0.000,0.000,0.000,0.000,3.142,6.283,0.000,2.100,1.897,1.799,4.285,0.398,1.000,4.711,0.000,0.000,-5.614,10.286,0.451,5.822,3.387,5.777,4.183,4.384,4.484,1.998,5.882,5.284,1.571,0.000,0.000,-5.327,10.447,0.451,5.851,3.438,5.644,
188.920,201.956,-5.366,10.179,2.081,0.000,0.008,4.037,0.000,3.812,1.571,4.646,2.128,2.491,1.784,1.360,0.000,0.000,3.001,0.000,0.000,0.000,0.000,0.000,0.000,0.000,0.000,0.000,0.000,0.000,3.142,6.283,0.000,2.100,1.897,1.799,4.285,0.398,1.000,4.711,0.000,0.000,-5.614,10.286,0.451,5.822,3.387,5.777,4.183,4.384,4.484,1.998,5.882,5.284,1.571,0.000,0.000,-5.327,10.447,0.451,5.851,3.438,5.644,
189.008,202.045,-5.366,10.179,2.081,0.000,0.008,4.037,0.000,3.812,1.571,4.646,2.128,2.491,1.784,1.360,0.000,0.000,3.001,0.000,0.000,0.000,0.000,0.000,0.000,0.000,0.000,0.000,0.000,0.000,3.142,6.283,0.000,2.100,1.897,1.799,4.285,0.398,1.000,4.711,0.000,0.000,-5.614,10.286,0.451,5.822,3.387,5.777,4.183,4.384,4.484,1.998,5.882,5.284,1.571,0.000,0.000,-5.327,10.447,0.451,5.851,3.438,5.644,
189.120,202.156,-5.366,10.179,2.081,0.000,0.008,4.037,0.000,3.812,1.571,4.646,2.128,2.491,1.784,1.360,0.000,0.000,3.001,0.000,0.000,0.000,0.000,0.000,0.000,0.000,0.000,0.000,0.000,0.000,3.142,6.283,0.000,2.100,1.897,1.799,4.285,0.398,1.000,4.711,0.000,0.000,-5.614,10.286,0.451,5.822,3.387,5.777,4.183,4.384,4.484,1.998,5.882,5.284,1.571,0.000,0.000,-5.327,10.447,0.451,5.851,3.438,5.644,
189.220,202.256,-5.366,10.179,2.081,0.000,0.008,4.037,0.000,3.812,1.571,4.646,2.128,2.491,1.784,1.360,0.000,0.000,3.001,0.000,0.000,0.000,0.000,0.000,0.000,0.000,0.000,0.000,0.000,0.000,3.142,6.283,0.000,2.100,1.897,1.799,4.285,0.398,1.000,4.711,0.000,0.000,-5.614,10.286,0.451,5.822,3.387,5.777,4.183,4.384,4.484,1.998,5.882,5.284,1.571,0.000,0.000,-5.327,10.447,0.451,5.851,3.438,5.644,
189.314,202.350,-5.366,10.179,2.081,0.000,0.008,4.037,0.000,3.812,1.571,4.646,2.128,2.491,1.784,1.360,0.000,0.000,3.001,0.000,0.000,0.000,0.000,0.000,0.000,0.000,0.000,0.000,0.000,0.000,3.142,6.283,0.000,2.100,1.897,1.799,4.285,0.398,1.000,4.711,0.000,0.000,-5.614,10.286,0.451,5.822,3.387,5.777,4.183,4.384,4.484,1.998,5.882,5.284,1.571,0.000,0.000,-5.327,10.447,0.451,5.851,3.438,5.644,
189.420,202.456,-5.366,10.179,2.081,0.000,0.008,4.037,0.000,3.812,1.571,4.646,2.128,2.491,1.784,1.360,0.000,0.000,3.001,0.000,0.000,0.000,0.000,0.000,0.000,0.000,0.000,0.000,0.000,0.000,3.142,6.283,0.000,2.100,1.897,1.799,4.285,0.398,1.000,4.711,0.000,0.000,-5.614,10.286,0.451,5.822,3.387,5.777,4.183,4.384,4.484,1.998,5.882,5.284,1.571,0.000,0.000,-5.327,10.447,0.451,5.851,3.438,5.644,
189.517,202.553,-5.366,10.179,2.081,0.000,0.008,4.037,0.000,3.812,1.571,4.646,2.128,2.491,1.784,1.360,0.000,0.000,3.001,0.000,0.000,0.000,0.000,0.000,0.000,0.000,0.000,0.000,0.000,0.000,3.142,6.283,0.000,2.100,1.897,1.799,4.285,0.398,1.000,4.711,0.000,0.000,-5.614,10.286,0.451,5.822,3.387,5.777,4.183,4.384,4.484,1.998,5.882,5.284,1.571,0.000,0.000,-5.327,10.447,0.451,5.851,3.438,5.644,
189.620,202.656,-5.366,10.179,2.081,0.000,0.008,4.037,0.000,3.812,1.571,4.646,2.128,2.491,1.784,1.360,0.000,0.000,3.001,0.000,0.000,0.000,0.000,0.000,0.000,0.000,0.000,0.000,0.000,0.000,3.142,6.283,0.000,2.100,1.897,1.799,4.285,0.398,1.000,4.711,0.000,0.000,-5.614,10.286,0.451,5.822,3.387,5.777,4.183,4.384,4.484,1.998,5.882,5.284,1.571,0.000,0.000,-5.327,10.447,0.451,5.851,3.438,5.644,
189.720,202.756,-5.366,10.179,2.081,0.000,0.008,4.037,0.000,3.812,1.571,4.646,2.128,2.491,1.784,1.360,0.000,0.000,3.001,0.000,0.000,0.000,0.000,0.000,0.000,0.000,0.000,0.000,0.000,0.000,3.142,6.283,0.000,2.100,1.897,1.799,4.285,0.398,1.000,4.711,0.000,0.000,-5.614,10.286,0.451,5.822,3.387,5.777,4.183,4.384,4.484,1.998,5.882,5.284,1.571,0.000,0.000,-5.327,10.447,0.451,5.851,3.438,5.644,
189.820,202.856,-5.366,10.179,2.081,0.000,0.008,4.037,0.000,3.812,1.571,4.646,2.128,2.491,1.784,1.360,0.000,0.000,3.001,0.000,0.000,0.000,0.000,0.000,0.000,0.000,0.000,0.000,0.000,0.000,3.142,6.283,0.000,2.100,1.897,1.799,4.285,0.398,1.000,4.711,0.000,0.000,-5.614,10.286,0.451,5.822,3.387,5.777,4.183,4.384,4.484,1.998,5.882,5.284,1.571,0.000,0.000,-5.327,10.447,0.451,5.851,3.438,5.644,
189.920,202.956,-5.366,10.179,2.081,0.000,0.008,4.037,0.000,3.812,1.571,4.646,2.128,2.491,1.784,1.360,0.000,0.000,3.001,0.000,0.000,0.000,0.000,0.000,0.000,0.000,0.000,0.000,0.000,0.000,3.142,6.283,0.000,2.100,1.897,1.799,4.285,0.398,1.000,4.711,0.000,0.000,-5.614,10.286,0.451,5.822,3.387,5.777,4.183,4.384,4.484,1.998,5.882,5.284,1.571,0.000,0.000,-5.327,10.447,0.451,5.851,3.438,5.644,
190.020,203.056,-5.366,10.179,2.081,0.000,0.008,4.037,0.000,3.812,1.571,4.646,2.128,2.491,1.784,1.360,0.000,0.000,3.001,0.000,0.000,0.000,0.000,0.000,0.000,0.000,0.000,0.000,0.000,0.000,3.142,6.283,0.000,2.100,1.897,1.799,4.285,0.398,1.000,4.711,0.000,0.000,-5.614,10.286,0.451,5.822,3.387,5.777,4.183,4.384,4.484,1.998,5.882,5.284,1.571,0.000,0.000,-5.327,10.447,0.451,5.851,3.438,5.644,
190.112,203.148,-5.366,10.179,2.081,0.000,0.008,4.037,0.000,3.812,1.571,4.646,2.128,2.491,1.784,1.360,0.000,0.000,3.001,0.000,0.000,0.000,0.000,0.000,0.000,0.000,0.000,0.000,0.000,0.000,3.142,6.283,0.000,2.100,1.897,1.799,4.285,0.398,1.000,4.711,0.000,0.000,-5.614,10.286,0.451,5.822,3.387,5.777,4.183,4.384,4.484,1.998,5.882,5.284,1.571,0.000,0.000,-5.327,10.447,0.451,5.851,3.438,5.644,
190.220,203.256,-5.366,10.179,2.081,0.000,0.008,4.037,0.000,3.812,1.571,4.646,2.128,2.491,1.784,1.360,0.000,0.000,3.001,0.000,0.000,0.000,0.000,0.000,0.000,0.000,0.000,0.000,0.000,0.000,3.142,6.283,0.000,2.100,1.897,1.799,4.285,0.398,1.000,4.711,0.000,0.000,-5.614,10.286,0.451,5.822,3.387,5.777,4.183,4.384,4.484,1.998,5.882,5.284,1.571,0.000,0.000,-5.327,10.447,0.451,5.851,3.438,5.644,
190.320,203.356,-5.366,10.179,2.081,0.000,0.008,4.037,0.000,3.812,1.571,4.646,2.128,2.491,1.784,1.360,0.000,0.000,3.001,0.000,0.000,0.000,0.000,0.000,0.000,0.000,0.000,0.000,0.000,0.000,3.142,6.283,0.000,2.100,1.897,1.799,4.285,0.398,1.000,4.711,0.000,0.000,-5.614,10.286,0.451,5.822,3.387,5.777,4.183,4.384,4.484,1.998,5.882,5.284,1.571,0.000,0.000,-5.327,10.447,0.451,5.851,3.438,5.644,
190.416,203.452,-5.366,10.179,2.081,0.000,0.008,4.037,0.000,3.812,1.571,4.646,2.128,2.491,1.784,1.360,0.000,0.000,3.001,0.000,0.000,0.000,0.000,0.000,0.000,0.000,0.000,0.000,0.000,0.000,3.142,6.283,0.000,2.100,1.897,1.799,4.285,0.398,1.000,4.711,0.000,0.000,-5.614,10.286,0.451,5.822,3.387,5.777,4.183,4.384,4.484,1.998,5.882,5.284,1.571,0.000,0.000,-5.327,10.447,0.451,5.851,3.438,5.644,
190.511,203.547,-5.366,10.179,2.081,0.000,0.008,4.037,0.000,3.812,1.571,4.646,2.128,2.491,1.784,1.360,0.000,0.000,3.001,0.000,0.000,0.000,0.000,0.000,0.000,0.000,0.000,0.000,0.000,0.000,3.142,6.283,0.000,2.100,1.897,1.799,4.285,0.398,1.000,4.711,0.000,0.000,-5.614,10.286,0.451,5.822,3.387,5.777,4.183,4.384,4.484,1.998,5.882,5.284,1.571,0.000,0.000,-5.327,10.447,0.451,5.851,3.438,5.644,
190.620,203.656,-5.366,10.179,2.081,0.000,0.008,4.037,0.000,3.812,1.571,4.646,2.128,2.491,1.784,1.360,0.000,0.000,3.001,0.000,0.000,0.000,0.000,0.000,0.000,0.000,0.000,0.000,0.000,0.000,3.142,6.283,0.000,2.100,1.897,1.799,4.285,0.398,1.000,4.711,0.000,0.000,-5.614,10.286,0.451,5.822,3.387,5.777,4.183,4.384,4.484,1.998,5.882,5.284,1.571,0.000,0.000,-5.327,10.447,0.451,5.851,3.438,5.644,
190.713,203.749,-5.366,10.179,2.081,0.000,0.008,4.037,0.000,3.812,1.571,4.646,2.128,2.491,1.784,1.360,0.000,0.000,3.001,0.000,0.000,0.000,0.000,0.000,0.000,0.000,0.000,0.000,0.000,0.000,3.142,6.283,0.000,2.100,1.897,1.799,4.285,0.398,1.000,4.711,0.000,0.000,-5.614,10.286,0.451,5.822,3.387,5.777,4.183,4.384,4.484,1.998,5.882,5.284,1.571,0.000,0.000,-5.327,10.447,0.451,5.851,3.438,5.644,
190.820,203.856,-5.366,10.179,2.081,0.000,0.008,4.037,0.000,3.812,1.571,4.646,2.128,2.491,1.784,1.360,0.000,0.000,3.001,0.000,0.000,0.000,0.000,0.000,0.000,0.000,0.000,0.000,0.000,0.000,3.142,6.283,0.000,2.100,1.897,1.799,4.285,0.398,1.000,4.711,0.000,0.000,-5.614,10.286,0.451,5.822,3.387,5.777,4.183,4.384,4.484,1.998,5.882,5.284,1.571,0.000,0.000,-5.327,10.447,0.451,5.851,3.438,5.644,
190.920,203.956,-5.366,10.179,2.081,0.000,0.008,4.037,0.000,3.812,1.571,4.646,2.128,2.491,1.784,1.360,0.000,0.000,3.001,0.000,0.000,0.000,0.000,0.000,0.000,0.000,0.000,0.000,0.000,0.000,3.142,6.283,0.000,2.100,1.897,1.799,4.285,0.398,1.000,4.711,0.000,0.000,-5.614,10.286,0.451,5.822,3.387,5.777,4.183,4.384,4.484,1.998,5.882,5.284,1.571,0.000,0.000,-5.327,10.447,0.451,5.851,3.438,5.644,
191.020,204.056,-5.366,10.179,2.081,0.000,0.008,4.037,0.000,3.812,1.571,4.646,2.128,2.491,1.784,1.360,0.000,0.000,3.001,0.000,0.000,0.000,0.000,0.000,0.000,0.000,0.000,0.000,0.000,0.000,3.142,6.283,0.000,2.100,1.897,1.799,4.285,0.398,1.000,4.711,0.000,0.000,-5.614,10.286,0.451,5.822,3.387,5.777,4.183,4.384,4.484,1.998,5.882,5.284,1.571,0.000,0.000,-5.327,10.447,0.451,5.851,3.438,5.644,
191.102,204.138,-5.366,10.179,2.081,0.000,0.008,4.037,0.000,3.812,1.571,4.646,2.128,2.491,1.784,1.360,0.000,0.000,3.001,0.000,0.000,0.000,0.000,0.000,0.000,0.000,0.000,0.000,0.000,0.000,3.142,6.283,0.000,2.100,1.897,1.799,4.285,0.398,1.000,4.711,0.000,0.000,-5.614,10.286,0.451,5.822,3.387,5.777,4.183,4.384,4.484,1.998,5.882,5.284,1.571,0.000,0.000,-5.327,10.447,0.451,5.851,3.438,5.644,
191.217,204.253,-5.366,10.179,2.081,0.000,0.008,4.037,0.000,3.812,1.571,4.646,2.128,2.491,1.784,1.360,0.000,0.000,3.001,0.000,0.000,0.000,0.000,0.000,0.000,0.000,0.000,0.000,0.000,0.000,3.142,6.283,0.000,2.100,1.897,1.799,4.285,0.398,1.000,4.711,0.000,0.000,-5.614,10.286,0.451,5.822,3.387,5.777,4.183,4.384,4.484,1.998,5.882,5.284,1.571,0.000,0.000,-5.327,10.447,0.451,5.851,3.438,5.644,
191.301,204.337,-5.366,10.179,2.081,0.000,0.008,4.037,0.000,3.812,1.571,4.646,2.128,2.491,1.784,1.360,0.000,0.000,3.001,0.000,0.000,0.000,0.000,0.000,0.000,0.000,0.000,0.000,0.000,0.000,3.142,6.283,0.000,2.100,1.897,1.799,4.285,0.398,1.000,4.711,0.000,0.000,-5.614,10.286,0.451,5.822,3.387,5.777,4.183,4.384,4.484,1.998,5.882,5.284,1.571,0.000,0.000,-5.327,10.447,0.451,5.851,3.438,5.644,
191.420,204.456,-5.366,10.179,2.081,0.000,0.008,4.037,0.000,3.812,1.571,4.646,2.128,2.491,1.784,1.360,0.000,0.000,3.001,0.000,0.000,0.000,0.000,0.000,0.000,0.000,0.000,0.000,0.000,0.000,3.142,6.283,0.000,2.100,1.897,1.799,4.285,0.398,1.000,4.711,0.000,0.000,-5.614,10.286,0.451,5.822,3.387,5.777,4.183,4.384,4.484,1.998,5.882,5.284,1.571,0.000,0.000,-5.327,10.447,0.451,5.851,3.438,5.644,
191.520,204.556,-5.366,10.179,2.081,0.000,0.008,4.037,0.000,3.812,1.571,4.646,2.128,2.491,1.784,1.360,0.000,0.000,3.001,0.000,0.000,0.000,0.000,0.000,0.000,0.000,0.000,0.000,0.000,0.000,3.142,6.283,0.000,2.100,1.897,1.799,4.285,0.398,1.000,4.711,0.000,0.000,-5.614,10.286,0.451,5.822,3.387,5.777,4.183,4.384,4.484,1.998,5.882,5.284,1.571,0.000,0.000,-5.327,10.447,0.451,5.851,3.438,5.644,
191.620,204.656,-5.366,10.179,2.081,0.000,0.008,4.037,0.000,3.812,1.571,4.646,2.128,2.491,1.784,1.360,0.000,0.000,3.001,0.000,0.000,0.000,0.000,0.000,0.000,0.000,0.000,0.000,0.000,0.000,3.142,6.283,0.000,2.100,1.897,1.799,4.285,0.398,1.000,4.711,0.000,0.000,-5.614,10.286,0.451,5.822,3.387,5.777,4.183,4.384,4.484,1.998,5.882,5.284,1.571,0.000,0.000,-5.327,10.447,0.451,5.851,3.438,5.644,
191.720,204.756,-5.366,10.179,2.081,0.000,0.008,4.037,0.000,3.812,1.571,4.646,2.128,2.491,1.784,1.360,0.000,0.000,3.001,0.000,0.000,0.000,0.000,0.000,0.000,0.000,0.000,0.000,0.000,0.000,3.142,6.283,0.000,2.100,1.897,1.799,4.285,0.398,1.000,4.711,0.000,0.000,-5.614,10.286,0.451,5.822,3.387,5.777,4.183,4.384,4.484,1.998,5.882,5.284,1.571,0.000,0.000,-5.327,10.447,0.451,5.851,3.438,5.644,
191.804,204.840,-5.366,10.179,2.081,0.000,0.008,4.037,0.000,3.812,1.571,4.646,2.128,2.491,1.784,1.360,0.000,0.000,3.001,0.000,0.000,0.000,0.000,0.000,0.000,0.000,0.000,0.000,0.000,0.000,3.142,6.283,0.000,2.100,1.897,1.799,4.285,0.398,1.000,4.711,0.000,0.000,-5.614,10.286,0.451,5.822,3.387,5.777,4.183,4.384,4.484,1.998,5.882,5.284,1.571,0.000,0.000,-5.327,10.447,0.451,5.851,3.438,5.644,
191.905,204.941,-5.366,10.179,2.081,0.000,0.008,4.037,0.000,3.812,1.571,4.646,2.128,2.491,1.784,1.360,0.000,0.000,3.001,0.000,0.000,0.000,0.000,0.000,0.000,0.000,0.000,0.000,0.000,0.000,3.142,6.283,0.000,2.100,1.897,1.799,4.285,0.398,1.000,4.711,0.000,0.000,-5.614,10.286,0.451,5.822,3.387,5.777,4.183,4.384,4.484,1.998,5.882,5.284,1.571,0.000,0.000,-5.327,10.447,0.451,5.851,3.438,5.644,
192.016,205.052,-5.366,10.179,2.081,0.000,0.008,4.037,0.000,3.812,1.571,4.646,2.128,2.491,1.784,1.360,0.000,0.000,3.001,0.000,0.000,0.000,0.000,0.000,0.000,0.000,0.000,0.000,0.000,0.000,3.142,6.283,0.000,2.100,1.897,1.799,4.285,0.398,1.000,4.711,0.000,0.000,-5.614,10.286,0.451,5.822,3.387,5.777,4.183,4.384,4.484,1.998,5.882,5.284,1.571,0.000,0.000,-5.327,10.447,0.451,5.851,3.438,5.644,
192.113,205.149,-5.366,10.179,2.081,0.000,0.008,4.037,0.000,3.812,1.571,4.646,2.128,2.491,1.784,1.360,0.000,0.000,3.001,0.000,0.000,0.000,0.000,0.000,0.000,0.000,0.000,0.000,0.000,0.000,3.142,6.283,0.000,2.100,1.897,1.799,4.285,0.398,1.000,4.711,0.000,0.000,-5.614,10.286,0.451,5.822,3.387,5.777,4.183,4.384,4.484,1.998,5.882,5.284,1.571,0.000,0.000,-5.327,10.447,0.451,5.851,3.438,5.644,
192.220,205.256,-5.366,10.179,2.081,0.000,0.008,4.037,0.000,3.812,1.571,4.646,2.128,2.491,1.784,1.360,0.000,0.000,3.001,0.000,0.000,0.000,0.000,0.000,0.000,0.000,0.000,0.000,0.000,0.000,3.142,6.283,0.000,2.100,1.897,1.799,4.285,0.398,1.000,4.711,0.000,0.000,-5.614,10.286,0.451,5.822,3.387,5.777,4.183,4.384,4.484,1.998,5.882,5.284,1.571,0.000,0.000,-5.327,10.447,0.451,5.851,3.438,5.644,
192.320,205.356,-5.366,10.179,2.081,0.000,0.008,4.037,0.000,3.812,1.571,4.646,2.128,2.491,1.784,1.360,0.000,0.000,3.001,0.000,0.000,0.000,0.000,0.000,0.000,0.000,0.000,0.000,0.000,0.000,3.142,6.283,0.000,2.100,1.897,1.799,4.285,0.398,1.000,4.711,0.000,0.000,-5.614,10.286,0.451,5.822,3.387,5.777,4.183,4.384,4.484,1.998,5.882,5.284,1.571,0.000,0.000,-5.327,10.447,0.451,5.851,3.438,5.644,
192.420,205.456,-5.366,10.179,2.081,0.000,0.008,4.037,0.000,3.812,1.571,4.646,2.128,2.491,1.784,1.360,0.000,0.000,3.001,0.000,0.000,0.000,0.000,0.000,0.000,0.000,0.000,0.000,0.000,0.000,3.142,6.283,0.000,2.100,1.897,1.799,4.285,0.398,1.000,4.711,0.000,0.000,-5.614,10.286,0.451,5.822,3.387,5.777,4.183,4.384,4.484,1.998,5.882,5.284,1.571,0.000,0.000,-5.327,10.447,0.451,5.851,3.438,5.644,
192.520,205.556,-5.366,10.179,2.081,0.000,0.008,4.037,0.000,3.812,1.571,4.646,2.128,2.491,1.784,1.360,0.000,0.000,3.001,0.000,0.000,0.000,0.000,0.000,0.000,0.000,0.000,0.000,0.000,0.000,3.142,6.283,0.000,2.100,1.897,1.799,4.285,0.398,1.000,4.711,0.000,0.000,-5.614,10.286,0.451,5.822,3.387,5.777,4.183,4.384,4.484,1.998,5.882,5.284,1.571,0.000,0.000,-5.327,10.447,0.451,5.851,3.438,5.644,
192.620,205.656,-5.366,10.179,2.081,0.000,0.008,4.037,0.000,3.812,1.571,4.646,2.128,2.491,1.784,1.360,0.000,0.000,3.001,0.000,0.000,0.000,0.000,0.000,0.000,0.000,0.000,0.000,0.000,0.000,3.142,6.283,0.000,2.100,1.897,1.799,4.285,0.398,1.000,4.711,0.000,0.000,-5.614,10.286,0.451,5.822,3.387,5.777,4.183,4.384,4.484,1.998,5.882,5.284,1.571,0.000,0.000,-5.327,10.447,0.451,5.851,3.438,5.644,
192.720,205.756,-5.366,10.179,2.081,0.000,0.008,4.037,0.000,3.812,1.571,4.646,2.128,2.491,1.784,1.360,0.000,0.000,3.001,0.000,0.000,0.000,0.000,0.000,0.000,0.000,0.000,0.000,0.000,0.000,3.142,6.283,0.000,2.100,1.897,1.799,4.285,0.398,1.000,4.711,0.000,0.000,-5.614,10.286,0.451,5.822,3.387,5.777,4.183,4.384,4.484,1.998,5.882,5.284,1.571,0.000,0.000,-5.327,10.447,0.451,5.851,3.438,5.644,
192.820,205.856,-5.366,10.179,2.081,0.000,0.008,4.037,0.000,3.812,1.571,4.646,2.128,2.491,1.784,1.360,0.000,0.000,3.001,0.000,0.000,0.000,0.000,0.000,0.000,0.000,0.000,0.000,0.000,0.000,3.142,6.283,0.000,2.100,1.897,1.799,4.285,0.398,1.000,4.711,0.000,0.000,-5.614,10.286,0.451,5.822,3.387,5.777,4.183,4.384,4.484,1.998,5.882,5.284,1.571,0.000,0.000,-5.327,10.447,0.451,5.851,3.438,5.644,
192.920,205.956,-5.366,10.179,2.081,0.000,0.008,4.037,0.000,3.812,1.571,4.646,2.128,2.491,1.784,1.360,0.000,0.000,3.001,0.000,0.000,0.000,0.000,0.000,0.000,0.000,0.000,0.000,0.000,0.000,3.142,6.283,0.000,2.100,1.897,1.799,4.285,0.398,1.000,4.711,0.000,0.000,-5.614,10.286,0.451,5.822,3.387,5.777,4.183,4.384,4.484,1.998,5.882,5.284,1.571,0.000,0.000,-5.327,10.447,0.451,5.851,3.438,5.644,
193.020,206.056,-5.366,10.179,2.081,0.000,0.008,4.037,0.000,3.812,1.571,4.646,2.128,2.491,1.784,1.360,0.000,0.000,3.001,0.000,0.000,0.000,0.000,0.000,0.000,0.000,0.000,0.000,0.000,0.000,3.142,6.283,0.000,2.100,1.897,1.799,4.285,0.398,1.000,4.711,0.000,0.000,-5.614,10.286,0.451,5.822,3.387,5.777,4.183,4.384,4.484,1.998,5.882,5.284,1.571,0.000,0.000,-5.327,10.447,0.451,5.851,3.438,5.644,
193.120,206.156,-5.366,10.179,2.081,0.000,0.008,4.037,0.000,3.812,1.571,4.646,2.128,2.491,1.784,1.360,0.000,0.000,3.001,0.000,0.000,0.000,0.000,0.000,0.000,0.000,0.000,0.000,0.000,0.000,3.142,6.283,0.000,2.100,1.897,1.799,4.285,0.398,1.000,4.711,0.000,0.000,-5.614,10.286,0.451,5.822,3.387,5.777,4.183,4.384,4.484,1.998,5.882,5.284,1.571,0.000,0.000,-5.327,10.447,0.451,5.851,3.438,5.644,
193.220,206.256,-5.366,10.179,2.081,0.000,0.008,4.037,0.000,3.812,1.571,4.646,2.128,2.491,1.784,1.360,0.000,0.000,3.001,0.000,0.000,0.000,0.000,0.000,0.000,0.000,0.000,0.000,0.000,0.000,3.142,6.283,0.000,2.100,1.897,1.799,4.285,0.398,1.000,4.711,0.000,0.000,-5.614,10.286,0.451,5.822,3.387,5.777,4.183,4.384,4.484,1.998,5.882,5.284,1.571,0.000,0.000,-5.327,10.447,0.451,5.851,3.438,5.644,
193.314,206.350,-5.366,10.179,2.081,0.000,0.008,4.037,0.000,3.812,1.571,4.646,2.128,2.491,1.784,1.360,0.000,0.000,3.001,0.000,0.000,0.000,0.000,0.000,0.000,0.000,0.000,0.000,0.000,0.000,3.142,6.283,0.000,2.100,1.897,1.799,4.285,0.398,1.000,4.711,0.000,0.000,-5.614,10.286,0.451,5.822,3.387,5.777,4.183,4.384,4.484,1.998,5.882,5.284,1.571,0.000,0.000,-5.327,10.447,0.451,5.851,3.438,5.644,
193.420,206.456,-5.366,10.179,2.081,0.000,0.008,4.037,0.000,3.812,1.571,4.646,2.128,2.491,1.784,1.360,0.000,0.000,3.001,0.000,0.000,0.000,0.000,0.000,0.000,0.000,0.000,0.000,0.000,0.000,3.142,6.283,0.000,2.100,1.897,1.799,4.285,0.398,1.000,4.711,0.000,0.000,-5.614,10.286,0.451,5.822,3.387,5.777,4.183,4.384,4.484,1.998,5.882,5.284,1.571,0.000,0.000,-5.327,10.447,0.451,5.851,3.438,5.644,
193.509,206.545,-5.366,10.179,2.081,0.000,0.008,4.037,0.000,3.812,1.571,4.646,2.128,2.491,1.784,1.360,0.000,0.000,3.001,0.000,0.000,0.000,0.000,0.000,0.000,0.000,0.000,0.000,0.000,0.000,3.142,6.283,0.000,2.100,1.897,1.799,4.285,0.398,1.000,4.711,0.000,0.000,-5.614,10.286,0.451,5.822,3.387,5.777,4.183,4.384,4.484,1.998,5.882,5.284,1.571,0.000,0.000,-5.327,10.447,0.451,5.851,3.438,5.644,
193.620,206.656,-5.366,10.179,2.081,0.000,0.008,4.037,0.000,3.812,1.571,4.646,2.128,2.491,1.784,1.360,0.000,0.000,3.001,0.000,0.000,0.000,0.000,0.000,0.000,0.000,0.000,0.000,0.000,0.000,3.142,6.283,0.000,2.100,1.897,1.799,4.285,0.398,1.000,4.711,0.000,0.000,-5.614,10.286,0.451,5.822,3.387,5.777,4.183,4.384,4.484,1.998,5.882,5.284,1.571,0.000,0.000,-5.327,10.447,0.451,5.851,3.438,5.644,
193.713,206.749,-5.366,10.179,2.081,0.000,0.008,4.037,0.000,3.812,1.571,4.646,2.128,2.491,1.784,1.360,0.000,0.000,3.001,0.000,0.000,0.000,0.000,0.000,0.000,0.000,0.000,0.000,0.000,0.000,3.142,6.283,0.000,2.100,1.897,1.799,4.285,0.398,1.000,4.711,0.000,0.000,-5.614,10.286,0.451,5.822,3.387,5.777,4.183,4.384,4.484,1.998,5.882,5.284,1.571,0.000,0.000,-5.327,10.447,0.451,5.851,3.438,5.644,
193.820,206.856,-5.366,10.179,2.081,0.000,0.008,4.037,0.000,3.812,1.571,4.646,2.128,2.491,1.784,1.360,0.000,0.000,3.001,0.000,0.000,0.000,0.000,0.000,0.000,0.000,0.000,0.000,0.000,0.000,3.142,6.283,0.000,2.100,1.897,1.799,4.285,0.398,1.000,4.711,0.000,0.000,-5.614,10.286,0.451,5.822,3.387,5.777,4.183,4.384,4.484,1.998,5.882,5.284,1.571,0.000,0.000,-5.327,10.447,0.451,5.851,3.438,5.644,
193.920,206.956,-5.366,10.179,2.081,0.000,0.008,4.037,0.000,3.812,1.571,4.646,2.128,2.491,1.784,1.360,0.000,0.000,3.001,0.000,0.000,0.000,0.000,0.000,0.000,0.000,0.000,0.000,0.000,0.000,3.142,6.283,0.000,2.100,1.897,1.799,4.285,0.398,1.000,4.711,0.000,0.000,-5.614,10.286,0.451,5.822,3.387,5.777,4.183,4.384,4.484,1.998,5.882,5.284,1.571,0.000,0.000,-5.327,10.447,0.451,5.851,3.438,5.644,
194.020,207.056,-5.366,10.179,2.081,0.000,0.008,4.037,0.000,3.812,1.571,4.646,2.128,2.491,1.784,1.360,0.000,0.000,3.001,0.000,0.000,0.000,0.000,0.000,0.000,0.000,0.000,0.000,0.000,0.000,3.142,6.283,0.000,2.100,1.897,1.799,4.285,0.398,1.000,4.711,0.000,0.000,-5.614,10.286,0.451,5.822,3.387,5.777,4.183,4.384,4.484,1.998,5.882,5.284,1.571,0.000,0.000,-5.327,10.447,0.451,5.851,3.438,5.644,
194.120,207.156,-5.366,10.179,2.081,0.000,0.008,4.037,0.000,3.812,1.571,4.646,2.128,2.491,1.784,1.360,0.000,0.000,3.001,0.000,0.000,0.000,0.000,0.000,0.000,0.000,0.000,0.000,0.000,0.000,3.142,6.283,0.000,2.100,1.897,1.799,4.285,0.398,1.000,4.711,0.000,0.000,-5.614,10.286,0.451,5.822,3.387,5.777,4.183,4.384,4.484,1.998,5.882,5.284,1.571,0.000,0.000,-5.327,10.447,0.451,5.851,3.438,5.644,
194.207,207.243,-5.366,10.179,2.081,0.000,0.008,4.037,0.000,3.812,1.571,4.646,2.128,2.491,1.784,1.360,0.000,0.000,3.001,0.000,0.000,0.000,0.000,0.000,0.000,0.000,0.000,0.000,0.000,0.000,3.142,6.283,0.000,2.100,1.897,1.799,4.285,0.398,1.000,4.711,0.000,0.000,-5.614,10.286,0.451,5.822,3.387,5.777,4.183,4.384,4.484,1.998,5.882,5.284,1.571,0.000,0.000,-5.327,10.447,0.451,5.851,3.438,5.644,
194.320,207.356,-5.366,10.179,2.081,0.000,0.008,4.037,0.000,3.812,1.571,4.646,2.128,2.491,1.784,1.360,0.000,0.000,3.001,0.000,0.000,0.000,0.000,0.000,0.000,0.000,0.000,0.000,0.000,0.000,3.142,6.283,0.000,2.100,1.897,1.799,4.285,0.398,1.000,4.711,0.000,0.000,-5.614,10.286,0.451,5.822,3.387,5.777,4.183,4.384,4.484,1.998,5.882,5.284,1.571,0.000,0.000,-5.327,10.447,0.451,5.851,3.438,5.644,
194.420,207.456,-5.366,10.179,2.081,0.000,0.008,4.037,0.000,3.812,1.571,4.646,2.128,2.491,1.784,1.360,0.000,0.000,3.001,0.000,0.000,0.000,0.000,0.000,0.000,0.000,0.000,0.000,0.000,0.000,3.142,6.283,0.000,2.100,1.897,1.799,4.285,0.398,1.000,4.711,0.000,0.000,-5.614,10.286,0.451,5.822,3.387,5.777,4.183,4.384,4.484,1.998,5.882,5.284,1.571,0.000,0.000,-5.327,10.447,0.451,5.851,3.438,5.644,
194.520,207.556,-5.366,10.179,2.081,0.000,0.008,4.037,0.000,3.812,1.571,4.646,2.128,2.491,1.784,1.360,0.000,0.000,3.001,0.000,0.000,0.000,0.000,0.000,0.000,0.000,0.000,0.000,0.000,0.000,3.142,6.283,0.000,2.100,1.897,1.799,4.285,0.398,1.000,4.711,0.000,0.000,-5.614,10.286,0.451,5.822,3.387,5.777,4.183,4.384,4.484,1.998,5.882,5.284,1.571,0.000,0.000,-5.327,10.447,0.451,5.851,3.438,5.644,
194.620,207.656,-5.366,10.179,2.081,0.000,0.008,4.037,0.000,3.812,1.571,4.646,2.128,2.491,1.784,1.360,0.000,0.000,3.001,0.000,0.000,0.000,0.000,0.000,0.000,0.000,0.000,0.000,0.000,0.000,3.142,6.283,0.000,2.100,1.897,1.799,4.285,0.398,1.000,4.711,0.000,0.000,-5.614,10.286,0.451,5.822,3.387,5.777,4.183,4.384,4.484,1.998,5.882,5.284,1.571,0.000,0.000,-5.327,10.447,0.451,5.851,3.438,5.644,
194.720,207.756,-5.366,10.179,2.081,0.000,0.008,4.037,0.000,3.812,1.571,4.646,2.128,2.491,1.784,1.360,0.000,0.000,3.001,0.000,0.000,0.000,0.000,0.000,0.000,0.000,0.000,0.000,0.000,0.000,3.142,6.283,0.000,2.100,1.897,1.799,4.285,0.398,1.000,4.711,0.000,0.000,-5.614,10.286,0.451,5.822,3.387,5.777,4.183,4.384,4.484,1.998,5.882,5.284,1.571,0.000,0.000,-5.327,10.447,0.451,5.851,3.438,5.644,
194.820,207.856,-5.366,10.179,2.081,0.000,0.008,4.037,0.000,3.812,1.571,4.646,2.128,2.491,1.784,1.360,0.000,0.000,3.001,0.000,0.000,0.000,0.000,0.000,0.000,0.000,0.000,0.000,0.000,0.000,3.142,6.283,0.000,2.100,1.897,1.799,4.285,0.398,1.000,4.711,0.000,0.000,-5.614,10.286,0.451,5.822,3.387,5.777,4.183,4.384,4.484,1.998,5.882,5.284,1.571,0.000,0.000,-5.327,10.447,0.451,5.851,3.438,5.644,
194.905,207.941,-5.366,10.179,2.081,0.000,0.008,4.037,0.000,3.812,1.571,4.646,2.128,2.491,1.784,1.360,0.000,0.000,3.001,0.000,0.000,0.000,0.000,0.000,0.000,0.000,0.000,0.000,0.000,0.000,3.142,6.283,0.000,2.100,1.897,1.799,4.285,0.398,1.000,4.711,0.000,0.000,-5.614,10.286,0.451,5.822,3.387,5.777,4.183,4.384,4.484,1.998,5.882,5.284,1.571,0.000,0.000,-5.327,10.447,0.451,5.851,3.438,5.644,
195.016,208.052,-5.366,10.179,2.081,0.000,0.008,4.037,0.000,3.812,1.571,4.646,2.128,2.491,1.784,1.360,0.000,0.000,3.001,0.000,0.000,0.000,0.000,0.000,0.000,0.000,0.000,0.000,0.000,0.000,3.142,6.283,0.000,2.100,1.897,1.799,4.285,0.398,1.000,4.711,0.000,0.000,-5.614,10.286,0.451,5.822,3.387,5.777,4.183,4.384,4.484,1.998,5.882,5.284,1.571,0.000,0.000,-5.327,10.447,0.451,5.851,3.438,5.644,
195.120,208.156,-5.366,10.179,2.081,0.000,0.008,4.037,0.000,3.812,1.571,4.646,2.128,2.491,1.784,1.360,0.000,0.000,3.001,0.000,0.000,0.000,0.000,0.000,0.000,0.000,0.000,0.000,0.000,0.000,3.142,6.283,0.000,2.100,1.897,1.799,4.285,0.398,1.000,4.711,0.000,0.000,-5.614,10.286,0.451,5.822,3.387,5.777,4.183,4.384,4.484,1.998,5.882,5.284,1.571,0.000,0.000,-5.327,10.447,0.451,5.851,3.438,5.644,
195.208,208.244,-5.366,10.179,2.081,0.000,0.008,4.037,0.000,3.812,1.571,4.646,2.128,2.491,1.784,1.360,0.000,0.000,3.001,0.000,0.000,0.000,0.000,0.000,0.000,0.000,0.000,0.000,0.000,0.000,3.142,6.283,0.000,2.100,1.897,1.799,4.285,0.398,1.000,4.711,0.000,0.000,-5.614,10.286,0.451,5.822,3.387,5.777,4.183,4.384,4.484,1.998,5.882,5.284,1.571,0.000,0.000,-5.327,10.447,0.451,5.851,3.438,5.644,
195.304,208.340,-5.366,10.179,2.081,0.000,0.008,4.037,0.000,3.812,1.571,4.646,2.128,2.491,1.784,1.360,0.000,0.000,3.001,0.000,0.000,0.000,0.000,0.000,0.000,0.000,0.000,0.000,0.000,0.000,3.142,6.283,0.000,2.100,1.897,1.799,4.285,0.398,1.000,4.711,0.000,0.000,-5.614,10.286,0.451,5.822,3.387,5.777,4.183,4.384,4.484,1.998,5.882,5.284,1.571,0.000,0.000,-5.327,10.447,0.451,5.851,3.438,5.644,
195.420,208.456,-5.366,10.179,2.081,0.000,0.008,4.037,0.000,3.812,1.571,4.646,2.128,2.491,1.784,1.360,0.000,0.000,3.001,0.000,0.000,0.000,0.000,0.000,0.000,0.000,0.000,0.000,0.000,0.000,3.142,6.283,0.000,2.100,1.897,1.799,4.285,0.398,1.000,4.711,0.000,0.000,-5.614,10.286,0.451,5.822,3.387,5.777,4.183,4.384,4.484,1.998,5.882,5.284,1.571,0.000,0.000,-5.327,10.447,0.451,5.851,3.438,5.644,
195.520,208.556,-5.366,10.179,2.081,0.000,0.008,4.037,0.000,3.812,1.571,4.646,2.128,2.491,1.784,1.360,0.000,0.000,3.001,0.000,0.000,0.000,0.000,0.000,0.000,0.000,0.000,0.000,0.000,0.000,3.142,6.283,0.000,2.100,1.897,1.799,4.285,0.398,1.000,4.711,0.000,0.000,-5.614,10.286,0.451,5.822,3.387,5.777,4.183,4.384,4.484,1.998,5.882,5.284,1.571,0.000,0.000,-5.327,10.447,0.451,5.851,3.438,5.644,
195.620,208.656,-5.366,10.179,2.081,0.000,0.008,4.037,0.000,3.812,1.571,4.646,2.128,2.491,1.784,1.360,0.000,0.000,3.001,0.000,0.000,0.000,0.000,0.000,0.000,0.000,0.000,0.000,0.000,0.000,3.142,6.283,0.000,2.100,1.897,1.799,4.285,0.398,1.000,4.711,0.000,0.000,-5.614,10.286,0.451,5.822,3.387,5.777,4.183,4.384,4.484,1.998,5.882,5.284,1.571,0.000,0.000,-5.327,10.447,0.451,5.851,3.438,5.644,
195.720,208.756,-5.366,10.179,2.081,0.000,0.008,4.037,0.000,3.812,1.571,4.646,2.128,2.491,1.784,1.360,0.000,0.000,3.001,0.000,0.000,0.000,0.000,0.000,0.000,0.000,0.000,0.000,0.000,0.000,3.142,6.283,0.000,2.100,1.897,1.799,4.285,0.398,1.000,4.711,0.000,0.000,-5.614,10.286,0.451,5.822,3.387,5.777,4.183,4.384,4.484,1.998,5.882,5.284,1.571,0.000,0.000,-5.327,10.447,0.451,5.851,3.438,5.644,
195.820,208.856,-5.366,10.179,2.081,0.000,0.008,4.037,0.000,3.812,1.571,4.646,2.128,2.491,1.784,1.360,0.000,0.000,3.001,0.000,0.000,0.000,0.000,0.000,0.000,0.000,0.000,0.000,0.000,0.000,3.142,6.283,0.000,2.100,1.897,1.799,4.285,0.398,1.000,4.711,0.000,0.000,-5.614,10.286,0.451,5.822,3.387,5.777,4.183,4.384,4.484,1.998,5.882,5.284,1.571,0.000,0.000,-5.327,10.447,0.451,5.851,3.438,5.644,
195.920,208.956,-5.366,10.179,2.081,0.000,0.008,4.037,0.000,3.812,1.571,4.646,2.128,2.491,1.784,1.360,0.000,0.000,3.001,0.000,0.000,0.000,0.000,0.000,0.000,0.000,0.000,0.000,0.000,0.000,3.142,6.283,0.000,2.100,1.897,1.799,4.285,0.398,1.000,4.711,0.000,0.000,-5.614,10.286,0.451,5.822,3.387,5.777,4.183,4.384,4.484,1.998,5.882,5.284,1.571,0.000,0.000,-5.327,10.447,0.451,5.851,3.438,5.644,
196.020,209.056,-5.366,10.179,2.081,0.000,0.008,4.037,0.000,3.812,1.571,4.646,2.128,2.491,1.784,1.360,0.000,0.000,3.001,0.000,0.000,0.000,0.000,0.000,0.000,0.000,0.000,0.000,0.000,0.000,3.142,6.283,0.000,2.100,1.897,1.799,4.285,0.398,1.000,4.711,0.000,0.000,-5.614,10.286,0.451,5.822,3.387,5.777,4.183,4.384,4.484,1.998,5.882,5.284,1.571,0.000,0.000,-5.327,10.447,0.451,5.851,3.438,5.644,
196.118,209.154,-5.366,10.179,2.081,0.000,0.008,4.037,0.000,3.812,1.571,4.646,2.128,2.491,1.784,1.360,0.000,0.000,3.001,0.000,0.000,0.000,0.000,0.000,0.000,0.000,0.000,0.000,0.000,0.000,3.142,6.283,0.000,2.100,1.897,1.799,4.285,0.398,1.000,4.711,0.000,0.000,-5.614,10.286,0.451,5.822,3.387,5.777,4.183,4.384,4.484,1.998,5.882,5.284,1.571,0.000,0.000,-5.327,10.447,0.451,5.851,3.438,5.644,
196.220,209.256,-5.366,10.179,2.081,0.000,0.008,4.037,0.000,3.812,1.571,4.646,2.128,2.491,1.784,1.360,0.000,0.000,3.001,0.000,0.000,0.000,0.000,0.000,0.000,0.000,0.000,0.000,0.000,0.000,3.142,6.283,0.000,2.100,1.897,1.799,4.285,0.398,1.000,4.711,0.000,0.000,-5.614,10.286,0.451,5.822,3.387,5.777,4.183,4.384,4.484,1.998,5.882,5.284,1.571,0.000,0.000,-5.327,10.447,0.451,5.851,3.438,5.644,
196.320,209.356,-5.366,10.179,2.081,0.000,0.008,4.037,0.000,3.812,1.571,4.646,2.128,2.491,1.784,1.360,0.000,0.000,3.001,0.000,0.000,0.000,0.000,0.000,0.000,0.000,0.000,0.000,0.000,0.000,3.142,6.283,0.000,2.100,1.897,1.799,4.285,0.398,1.000,4.711,0.000,0.000,-5.614,10.286,0.451,5.822,3.387,5.777,4.183,4.384,4.484,1.998,5.882,5.284,1.571,0.000,0.000,-5.327,10.447,0.451,5.851,3.438,5.644,
196.420,209.456,-5.366,10.179,2.081,0.000,0.008,4.037,0.000,3.812,1.571,4.646,2.128,2.491,1.784,1.360,0.000,0.000,3.001,0.000,0.000,0.000,0.000,0.000,0.000,0.000,0.000,0.000,0.000,0.000,3.142,6.283,0.000,2.100,1.897,1.799,4.285,0.398,1.000,4.711,0.000,0.000,-5.614,10.286,0.451,5.822,3.387,5.777,4.183,4.384,4.484,1.998,5.882,5.284,1.571,0.000,0.000,-5.327,10.447,0.451,5.851,3.438,5.644,
196.520,209.556,-5.366,10.179,2.081,0.000,0.008,4.037,0.000,3.812,1.571,4.646,2.128,2.491,1.784,1.360,0.000,0.000,3.001,0.000,0.000,0.000,0.000,0.000,0.000,0.000,0.000,0.000,0.000,0.000,3.142,6.283,0.000,2.100,1.897,1.799,4.285,0.398,1.000,4.711,0.000,0.000,-5.614,10.286,0.451,5.822,3.387,5.777,4.183,4.384,4.484,1.998,5.882,5.284,1.571,0.000,0.000,-5.327,10.447,0.451,5.851,3.438,5.644,
196.600,209.636,-5.366,10.179,2.081,0.000,0.008,4.037,0.000,3.812,1.571,4.646,2.128,2.491,1.784,1.360,0.000,0.000,3.001,0.000,0.000,0.000,0.000,0.000,0.000,0.000,0.000,0.000,0.000,0.000,3.142,6.283,0.000,2.100,1.897,1.799,4.285,0.398,1.000,4.711,0.000,0.000,-5.614,10.286,0.451,5.822,3.387,5.777,4.183,4.384,4.484,1.998,5.882,5.284,1.571,0.000,0.000,-5.327,10.447,0.451,5.851,3.438,5.644,
196.720,209.756,-5.366,10.179,2.081,0.000,0.008,4.037,0.000,3.812,1.571,4.646,2.128,2.491,1.784,1.360,0.000,0.000,3.001,0.000,0.000,0.000,0.000,0.000,0.000,0.000,0.000,0.000,0.000,0.000,3.142,6.283,0.000,2.100,1.897,1.799,4.285,0.398,1.000,4.711,0.000,0.000,-5.614,10.286,0.451,5.822,3.387,5.777,4.183,4.384,4.484,1.998,5.882,5.284,1.571,0.000,0.000,-5.327,10.447,0.451,5.851,3.438,5.644,
196.808,209.844,-5.366,10.179,2.081,0.000,0.008,4.037,0.000,3.812,1.571,4.646,2.128,2.491,1.784,1.360,0.000,0.000,3.001,0.000,0.000,0.000,0.000,0.000,0.000,0.000,0.000,0.000,0.000,0.000,3.142,6.283,0.000,2.100,1.897,1.799,4.285,0.398,1.000,4.711,0.000,0.000,-5.614,10.286,0.451,5.822,3.387,5.777,4.183,4.384,4.484,1.998,5.882,5.284,1.571,0.000,0.000,-5.327,10.447,0.451,5.851,3.438,5.644,
196.917,209.953,-5.366,10.179,2.081,0.000,0.008,4.037,0.000,3.812,1.571,4.646,2.128,2.491,1.784,1.360,0.000,0.000,3.001,0.000,0.000,0.000,0.000,0.000,0.000,0.000,0.000,0.000,0.000,0.000,3.142,6.283,0.000,2.100,1.897,1.799,4.285,0.398,1.000,4.711,0.000,0.000,-5.614,10.286,0.451,5.822,3.387,5.777,4.183,4.384,4.484,1.998,5.882,5.284,1.571,0.000,0.000,-5.327,10.447,0.451,5.851,3.438,5.644,
197.020,210.056,-5.366,10.179,2.081,0.000,0.008,4.037,0.000,3.812,1.571,4.646,2.128,2.491,1.784,1.360,0.000,0.000,3.001,0.000,0.000,0.000,0.000,0.000,0.000,0.000,0.000,0.000,0.000,0.000,3.142,6.283,0.000,2.100,1.897,1.799,4.285,0.398,1.000,4.711,0.000,0.000,-5.614,10.286,0.451,5.822,3.387,5.777,4.183,4.384,4.484,1.998,5.882,5.284,1.571,0.000,0.000,-5.327,10.447,0.451,5.851,3.438,5.644,
197.120,210.156,-5.366,10.179,2.081,0.000,0.008,4.037,0.000,3.812,1.571,4.646,2.128,2.491,1.784,1.360,0.000,0.000,3.001,0.000,0.000,0.000,0.000,0.000,0.000,0.000,0.000,0.000,0.000,0.000,3.142,6.283,0.000,2.100,1.897,1.799,4.285,0.398,1.000,4.711,0.000,0.000,-5.614,10.286,0.451,5.822,3.387,5.777,4.183,4.384,4.484,1.998,5.882,5.284,1.571,0.000,0.000,-5.327,10.447,0.451,5.851,3.438,5.644,
197.220,210.256,-5.366,10.179,2.081,0.000,0.008,4.037,0.000,3.812,1.571,4.646,2.128,2.491,1.784,1.360,0.000,0.000,3.001,0.000,0.000,0.000,0.000,0.000,0.000,0.000,0.000,0.000,0.000,0.000,3.142,6.283,0.000,2.100,1.897,1.799,4.285,0.398,1.000,4.711,0.000,0.000,-5.614,10.286,0.451,5.822,3.387,5.777,4.183,4.384,4.484,1.998,5.882,5.284,1.571,0.000,0.000,-5.327,10.447,0.451,5.851,3.438,5.644,
197.320,210.356,-5.366,10.179,2.081,0.000,0.008,4.037,0.000,3.812,1.571,4.646,2.128,2.491,1.784,1.360,0.000,0.000,3.001,0.000,0.000,0.000,0.000,0.000,0.000,0.000,0.000,0.000,0.000,0.000,3.142,6.283,0.000,2.100,1.897,1.799,4.285,0.398,1.000,4.711,0.000,0.000,-5.614,10.286,0.451,5.822,3.387,5.777,4.183,4.384,4.484,1.998,5.882,5.284,1.571,0.000,0.000,-5.327,10.447,0.451,5.851,3.438,5.644,
197.408,210.444,-5.366,10.179,2.081,0.000,0.008,4.037,0.000,3.812,1.571,4.646,2.128,2.491,1.784,1.360,0.000,0.000,3.001,0.000,0.000,0.000,0.000,0.000,0.000,0.000,0.000,0.000,0.000,0.000,3.142,6.283,0.000,2.100,1.897,1.799,4.285,0.398,1.000,4.711,0.000,0.000,-5.614,10.286,0.451,5.822,3.387,5.777,4.183,4.384,4.484,1.998,5.882,5.284,1.571,0.000,0.000,-5.327,10.447,0.451,5.851,3.438,5.644,
197.520,210.556,-5.366,10.179,2.081,0.000,0.008,4.037,0.000,3.812,1.571,4.646,2.128,2.491,1.784,1.360,0.000,0.000,3.001,0.000,0.000,0.000,0.000,0.000,0.000,0.000,0.000,0.000,0.000,0.000,3.142,6.283,0.000,2.100,1.897,1.799,4.285,0.398,1.000,4.711,0.000,0.000,-5.614,10.286,0.451,5.822,3.387,5.777,4.183,4.384,4.484,1.998,5.882,5.284,1.571,0.000,0.000,-5.327,10.447,0.451,5.851,3.438,5.644,
197.615,210.651,-5.366,10.179,2.081,0.000,0.008,4.037,0.000,3.812,1.571,4.646,2.128,2.491,1.784,1.360,0.000,0.000,3.001,0.000,0.000,0.000,0.000,0.000,0.000,0.000,0.000,0.000,0.000,0.000,3.142,6.283,0.000,2.100,1.897,1.799,4.285,0.398,1.000,4.711,0.000,0.000,-5.614,10.286,0.451,5.822,3.387,5.777,4.183,4.384,4.484,1.998,5.882,5.284,1.571,0.000,0.000,-5.327,10.447,0.451,5.851,3.438,5.644,
197.712,210.748,-5.366,10.179,2.081,0.000,0.008,4.037,0.000,3.812,1.571,4.646,2.128,2.491,1.784,1.360,0.000,0.000,3.001,0.000,0.000,0.000,0.000,0.000,0.000,0.000,0.000,0.000,0.000,0.000,3.142,6.283,0.000,2.100,1.897,1.799,4.285,0.398,1.000,4.711,0.000,0.000,-5.614,10.286,0.451,5.822,3.387,5.777,4.183,4.384,4.484,1.998,5.882,5.284,1.571,0.000,0.000,-5.327,10.447,0.451,5.851,3.438,5.644,
197.820,210.856,-5.366,10.179,2.081,0.000,0.008,4.037,0.000,3.812,1.571,4.646,2.128,2.491,1.784,1.360,0.000,0.000,3.001,0.000,0.000,0.000,0.000,0.000,0.000,0.000,0.000,0.000,0.000,0.000,3.142,6.283,0.000,2.100,1.897,1.799,4.285,0.398,1.000,4.711,0.000,0.000,-5.614,10.286,0.451,5.822,3.387,5.777,4.183,4.384,4.484,1.998,5.882,5.284,1.571,0.000,0.000,-5.327,10.447,0.451,5.851,3.438,5.644,
197.920,210.956,-5.366,10.179,2.081,0.000,0.008,4.037,0.000,3.812,1.571,4.646,2.128,2.491,1.784,1.360,0.000,0.000,3.001,0.000,0.000,0.000,0.000,0.000,0.000,0.000,0.000,0.000,0.000,0.000,3.142,6.283,0.000,2.100,1.897,1.799,4.285,0.398,1.000,4.711,0.000,0.000,-5.614,10.286,0.451,5.822,3.387,5.777,4.183,4.384,4.484,1.998,5.882,5.284,1.571,0.000,0.000,-5.327,10.447,0.451,5.851,3.438,5.644,
198.020,211.056,-5.366,10.179,2.081,0.000,0.008,4.037,0.000,3.812,1.571,4.646,2.128,2.491,1.784,1.360,0.000,0.000,3.001,0.000,0.000,0.000,0.000,0.000,0.000,0.000,0.000,0.000,0.000,0.000,3.142,6.283,0.000,2.100,1.897,1.799,4.285,0.398,1.000,4.711,0.000,0.000,-5.614,10.286,0.451,5.822,3.387,5.777,4.183,4.384,4.484,1.998,5.882,5.284,1.571,0.000,0.000,-5.327,10.447,0.451,5.851,3.438,5.644,
198.110,211.146,-5.366,10.179,2.081,0.000,0.008,4.037,0.000,3.812,1.571,4.646,2.128,2.491,1.784,1.360,0.000,0.000,3.001,0.000,0.000,0.000,0.000,0.000,0.000,0.000,0.000,0.000,0.000,0.000,3.142,6.283,0.000,2.100,1.897,1.799,4.285,0.398,1.000,4.711,0.000,0.000,-5.614,10.286,0.451,5.822,3.387,5.777,4.183,4.384,4.484,1.998,5.882,5.284,1.571,0.000,0.000,-5.327,10.447,0.451,5.851,3.438,5.644,
198.219,211.255,-5.366,10.179,2.081,0.000,0.008,4.037,0.000,3.812,1.571,4.646,2.128,2.491,1.784,1.360,0.000,0.000,3.001,0.000,0.000,0.000,0.000,0.000,0.000,0.000,0.000,0.000,0.000,0.000,3.142,6.283,0.000,2.100,1.897,1.799,4.285,0.398,1.000,4.711,0.000,0.000,-5.614,10.286,0.451,5.822,3.387,5.777,4.183,4.384,4.484,1.998,5.882,5.284,1.571,0.000,0.000,-5.327,10.447,0.451,5.851,3.438,5.644,
198.320,211.356,-5.366,10.179,2.081,0.000,0.008,4.037,0.000,3.812,1.571,4.646,2.128,2.491,1.784,1.360,0.000,0.000,3.001,0.000,0.000,0.000,0.000,0.000,0.000,0.000,0.000,0.000,0.000,0.000,3.142,6.283,0.000,2.100,1.897,1.799,4.285,0.398,1.000,4.711,0.000,0.000,-5.614,10.286,0.451,5.822,3.387,5.777,4.183,4.384,4.484,1.998,5.882,5.284,1.571,0.000,0.000,-5.327,10.447,0.451,5.851,3.438,5.644,
198.407,211.443,-5.366,10.179,2.081,0.000,0.008,4.037,0.000,3.812,1.571,4.646,2.128,2.491,1.784,1.360,0.000,0.000,3.001,0.000,0.000,0.000,0.000,0.000,0.000,0.000,0.000,0.000,0.000,0.000,3.142,6.283,0.000,2.100,1.897,1.799,4.285,0.398,1.000,4.711,0.000,0.000,-5.614,10.286,0.451,5.822,3.387,5.777,4.183,4.384,4.484,1.998,5.882,5.284,1.571,0.000,0.000,-5.327,10.447,0.451,5.851,3.438,5.644,
198.520,211.556,-5.366,10.179,2.081,0.000,0.008,4.037,0.000,3.812,1.571,4.646,2.128,2.491,1.784,1.360,0.000,0.000,3.001,0.000,0.000,0.000,0.000,0.000,0.000,0.000,0.000,0.000,0.000,0.000,3.142,6.283,0.000,2.100,1.897,1.799,4.285,0.398,1.000,4.711,0.000,0.000,-5.614,10.286,0.451,5.822,3.387,5.777,4.183,4.384,4.484,1.998,5.882,5.284,1.571,0.000,0.000,-5.327,10.447,0.451,5.851,3.438,5.644,
198.615,211.651,-5.366,10.179,2.081,0.000,0.008,4.037,0.000,3.812,1.571,4.646,2.128,2.491,1.784,1.360,0.000,0.000,3.001,0.000,0.000,0.000,0.000,0.000,0.000,0.000,0.000,0.000,0.000,0.000,3.142,6.283,0.000,2.100,1.897,1.799,4.285,0.398,1.000,4.711,0.000,0.000,-5.614,10.286,0.451,5.822,3.387,5.777,4.183,4.384,4.484,1.998,5.882,5.284,1.571,0.000,0.000,-5.327,10.447,0.451,5.851,3.438,5.644,
198.706,211.742,-5.366,10.179,2.081,0.000,0.008,4.037,0.000,3.812,1.571,4.646,2.128,2.491,1.784,1.360,0.000,0.000,3.001,0.000,0.000,0.000,0.000,0.000,0.000,0.000,0.000,0.000,0.000,0.000,3.142,6.283,0.000,2.100,1.897,1.799,4.285,0.398,1.000,4.711,0.000,0.000,-5.614,10.286,0.451,5.822,3.387,5.777,4.183,4.384,4.484,1.998,5.882,5.284,1.571,0.000,0.000,-5.327,10.447,0.451,5.851,3.438,5.644,
198.820,211.856,-5.366,10.179,2.081,0.000,0.008,4.037,0.000,3.812,1.571,4.646,2.128,2.491,1.784,1.360,0.000,0.000,3.001,0.000,0.000,0.000,0.000,0.000,0.000,0.000,0.000,0.000,0.000,0.000,3.142,6.283,0.000,2.100,1.897,1.799,4.285,0.398,1.000,4.711,0.000,0.000,-5.614,10.286,0.451,5.822,3.387,5.777,4.183,4.384,4.484,1.998,5.882,5.284,1.571,0.000,0.000,-5.327,10.447,0.451,5.851,3.438,5.644,
198.920,211.956,-5.366,10.179,2.081,0.000,0.008,4.037,0.000,3.812,1.571,4.646,2.128,2.491,1.784,1.360,0.000,0.000,3.001,0.000,0.000,0.000,0.000,0.000,0.000,0.000,0.000,0.000,0.000,0.000,3.142,6.283,0.000,2.100,1.897,1.799,4.285,0.398,1.000,4.711,0.000,0.000,-5.614,10.286,0.451,5.822,3.387,5.777,4.183,4.384,4.484,1.998,5.882,5.284,1.571,0.000,0.000,-5.327,10.447,0.451,5.851,3.438,5.644,
199.006,212.042,-5.366,10.179,2.081,0.000,0.008,4.037,0.000,3.812,1.571,4.646,2.128,2.491,1.784,1.360,0.000,0.000,3.001,0.000,0.000,0.000,0.000,0.000,0.000,0.000,0.000,0.000,0.000,0.000,3.142,6.283,0.000,2.100,1.897,1.799,4.285,0.398,1.000,4.711,0.000,0.000,-5.614,10.286,0.451,5.822,3.387,5.777,4.183,4.384,4.484,1.998,5.882,5.284,1.571,0.000,0.000,-5.327,10.447,0.451,5.851,3.438,5.644,
199.111,212.147,-5.366,10.179,2.081,0.000,0.008,4.037,0.000,3.812,1.571,4.646,2.128,2.491,1.784,1.360,0.000,0.000,3.001,0.000,0.000,0.000,0.000,0.000,0.000,0.000,0.000,0.000,0.000,0.000,3.142,6.283,0.000,2.100,1.897,1.799,4.285,0.398,1.000,4.711,0.000,0.000,-5.614,10.286,0.451,5.822,3.387,5.777,4.183,4.384,4.484,1.998,5.882,5.284,1.571,0.000,0.000,-5.327,10.447,0.451,5.851,3.438,5.644,
199.220,212.256,-5.366,10.179,2.081,0.000,0.008,4.037,0.000,3.812,1.571,4.646,2.128,2.491,1.784,1.360,0.000,0.000,3.001,0.000,0.000,0.000,0.000,0.000,0.000,0.000,0.000,0.000,0.000,0.000,3.142,6.283,0.000,2.100,1.897,1.799,4.285,0.398,1.000,4.711,0.000,0.000,-5.614,10.286,0.451,5.822,3.387,5.777,4.183,4.384,4.484,1.998,5.882,5.284,1.571,0.000,0.000,-5.327,10.447,0.451,5.851,3.438,5.644,
199.320,212.356,-5.366,10.179,2.081,0.000,0.008,4.037,0.000,3.812,1.571,4.646,2.128,2.491,1.784,1.360,0.000,0.000,3.001,0.000,0.000,0.000,0.000,0.000,0.000,0.000,0.000,0.000,0.000,0.000,3.142,6.283,0.000,2.100,1.897,1.799,4.285,0.398,1.000,4.711,0.000,0.000,-5.614,10.286,0.451,5.822,3.387,5.777,4.183,4.384,4.484,1.998,5.882,5.284,1.571,0.000,0.000,-5.327,10.447,0.451,5.851,3.438,5.644,
199.420,212.456,-5.366,10.179,2.081,0.000,0.008,4.037,0.000,3.812,1.571,4.646,2.128,2.491,1.784,1.360,0.000,0.000,3.001,0.000,0.000,0.000,0.000,0.000,0.000,0.000,0.000,0.000,0.000,0.000,3.142,6.283,0.000,2.100,1.897,1.799,4.285,0.398,1.000,4.711,0.000,0.000,-5.614,10.286,0.451,5.822,3.387,5.777,4.183,4.384,4.484,1.998,5.882,5.284,1.571,0.000,0.000,-5.327,10.447,0.451,5.851,3.438,5.644,
199.501,212.537,-5.366,10.179,2.081,0.000,0.008,4.037,0.000,3.812,1.571,4.646,2.128,2.491,1.784,1.360,0.000,0.000,3.001,0.000,0.000,0.000,0.000,0.000,0.000,0.000,0.000,0.000,0.000,0.000,3.142,6.283,0.000,2.100,1.897,1.799,4.285,0.398,1.000,4.711,0.000,0.000,-5.614,10.286,0.451,5.822,3.387,5.777,4.183,4.384,4.484,1.998,5.882,5.284,1.571,0.000,0.000,-5.327,10.447,0.451,5.851,3.438,5.644,
199.620,212.656,-5.366,10.179,2.081,0.000,0.008,4.037,0.000,3.812,1.571,4.646,2.128,2.491,1.784,1.360,0.000,0.000,3.001,0.000,0.000,0.000,0.000,0.000,0.000,0.000,0.000,0.000,0.000,0.000,3.142,6.283,0.000,2.100,1.897,1.799,4.285,0.398,1.000,4.711,0.000,0.000,-5.614,10.286,0.451,5.822,3.387,5.777,4.183,4.384,4.484,1.998,5.882,5.284,1.571,0.000,0.000,-5.327,10.447,0.451,5.851,3.438,5.644,
199.717,212.753,-5.366,10.179,2.081,0.000,0.008,4.037,0.000,3.812,1.571,4.646,2.128,2.491,1.784,1.360,0.000,0.000,3.001,0.000,0.000,0.000,0.000,0.000,0.000,0.000,0.000,0.000,0.000,0.000,3.142,6.283,0.000,2.100,1.897,1.799,4.285,0.398,1.000,4.711,0.000,0.000,-5.614,10.286,0.451,5.822,3.387,5.777,4.183,4.384,4.484,1.998,5.882,5.284,1.571,0.000,0.000,-5.327,10.447,0.451,5.851,3.438,5.644,
199.820,212.856,-5.366,10.179,2.081,0.000,0.008,4.037,0.000,3.812,1.571,4.646,2.128,2.491,1.784,1.360,0.000,0.000,3.001,0.000,0.000,0.000,0.000,0.000,0.000,0.000,0.000,0.000,0.000,0.000,3.142,6.283,0.000,2.100,1.897,1.799,4.285,0.398,1.000,4.711,0.000,0.000,-5.614,10.286,0.451,5.822,3.387,5.777,4.183,4.384,4.484,1.998,5.882,5.284,1.571,0.000,0.000,-5.327,10.447,0.451,5.851,3.438,5.644,
199.912,212.948,-5.366,10.179,2.081,0.000,0.008,4.037,0.000,3.812,1.571,4.646,2.128,2.491,1.784,1.360,0.000,0.000,3.001,0.000,0.000,0.000,0.000,0.000,0.000,0.000,0.000,0.000,0.000,0.000,3.142,6.283,0.000,2.100,1.897,1.799,4.285,0.398,1.000,4.711,0.000,0.000,-5.614,10.286,0.451,5.822,3.387,5.777,4.183,4.384,4.484,1.998,5.882,5.284,1.571,0.000,0.000,-5.327,10.447,0.451,5.851,3.438,5.644,
200.020,213.056,-5.366,10.179,2.081,0.000,0.008,4.037,0.000,3.812,1.571,4.646,2.128,2.491,1.784,1.360,0.000,0.000,3.001,0.000,0.000,0.000,0.000,0.000,0.000,0.000,0.000,0.000,0.000,0.000,3.142,6.283,0.000,2.100,1.897,1.799,4.285,0.398,1.000,4.711,0.000,0.000,-5.614,10.286,0.451,5.822,3.387,5.777,4.183,4.384,4.484,1.998,5.882,5.284,1.571,0.000,0.000,-5.327,10.447,0.451,5.851,3.438,5.644,
200.118,213.154,-5.366,10.179,2.081,0.000,0.008,4.037,0.000,3.812,1.571,4.646,2.128,2.491,1.784,1.360,0.000,0.000,3.001,0.000,0.000,0.000,0.000,0.000,0.000,0.000,0.000,0.000,0.000,0.000,3.142,6.283,0.000,2.100,1.897,1.799,4.285,0.398,1.000,4.711,0.000,0.000,-5.614,10.286,0.451,5.822,3.387,5.777,4.183,4.384,4.484,1.998,5.882,5.284,1.571,0.000,0.000,-5.327,10.447,0.451,5.851,3.438,5.644,
200.220,213.256,-5.366,10.179,2.081,0.000,0.008,4.037,0.000,3.812,1.571,4.646,2.128,2.491,1.784,1.360,0.000,0.000,3.001,0.000,0.000,0.000,0.000,0.000,0.000,0.000,0.000,0.000,0.000,0.000,3.142,6.283,0.000,2.100,1.897,1.799,4.285,0.398,1.000,4.711,0.000,0.000,-5.614,10.286,0.451,5.822,3.387,5.777,4.183,4.384,4.484,1.998,5.882,5.284,1.571,0.000,0.000,-5.327,10.447,0.451,5.851,3.438,5.644,
200.319,213.355,-5.366,10.179,2.081,0.000,0.008,4.037,0.000,3.812,1.571,4.646,2.128,2.491,1.784,1.360,0.000,0.000,3.001,0.000,0.000,0.000,0.000,0.000,0.000,0.000,0.000,0.000,0.000,0.000,3.142,6.283,0.000,2.100,1.897,1.799,4.285,0.398,1.000,4.711,0.000,0.000,-5.614,10.286,0.451,5.822,3.387,5.777,4.183,4.384,4.484,1.998,5.882,5.284,1.571,0.000,0.000,-5.327,10.447,0.451,5.851,3.438,5.644,
200.420,213.456,-5.366,10.179,2.081,0.000,0.008,4.037,0.000,3.812,1.571,4.646,2.128,2.491,1.784,1.360,0.000,0.000,3.001,0.000,0.000,0.000,0.000,0.000,0.000,0.000,0.000,0.000,0.000,0.000,3.142,6.283,0.000,2.100,1.897,1.799,4.285,0.398,1.000,4.711,0.000,0.000,-5.614,10.286,0.451,5.822,3.387,5.777,4.183,4.384,4.484,1.998,5.882,5.284,1.571,0.000,0.000,-5.327,10.447,0.451,5.851,3.438,5.644,
200.520,213.556,-5.366,10.179,2.081,0.000,0.008,4.037,0.000,3.812,1.571,4.646,2.128,2.491,1.784,1.360,0.000,0.000,3.001,0.000,0.000,0.000,0.000,0.000,0.000,0.000,0.000,0.000,0.000,0.000,3.142,6.283,0.000,2.100,1.897,1.799,4.285,0.398,1.000,4.711,0.000,0.000,-5.614,10.286,0.451,5.822,3.387,5.777,4.183,4.384,4.484,1.998,5.882,5.284,1.571,0.000,0.000,-5.327,10.447,0.451,5.851,3.438,5.644,
200.620,213.656,-5.366,10.179,2.081,0.000,0.008,4.037,0.000,3.812,1.571,4.646,2.128,2.491,1.784,1.360,0.000,0.000,3.001,0.000,0.000,0.000,0.000,0.000,0.000,0.000,0.000,0.000,0.000,0.000,3.142,6.283,0.000,2.100,1.897,1.799,4.285,0.398,1.000,4.711,0.000,0.000,-5.614,10.286,0.451,5.822,3.387,5.777,4.183,4.384,4.484,1.998,5.882,5.284,1.571,0.000,0.000,-5.327,10.447,0.451,5.851,3.438,5.644,
200.705,213.741,-5.366,10.179,2.081,0.000,0.008,4.037,0.000,3.812,1.571,4.646,2.128,2.491,1.784,1.360,0.000,0.000,3.001,0.000,0.000,0.000,0.000,0.000,0.000,0.000,0.000,0.000,0.000,0.000,3.142,6.283,0.000,2.100,1.897,1.799,4.285,0.398,1.000,4.711,0.000,0.000,-5.614,10.286,0.451,5.822,3.387,5.777,4.183,4.384,4.484,1.998,5.882,5.284,1.571,0.000,0.000,-5.327,10.447,0.451,5.851,3.438,5.644,
200.815,213.851,-5.366,10.179,2.081,0.000,0.008,4.037,0.000,3.812,1.571,4.646,2.128,2.491,1.784,1.360,0.000,0.000,3.001,0.000,0.000,0.000,0.000,0.000,0.000,0.000,0.000,0.000,0.000,0.000,3.142,6.283,0.000,2.100,1.897,1.799,4.285,0.398,1.000,4.711,0.000,0.000,-5.614,10.286,0.451,5.822,3.387,5.777,4.183,4.384,4.484,1.998,5.882,5.284,1.571,0.000,0.000,-5.327,10.447,0.451,5.851,3.438,5.644,
200.920,213.956,-5.366,10.179,2.081,0.000,0.008,4.037,0.000,3.812,1.571,4.646,2.128,2.491,1.784,1.360,0.000,0.000,3.001,0.000,0.000,0.000,0.000,0.000,0.000,0.000,0.000,0.000,0.000,0.000,3.142,6.283,0.000,2.100,1.897,1.799,4.285,0.398,1.000,4.711,0.000,0.000,-5.614,10.286,0.451,5.822,3.387,5.777,4.183,4.384,4.484,1.998,5.882,5.284,1.571,0.000,0.000,-5.327,10.447,0.451,5.851,3.438,5.644,
201.015,214.051,-5.366,10.179,2.081,0.000,0.008,4.037,0.000,3.812,1.571,4.646,2.128,2.491,1.784,1.360,0.000,0.000,3.001,0.000,0.000,0.000,0.000,0.000,0.000,0.000,0.000,0.000,0.000,0.000,3.142,6.283,0.000,2.100,1.897,1.799,4.285,0.398,1.000,4.711,0.000,0.000,-5.614,10.286,0.451,5.822,3.387,5.777,4.183,4.384,4.484,1.998,5.882,5.284,1.571,0.000,0.000,-5.327,10.447,0.451,5.851,3.438,5.644,
201.104,214.140,-5.366,10.179,2.081,0.000,0.008,4.037,0.000,3.812,1.571,4.646,2.128,2.491,1.784,1.360,0.000,0.000,3.001,0.000,0.000,0.000,0.000,0.000,0.000,0.000,0.000,0.000,0.000,0.000,3.142,6.283,0.000,2.100,1.897,1.799,4.285,0.398,1.000,4.711,0.000,0.000,-5.614,10.286,0.451,5.822,3.387,5.777,4.183,4.384,4.484,1.998,5.882,5.284,1.571,0.000,0.000,-5.327,10.447,0.451,5.851,3.438,5.644,
201.220,214.256,-5.366,10.179,2.081,0.000,0.008,4.037,0.000,3.812,1.571,4.646,2.128,2.491,1.784,1.360,0.000,0.000,3.001,0.000,0.000,0.000,0.000,0.000,0.000,0.000,0.000,0.000,0.000,0.000,3.142,6.283,0.000,2.100,1.897,1.799,4.285,0.398,1.000,4.711,0.000,0.000,-5.614,10.286,0.451,5.822,3.387,5.777,4.183,4.384,4.484,1.998,5.882,5.284,1.571,0.000,0.000,-5.327,10.447,0.451,5.851,3.438,5.644,
201.320,214.356,-5.366,10.179,2.081,0.000,0.008,4.037,0.000,3.812,1.571,4.646,2.128,2.491,1.784,1.360,0.000,0.000,3.001,0.000,0.000,0.000,0.000,0.000,0.000,0.000,0.000,0.000,0.000,0.000,3.142,6.283,0.000,2.100,1.897,1.799,4.285,0.398,1.000,4.711,0.000,0.000,-5.614,10.286,0.451,5.822,3.387,5.777,4.183,4.384,4.484,1.998,5.882,5.284,1.571,0.000,0.000,-5.327,10.447,0.451,5.851,3.438,5.644,
201.420,214.456,-5.366,10.179,2.081,0.000,0.008,4.037,0.000,3.812,1.571,4.646,2.128,2.491,1.784,1.360,0.000,0.000,3.001,0.000,0.000,0.000,0.000,0.000,0.000,0.000,0.000,0.000,0.000,0.000,3.142,6.283,0.000,2.100,1.897,1.799,4.285,0.398,1.000,4.711,0.000,0.000,-5.614,10.286,0.451,5.822,3.387,5.777,4.183,4.384,4.484,1.998,5.882,5.284,1.571,0.000,0.000,-5.327,10.447,0.451,5.851,3.438,5.644,
201.518,214.554,-5.366,10.179,2.081,0.000,0.008,4.037,0.000,3.812,1.571,4.646,2.128,2.491,1.784,1.360,0.000,0.000,3.001,0.000,0.000,0.000,0.000,0.000,0.000,0.000,0.000,0.000,0.000,0.000,3.142,6.283,0.000,2.100,1.897,1.799,4.285,0.398,1.000,4.711,0.000,0.000,-5.614,10.286,0.451,5.822,3.387,5.777,4.183,4.384,4.484,1.998,5.882,5.284,1.571,0.000,0.000,-5.327,10.447,0.451,5.851,3.438,5.644,
201.620,214.656,-5.366,10.179,2.081,0.000,0.008,4.037,0.000,3.812,1.571,4.646,2.128,2.491,1.784,1.360,0.000,0.000,3.001,0.000,0.000,0.000,0.000,0.000,0.000,0.000,0.000,0.000,0.000,0.000,3.142,6.283,0.000,2.100,1.897,1.799,4.285,0.398,1.000,4.711,0.000,0.000,-5.614,10.286,0.451,5.822,3.387,5.777,4.183,4.384,4.484,1.998,5.882,5.284,1.571,0.000,0.000,-5.327,10.447,0.451,5.851,3.438,5.644,
201.720,214.756,-5.366,10.179,2.081,0.000,0.008,4.037,0.000,3.812,1.571,4.646,2.128,2.491,1.784,1.360,0.000,0.000,3.001,0.000,0.000,0.000,0.000,0.000,0.000,0.000,0.000,0.000,0.000,0.000,3.142,6.283,0.000,2.100,1.897,1.799,4.285,0.398,1.000,4.711,0.000,0.000,-5.614,10.286,0.451,5.822,3.387,5.777,4.183,4.384,4.484,1.998,5.882,5.284,1.571,0.000,0.000,-5.327,10.447,0.451,5.851,3.438,5.644,
201.820,214.856,-5.366,10.179,2.081,0.000,0.008,4.037,0.000,3.812,1.571,4.646,2.128,2.491,1.784,1.360,0.000,0.000,3.001,0.000,0.000,0.000,0.000,0.000,0.000,0.000,0.000,0.000,0.000,0.000,3.142,6.283,0.000,2.100,1.897,1.799,4.285,0.398,1.000,4.711,0.000,0.000,-5.614,10.286,0.451,5.822,3.387,5.777,4.183,4.384,4.484,1.998,5.882,5.284,1.571,0.000,0.000,-5.327,10.447,0.451,5.851,3.438,5.644,
201.920,214.956,-5.366,10.179,2.081,0.000,0.008,4.037,0.000,3.812,1.571,4.646,2.128,2.491,1.784,1.360,0.000,0.000,3.001,0.000,0.000,0.000,0.000,0.000,0.000,0.000,0.000,0.000,0.000,0.000,3.142,6.283,0.000,2.100,1.897,1.799,4.285,0.398,1.000,4.711,0.000,0.000,-5.614,10.286,0.451,5.822,3.387,5.777,4.183,4.384,4.484,1.998,5.882,5.284,1.571,0.000,0.000,-5.327,10.447,0.451,5.851,3.438,5.644,
202.010,215.046,-5.366,10.179,2.081,0.000,0.008,4.037,0.000,3.812,1.571,4.646,2.128,2.491,1.784,1.360,0.000,0.000,3.001,0.000,0.000,0.000,0.000,0.000,0.000,0.000,0.000,0.000,0.000,0.000,3.142,6.283,0.000,2.100,1.897,1.799,4.285,0.398,1.000,4.711,0.000,0.000,-5.614,10.286,0.451,5.822,3.387,5.777,4.183,4.384,4.484,1.998,5.882,5.284,1.571,0.000,0.000,-5.327,10.447,0.451,5.851,3.438,5.644,
202.120,215.156,-5.366,10.179,2.081,0.000,0.008,4.037,0.000,3.812,1.571,4.646,2.128,2.491,1.784,1.360,0.000,0.000,3.001,0.000,0.000,0.000,0.000,0.000,0.000,0.000,0.000,0.000,0.000,0.000,3.142,6.283,0.000,2.100,1.897,1.799,4.285,0.398,1.000,4.711,0.000,0.000,-5.614,10.286,0.451,5.822,3.387,5.777,4.183,4.384,4.484,1.998,5.882,5.284,1.571,0.000,0.000,-5.327,10.447,0.451,5.851,3.438,5.644,
202.212,215.248,-5.366,10.179,2.081,0.000,0.008,4.037,0.000,3.812,1.571,4.646,2.128,2.491,1.784,1.360,0.000,0.000,3.001,0.000,0.000,0.000,0.000,0.000,0.000,0.000,0.000,0.000,0.000,0.000,3.142,6.283,0.000,2.100,1.897,1.799,4.285,0.398,1.000,4.711,0.000,0.000,-5.614,10.286,0.451,5.822,3.387,5.777,4.183,4.384,4.484,1.998,5.882,5.284,1.571,0.000,0.000,-5.327,10.447,0.451,5.851,3.438,5.644,
202.320,215.356,-5.366,10.179,2.081,0.000,0.008,4.037,0.000,3.812,1.571,4.646,2.128,2.491,1.784,1.360,0.000,0.000,3.001,0.000,0.000,0.000,0.000,0.000,0.000,0.000,0.000,0.000,0.000,0.000,3.142,6.283,0.000,2.100,1.897,1.799,4.285,0.398,1.000,4.711,0.000,0.000,-5.614,10.286,0.451,5.822,3.387,5.777,4.183,4.384,4.484,1.998,5.882,5.284,1.571,0.000,0.000,-5.327,10.447,0.451,5.851,3.438,5.644,
202.409,215.445,-5.366,10.179,2.081,0.000,0.008,4.037,0.000,3.812,1.571,4.646,2.128,2.491,1.784,1.360,0.000,0.000,3.001,0.000,0.000,0.000,0.000,0.000,0.000,0.000,0.000,0.000,0.000,0.000,3.142,6.283,0.000,2.100,1.897,1.799,4.285,0.398,1.000,4.711,0.000,0.000,-5.614,10.286,0.451,5.822,3.387,5.777,4.183,4.384,4.484,1.998,5.882,5.284,1.571,0.000,0.000,-5.327,10.447,0.451,5.851,3.438,5.644,
202.519,215.555,-5.366,10.179,2.081,0.000,0.008,4.037,0.000,3.812,1.571,4.646,2.128,2.491,1.784,1.360,0.000,0.000,3.001,0.000,0.000,0.000,0.000,0.000,0.000,0.000,0.000,0.000,0.000,0.000,3.142,6.283,0.000,2.100,1.897,1.799,4.285,0.398,1.000,4.711,0.000,0.000,-5.614,10.286,0.451,5.822,3.387,5.777,4.183,4.384,4.484,1.998,5.882,5.284,1.571,0.000,0.000,-5.327,10.447,0.451,5.851,3.438,5.644,
202.620,215.656,-5.366,10.179,2.081,0.000,0.008,4.037,0.000,3.812,1.571,4.646,2.128,2.491,1.784,1.360,0.000,0.000,3.001,0.000,0.000,0.000,0.000,0.000,0.000,0.000,0.000,0.000,0.000,0.000,3.142,6.283,0.000,2.100,1.897,1.799,4.285,0.398,1.000,4.711,0.000,0.000,-5.614,10.286,0.451,5.822,3.387,5.777,4.183,4.384,4.484,1.998,5.882,5.284,1.571,0.000,0.000,-5.327,10.447,0.451,5.851,3.438,5.644,
202.720,215.756,-5.366,10.179,2.081,0.000,0.008,4.037,0.000,3.812,1.571,4.646,2.128,2.491,1.784,1.360,0.000,0.000,3.001,0.000,0.000,0.000,0.000,0.000,0.000,0.000,0.000,0.000,0.000,0.000,3.142,6.283,0.000,2.100,1.897,1.799,4.285,0.398,1.000,4.711,0.000,0.000,-5.614,10.286,0.451,5.822,3.387,5.777,4.183,4.384,4.484,1.998,5.882,5.284,1.571,0.000,0.000,-5.327,10.447,0.451,5.851,3.438,5.644,
202.820,215.856,-5.366,10.179,2.081,0.000,0.008,4.037,0.000,3.812,1.571,4.646,2.128,2.491,1.784,1.360,0.000,0.000,3.001,0.000,0.000,0.000,0.000,0.000,0.000,0.000,0.000,0.000,0.000,0.000,3.142,6.283,0.000,2.100,1.897,1.799,4.285,0.398,1.000,4.711,0.000,0.000,-5.614,10.286,0.451,5.822,3.387,5.777,4.183,4.384,4.484,1.998,5.882,5.284,1.571,0.000,0.000,-5.327,10.447,0.451,5.851,3.438,5.644,
202.920,215.956,-5.366,10.179,2.081,0.000,0.008,4.037,0.000,3.812,1.571,4.646,2.128,2.491,1.784,1.360,0.000,0.000,3.001,0.000,0.000,0.000,0.000,0.000,0.000,0.000,0.000,0.000,0.000,0.000,3.142,6.283,0.000,2.100,1.897,1.799,4.285,0.398,1.000,4.711,0.000,0.000,-5.614,10.286,0.451,5.822,3.387,5.777,4.183,4.384,4.484,1.998,5.882,5.284,1.571,0.000,0.000,-5.327,10.447,0.451,5.851,3.438,5.644,
203.020,216.056,-5.366,10.179,2.081,0.000,0.008,4.037,0.000,3.812,1.571,4.646,2.128,2.491,1.784,1.360,0.000,0.000,3.001,0.000,0.000,0.000,0.000,0.000,0.000,0.000,0.000,0.000,0.000,0.000,3.142,6.283,0.000,2.100,1.897,1.799,4.285,0.398,1.000,4.711,0.000,0.000,-5.614,10.286,0.451,5.822,3.387,5.777,4.183,4.384,4.484,1.998,5.882,5.284,1.571,0.000,0.000,-5.327,10.447,0.451,5.851,3.438,5.644,
203.120,216.156,-5.366,10.179,2.081,0.000,0.008,4.037,0.000,3.812,1.571,4.646,2.128,2.491,1.784,1.360,0.000,0.000,3.001,0.000,0.000,0.000,0.000,0.000,0.000,0.000,0.000,0.000,0.000,0.000,3.142,6.283,0.000,2.100,1.897,1.799,4.285,0.398,1.000,4.711,0.000,0.000,-5.614,10.286,0.451,5.822,3.387,5.777,4.183,4.384,4.484,1.998,5.882,5.284,1.571,0.000,0.000,-5.327,10.447,0.451,5.851,3.438,5.644,
203.220,216.256,-5.366,10.179,2.081,0.000,0.008,4.037,0.000,3.812,1.571,4.646,2.128,2.491,1.784,1.360,0.000,0.000,3.001,0.000,0.000,0.000,0.000,0.000,0.000,0.000,0.000,0.000,0.000,0.000,3.142,6.283,0.000,2.100,1.897,1.799,4.285,0.398,1.000,4.711,0.000,0.000,-5.614,10.286,0.451,5.822,3.387,5.777,4.183,4.384,4.484,1.998,5.882,5.284,1.571,0.000,0.000,-5.327,10.447,0.451,5.851,3.438,5.644,
203.306,216.342,-5.366,10.179,2.081,0.000,0.008,4.037,0.000,3.812,1.571,4.646,2.128,2.491,1.784,1.360,0.000,0.000,3.001,0.000,0.000,0.000,0.000,0.000,0.000,0.000,0.000,0.000,0.000,0.000,3.142,6.283,0.000,2.100,1.897,1.799,4.285,0.398,1.000,4.711,0.000,0.000,-5.614,10.286,0.451,5.822,3.387,5.777,4.183,4.384,4.484,1.998,5.882,5.284,1.571,0.000,0.000,-5.327,10.447,0.451,5.851,3.438,5.644,
203.420,216.456,-5.366,10.179,2.081,0.000,0.008,4.037,0.000,3.812,1.571,4.646,2.128,2.491,1.784,1.360,0.000,0.000,3.001,0.000,0.000,0.000,0.000,0.000,0.000,0.000,0.000,0.000,0.000,0.000,3.142,6.283,0.000,2.100,1.897,1.799,4.285,0.398,1.000,4.711,0.000,0.000,-5.614,10.286,0.451,5.822,3.387,5.777,4.183,4.384,4.484,1.998,5.882,5.284,1.571,0.000,0.000,-5.327,10.447,0.451,5.851,3.438,5.644,
203.520,216.556,-5.366,10.179,2.081,0.000,0.008,4.037,0.000,3.812,1.571,4.646,2.128,2.491,1.784,1.360,0.000,0.000,3.001,0.000,0.000,0.000,0.000,0.000,0.000,0.000,0.000,0.000,0.000,0.000,3.142,6.283,0.000,2.100,1.897,1.799,4.285,0.398,1.000,4.711,0.000,0.000,-5.614,10.286,0.451,5.822,3.387,5.777,4.183,4.384,4.484,1.998,5.882,5.284,1.571,0.000,0.000,-5.327,10.447,0.451,5.851,3.438,5.644,
203.606,216.642,-5.366,10.179,2.081,0.000,0.008,4.037,0.000,3.812,1.571,4.646,2.128,2.491,1.784,1.360,0.000,0.000,3.001,0.000,0.000,0.000,0.000,0.000,0.000,0.000,0.000,0.000,0.000,0.000,3.142,6.283,0.000,2.100,1.897,1.799,4.285,0.398,1.000,4.711,0.000,0.000,-5.614,10.286,0.451,5.822,3.387,5.777,4.183,4.384,4.484,1.998,5.882,5.284,1.571,0.000,0.000,-5.327,10.447,0.451,5.851,3.438,5.644,
203.720,216.756,-5.366,10.179,2.081,0.000,0.008,4.037,0.000,3.812,1.571,4.646,2.128,2.491,1.784,1.360,0.000,0.000,3.001,0.000,0.000,0.000,0.000,0.000,0.000,0.000,0.000,0.000,0.000,0.000,3.142,6.283,0.000,2.100,1.897,1.799,4.285,0.398,1.000,4.711,0.000,0.000,-5.614,10.286,0.451,5.822,3.387,5.777,4.183,4.384,4.484,1.998,5.882,5.284,1.571,0.000,0.000,-5.327,10.447,0.451,5.851,3.438,5.644,
