deveshdatwani/Gopher/Assets/Data/07-21 11-04-05/Obstacle Handling_robot_value.csv
game_time,true_time,x,y,az,vx,vaz,dis_to_obs_0,dis_to_obs_36,dis_to_obs_72,dis_to_obs_108,dis_to_obs_144,dis_to_obs_180,dis_to_obs_-144,dis_to_obs_-108,dis_to_obs_-72,dis_to_obs_-36,dis_to_min_obs,direction_to_min_obs,dis_to_human_0,dis_to_human_36,dis_to_human_72,dis_to_human_108,dis_to_human_144,dis_to_human_180,dis_to_human_-144,dis_to_human_-108,dis_to_human_-72,dis_to_human_-36,dis_to_min_human,direction_to_min_human,main_cam_yaw,main_cam_pitch,left_joint_1,left_joint_2,left_joint_3,left_joint_4,left_joint_5,left_joint_6,left_joint_7,left_joint_gripper,left_is_grasping,left_end_x,left_end_y,left_end_z,left_end_ax,left_end_ay,left_end_az,right_joint_1,right_joint_2,right_joint_3,right_joint_4,right_joint_5,right_joint_6,right_joint_7,right_joint_gripper,right_is_grasping,right_end_x,right_end_y,right_end_z,right_end_ax,right_end_ay,right_end_az,
7.700,12.575,1.031,-9.904,1.275,1.004,5.319,3.541,3.629,0.000,1.436,1.561,0.000,4.163,2.391,1.970,0.000,0.000,3.142,0.000,0.000,0.000,0.000,0.000,0.000,0.000,0.000,0.000,0.000,0.000,3.142,6.281,0.001,1.004,1.569,1.568,4.085,6.281,1.199,4.712,0.000,0.000,0.888,-9.245,0.990,5.007,1.588,1.553,5.282,4.711,4.711,2.197,6.282,5.083,1.570,0.000,0.000,1.516,-9.436,0.991,5.008,1.585,1.556,
7.800,12.675,1.055,-9.829,1.223,1.000,5.842,3.520,3.486,0.000,1.609,1.529,3.634,4.816,2.453,1.946,0.000,0.000,1.387,0.000,0.000,3.467,0.000,0.000,0.000,0.000,0.000,0.000,0.000,0.000,3.142,6.281,0.000,1.004,1.570,1.570,4.085,6.281,1.199,4.712,0.000,0.000,0.947,-9.164,0.990,5.061,1.585,1.557,5.282,4.712,4.712,2.198,6.281,5.083,1.570,0.000,0.000,1.564,-9.387,0.991,5.061,1.583,1.559,
7.900,12.775,1.089,-9.736,1.215,1.013,6.260,3.430,3.382,0.000,1.750,1.563,3.660,4.814,2.424,1.912,0.000,0.000,1.422,0.000,0.000,3.367,0.000,0.000,0.000,0.000,0.000,0.000,0.000,0.000,3.142,6.282,0.000,1.004,1.569,1.569,4.085,6.281,1.199,4.712,0.000,0.000,0.986,-9.070,0.990,5.067,1.584,1.557,5.281,4.711,4.711,2.198,6.282,5.083,1.570,0.000,0.000,1.601,-9.298,0.990,5.067,1.584,1.558,
8.000,12.875,1.131,-9.624,1.215,1.016,6.152,3.312,3.263,0.000,1.908,1.613,3.771,4.677,2.373,1.870,0.000,0.000,1.492,0.000,0.000,3.333,0.000,0.000,0.000,0.000,0.000,0.000,0.000,0.000,3.142,6.281,0.001,1.004,1.569,1.568,4.084,6.281,1.199,4.712,0.000,0.000,1.027,-8.957,0.990,5.067,1.584,1.558,5.281,4.711,4.710,2.197,6.282,5.083,1.570,0.000,0.000,1.642,-9.185,0.990,5.067,1.585,1.556,
8.098,12.974,1.166,-9.531,1.164,1.011,5.212,3.276,3.122,0.000,1.845,1.601,3.409,0.000,2.428,1.441,0.000,0.000,1.562,0.000,0.000,0.000,0.000,0.000,0.000,0.000,0.000,0.000,0.000,0.000,3.142,6.280,0.001,1.005,1.568,1.565,4.084,6.282,1.199,4.711,0.000,0.000,1.095,-8.859,0.990,5.115,1.582,1.558,5.281,4.710,4.708,2.197,6.282,5.083,1.570,0.000,0.000,1.698,-9.118,0.990,5.116,1.584,1.557,
8.194,13.070,1.207,-9.440,1.051,1.008,5.136,3.355,2.965,0.000,1.749,1.602,2.801,0.000,2.648,1.827,0.000,0.000,1.738,0.000,0.000,0.000,0.000,0.000,0.000,0.000,0.000,0.000,0.000,0.000,3.142,6.280,0.001,1.004,1.569,1.568,4.085,6.281,1.199,4.712,0.000,0.000,1.214,-8.766,0.990,5.231,1.581,1.561,5.282,4.711,4.711,2.198,6.281,5.083,1.570,0.000,0.000,1.784,-9.091,0.991,5.232,1.578,1.564,
8.287,13.162,1.258,-9.355,1.009,1.012,0.009,3.338,2.866,3.398,1.745,1.730,2.706,0.000,2.699,1.792,0.000,0.000,1.808,0.000,0.000,0.000,0.000,0.000,0.000,0.000,0.000,0.000,0.000,0.000,3.142,6.282,0.000,1.003,1.570,1.571,4.085,6.280,1.199,4.712,0.000,0.000,1.295,-8.682,0.990,5.277,1.580,1.563,5.281,4.712,4.713,2.198,6.281,5.083,1.571,0.000,0.000,1.850,-9.032,0.991,5.277,1.578,1.564,
8.388,13.263,1.311,-9.271,1.010,1.013,6.271,3.237,2.782,3.290,2.068,1.833,2.812,0.000,2.613,1.327,0.000,0.000,1.843,0.000,0.000,0.000,0.000,0.000,0.000,0.000,0.000,0.000,0.000,0.000,3.142,6.283,0.000,1.003,1.569,1.569,4.085,6.281,1.199,4.712,0.000,0.000,1.346,-8.597,0.990,5.273,1.580,1.562,5.281,4.711,4.711,2.198,6.282,5.083,1.570,0.000,0.000,1.902,-8.946,0.990,5.273,1.579,1.563,
8.484,13.359,1.364,-9.186,1.011,1.012,6.266,3.136,2.697,3.181,2.391,1.937,2.917,0.000,2.527,1.273,0.000,0.000,1.878,0.000,0.000,0.000,0.000,0.000,0.000,0.000,0.000,0.000,0.000,0.000,3.142,6.283,0.000,1.003,1.569,1.569,4.085,6.281,1.199,4.712,0.000,0.000,1.398,-8.513,0.990,5.272,1.580,1.562,5.281,4.711,4.711,2.198,6.282,5.083,1.570,0.000,0.000,1.954,-8.861,0.990,5.272,1.579,1.563,
8.584,13.460,1.417,-9.102,1.009,1.011,6.067,3.042,2.169,2.876,0.000,2.043,3.004,0.000,2.453,1.219,0.000,0.000,1.913,0.000,0.000,0.000,0.000,0.000,0.000,0.000,0.000,0.000,0.000,0.000,3.142,6.281,0.001,1.004,1.568,1.567,4.084,6.281,1.199,4.712,0.000,0.000,1.451,-8.428,0.990,5.272,1.579,1.562,5.281,4.710,4.710,2.197,6.282,5.083,1.570,0.000,0.000,2.007,-8.777,0.990,5.272,1.581,1.562,
8.700,13.575,1.471,-9.018,0.951,1.013,5.349,2.524,2.519,3.192,0.000,2.200,2.851,0.000,2.547,1.182,0.000,0.000,1.983,0.000,0.000,0.000,0.000,0.000,0.000,0.000,0.000,0.000,0.000,0.000,3.142,6.281,0.001,1.004,1.568,1.566,4.085,6.281,1.199,4.712,0.000,0.000,1.543,-8.347,0.990,5.329,1.579,1.562,5.281,4.711,4.709,2.197,6.282,5.083,1.570,0.000,0.000,2.078,-8.728,0.990,5.329,1.579,1.563,
8.800,13.675,1.530,-8.938,0.898,1.013,6.085,3.074,2.439,2.972,0.000,2.370,2.752,0.000,2.638,1.140,0.000,0.000,2.053,0.000,0.000,0.000,0.000,0.000,0.000,0.000,0.000,0.000,0.000,0.000,3.142,6.282,0.000,1.004,1.570,1.571,4.085,6.281,1.199,4.712,0.000,0.000,1.641,-8.273,0.990,5.387,1.579,1.564,5.282,4.712,4.713,2.198,6.281,5.083,1.571,0.000,0.000,2.154,-8.681,0.991,5.386,1.577,1.565,
8.886,13.762,1.580,-8.876,0.898,1.009,6.262,2.997,2.376,2.895,0.000,2.460,2.830,0.000,2.551,1.088,0.000,0.000,2.053,0.000,0.000,0.000,0.000,0.000,0.000,0.000,0.000,0.000,0.000,0.000,3.142,6.283,0.000,1.004,1.569,1.569,4.085,6.281,1.199,4.712,0.000,0.000,1.690,-8.210,0.990,5.385,1.579,1.564,5.281,4.711,4.711,2.198,6.282,5.083,1.570,0.000,0.000,2.203,-8.619,0.990,5.385,1.578,1.565,
8.997,13.872,1.641,-8.798,0.898,1.010,6.262,2.898,2.299,2.801,0.000,2.570,2.931,0.000,2.438,1.022,0.000,0.000,2.089,0.000,0.000,0.000,0.000,0.000,0.000,0.000,0.000,0.000,0.000,0.000,3.142,6.282,0.000,1.004,1.569,1.569,4.085,6.281,1.199,4.712,0.000,0.000,1.751,-8.133,0.990,5.385,1.578,1.564,5.281,4.711,4.711,2.198,6.282,5.083,1.570,0.000,0.000,2.264,-8.541,0.990,5.385,1.578,1.565,
9.099,13.974,1.716,-8.705,0.897,1.013,6.138,2.782,2.205,2.685,0.000,2.706,3.046,0.000,2.308,1.245,0.000,0.000,2.124,0.000,0.000,0.000,0.000,0.000,0.000,0.000,0.000,0.000,0.000,0.000,3.142,6.281,0.001,1.004,1.569,1.568,4.084,6.281,1.199,4.712,0.000,0.000,1.825,-8.039,0.990,5.384,1.578,1.564,5.281,4.711,4.710,2.197,6.282,5.083,1.570,0.000,0.000,2.339,-8.447,0.990,5.384,1.579,1.564,
9.192,14.067,1.766,-8.642,0.862,1.013,5.378,2.780,2.146,2.549,0.000,2.455,2.997,0.000,2.342,1.302,0.000,0.000,2.229,0.000,0.000,0.000,0.000,0.000,0.000,0.000,0.000,0.000,0.000,0.000,3.142,6.280,0.001,1.005,1.567,1.565,4.084,6.282,1.199,4.711,0.000,0.000,1.897,-7.980,0.990,5.416,1.578,1.564,5.281,4.710,4.708,2.197,6.282,5.083,1.570,0.000,0.000,2.396,-8.406,0.990,5.417,1.579,1.563,
9.297,14.173,1.846,-8.554,0.727,1.009,4.903,3.031,2.094,2.268,0.000,2.481,2.718,0.000,2.829,1.161,0.000,0.000,2.404,0.000,0.000,0.000,0.000,0.000,0.000,0.000,0.000,0.000,0.000,0.000,3.142,6.280,0.001,1.004,1.568,1.567,4.085,6.281,1.199,4.712,0.000,0.000,2.067,-7.916,0.990,5.553,1.577,1.565,5.282,4.711,4.710,2.197,6.282,5.083,1.570,0.000,0.000,2.504,-8.406,0.991,5.554,1.576,1.566,
9.381,14.256,1.922,-8.490,0.620,1.007,5.241,3.344,2.084,2.104,3.070,0.000,2.729,0.000,3.505,1.092,0.000,0.000,2.545,0.000,0.000,0.000,0.000,0.000,0.000,0.000,0.000,0.000,0.000,0.000,3.142,6.281,0.001,1.004,1.569,1.568,4.085,6.281,1.199,4.712,0.000,0.000,2.210,-7.880,0.990,5.662,1.577,1.566,5.282,4.711,4.711,2.197,6.281,5.083,1.570,0.000,0.000,2.592,-8.414,0.991,5.663,1.576,1.567,
9.489,14.365,1.987,-8.444,0.555,1.016,5.416,3.591,2.083,2.015,3.116,0.000,2.846,0.000,4.134,1.075,0.000,0.000,2.615,0.000,0.000,0.000,0.000,0.000,0.000,0.000,0.000,0.000,0.000,0.000,3.142,6.281,0.001,1.004,1.569,1.568,4.085,6.281,1.199,4.712,0.000,0.000,2.315,-7.854,0.990,5.727,1.576,1.567,5.282,4.711,4.710,2.197,6.282,5.083,1.570,0.000,0.000,2.661,-8.412,0.991,5.728,1.576,1.567,
9.600,14.475,2.091,-8.384,0.460,1.016,5.308,4.098,2.104,1.911,2.710,0.000,3.047,4.938,4.351,1.055,3.685,0.000,2.720,0.000,0.000,0.000,0.000,0.000,0.000,0.000,0.000,0.000,0.000,0.000,3.142,6.281,0.001,1.004,1.568,1.567,4.085,6.281,1.199,4.712,0.000,0.000,2.473,-7.826,0.990,5.821,1.576,1.567,5.282,4.711,4.710,2.197,6.282,5.083,1.570,0.000,0.000,2.764,-8.414,0.990,5.821,1.576,1.567,
9.688,14.564,2.163,-8.349,0.409,1.011,5.863,4.473,1.615,1.862,2.529,0.000,3.185,4.642,4.358,1.052,3.515,0.000,2.791,0.000,0.000,0.000,0.000,0.000,0.000,0.000,0.000,0.000,0.000,0.000,3.142,6.282,0.000,1.004,1.570,1.570,4.085,6.281,1.199,4.712,0.000,0.000,2.574,-7.814,0.990,5.876,1.576,1.568,5.282,4.712,4.712,2.198,6.281,5.083,1.571,0.000,0.000,2.834,-8.416,0.991,5.876,1.575,1.569,
9.798,14.674,2.254,-8.310,0.402,1.007,6.262,4.440,2.084,1.821,2.461,0.000,3.293,4.771,4.394,1.098,3.427,0.000,2.791,0.000,0.000,0.000,0.000,0.000,0.000,0.000,0.000,0.000,0.000,0.000,3.142,6.283,0.000,1.004,1.569,1.569,4.085,6.281,1.199,4.712,0.000,0.000,2.668,-7.777,0.990,5.881,1.576,1.568,5.281,4.711,4.711,2.198,6.282,5.083,1.570,0.000,0.000,2.925,-8.380,0.990,5.880,1.576,1.568,
9.900,14.775,2.364,-8.263,0.403,1.013,6.252,4.322,2.030,1.775,2.398,0.000,3.412,4.988,4.441,0.986,3.314,0.000,2.826,0.000,0.000,0.000,0.000,0.000,0.000,0.000,0.000,0.000,0.000,0.000,3.142,6.282,0.000,1.004,1.569,1.569,4.084,6.281,1.199,4.712,0.000,0.000,2.777,-7.730,0.990,5.880,1.576,1.568,5.281,4.711,4.711,2.197,6.282,5.083,1.570,0.000,0.000,3.034,-8.333,0.990,5.880,1.576,1.568,
9.984,14.859,2.437,-8.232,0.382,1.015,5.600,0.000,2.019,1.739,1.723,0.000,3.522,4.958,4.465,1.010,3.255,0.000,2.826,0.000,0.000,0.000,0.000,0.000,0.000,0.000,0.000,0.000,0.000,0.000,3.142,6.281,0.001,1.004,1.568,1.566,4.084,6.281,1.199,4.711,0.000,0.000,2.860,-7.705,0.990,5.897,1.576,1.567,5.281,4.710,4.708,2.197,6.282,5.083,1.570,0.000,0.000,3.106,-8.314,0.990,5.897,1.576,1.567,
10.090,14.965,2.531,-8.196,0.284,1.011,4.985,0.000,2.111,1.696,2.094,0.000,3.139,4.459,4.570,0.980,3.862,0.000,2.931,0.000,0.000,0.000,0.000,0.000,0.000,0.000,0.000,0.000,0.000,0.000,3.142,6.280,0.001,1.004,1.568,1.566,4.085,6.281,1.199,4.712,0.000,0.000,3.003,-7.714,0.990,5.996,1.576,1.568,5.282,4.711,4.709,2.197,6.282,5.083,1.570,0.000,0.000,3.188,-8.344,0.991,5.997,1.575,1.568,
10.200,15.075,2.646,-8.166,0.217,1.011,6.273,0.000,2.187,1.671,1.965,3.313,3.329,4.282,4.617,0.973,3.837,0.000,3.001,0.000,0.000,0.000,0.000,0.000,0.000,0.000,0.000,0.000,0.000,0.000,3.142,6.282,0.000,1.004,1.570,1.571,4.085,6.280,1.199,4.712,0.000,0.000,3.151,-7.720,0.990,6.069,1.576,1.569,5.282,4.712,4.713,2.198,6.281,5.083,1.571,0.000,0.000,3.292,-8.360,0.991,6.069,1.575,1.570,
10.300,15.175,2.724,-8.149,0.218,1.012,6.269,0.000,2.163,1.653,1.946,3.395,3.404,4.405,0.985,0.994,3.751,0.000,3.036,0.000,0.000,0.000,0.000,0.000,0.000,0.000,0.000,0.000,0.000,0.000,3.142,6.283,0.000,1.003,1.569,1.569,4.085,6.281,1.199,4.712,0.000,0.000,3.228,-7.701,0.990,6.065,1.576,1.569,5.281,4.711,4.711,2.198,6.282,5.083,1.570,0.000,0.000,3.370,-8.341,0.990,6.065,1.575,1.569,
10.389,15.264,2.821,-8.128,0.219,1.012,6.267,0.000,2.133,1.193,1.922,3.677,3.500,4.558,1.007,1.019,3.644,0.000,3.036,0.000,0.000,0.000,0.000,0.000,0.000,0.000,0.000,0.000,0.000,0.000,3.142,6.283,0.000,1.003,1.569,1.569,4.085,6.281,1.199,4.712,0.000,0.000,3.325,-7.679,0.990,6.064,1.576,1.569,5.281,4.711,4.711,2.198,6.282,5.083,1.570,0.000,0.000,3.467,-8.319,0.990,6.064,1.575,1.569,
10.491,15.366,2.938,-8.102,0.220,1.011,6.260,0.000,2.097,1.605,1.893,3.800,3.615,4.740,1.033,1.050,3.517,0.000,3.036,0.000,0.000,0.000,0.000,0.000,0.000,0.000,0.000,0.000,0.000,0.000,3.142,6.283,0.000,1.003,1.569,1.569,4.085,6.281,1.199,4.712,0.000,0.000,3.441,-7.652,0.990,6.063,1.576,1.569,5.281,4.711,4.711,2.198,6.282,5.083,1.570,0.000,0.000,3.584,-8.293,0.990,6.063,1.575,1.569,
10.600,15.475,3.035,-8.080,0.221,1.012,6.261,0.000,2.067,1.584,1.868,3.904,3.712,4.892,1.054,1.076,2.782,0.000,3.036,0.000,0.000,0.000,0.000,0.000,0.000,0.000,0.000,0.000,0.000,0.000,3.142,6.283,0.000,1.004,1.569,1.569,4.085,6.281,1.199,4.712,0.000,0.000,3.538,-7.630,0.990,6.062,1.576,1.569,5.281,4.711,4.711,2.198,6.282,5.083,1.570,0.000,0.000,3.681,-8.270,0.990,6.062,1.575,1.569,
10.690,15.566,3.112,-8.062,0.221,1.012,6.257,0.000,2.044,1.566,1.848,3.987,3.791,0.000,0.941,1.097,2.698,0.000,3.036,0.000,0.000,0.000,0.000,0.000,0.000,0.000,0.000,0.000,0.000,0.000,3.142,6.282,0.000,1.004,1.569,1.569,4.084,6.281,1.199,4.712,0.000,0.000,3.615,-7.612,0.990,6.062,1.575,1.569,5.281,4.711,4.711,2.197,6.282,5.083,1.570,0.000,0.000,3.759,-8.252,0.990,6.061,1.576,1.569,
10.799,15.674,3.229,-8.037,0.170,1.013,5.225,0.000,2.103,1.548,1.763,3.713,4.143,4.909,0.972,1.094,3.273,0.000,3.071,0.000,0.000,0.000,0.000,0.000,0.000,0.000,0.000,0.000,0.000,0.000,3.142,6.280,0.001,1.005,1.568,1.565,4.084,6.282,1.199,4.711,0.000,0.000,3.753,-7.610,0.990,6.108,1.575,1.568,5.281,4.710,4.708,2.197,6.282,5.083,1.570,0.000,0.000,3.865,-8.257,0.990,6.109,1.576,1.568,
10.900,15.775,3.328,-8.022,0.088,1.013,5.737,0.000,2.265,1.554,1.675,2.310,0.000,4.670,1.002,1.067,3.304,0.000,3.142,0.000,0.000,0.000,0.000,0.000,0.000,0.000,0.000,0.000,0.000,0.000,3.142,6.281,0.000,1.004,1.570,1.570,4.085,6.280,1.199,4.712,0.000,0.000,3.886,-7.644,0.990,6.197,1.576,1.570,5.282,4.712,4.712,2.198,6.281,5.083,1.571,0.000,0.000,3.944,-8.297,0.991,6.197,1.575,1.570,
11.000,15.875,3.407,-8.015,0.078,1.012,6.257,0.000,1.621,1.550,1.176,3.055,0.000,4.735,1.011,1.070,3.231,0.000,3.142,0.000,0.000,0.000,0.000,0.000,0.000,0.000,0.000,0.000,0.000,0.000,3.142,6.283,0.000,1.003,1.570,1.570,4.085,6.281,1.199,4.712,0.000,0.000,3.969,-7.643,0.990,6.206,1.576,1.570,5.281,4.711,4.712,2.198,6.282,5.083,1.570,0.000,0.000,4.020,-8.296,0.990,6.206,1.575,1.570,
11.081,15.957,3.507,-8.008,0.079,1.010,6.262,0.000,1.602,1.542,1.213,3.044,0.000,4.869,1.019,1.079,3.114,0.000,3.142,0.000,0.000,0.000,0.000,0.000,0.000,0.000,0.000,0.000,0.000,0.000,3.142,6.283,0.000,1.003,1.569,1.569,4.085,6.281,1.199,4.712,0.000,0.000,4.068,-7.634,0.990,6.205,1.576,1.569,5.281,4.711,4.711,2.198,6.282,5.083,1.570,0.000,0.000,4.120,-8.288,0.990,6.204,1.575,1.570,
11.194,16.069,3.606,-8.000,0.079,1.012,6.261,0.000,2.252,1.534,1.644,3.033,0.000,0.000,1.027,1.088,2.997,0.000,3.142,0.000,0.000,0.000,0.000,0.000,0.000,0.000,0.000,0.000,0.000,0.000,3.142,6.283,0.000,1.003,1.569,1.569,4.085,6.281,1.199,4.712,0.000,0.000,4.167,-7.625,0.990,6.204,1.576,1.569,5.281,4.711,4.711,2.198,6.282,5.083,1.570,0.000,0.000,4.219,-8.279,0.990,6.204,1.575,1.570,
11.288,16.164,3.725,-7.990,0.060,1.013,5.626,0.000,2.289,1.531,1.620,2.914,0.000,0.000,1.041,1.089,2.893,0.000,3.142,0.000,0.000,0.000,0.000,0.000,0.000,0.000,0.000,0.000,0.000,0.000,3.142,6.281,0.001,1.004,1.568,1.566,4.084,6.281,1.199,4.711,0.000,0.000,4.293,-7.625,0.990,6.219,1.575,1.569,5.281,4.710,4.708,2.197,6.282,5.083,1.570,0.000,0.000,4.333,-8.280,0.990,6.219,1.576,1.569,
11.394,16.269,3.825,-7.986,6.246,1.011,4.900,0.000,2.586,1.569,1.558,2.509,0.000,4.840,1.077,1.057,3.069,0.000,3.142,0.000,0.000,0.000,0.000,0.000,0.000,0.000,0.000,0.000,0.000,0.000,3.142,6.280,0.001,1.005,1.568,1.566,4.085,6.281,1.199,4.712,0.000,0.000,4.425,-7.677,0.990,0.033,1.576,1.569,5.282,4.710,4.709,2.197,6.282,5.083,1.570,0.000,0.000,4.402,-8.334,0.991,0.034,1.575,1.570,
11.496,16.372,3.924,-7.992,6.137,1.008,5.500,3.908,0.000,1.646,1.522,2.207,0.000,4.667,1.121,1.024,0.000,0.000,3.142,0.000,0.000,0.000,0.000,0.000,0.000,0.000,0.000,0.000,0.000,0.000,3.142,6.281,0.000,1.004,1.570,1.570,4.085,6.280,1.199,4.712,0.000,0.000,4.554,-7.754,0.990,0.147,1.576,1.571,5.282,4.712,4.712,2.198,6.281,5.083,1.571,0.000,0.000,4.459,-8.403,0.991,0.147,1.574,1.571,
11.600,16.475,4.022,-8.008,6.121,1.012,0.010,3.818,3.578,1.676,1.532,1.554,0.000,4.753,1.113,1.005,0.000,0.000,3.142,0.000,0.000,0.000,0.000,0.000,0.000,0.000,0.000,0.000,0.000,0.000,3.142,6.283,0.000,1.003,1.569,1.570,4.085,6.281,1.199,4.712,0.000,0.000,4.657,-7.779,0.990,0.163,1.576,1.571,5.281,4.711,4.712,2.198,6.282,5.083,1.570,0.000,0.000,4.550,-8.426,0.990,0.163,1.575,1.571,
11.700,16.575,4.101,-8.021,6.122,1.013,6.271,3.738,0.000,1.199,1.546,1.570,0.000,4.800,1.098,0.942,0.000,0.000,3.142,0.000,0.000,0.000,0.000,0.000,0.000,0.000,0.000,0.000,0.000,0.000,3.142,6.283,0.000,1.003,1.569,1.569,4.085,6.281,1.199,4.712,0.000,0.000,4.735,-7.791,0.990,0.161,1.576,1.571,5.281,4.711,4.712,2.198,6.282,5.083,1.570,0.000,0.000,4.630,-8.438,0.990,0.161,1.575,1.571,
11.800,16.675,4.199,-8.037,6.123,1.012,6.267,3.638,2.458,1.706,1.562,1.634,0.000,4.921,1.079,0.926,0.000,0.000,3.142,0.000,0.000,0.000,0.000,0.000,0.000,0.000,0.000,0.000,0.000,0.000,3.142,6.283,0.000,1.003,1.569,1.569,4.085,6.281,1.199,4.712,0.000,0.000,4.833,-7.806,0.990,0.160,1.576,1.571,5.281,4.711,4.711,2.198,6.282,5.083,1.570,0.000,0.000,4.728,-8.454,0.990,0.160,1.575,1.571,
11.900,16.775,4.297,-8.052,6.124,1.011,6.264,3.538,2.359,1.723,1.579,2.263,0.000,0.000,1.061,4.400,2.750,0.000,3.142,0.000,0.000,0.000,0.000,0.000,0.000,0.000,0.000,0.000,0.000,0.000,3.142,6.283,0.000,1.003,1.569,1.569,4.085,6.281,1.199,4.712,0.000,0.000,4.931,-7.821,0.990,0.159,1.576,1.571,5.281,4.711,4.711,2.198,6.282,5.083,1.570,0.000,0.000,4.827,-8.469,0.990,0.159,1.575,1.571,
12.000,16.875,4.395,-8.068,6.125,1.012,6.261,3.439,0.000,1.740,1.595,2.288,0.000,0.000,1.043,4.900,2.610,0.000,3.142,0.000,0.000,0.000,0.000,0.000,0.000,0.000,0.000,0.000,0.000,0.000,3.142,6.283,0.000,1.003,1.569,1.569,4.085,6.281,1.199,4.712,0.000,0.000,5.029,-7.836,0.990,0.158,1.576,1.571,5.281,4.711,4.711,2.198,6.282,5.083,1.570,0.000,0.000,4.926,-8.484,0.990,0.158,1.575,1.571,
12.100,16.975,4.494,-8.084,6.143,1.011,0.662,3.331,0.000,1.742,1.617,2.357,0.000,0.000,1.016,4.900,1.524,0.000,3.142,0.000,0.000,0.000,0.000,0.000,0.000,0.000,0.000,0.000,0.000,0.000,3.142,0.001,0.000,1.003,1.571,1.572,4.086,6.281,1.199,4.712,0.000,0.000,5.123,-7.843,0.990,0.144,1.576,1.571,5.281,4.712,4.714,2.199,6.281,5.083,1.571,0.000,0.000,5.031,-8.492,0.991,0.143,1.574,1.571,
12.185,17.060,4.593,-8.096,6.241,1.010,1.426,4.409,3.132,1.688,1.670,1.971,0.000,1.628,0.909,0.000,1.399,0.000,3.142,0.000,0.000,0.000,0.000,0.000,0.000,0.000,0.000,0.000,0.000,0.000,3.142,0.002,0.000,1.003,1.571,1.571,4.086,6.282,1.199,4.712,0.000,0.000,5.195,-7.794,0.990,0.045,1.575,1.570,5.282,4.713,4.714,2.198,6.282,5.083,1.571,0.000,0.000,5.167,-8.449,0.991,0.045,1.574,1.571,
12.286,17.161,4.693,-8.097,0.066,1.020,0.726,4.323,0.000,1.637,1.740,3.157,0.000,1.405,4.509,0.000,1.734,0.000,3.142,0.000,0.000,0.000,0.000,0.000,0.000,0.000,0.000,0.000,0.000,0.000,3.142,0.000,0.000,1.004,1.569,1.567,4.085,6.282,1.199,4.712,0.000,0.000,5.258,-7.728,0.990,6.213,1.575,1.569,5.282,4.711,4.710,2.198,6.283,5.083,1.570,0.000,0.000,5.302,-8.383,0.991,6.214,1.575,1.569,
12.385,17.261,4.793,-8.089,0.079,1.019,6.260,4.227,0.000,1.625,1.742,3.213,0.000,1.395,4.938,0.000,1.786,0.000,3.142,0.000,0.000,0.000,0.000,0.000,0.000,0.000,0.000,0.000,0.000,0.000,3.142,6.282,0.000,1.004,1.569,1.569,4.084,6.281,1.199,4.712,0.000,0.000,5.354,-7.715,0.990,6.203,1.575,1.569,5.281,4.711,4.711,2.197,6.282,5.083,1.570,0.000,0.000,5.407,-8.368,0.990,6.203,1.576,1.570,
12.500,17.375,4.892,-8.082,0.079,1.006,6.275,4.127,3.046,1.617,1.733,3.194,0.000,1.408,4.947,0.000,1.800,0.000,3.142,0.000,0.000,0.000,0.000,0.000,0.000,0.000,0.000,0.000,0.000,0.000,3.142,6.282,0.000,1.004,1.569,1.569,4.084,6.281,1.199,4.712,0.000,0.000,5.453,-7.707,0.990,6.203,1.575,1.569,5.281,4.711,4.711,2.197,6.282,5.083,1.570,0.000,0.000,5.506,-8.361,0.990,6.203,1.576,1.570,
12.587,17.463,4.991,-8.074,0.078,1.008,6.274,4.028,0.000,1.610,1.724,2.286,0.000,1.421,4.955,0.000,1.814,0.000,3.142,0.000,0.000,0.000,0.000,0.000,0.000,0.000,0.000,0.000,0.000,0.000,3.142,6.282,0.000,1.004,1.569,1.569,4.084,6.281,1.199,4.712,0.000,0.000,5.552,-7.700,0.990,6.204,1.575,1.569,5.281,4.711,4.711,2.197,6.282,5.083,1.570,0.000,0.000,5.604,-8.353,0.990,6.204,1.576,1.570,
12.687,17.563,5.090,-8.066,0.078,1.015,6.273,3.928,1.712,1.602,1.715,2.394,0.000,1.433,4.963,0.000,1.828,0.000,3.142,0.000,0.000,0.000,0.000,0.000,0.000,0.000,0.000,0.000,0.000,0.000,3.142,6.282,0.000,1.004,1.569,1.569,4.084,6.281,1.199,4.712,0.000,0.000,5.651,-7.692,0.990,6.204,1.575,1.569,5.281,4.711,4.711,2.197,6.282,5.083,1.570,0.000,0.000,5.703,-8.346,0.990,6.204,1.576,1.570,
12.791,17.666,5.190,-8.058,0.072,1.014,5.962,3.826,1.690,1.596,1.220,3.113,0.000,1.455,4.348,1.073,1.826,0.000,3.142,0.000,0.000,0.000,0.000,0.000,0.000,0.000,0.000,0.000,0.000,0.000,3.142,6.281,0.001,1.004,1.568,1.567,4.084,6.281,1.199,4.712,0.000,0.000,5.753,-7.686,0.990,6.208,1.575,1.569,5.281,4.710,4.709,2.197,6.282,5.083,1.570,0.000,0.000,5.801,-8.341,0.990,6.208,1.576,1.570,
12.887,17.762,5.289,-8.052,0.002,1.012,5.039,3.712,4.665,1.619,1.649,2.768,0.000,1.601,0.000,0.984,1.648,0.000,3.142,0.000,0.000,0.000,0.000,0.000,0.000,0.000,0.000,0.000,0.000,0.000,3.142,6.280,0.001,1.005,1.568,1.565,4.084,6.281,1.199,4.711,0.000,0.000,5.877,-7.720,0.990,6.277,1.576,1.569,5.282,4.710,4.708,2.197,6.282,5.083,1.570,0.000,0.000,5.879,-8.376,0.990,6.278,1.576,1.569,
12.981,17.856,5.389,-8.054,6.198,1.012,5.801,3.620,4.275,1.670,1.607,2.467,0.000,1.818,4.635,0.922,1.470,0.000,3.142,0.000,0.000,0.000,0.000,0.000,0.000,0.000,0.000,0.000,0.000,0.000,3.142,6.282,0.000,1.004,1.570,1.571,4.085,6.280,1.199,4.712,0.000,0.000,6.003,-7.778,0.990,0.087,1.576,1.571,5.282,4.712,4.713,2.198,6.281,5.083,1.571,0.000,0.000,5.948,-8.431,0.991,0.087,1.575,1.571,
13.100,17.975,5.488,-8.063,6.192,1.012,6.280,3.522,4.141,1.683,1.614,2.463,0.000,1.819,4.824,0.912,1.445,0.000,3.142,0.000,0.000,0.000,0.000,0.000,0.000,0.000,0.000,0.000,0.000,0.000,3.142,6.283,0.000,1.003,1.569,1.569,4.085,6.281,1.199,4.712,0.000,0.000,6.104,-7.789,0.990,0.091,1.576,1.570,5.281,4.711,4.711,2.198,6.282,5.083,1.570,0.000,0.000,6.045,-8.442,0.990,0.091,1.575,1.571,
13.200,18.075,5.587,-8.072,6.193,1.011,6.264,3.422,4.027,1.692,1.624,2.480,0.000,1.799,0.000,0.954,1.433,0.000,3.142,0.000,0.000,0.000,0.000,0.000,0.000,0.000,0.000,0.000,0.000,0.000,3.142,6.283,0.000,1.003,1.569,1.569,4.085,6.281,1.199,4.712,0.000,0.000,6.203,-7.798,0.990,0.090,1.576,1.570,5.281,4.711,4.711,2.198,6.282,5.083,1.570,0.000,0.000,6.144,-8.451,0.990,0.090,1.575,1.571,
13.299,18.174,5.686,-8.081,6.194,1.011,6.262,3.322,3.913,1.701,1.633,2.497,0.000,1.682,0.000,0.945,1.421,0.000,3.142,0.000,0.000,0.000,0.000,0.000,0.000,0.000,0.000,0.000,0.000,0.000,3.142,6.283,0.000,1.003,1.569,1.569,4.085,6.281,1.199,4.712,0.000,0.000,6.302,-7.806,0.990,0.089,1.576,1.570,5.281,4.711,4.711,2.198,6.282,5.083,1.570,0.000,0.000,6.244,-8.459,0.990,0.089,1.575,1.571,
13.392,18.267,5.805,-8.092,6.195,1.012,6.262,3.203,3.774,1.712,1.644,2.516,0.000,1.659,0.000,0.935,1.406,0.000,3.142,0.000,0.000,0.000,0.000,0.000,0.000,0.000,0.000,0.000,0.000,0.000,3.142,6.283,0.000,1.004,1.569,1.569,4.085,6.281,1.199,4.712,0.000,0.000,6.421,-7.816,0.990,0.088,1.576,1.570,5.281,4.711,4.711,2.198,6.282,5.083,1.570,0.000,0.000,6.363,-8.469,0.990,0.088,1.575,1.571,
13.487,18.362,5.882,-8.098,6.204,0.951,0.455,3.124,3.704,1.713,1.655,2.556,0.000,1.725,4.521,0.930,1.411,0.000,3.142,0.000,0.000,0.000,0.000,0.000,0.000,0.000,0.000,0.000,0.000,0.000,3.142,0.001,0.000,1.002,1.571,1.572,4.087,6.281,1.200,4.712,0.000,0.000,6.496,-7.819,0.990,0.082,1.576,1.571,5.281,4.712,4.714,2.199,6.281,5.083,1.570,0.000,0.000,6.444,-8.473,0.991,0.082,1.574,1.571,
13.592,18.467,5.989,-8.104,0.028,0.886,1.415,3.014,3.863,1.661,1.721,2.978,0.000,2.200,0.880,0.955,1.619,0.000,3.142,0.000,0.000,0.000,0.000,0.000,0.000,0.000,0.000,0.000,0.000,0.000,3.142,0.002,0.000,1.003,1.571,1.571,4.086,6.281,1.199,4.712,0.000,0.000,6.569,-7.761,0.990,6.257,1.575,1.570,5.282,4.713,4.714,2.198,6.282,5.083,1.571,0.000,0.000,6.587,-8.417,0.991,6.258,1.574,1.570,
13.689,18.564,6.082,-8.099,0.112,1.021,0.333,2.943,4.031,1.624,1.779,3.432,0.000,3.045,0.919,0.995,1.872,0.000,3.142,0.000,0.000,0.000,0.000,0.000,0.000,0.000,0.000,0.000,0.000,0.000,3.142,6.282,0.000,1.005,1.568,1.565,4.083,6.282,1.199,4.711,0.000,0.000,6.630,-7.703,0.990,6.166,1.575,1.568,5.282,4.710,4.708,2.198,6.283,5.083,1.570,0.000,0.000,6.704,-8.356,0.991,6.167,1.575,1.569,
13.785,18.660,6.165,-8.089,0.113,1.082,6.245,2.859,3.921,1.166,1.770,3.419,0.000,4.170,0.928,1.005,1.896,0.000,3.142,0.000,0.000,0.000,0.000,0.000,0.000,0.000,0.000,0.000,0.000,0.000,3.142,6.282,0.000,1.004,1.569,1.569,4.084,6.281,1.199,4.712,0.000,0.000,6.713,-7.696,0.990,6.169,1.575,1.569,5.281,4.711,4.711,2.197,6.282,5.083,1.570,0.000,0.000,6.788,-8.347,0.990,6.169,1.576,1.570,
13.888,18.763,6.268,-8.078,0.113,1.020,6.275,2.755,3.776,2.009,1.756,3.391,0.000,4.309,0.940,1.018,1.918,0.000,3.142,0.000,0.000,0.000,0.000,0.000,0.000,0.000,0.000,0.000,0.000,0.000,3.142,6.282,0.001,1.004,1.569,1.569,4.085,6.281,1.199,4.712,0.000,0.000,6.817,-7.684,0.990,6.170,1.576,1.569,5.281,4.711,4.711,2.197,6.282,5.083,1.570,0.000,0.000,6.891,-8.336,0.990,6.170,1.576,1.570,
13.982,18.858,6.365,-8.067,0.113,0.975,6.274,2.657,3.642,0.000,1.744,3.365,0.000,4.439,0.951,1.030,1.940,0.000,3.142,0.000,0.000,0.000,0.000,0.000,0.000,0.000,0.000,0.000,0.000,0.000,3.142,6.282,0.000,1.004,1.569,1.569,4.085,6.281,1.199,4.712,0.000,0.000,6.913,-7.674,0.990,6.170,1.576,1.569,5.281,4.711,4.711,2.197,6.282,5.083,1.570,0.000,0.000,6.988,-8.325,0.990,6.170,1.576,1.570,
14.100,18.975,6.462,-8.056,0.112,1.008,6.272,2.560,3.507,0.000,1.732,3.341,0.000,4.570,0.962,1.042,1.526,0.000,3.142,0.000,0.000,0.000,0.000,0.000,0.000,0.000,0.000,0.000,0.000,0.000,3.142,6.282,0.000,1.004,1.569,1.569,4.084,6.281,1.199,4.712,0.000,0.000,7.010,-7.663,0.990,6.170,1.575,1.569,5.281,4.711,4.711,2.197,6.282,5.083,1.570,0.000,0.000,7.084,-8.314,0.990,6.170,1.576,1.570,
14.182,19.057,6.562,-8.045,0.112,1.030,6.272,2.459,3.369,0.000,1.719,3.316,0.000,4.632,0.974,1.055,1.412,0.000,3.142,0.000,0.000,0.000,0.000,0.000,0.000,0.000,0.000,0.000,0.000,0.000,3.142,6.282,0.000,1.004,1.569,1.569,4.085,6.281,1.199,4.712,0.000,0.000,7.110,-7.652,0.990,6.170,1.575,1.569,5.281,4.711,4.711,2.197,6.282,5.083,1.570,0.000,0.000,7.184,-8.303,0.990,6.170,1.576,1.570,
14.300,19.175,6.662,-8.033,0.112,1.013,6.270,2.358,3.231,0.000,1.707,3.292,0.000,1.354,0.985,1.067,1.298,0.000,3.142,0.000,0.000,0.000,0.000,0.000,0.000,0.000,0.000,0.000,0.000,0.000,3.142,6.282,0.000,1.004,1.569,1.569,4.085,6.281,1.199,4.712,0.000,0.000,7.210,-7.640,0.990,6.170,1.576,1.569,5.281,4.711,4.711,2.198,6.282,5.083,1.570,0.000,0.000,7.284,-8.292,0.990,6.170,1.576,1.570,
14.382,19.257,6.760,-8.022,0.121,1.001,0.426,2.261,3.120,0.000,1.701,2.358,0.000,1.358,0.995,1.083,1.181,0.000,3.142,0.000,0.000,0.000,0.000,0.000,0.000,0.000,0.000,0.000,0.000,0.000,3.142,0.001,0.000,1.003,1.570,1.571,4.086,6.281,1.199,4.712,0.000,0.000,7.306,-7.627,0.990,6.165,1.576,1.570,5.281,4.712,4.713,2.199,6.281,5.083,1.570,0.000,0.000,7.384,-8.278,0.991,6.165,1.574,1.570,
14.488,19.363,6.858,-8.009,0.201,1.009,1.347,2.143,3.246,0.000,1.762,3.913,0.000,1.340,0.997,1.146,1.028,0.000,3.142,0.000,0.000,0.000,0.000,0.000,0.000,0.000,0.000,0.000,0.000,0.000,3.142,0.002,0.000,1.003,1.571,1.572,4.086,6.281,1.199,4.712,0.000,0.000,7.370,-7.571,0.990,6.085,1.576,1.569,5.282,4.713,4.714,2.198,6.282,5.083,1.571,0.000,0.000,7.501,-8.214,0.991,6.085,1.574,1.570,
14.587,19.462,6.955,-7.986,0.314,0.996,0.841,0.000,3.583,0.000,1.876,0.000,3.283,1.250,1.014,1.263,1.231,0.000,3.071,0.000,0.000,0.000,0.000,0.000,0.000,0.000,0.000,0.000,0.000,0.000,3.142,0.001,0.000,1.003,1.569,1.567,4.085,6.282,1.199,4.712,0.000,0.000,7.413,-7.490,0.990,5.966,1.576,1.568,5.282,4.712,4.710,2.198,6.283,5.083,1.570,0.000,0.000,7.617,-8.115,0.991,5.967,1.575,1.568,
14.700,19.575,7.045,-7.956,0.332,0.941,6.255,0.000,3.514,0.000,1.863,0.000,3.208,1.272,1.045,1.318,1.413,0.000,3.036,0.000,0.000,0.000,0.000,0.000,0.000,0.000,0.000,0.000,0.000,0.000,3.142,6.282,0.001,1.004,1.569,1.568,4.085,6.281,1.199,4.712,0.000,0.000,7.495,-7.453,0.990,5.951,1.576,1.568,5.281,4.711,4.711,2.197,6.282,5.083,1.570,0.000,0.000,7.709,-8.073,0.990,5.950,1.576,1.568,
14.800,19.675,7.132,-7.926,0.331,0.938,6.275,0.000,3.355,0.000,1.824,0.000,3.305,1.309,1.074,1.095,1.518,0.000,3.036,0.000,0.000,0.000,0.000,0.000,0.000,0.000,0.000,0.000,0.000,0.000,3.142,6.282,0.000,1.004,1.569,1.568,4.084,6.281,1.199,4.712,0.000,0.000,7.582,-7.423,0.990,5.951,1.576,1.568,5.281,4.711,4.711,2.197,6.282,5.083,1.570,0.000,0.000,7.796,-8.043,0.990,5.951,1.576,1.569,
14.900,19.775,7.221,-7.895,0.331,0.967,6.274,0.000,3.195,0.000,1.220,0.000,3.402,1.346,1.105,0.950,1.853,0.000,3.036,0.000,0.000,0.000,0.000,0.000,0.000,0.000,0.000,0.000,0.000,0.000,3.142,6.282,0.000,1.004,1.569,1.568,4.084,6.281,1.199,4.712,0.000,0.000,7.671,-7.393,0.990,5.951,1.576,1.568,5.281,4.711,4.711,2.197,6.282,5.083,1.570,0.000,0.000,7.884,-8.013,0.990,5.951,1.576,1.569,
15.000,19.875,7.311,-7.865,0.330,0.968,6.273,0.000,3.032,0.000,1.745,0.000,3.499,1.384,1.136,0.803,1.759,0.000,3.036,0.000,0.000,0.000,0.000,0.000,0.000,0.000,0.000,0.000,0.000,0.000,3.142,6.282,0.000,1.004,1.569,1.569,4.085,6.281,1.199,4.712,0.000,0.000,7.761,-7.362,0.990,5.952,1.576,1.568,5.281,4.711,4.711,2.197,6.282,5.083,1.570,0.000,0.000,7.975,-7.982,0.990,5.952,1.576,1.569,
15.100,19.975,7.393,-7.836,0.338,0.774,0.394,0.000,2.916,0.000,1.718,0.000,3.513,1.411,1.164,0.662,1.670,0.000,3.036,0.000,0.000,0.000,0.000,0.000,0.000,0.000,0.000,0.000,0.000,0.000,3.142,0.002,0.000,1.002,1.571,1.572,4.088,6.281,1.200,4.712,0.000,0.000,7.842,-7.333,0.990,5.949,1.577,1.568,5.281,4.712,4.714,2.199,6.281,5.083,1.570,0.000,0.000,8.058,-7.952,0.991,5.949,1.575,1.569,
15.198,20.073,7.470,-7.807,0.439,0.692,1.402,0.000,3.300,1.779,1.842,0.000,3.442,1.359,1.203,0.752,1.554,0.000,2.931,0.000,0.000,0.000,0.000,0.000,0.000,0.000,0.000,0.000,0.000,0.000,3.142,0.001,0.000,1.003,1.571,1.571,4.085,6.281,1.199,4.712,0.000,0.000,7.864,-7.260,0.990,5.845,1.576,1.568,5.282,4.713,4.713,2.198,6.282,5.083,1.571,0.000,0.000,8.143,-7.854,0.991,5.846,1.574,1.569,
15.286,20.161,7.536,-7.774,0.560,0.812,1.188,4.169,4.136,3.741,1.370,0.000,2.216,1.320,1.058,0.909,1.466,0.000,2.826,0.000,0.000,0.000,0.000,0.000,0.000,0.000,0.000,0.000,0.000,0.000,3.142,0.001,0.000,1.004,1.569,1.568,4.084,6.282,1.199,4.712,0.000,0.000,7.860,-7.182,0.990,5.722,1.576,1.567,5.282,4.712,4.711,2.198,6.283,5.083,1.570,0.000,0.000,8.209,-7.738,0.991,5.723,1.575,1.568,
15.391,20.267,7.590,-7.738,0.630,0.834,0.884,3.710,4.909,3.264,1.414,0.000,2.141,1.325,0.660,1.059,1.410,0.000,2.755,0.000,0.000,0.000,0.000,0.000,0.000,0.000,0.000,0.000,0.000,0.000,3.142,0.001,0.000,1.003,1.570,1.569,4.085,6.282,1.199,4.712,0.000,0.000,7.873,-7.125,0.990,5.652,1.577,1.566,5.282,4.712,4.711,2.198,6.282,5.083,1.570,0.000,0.000,8.259,-7.655,0.991,5.653,1.575,1.567,
15.500,20.375,7.665,-7.680,0.719,0.762,0.932,1.792,0.000,2.798,2.420,0.000,2.003,1.352,0.731,1.545,1.292,0.000,2.685,0.000,0.000,0.000,0.000,0.000,0.000,0.000,0.000,0.000,0.000,0.000,3.142,0.001,0.000,1.003,1.570,1.570,4.086,6.281,1.199,4.712,0.000,0.000,7.892,-7.046,0.990,5.565,1.578,1.565,5.282,4.712,4.713,2.198,6.282,5.083,1.570,0.000,0.000,8.324,-7.539,0.991,5.565,1.575,1.567,
15.593,20.468,7.709,-7.641,0.789,0.751,1.057,1.793,0.000,2.525,2.679,0.000,1.916,1.375,0.800,1.439,0.000,0.000,2.615,0.000,0.000,0.000,0.000,0.000,0.000,0.000,0.000,0.000,0.000,0.000,3.142,0.001,0.000,1.003,1.570,1.570,4.086,6.281,1.199,4.712,0.000,0.000,7.891,-6.992,0.990,5.495,1.577,1.565,5.282,4.712,4.712,2.198,6.282,5.083,1.570,0.000,0.000,8.357,-7.454,0.991,5.495,1.575,1.567,
15.700,20.575,7.770,-7.575,0.899,0.789,1.042,2.023,0.000,2.217,3.325,4.781,1.820,1.427,0.935,1.308,0.000,0.000,2.510,0.000,0.000,0.000,0.000,0.000,0.000,0.000,0.000,0.000,0.000,0.000,3.142,0.001,0.000,1.003,1.570,1.569,4.085,6.281,1.199,4.712,0.000,0.000,7.879,-6.909,0.990,5.384,1.578,1.564,5.282,4.712,4.712,2.198,6.282,5.083,1.570,0.000,0.000,8.393,-7.317,0.991,5.384,1.576,1.566,
15.800,20.675,7.808,-7.525,0.970,0.795,0.999,2.165,0.000,1.865,4.011,4.043,1.788,0.825,1.046,1.239,0.000,0.000,2.440,0.000,0.000,0.000,0.000,0.000,0.000,0.000,0.000,0.000,0.000,0.000,3.142,0.001,0.000,1.003,1.570,1.569,4.086,6.281,1.199,4.712,0.000,0.000,7.870,-6.853,0.990,5.313,1.579,1.563,5.282,4.712,4.712,2.198,6.282,5.083,1.570,0.000,0.000,8.411,-7.224,0.991,5.314,1.577,1.565,
15.895,20.770,7.850,-7.460,1.056,0.778,1.006,2.412,0.000,1.946,3.177,3.830,1.769,0.896,1.689,1.171,0.000,0.000,2.369,0.000,0.000,0.000,0.000,0.000,0.000,0.000,0.000,0.000,0.000,0.000,3.142,0.001,0.000,1.003,1.570,1.570,4.086,6.281,1.199,4.712,0.000,0.000,7.854,-6.786,0.990,5.227,1.581,1.561,5.282,4.712,4.712,2.198,6.282,5.083,1.570,0.000,0.000,8.425,-7.109,0.991,5.228,1.578,1.564,
15.983,20.858,7.892,-7.380,1.161,0.774,1.029,2.898,0.000,1.643,0.000,4.558,1.766,0.995,1.470,0.000,3.618,0.000,2.299,0.000,0.000,0.000,0.000,0.000,0.000,0.000,0.000,0.000,0.000,0.000,3.142,0.001,0.000,1.003,1.570,1.570,4.086,6.281,1.199,4.712,0.000,0.000,7.826,-6.709,0.990,5.122,1.583,1.559,5.282,4.712,4.712,2.198,6.282,5.083,1.570,0.000,0.000,8.427,-6.970,0.991,5.123,1.579,1.562,
16.098,20.973,7.920,-7.309,1.249,0.782,1.021,3.607,4.559,1.734,0.000,2.705,1.782,1.093,1.335,0.000,1.404,0.000,2.229,0.000,0.000,0.000,0.000,0.000,0.000,0.000,0.000,0.000,0.000,0.000,3.142,0.001,0.000,1.003,1.570,1.570,4.085,6.281,1.199,4.712,0.000,0.000,7.795,-6.646,0.990,5.034,1.586,1.556,5.282,4.712,4.712,2.198,6.282,5.083,1.570,0.000,0.000,8.418,-6.854,0.991,5.034,1.581,1.560,
16.200,21.075,7.943,-7.236,1.337,0.783,1.024,4.701,3.447,1.666,0.000,2.615,1.813,1.209,1.233,0.000,1.343,0.000,2.159,0.000,0.000,0.000,0.000,0.000,0.000,0.000,0.000,0.000,0.000,0.000,3.142,0.001,0.000,1.003,1.570,1.570,4.086,6.281,1.199,4.712,0.000,0.000,7.760,-6.587,0.990,4.946,1.591,1.550,5.282,4.712,4.712,2.198,6.282,5.083,1.570,0.000,0.000,8.398,-6.738,0.991,4.946,1.585,1.556,
16.288,21.164,7.959,-7.161,1.425,0.779,1.013,0.000,3.023,1.609,0.000,2.496,1.859,1.345,1.103,0.000,1.511,0.000,2.089,0.000,0.000,0.000,0.000,0.000,0.000,0.000,0.000,0.000,0.000,0.000,3.142,0.001,0.000,1.003,1.570,1.570,4.086,6.281,1.199,4.712,0.000,0.000,7.719,-6.530,0.990,4.858,1.603,1.537,5.282,4.712,4.712,2.198,6.282,5.083,1.570,0.000,0.000,8.369,-6.626,0.991,4.859,1.594,1.547,
16.400,21.275,7.968,-7.085,1.513,0.778,1.026,0.000,2.633,1.717,0.000,2.414,1.267,1.902,1.181,0.000,1.657,0.000,2.264,0.000,0.000,0.000,0.000,0.000,0.000,0.000,0.000,0.000,0.000,0.000,3.142,0.001,0.000,1.003,1.570,1.570,4.086,6.281,1.199,4.712,0.000,0.000,7.674,-6.478,0.990,4.771,1.652,1.488,5.282,4.712,4.712,2.198,6.282,5.083,1.570,0.000,0.000,8.329,-6.516,0.991,4.771,1.628,1.513,
16.500,21.375,7.970,-7.009,1.601,0.780,1.015,0.000,1.219,1.981,0.000,2.360,1.342,1.676,0.000,0.000,1.866,0.000,2.194,0.000,0.000,0.000,0.000,0.000,0.000,0.000,0.000,0.000,0.000,0.000,3.142,0.001,0.000,1.003,1.570,1.570,4.086,6.281,1.199,4.712,0.000,0.000,7.624,-6.430,0.990,4.742,4.554,4.870,5.282,4.712,4.712,2.198,6.282,5.083,1.570,0.000,0.000,8.280,-6.410,0.991,4.742,4.597,4.827,
16.600,21.475,7.967,-6.948,1.671,0.781,1.015,0.000,1.158,2.376,4.795,2.334,1.409,1.545,0.000,1.144,2.099,0.000,2.159,0.000,0.000,0.000,0.000,0.000,0.000,0.000,0.000,0.000,0.000,0.000,3.142,0.001,0.000,1.003,1.570,1.570,4.086,6.281,1.199,4.712,0.000,0.000,7.582,-6.394,0.990,4.812,4.665,4.759,5.282,4.712,4.712,2.198,6.282,5.083,1.570,0.000,0.000,8.235,-6.329,0.991,4.812,4.678,4.746,
16.700,21.575,7.957,-6.862,1.725,1.010,0.202,0.000,1.097,2.677,4.491,2.366,1.506,1.475,0.000,1.119,2.348,0.000,2.124,0.000,0.000,0.000,0.000,0.000,0.000,0.000,0.000,0.000,0.000,0.000,3.142,6.282,0.000,1.005,1.568,1.566,4.083,6.282,1.199,4.711,0.000,0.000,7.539,-6.332,0.990,4.871,4.690,4.733,5.282,4.710,4.708,2.198,6.283,5.083,1.570,0.000,0.000,8.188,-6.230,0.991,4.870,4.687,4.736,
16.800,21.675,7.940,-6.756,1.726,1.129,6.269,0.000,1.021,1.902,4.707,2.483,1.614,1.497,0.000,1.194,2.390,0.000,2.159,0.000,0.000,0.000,0.000,0.000,0.000,0.000,0.000,0.000,0.000,0.000,3.142,6.282,0.000,1.004,1.569,1.569,4.084,6.281,1.199,4.712,0.000,0.000,7.524,-6.224,0.990,4.868,4.683,4.741,5.281,4.711,4.711,2.198,6.282,5.083,1.570,0.000,0.000,8.173,-6.123,0.990,4.868,4.682,4.742,
16.900,21.775,7.924,-6.651,1.726,1.009,6.268,0.000,1.976,1.437,4.924,2.598,1.720,1.520,0.000,1.213,2.428,0.000,2.194,0.000,0.000,0.000,0.000,0.000,0.000,0.000,0.000,0.000,0.000,0.000,3.142,6.283,0.001,1.003,1.569,1.569,4.086,6.281,1.199,4.712,0.000,0.000,7.508,-6.119,0.990,4.867,4.678,4.746,5.281,4.711,4.711,2.198,6.282,5.083,1.570,0.000,0.000,8.156,-6.018,0.990,4.868,4.682,4.742,
16.984,21.860,7.906,-6.538,1.726,0.959,6.268,0.000,1.951,1.419,0.000,2.722,1.834,1.473,0.000,1.233,2.469,0.000,2.194,3.508,0.000,0.000,0.000,0.000,0.000,0.000,0.000,0.000,0.000,0.000,3.142,6.282,0.000,1.004,1.569,1.569,4.085,6.281,1.199,4.712,0.000,0.000,7.490,-6.008,0.990,4.868,4.683,4.741,5.281,4.711,4.711,2.198,6.282,5.083,1.570,0.000,0.000,8.138,-5.906,0.990,4.869,4.682,4.741,
17.093,21.968,7.891,-6.442,1.709,1.027,5.665,0.000,1.964,0.717,0.000,2.853,1.926,1.521,0.000,1.239,2.418,0.000,2.264,3.502,0.000,0.000,0.000,0.000,0.000,0.000,0.000,0.000,0.000,0.000,3.142,6.280,0.001,1.005,1.567,1.565,4.083,6.282,1.199,4.711,0.000,0.000,7.482,-5.905,0.990,4.855,4.684,4.739,5.281,4.710,4.708,2.197,6.282,5.083,1.570,0.000,0.000,8.132,-5.813,0.990,4.855,4.675,4.748,
17.195,22.071,7.879,-6.340,1.648,1.041,5.738,0.000,2.075,1.273,0.000,3.064,2.016,1.645,0.000,1.219,2.193,0.000,2.334,0.000,0.000,0.000,0.000,0.000,0.000,0.000,0.000,0.000,0.000,0.000,3.142,6.281,0.000,1.004,1.569,1.569,4.085,6.281,1.199,4.712,0.000,0.000,7.505,-5.778,0.990,4.790,4.648,4.775,5.282,4.711,4.711,2.198,6.282,5.083,1.570,0.000,0.000,8.160,-5.727,0.991,4.790,4.657,4.767,
17.286,22.161,7.872,-6.240,1.633,1.001,6.264,0.000,2.100,0.685,1.594,3.207,2.114,1.686,0.000,1.219,2.152,0.000,2.369,0.000,0.000,0.000,0.000,0.000,0.000,0.000,0.000,0.000,0.000,0.000,3.142,6.282,0.000,1.003,1.570,1.570,4.085,6.281,1.199,4.712,0.000,0.000,7.507,-5.673,0.990,4.774,4.633,4.790,5.281,4.711,4.712,2.198,6.282,5.083,1.570,0.000,0.000,8.162,-5.632,0.990,4.775,4.639,4.785,
17.394,22.269,7.865,-6.143,1.634,0.996,6.265,0.000,2.089,1.401,0.000,3.319,2.212,1.776,1.118,1.226,2.166,0.000,2.369,0.000,0.000,0.000,0.000,0.000,0.000,0.000,0.000,0.000,0.000,0.000,3.142,6.282,0.000,1.004,1.569,1.569,4.085,6.281,1.199,4.712,0.000,0.000,7.500,-5.575,0.990,4.776,4.638,4.786,5.281,4.711,4.711,2.198,6.282,5.083,1.570,0.000,0.000,8.155,-5.534,0.990,4.776,4.641,4.783,
17.486,22.361,7.859,-6.044,1.634,1.018,6.265,0.000,2.079,1.395,0.712,3.433,2.311,1.906,1.176,1.232,2.179,0.000,2.404,0.000,0.000,0.000,0.000,0.000,0.000,0.000,0.000,0.000,0.000,0.000,3.142,6.282,0.000,1.004,1.569,1.569,4.085,6.281,1.199,4.712,0.000,0.000,7.494,-5.477,0.990,4.776,4.639,4.785,5.281,4.711,4.711,2.198,6.282,5.083,1.570,0.000,0.000,8.148,-5.435,0.990,4.776,4.642,4.783,
17.600,22.475,7.853,-5.944,1.635,1.020,6.265,0.000,2.068,1.388,0.000,3.549,2.411,2.050,1.182,1.240,2.193,0.000,2.404,0.000,0.000,0.000,0.000,0.000,0.000,0.000,0.000,0.000,0.000,0.000,3.142,6.282,0.000,1.004,1.569,1.569,4.085,6.281,1.199,4.712,0.000,0.000,7.487,-5.377,0.990,4.777,4.638,4.786,5.281,4.711,4.711,2.198,6.282,5.083,1.570,0.000,0.000,8.142,-5.335,0.990,4.777,4.642,4.782,
17.700,22.575,7.848,-5.864,1.635,1.010,6.265,0.000,2.059,1.383,1.467,3.640,2.491,2.224,1.187,1.245,1.470,0.000,2.440,0.000,0.000,0.000,0.000,0.000,0.000,0.000,0.000,0.000,0.000,0.000,3.142,6.282,0.000,1.004,1.569,1.569,4.085,6.281,1.199,4.712,0.000,0.000,7.482,-5.297,0.990,4.777,4.638,4.786,5.281,4.711,4.711,2.198,6.282,5.083,1.570,0.000,0.000,8.136,-5.255,0.990,4.777,4.642,4.782,
17.800,22.675,7.841,-5.765,1.648,1.006,0.549,0.000,2.019,1.372,0.697,3.727,2.593,2.555,1.190,1.259,1.402,0.000,2.440,3.719,0.000,0.000,0.000,0.000,0.000,0.000,0.000,0.000,0.000,0.000,3.142,0.001,0.000,1.003,1.570,1.572,4.086,6.281,1.199,4.712,0.000,0.000,7.470,-5.203,0.990,4.787,4.644,4.780,5.281,4.712,4.714,2.199,6.281,5.083,1.571,0.000,0.000,8.124,-5.152,0.991,4.787,4.666,4.759,
17.900,22.775,7.832,-5.666,1.703,1.014,0.565,0.000,1.891,1.349,1.346,3.728,2.708,4.577,1.186,1.302,2.521,0.000,2.404,3.597,0.000,0.000,0.000,0.000,0.000,0.000,0.000,0.000,0.000,0.000,3.142,0.000,0.000,1.004,1.569,1.569,4.085,6.281,1.199,4.712,0.000,0.000,7.428,-5.126,0.990,4.846,4.676,4.747,5.281,4.711,4.711,2.198,6.282,5.083,1.570,0.000,0.000,8.078,-5.039,0.991,4.846,4.684,4.740,
18.000,22.875,7.818,-5.567,1.720,1.015,0.003,0.000,1.840,1.331,1.495,3.807,2.814,4.519,1.197,1.328,2.636,0.000,2.404,3.638,0.000,0.000,0.000,0.000,0.000,0.000,0.000,0.000,0.000,0.000,3.142,6.283,0.000,1.004,1.569,1.568,4.085,6.281,1.199,4.712,0.000,0.000,7.405,-5.034,0.990,4.863,4.680,4.743,5.281,4.711,4.711,2.198,6.282,5.083,1.570,0.000,0.000,8.054,-4.936,0.990,4.863,4.683,4.741,
18.100,22.975,7.803,-5.469,1.721,1.010,6.265,0.000,1.818,1.316,1.326,3.916,2.914,4.538,1.212,1.345,2.672,0.000,2.404,3.679,0.000,0.000,0.000,0.000,0.000,0.000,0.000,0.000,0.000,0.000,3.142,6.282,0.000,1.004,1.569,1.569,4.085,6.281,1.199,4.712,0.000,0.000,7.390,-4.935,0.990,4.863,4.680,4.743,5.281,4.711,4.711,2.198,6.282,5.083,1.570,0.000,0.000,8.039,-4.837,0.990,4.863,4.682,4.742,
18.200,23.075,7.788,-5.371,1.721,1.010,6.265,0.000,1.727,1.301,1.462,4.024,3.013,4.557,1.227,1.362,2.707,0.000,2.369,3.722,0.000,0.000,0.000,0.000,0.000,0.000,0.000,0.000,0.000,0.000,3.142,6.282,0.000,1.004,1.569,1.569,4.085,6.281,1.199,4.712,0.000,0.000,7.375,-4.837,0.990,4.863,4.681,4.743,5.281,4.711,4.711,2.198,6.282,5.083,1.570,0.000,0.000,8.024,-4.739,0.990,4.863,4.682,4.742,
18.297,23.172,7.774,-5.272,1.721,1.013,6.265,0.000,1.706,1.286,1.446,4.132,3.113,1.669,1.242,1.379,2.743,0.000,2.440,3.766,0.000,0.000,0.000,0.000,0.000,0.000,0.000,0.000,0.000,0.000,3.142,6.282,0.000,1.004,1.569,1.569,4.085,6.281,1.199,4.712,0.000,0.000,7.360,-4.739,0.990,4.864,4.681,4.743,5.281,4.711,4.711,2.198,6.282,5.083,1.570,0.000,0.000,8.009,-4.641,0.990,4.864,4.682,4.742,
18.400,23.275,7.756,-5.154,1.722,1.012,6.265,0.000,4.386,1.268,1.426,1.279,3.233,1.693,1.260,1.400,2.756,0.000,2.475,3.864,0.000,0.000,0.000,0.000,0.000,0.000,0.000,0.000,0.000,0.000,3.142,6.282,0.000,1.004,1.569,1.569,4.085,6.281,1.199,4.712,0.000,0.000,7.342,-4.621,0.990,4.864,4.681,4.743,5.281,4.711,4.711,2.198,6.282,5.083,1.570,0.000,0.000,7.990,-4.522,0.990,4.864,4.682,4.742,
18.500,23.375,7.744,-5.075,1.722,1.011,6.265,0.000,4.275,1.256,1.412,1.314,3.312,1.773,1.272,1.414,2.702,0.000,2.440,3.854,0.000,0.000,0.000,0.000,0.000,0.000,0.000,0.000,0.000,0.000,3.142,6.282,0.000,1.004,1.569,1.569,4.085,6.281,1.199,4.712,0.000,0.000,7.330,-4.543,0.990,4.864,4.681,4.743,5.281,4.711,4.711,2.198,6.282,5.083,1.570,0.000,0.000,7.978,-4.444,0.990,4.864,4.682,4.742,
18.599,23.474,7.729,-4.977,1.722,1.011,6.223,0.000,4.132,1.240,1.395,1.216,3.412,1.802,1.287,0.934,2.735,0.000,2.475,3.967,0.000,0.000,0.000,0.000,0.000,0.000,0.000,0.000,0.000,0.000,3.142,6.282,0.000,1.004,1.569,1.568,4.084,6.281,1.199,4.712,0.000,0.000,7.314,-4.445,0.990,4.865,4.683,4.741,5.281,4.711,4.711,2.197,6.282,5.083,1.570,0.000,0.000,7.963,-4.345,0.990,4.865,4.680,4.744,
18.693,23.569,7.711,-4.859,1.663,1.014,5.146,0.000,3.083,1.235,1.335,0.000,3.506,1.946,1.319,1.409,2.504,0.000,2.545,3.866,0.000,0.000,0.000,0.000,0.000,0.000,0.000,0.000,0.000,0.000,3.142,6.280,0.001,1.005,1.568,1.565,4.084,6.282,1.199,4.711,0.000,0.000,7.327,-4.303,0.990,4.809,4.665,4.758,5.281,4.710,4.708,2.197,6.282,5.083,1.570,0.000,0.000,7.981,-4.242,0.990,4.809,4.661,4.762,
18.792,23.668,7.705,-4.759,1.565,1.011,5.555,0.000,2.208,1.259,1.276,1.888,4.241,4.034,1.362,1.364,2.228,0.000,2.650,0.000,0.000,0.000,0.000,0.000,0.000,0.000,0.000,0.000,0.000,0.000,3.142,6.281,0.000,1.004,1.569,1.570,4.085,6.280,1.199,4.712,0.000,0.000,7.380,-4.168,0.990,4.721,2.191,0.950,5.282,4.712,4.712,2.198,6.281,5.083,1.571,0.000,0.000,8.036,-4.172,0.991,4.721,2.043,1.098,
18.900,23.775,7.706,-4.660,1.549,1.012,6.272,0.000,2.059,1.267,1.271,2.080,4.341,2.172,1.367,1.356,2.178,0.000,2.685,0.000,0.000,0.000,0.000,0.000,0.000,0.000,0.000,0.000,0.000,0.000,3.142,6.283,0.000,1.003,1.569,1.569,4.085,6.281,1.199,4.712,0.000,0.000,7.391,-4.064,0.990,4.735,1.789,1.352,5.281,4.711,4.712,2.198,6.282,5.083,1.570,0.000,0.000,8.046,-4.078,0.990,4.735,1.761,1.380,
19.000,23.875,7.708,-4.560,1.550,1.011,6.265,0.000,1.970,1.269,1.273,1.854,4.441,2.164,1.365,1.354,2.178,0.000,2.685,0.000,0.000,0.000,0.000,0.000,0.000,0.000,0.000,0.000,0.000,0.000,3.142,6.283,0.000,1.003,1.569,1.569,4.085,6.281,1.199,4.712,0.000,0.000,7.392,-3.965,0.990,4.734,1.802,1.338,5.281,4.711,4.711,2.198,6.282,5.083,1.570,0.000,0.000,8.048,-3.978,0.990,4.733,1.776,1.365,
19.100,23.975,7.710,-4.461,1.551,1.011,6.261,0.000,1.970,1.218,1.276,1.921,4.540,2.245,1.362,1.352,2.177,0.000,2.720,0.000,0.000,0.000,0.000,0.000,0.000,0.000,0.000,0.000,0.000,0.000,3.142,6.283,0.000,1.003,1.569,1.569,4.085,6.281,1.199,4.712,0.000,0.000,7.393,-3.865,0.990,4.733,1.812,1.329,5.281,4.711,4.711,2.198,6.282,5.083,1.570,0.000,0.000,8.049,-3.878,0.990,4.733,1.789,1.352,
19.200,24.075,7.712,-4.381,1.552,1.012,6.260,0.000,2.056,4.260,1.278,2.098,4.619,2.240,1.360,1.351,2.100,0.000,2.720,0.000,0.000,0.000,0.000,0.000,0.000,0.000,0.000,0.000,0.000,0.000,3.142,6.283,0.000,1.003,1.569,1.569,4.085,6.281,1.199,4.712,0.000,0.000,7.394,-3.786,0.990,4.732,1.820,1.321,5.281,4.711,4.711,2.198,6.282,5.083,1.570,0.000,0.000,8.050,-3.799,0.990,4.732,1.798,1.343,
19.300,24.175,7.714,-4.282,1.552,1.012,6.261,0.000,2.057,3.942,1.280,2.103,4.719,2.234,0.892,1.349,2.091,0.000,2.791,0.000,0.000,0.000,0.000,0.000,0.000,0.000,0.000,0.000,0.000,0.000,3.142,6.283,0.000,1.004,1.569,1.569,4.085,6.281,1.199,4.712,0.000,0.000,7.396,-3.687,0.990,4.731,1.830,1.311,5.281,4.711,4.711,2.198,6.282,5.083,1.570,0.000,0.000,8.052,-3.699,0.990,4.731,1.810,1.331,
19.400,24.275,7.715,-4.182,1.554,1.011,0.070,0.000,2.056,3.631,1.283,2.111,4.818,2.227,1.355,1.348,0.000,0.000,2.861,0.000,0.000,0.000,0.000,0.000,0.000,0.000,0.000,0.000,0.000,0.000,3.142,6.283,0.000,1.003,1.570,1.570,4.086,6.281,1.199,4.712,0.000,0.000,7.397,-3.588,0.990,4.731,1.851,1.290,5.281,4.712,4.712,2.199,6.282,5.083,1.570,0.000,0.000,8.053,-3.599,0.990,4.730,1.801,1.340,
19.500,24.375,7.717,-4.083,1.598,1.011,1.040,0.000,1.944,3.835,1.304,2.255,4.269,2.097,1.336,1.367,1.526,0.000,2.931,4.094,0.000,0.000,0.000,0.000,0.000,0.000,0.000,0.000,0.000,0.000,3.142,0.001,0.000,1.003,1.571,1.572,4.086,6.281,1.199,4.712,0.000,0.000,7.374,-3.503,0.990,4.736,4.499,4.926,5.282,4.713,4.714,2.199,6.281,5.083,1.571,0.000,0.000,8.030,-3.485,0.991,4.736,4.580,4.845,
19.600,24.475,7.711,-3.983,1.681,1.017,0.598,0.000,1.760,0.000,1.347,2.314,4.393,1.908,1.314,1.421,2.841,0.000,3.036,4.194,0.000,0.000,0.000,0.000,0.000,0.000,0.000,0.000,0.000,0.000,3.142,0.000,0.000,1.004,1.569,1.567,4.085,6.282,1.199,4.712,0.000,0.000,7.319,-3.434,0.990,4.825,4.672,4.751,5.282,4.711,4.710,2.198,6.283,5.083,1.570,0.000,0.000,7.971,-3.362,0.991,4.824,4.678,4.745,
19.700,24.575,7.700,-3.884,1.692,1.014,6.274,0.000,1.723,0.000,1.341,2.412,4.499,1.901,1.323,1.441,2.710,0.000,3.036,0.000,0.000,0.000,0.000,0.000,0.000,0.000,0.000,0.000,0.000,0.000,3.142,6.282,0.000,1.004,1.569,1.569,4.085,6.281,1.199,4.712,0.000,0.000,7.302,-3.339,0.990,4.834,4.674,4.750,5.281,4.711,4.711,2.197,6.282,5.083,1.570,0.000,0.000,7.953,-3.259,0.990,4.834,4.673,4.751,
19.800,24.675,7.688,-3.785,1.692,1.008,6.270,0.000,1.705,4.165,1.328,2.594,4.598,1.919,1.335,1.454,2.666,0.000,3.036,0.000,0.000,0.000,0.000,0.000,0.000,0.000,0.000,0.000,0.000,0.000,3.142,6.282,0.000,1.004,1.569,1.569,4.085,6.281,1.199,4.712,0.000,0.000,7.290,-3.240,0.990,4.834,4.674,4.750,5.281,4.711,4.711,2.197,6.282,5.083,1.570,0.000,0.000,7.941,-3.161,0.990,4.834,4.673,4.750,
19.890,24.765,7.676,-3.687,1.692,1.010,6.270,0.000,1.688,3.578,1.314,2.568,4.698,1.936,1.347,1.468,2.797,0.000,3.036,0.000,0.000,0.000,0.000,0.000,0.000,0.000,0.000,0.000,0.000,0.000,3.142,6.282,0.000,1.004,1.569,1.569,4.085,6.281,1.199,4.712,0.000,0.000,7.278,-3.142,0.990,4.834,4.674,4.749,5.281,4.711,4.711,2.198,6.282,5.083,1.570,0.000,0.000,7.929,-3.062,0.990,4.834,4.674,4.750,
19.993,24.868,7.661,-3.568,1.692,1.013,6.269,0.000,1.667,3.212,1.242,2.537,4.817,1.312,1.362,1.484,2.829,0.000,3.036,0.000,0.000,0.000,0.000,0.000,0.000,0.000,0.000,0.000,0.000,0.000,3.142,6.282,0.000,1.004,1.569,1.569,4.085,6.281,1.199,4.712,0.000,0.000,7.264,-3.023,0.990,4.834,4.674,4.750,5.281,4.711,4.711,2.198,6.282,5.083,1.570,0.000,0.000,7.915,-2.944,0.990,4.834,4.674,4.750,
20.100,24.975,7.649,-3.469,1.692,1.012,6.268,0.000,1.650,3.200,1.239,2.511,4.917,1.975,1.374,1.497,2.855,0.000,3.036,4.828,0.000,0.000,0.000,0.000,0.000,0.000,0.000,0.000,0.000,0.000,3.142,6.282,0.000,1.004,1.569,1.569,4.085,6.281,1.199,4.712,0.000,0.000,7.251,-2.925,0.990,4.834,4.674,4.750,5.281,4.711,4.711,2.198,6.282,5.083,1.570,0.000,0.000,7.903,-2.845,0.990,4.835,4.674,4.750,
20.200,25.075,7.640,-3.390,1.692,1.011,6.268,0.000,1.635,3.190,1.415,2.491,4.996,1.989,1.384,1.508,2.876,0.000,3.036,4.719,0.000,0.000,0.000,0.000,0.000,0.000,0.000,0.000,0.000,0.000,3.142,6.282,0.000,1.004,1.569,1.569,4.085,6.281,1.199,4.712,0.000,0.000,7.242,-2.846,0.990,4.835,4.674,4.750,5.281,4.711,4.711,2.198,6.282,5.083,1.570,0.000,0.000,7.893,-2.766,0.990,4.835,4.674,4.750,
20.300,25.175,7.628,-3.292,1.693,1.011,6.268,0.000,1.618,3.178,0.000,2.466,0.000,2.006,1.396,1.036,2.903,0.000,3.142,4.560,0.000,0.000,0.000,0.000,0.000,0.000,0.000,0.000,0.000,0.000,3.142,6.282,0.000,1.004,1.569,1.569,4.085,6.281,1.199,4.712,0.000,0.000,7.229,-2.747,0.990,4.835,4.674,4.750,5.281,4.711,4.711,2.198,6.282,5.083,1.570,0.000,0.000,7.881,-2.667,0.990,4.835,4.674,4.749,
20.400,25.275,7.613,-3.173,1.693,1.012,6.267,0.000,1.596,1.082,0.000,2.435,0.000,2.026,1.411,1.482,2.935,0.000,3.142,4.440,0.000,0.000,0.000,0.000,0.000,0.000,0.000,0.000,0.000,0.000,3.142,6.282,0.000,1.004,1.569,1.569,4.085,6.281,1.199,4.712,0.000,0.000,7.215,-2.629,0.990,4.835,4.674,4.750,5.281,4.711,4.711,2.198,6.282,5.083,1.570,0.000,0.000,7.866,-2.548,0.990,4.835,4.675,4.749,
20.499,25.374,7.603,-3.094,1.693,1.012,6.267,0.000,1.769,1.068,0.000,2.415,0.000,2.040,1.421,0.000,2.957,0.000,3.142,4.358,0.000,0.000,0.000,0.000,0.000,0.000,0.000,0.000,0.000,0.000,3.142,6.282,0.000,1.004,1.569,1.569,4.085,6.281,1.199,4.712,0.000,0.000,7.205,-2.550,0.990,4.835,4.674,4.750,5.281,4.711,4.711,2.198,6.282,5.083,1.570,0.000,0.000,7.856,-2.469,0.990,4.835,4.675,4.749,
20.600,25.475,7.589,-2.976,1.693,1.011,6.267,0.000,1.747,1.104,0.000,2.385,0.000,2.061,1.436,0.000,2.989,0.000,3.142,4.211,0.000,0.000,0.000,0.000,0.000,0.000,0.000,0.000,0.000,0.000,3.142,6.282,0.000,1.004,1.569,1.569,4.085,6.281,1.199,4.712,0.000,0.000,7.190,-2.431,0.990,4.836,4.674,4.750,5.281,4.711,4.711,2.198,6.282,5.083,1.570,0.000,0.000,7.841,-2.351,0.990,4.836,4.675,4.749,
20.694,25.570,7.579,-2.897,1.694,1.012,6.266,0.000,1.733,1.094,0.000,2.364,0.000,2.074,1.446,0.000,3.012,0.000,3.142,4.116,0.000,0.000,0.000,0.000,0.000,0.000,0.000,0.000,0.000,0.000,3.142,6.282,0.000,1.004,1.569,1.569,4.085,6.281,1.199,4.712,0.000,0.000,7.180,-2.352,0.990,4.836,4.674,4.750,5.281,4.711,4.711,2.198,6.282,5.083,1.570,0.000,0.000,7.831,-2.272,0.990,4.836,4.675,4.749,
20.792,25.668,7.565,-2.778,1.670,1.012,5.731,0.000,0.000,1.084,3.291,2.230,0.000,2.150,1.467,0.000,2.914,0.000,3.142,3.955,1.885,0.000,0.000,0.000,0.000,0.000,0.000,0.000,0.000,0.000,3.142,6.281,0.001,1.004,1.568,1.567,4.084,6.281,1.199,4.712,0.000,0.000,7.177,-2.225,0.990,4.815,4.668,4.755,5.281,4.710,4.709,2.197,6.282,5.083,1.570,0.000,0.000,7.830,-2.159,0.990,4.815,4.663,4.760,
20.884,25.759,7.556,-2.679,1.632,1.012,6.045,0.000,0.000,1.084,3.308,2.069,0.000,2.261,1.489,0.000,2.749,0.000,3.142,0.000,1.668,0.000,0.000,0.000,0.000,0.000,0.000,0.000,0.000,0.000,3.142,6.282,0.000,1.004,1.569,1.570,4.085,6.281,1.199,4.712,0.000,0.000,7.192,-2.111,0.990,4.773,4.636,4.788,5.282,4.711,4.712,2.197,6.282,5.083,1.570,0.000,0.000,7.847,-2.071,0.990,4.773,4.640,4.785,
20.984,25.859,7.550,-2.580,1.629,1.010,6.267,0.000,0.000,1.079,3.335,2.047,0.000,2.278,1.044,0.000,2.747,0.000,3.142,0.000,1.579,0.000,0.000,0.000,0.000,0.000,0.000,0.000,0.000,0.000,3.142,6.282,0.000,1.004,1.569,1.569,4.085,6.281,1.199,4.712,0.000,0.000,7.187,-2.011,0.990,4.771,4.632,4.791,5.281,4.711,4.711,2.198,6.282,5.083,1.570,0.000,0.000,7.842,-1.972,0.990,4.771,4.634,4.790,
21.100,25.975,7.544,-2.480,1.629,1.011,6.267,0.000,0.000,1.073,1.079,1.939,0.000,2.287,1.502,0.000,2.759,0.000,3.142,0.000,1.505,0.000,0.000,0.000,0.000,0.000,0.000,0.000,0.000,0.000,3.142,6.282,0.000,1.004,1.569,1.569,4.085,6.281,1.199,4.712,0.000,0.000,7.181,-1.912,0.990,4.771,4.632,4.791,5.281,4.711,4.711,2.198,6.282,5.083,1.570,0.000,0.000,7.836,-1.873,0.990,4.772,4.634,4.790,
21.200,26.075,7.539,-2.401,1.629,1.012,6.267,0.000,0.000,1.068,1.104,1.930,0.000,2.293,1.507,0.000,2.769,0.000,3.142,0.000,1.456,0.000,0.000,0.000,0.000,0.000,0.000,0.000,0.000,0.000,3.142,6.282,0.000,1.004,1.569,1.569,4.085,6.281,1.199,4.712,0.000,0.000,7.177,-1.832,0.990,4.772,4.632,4.791,5.281,4.711,4.711,2.198,6.282,5.083,1.570,0.000,0.000,7.831,-1.793,0.990,4.772,4.635,4.789,
21.300,26.175,7.534,-2.302,1.630,1.012,6.267,0.000,0.000,1.062,1.123,2.005,0.000,2.302,1.461,0.000,2.337,0.000,3.142,0.000,1.394,0.000,0.000,0.000,0.000,0.000,0.000,0.000,0.000,0.000,3.142,6.282,0.000,1.004,1.569,1.569,4.085,6.281,1.199,4.712,0.000,0.000,7.171,-1.733,0.990,4.772,4.633,4.791,5.281,4.711,4.711,2.198,6.282,5.083,1.570,0.000,0.000,7.825,-1.694,0.990,4.772,4.635,4.789,
21.400,26.275,7.528,-2.202,1.630,1.011,6.266,0.000,0.000,1.332,1.116,2.120,0.000,2.310,1.467,0.000,2.794,0.000,3.142,0.000,1.348,0.000,0.000,0.000,0.000,0.000,0.000,0.000,0.000,0.000,3.142,6.282,0.000,1.004,1.569,1.569,4.085,6.281,1.199,4.712,0.000,0.000,7.164,-1.634,0.990,4.772,4.633,4.791,5.281,4.711,4.711,2.198,6.282,5.083,1.570,0.000,0.000,7.819,-1.595,0.990,4.772,4.636,4.788,
21.500,26.375,7.522,-2.103,1.630,1.011,6.266,0.000,0.000,1.183,1.110,2.235,0.000,2.319,1.726,1.618,2.361,0.000,3.142,0.000,1.318,0.000,0.000,0.000,0.000,0.000,0.000,0.000,0.000,0.000,3.142,6.282,0.000,1.004,1.569,1.569,4.085,6.281,1.199,4.712,0.000,0.000,7.158,-1.535,0.990,4.773,4.634,4.790,5.281,4.711,4.711,2.198,6.282,5.083,1.570,0.000,0.000,7.813,-1.495,0.990,4.773,4.636,4.788,
21.600,26.475,7.516,-2.004,1.631,1.012,6.266,0.000,0.000,1.177,1.104,3.758,0.000,2.327,2.134,1.547,2.819,0.000,3.142,0.000,1.334,0.000,0.000,0.000,0.000,0.000,0.000,0.000,0.000,0.000,3.142,6.282,0.000,1.004,1.569,1.569,4.085,6.281,1.199,4.712,0.000,0.000,7.152,-1.435,0.990,4.773,4.634,4.790,5.281,4.711,4.711,2.198,6.282,5.083,1.570,0.000,0.000,7.807,-1.396,0.990,4.773,4.636,4.788,
21.700,26.575,7.510,-1.904,1.631,1.012,6.267,0.000,2.971,1.171,1.097,3.841,0.000,2.335,2.543,1.608,2.832,0.000,3.142,0.000,0.000,0.000,0.000,0.000,0.000,0.000,0.000,0.000,0.000,0.000,3.142,6.282,0.000,1.004,1.569,1.569,4.085,6.281,1.199,4.712,0.000,0.000,7.146,-1.336,0.990,4.773,4.634,4.789,5.281,4.711,4.711,2.198,6.282,5.083,1.570,0.000,0.000,7.801,-1.296,0.990,4.773,4.637,4.787,
21.799,26.674,7.504,-1.805,1.631,1.012,6.266,0.000,2.841,1.164,1.091,3.924,0.000,2.344,4.486,1.615,2.845,0.000,3.142,0.000,0.000,0.000,0.000,0.000,0.000,0.000,0.000,0.000,0.000,0.000,3.142,6.282,0.000,1.004,1.569,1.569,4.085,6.281,1.199,4.712,0.000,0.000,7.140,-1.237,0.990,4.774,4.635,4.789,5.281,4.711,4.711,2.198,6.282,5.083,1.570,0.000,0.000,7.795,-1.197,0.990,4.774,4.637,4.787,
21.890,26.766,7.497,-1.686,1.632,1.012,6.266,0.000,2.685,0.000,1.083,4.024,0.000,2.354,4.982,1.623,2.861,0.000,3.142,0.000,0.000,0.000,0.000,0.000,0.000,0.000,0.000,0.000,0.000,0.000,3.142,6.282,0.000,1.004,1.569,1.569,4.085,6.281,1.199,4.712,0.000,0.000,7.132,-1.118,0.990,4.774,4.635,4.789,5.281,4.711,4.711,2.198,6.282,5.083,1.570,0.000,0.000,7.787,-1.078,0.990,4.774,4.638,4.786,
21.982,26.857,7.490,-1.587,1.632,1.012,6.266,0.000,2.591,0.000,1.077,4.107,0.000,2.363,0.000,1.629,2.874,0.000,3.142,0.000,0.000,0.000,0.000,0.000,0.000,0.000,0.000,0.000,0.000,0.000,3.142,6.282,0.000,1.004,1.569,1.569,4.085,6.281,1.199,4.712,0.000,0.000,7.126,-1.019,0.990,4.774,4.636,4.788,5.281,4.711,4.711,2.198,6.282,5.083,1.570,0.000,0.000,7.781,-0.978,0.990,4.774,4.638,4.786,
22.100,26.975,7.484,-1.487,1.632,1.012,6.266,0.000,2.581,0.000,1.305,4.190,0.000,1.693,0.000,1.636,1.355,0.000,3.142,0.000,0.000,0.000,0.000,0.000,0.000,0.000,0.000,0.000,0.000,0.000,3.142,6.282,0.000,1.004,1.569,1.569,4.085,6.281,1.199,4.712,0.000,0.000,7.120,-0.920,0.990,4.775,4.636,4.788,5.281,4.711,4.711,2.198,6.282,5.083,1.570,0.000,0.000,7.775,-0.879,0.990,4.775,4.639,4.785,
22.200,27.075,7.479,-1.408,1.633,1.012,6.266,0.000,0.000,0.000,1.207,1.824,0.000,1.797,4.998,1.642,2.898,0.000,3.142,0.000,1.730,0.000,0.000,0.000,0.000,0.000,0.000,0.000,0.000,0.000,3.142,6.282,0.000,1.004,1.569,1.569,4.085,6.281,1.199,4.712,0.000,0.000,7.115,-0.840,0.990,4.775,4.636,4.787,5.281,4.711,4.711,2.198,6.282,5.083,1.570,0.000,0.000,7.769,-0.799,0.990,4.775,4.639,4.785,
22.298,27.174,7.473,-1.308,1.632,1.012,6.219,0.000,0.000,0.000,1.200,1.811,0.000,2.389,4.837,1.648,1.419,0.000,3.142,0.000,0.926,0.000,0.000,0.000,0.000,0.000,0.000,0.000,0.000,0.000,3.142,6.282,0.000,1.004,1.569,1.568,4.084,6.281,1.199,4.712,0.000,0.000,7.108,-0.741,0.990,4.775,4.641,4.783,5.281,4.711,4.711,2.197,6.282,5.083,1.570,0.000,0.000,7.763,-0.700,0.990,4.776,4.634,4.790,
22.400,27.275,7.467,-1.189,1.572,1.013,5.136,0.000,0.000,0.000,1.165,1.724,0.000,2.592,0.000,1.618,1.331,0.000,3.142,4.921,0.787,0.000,0.000,0.000,0.000,0.000,0.000,0.000,0.000,0.000,3.142,6.280,0.001,1.005,1.568,1.565,4.084,6.282,1.199,4.711,0.000,0.000,7.135,-0.601,0.990,4.720,4.073,5.350,5.281,4.710,4.708,2.197,6.282,5.083,1.570,0.000,0.000,7.791,-0.599,0.990,4.720,3.962,5.461,
22.499,27.375,7.468,-1.109,1.488,1.011,5.312,0.000,0.000,3.492,1.530,1.540,0.000,2.936,4.712,1.578,2.387,0.000,3.142,4.982,0.736,0.000,0.000,0.000,0.000,0.000,0.000,0.000,0.000,0.000,3.142,6.281,0.000,1.004,1.569,1.569,4.085,6.281,1.199,4.712,0.000,0.000,7.189,-0.495,0.990,4.795,1.632,1.509,5.282,4.711,4.711,2.198,6.281,5.083,1.570,0.000,0.000,7.843,-0.549,0.991,4.795,1.615,1.526,
22.591,27.466,7.480,-0.990,1.458,1.012,6.273,0.000,0.000,0.000,2.249,1.504,0.000,3.065,4.684,1.555,2.288,0.000,3.142,0.000,0.796,1.743,0.000,0.000,0.000,0.000,0.000,0.000,0.000,0.000,3.142,6.283,0.000,1.003,1.569,1.569,4.085,6.281,1.199,4.712,0.000,0.000,7.219,-0.368,0.990,4.826,1.614,1.526,5.281,4.711,4.712,2.198,6.282,5.083,1.570,0.000,0.000,7.871,-0.442,0.990,4.825,1.608,1.533,
22.700,27.575,7.491,-0.891,1.459,1.011,6.265,0.000,2.114,0.000,3.382,1.523,0.000,2.187,4.940,1.544,1.062,0.000,3.142,0.000,0.000,1.739,0.000,0.000,0.000,0.000,0.000,0.000,0.000,0.000,3.142,6.283,0.000,1.003,1.569,1.569,4.085,6.281,1.199,4.712,0.000,0.000,7.230,-0.269,0.990,4.824,1.615,1.526,5.281,4.711,4.711,2.198,6.282,5.083,1.570,0.000,0.000,7.882,-0.342,0.990,4.824,1.609,1.532,
22.800,27.675,7.499,-0.812,1.460,1.011,6.261,0.000,2.111,0.000,3.392,1.563,0.000,3.014,1.587,1.536,2.263,0.000,3.142,0.000,0.000,0.827,0.000,0.000,0.000,0.000,0.000,0.000,0.000,0.000,3.142,6.283,0.000,1.003,1.569,1.569,4.085,6.281,1.199,4.712,0.000,0.000,7.238,-0.191,0.990,4.823,1.615,1.526,5.281,4.711,4.711,2.198,6.282,5.083,1.570,0.000,0.000,7.890,-0.263,0.990,4.823,1.610,1.531,
22.900,27.775,7.510,-0.713,1.461,1.012,6.260,0.000,1.997,0.000,3.404,1.692,0.000,2.988,1.576,1.525,2.248,0.000,3.142,0.000,0.000,0.772,0.000,0.000,0.000,0.000,0.000,0.000,0.000,0.000,3.142,6.283,0.000,1.003,1.569,1.569,4.085,6.281,1.199,4.712,0.000,0.000,7.248,-0.092,0.990,4.822,1.615,1.526,5.281,4.711,4.711,2.198,6.282,5.083,1.570,0.000,0.000,7.900,-0.164,0.990,4.822,1.611,1.530,
23.000,27.875,7.521,-0.615,1.462,1.012,6.261,0.000,1.986,0.000,3.415,1.821,0.000,2.962,1.617,1.313,2.234,0.000,3.142,0.000,0.000,0.803,0.000,0.000,0.000,0.000,0.000,0.000,0.000,0.000,3.142,6.283,0.000,1.004,1.569,1.569,4.085,6.281,1.199,4.712,0.000,0.000,7.259,0.007,0.990,4.822,1.615,1.526,5.281,4.711,4.711,2.198,6.282,5.083,1.570,0.000,0.000,7.911,-0.064,0.990,4.821,1.611,1.530,
23.100,27.975,7.532,-0.516,1.462,1.011,6.262,0.000,2.004,0.000,3.800,1.793,0.000,2.937,1.604,1.503,2.219,0.000,3.142,0.000,0.000,0.936,0.000,0.000,0.000,0.000,0.000,0.000,0.000,0.000,3.142,6.283,0.000,1.004,1.569,1.569,4.085,6.281,1.199,4.712,0.000,0.000,7.269,0.106,0.990,4.821,1.615,1.525,5.281,4.711,4.711,2.198,6.282,5.083,1.570,0.000,0.000,7.921,0.035,0.990,4.821,1.612,1.529,
23.194,28.069,7.543,-0.417,1.463,1.012,6.262,0.000,2.023,1.981,4.261,1.811,0.000,2.912,1.592,0.668,2.205,0.000,3.142,0.000,0.000,0.000,0.000,0.000,0.000,0.000,0.000,0.000,0.000,0.000,3.142,6.282,0.000,1.004,1.569,1.569,4.085,6.281,1.199,4.712,0.000,0.000,7.279,0.204,0.990,4.820,1.616,1.525,5.281,4.711,4.711,2.198,6.282,5.083,1.570,0.000,0.000,7.932,0.134,0.990,4.820,1.612,1.529,
23.294,28.169,7.556,-0.298,1.464,1.012,6.264,0.000,2.045,1.903,4.283,1.833,0.000,2.883,1.578,1.239,2.170,0.000,3.142,0.000,0.000,0.000,0.000,0.000,0.000,0.000,0.000,0.000,0.000,0.000,3.142,6.282,0.000,1.004,1.569,1.569,4.085,6.281,1.199,4.712,0.000,0.000,7.292,0.323,0.990,4.819,1.616,1.525,5.281,4.711,4.711,2.198,6.282,5.083,1.570,0.000,0.000,7.944,0.253,0.990,4.819,1.613,1.528,
23.386,28.261,7.566,-0.199,1.464,1.012,6.264,0.000,2.064,1.914,4.697,1.850,0.000,2.759,1.566,0.645,2.097,0.000,3.142,0.000,0.000,0.000,0.000,0.000,0.000,0.000,0.000,0.000,0.000,0.000,3.142,6.282,0.000,1.004,1.569,1.569,4.085,6.281,1.199,4.712,0.000,0.000,7.302,0.422,0.990,4.819,1.616,1.525,5.281,4.711,4.711,2.198,6.282,5.083,1.570,0.000,0.000,7.954,0.352,0.990,4.819,1.613,1.528,
23.500,28.375,7.577,-0.100,1.465,1.012,6.263,0.000,2.082,1.925,0.000,1.868,0.000,2.806,1.554,1.458,2.082,0.000,3.142,0.000,0.000,0.000,1.550,0.000,0.000,0.000,0.000,0.000,0.000,0.000,3.142,6.282,0.000,1.004,1.569,1.569,4.085,6.281,1.199,4.712,0.000,0.000,7.312,0.521,0.990,4.818,1.616,1.525,5.281,4.711,4.711,2.198,6.282,5.083,1.570,0.000,0.000,7.964,0.451,0.990,4.818,1.614,1.528,
23.600,28.475,7.585,-0.021,1.465,1.012,6.264,0.000,2.097,1.934,0.000,1.940,0.000,2.899,0.666,1.450,4.376,0.000,3.142,0.000,0.000,0.000,1.623,0.000,0.000,0.000,0.000,0.000,0.000,0.000,3.142,6.282,0.000,1.004,1.569,1.569,4.085,6.281,1.199,4.712,0.000,0.000,7.320,0.600,0.990,4.818,1.616,1.525,5.281,4.711,4.711,2.198,6.282,5.083,1.570,0.000,0.000,7.973,0.531,0.990,4.818,1.614,1.527,
23.697,28.572,7.596,0.078,1.466,1.012,6.264,0.000,2.116,1.945,0.000,2.069,0.000,3.014,1.533,1.439,0.000,0.000,3.142,0.000,0.000,0.000,1.734,0.000,0.000,0.000,0.000,0.000,0.000,0.000,3.142,6.282,0.000,1.004,1.569,1.569,4.085,6.281,1.199,4.712,0.000,0.000,7.330,0.698,0.990,4.817,1.616,1.524,5.281,4.711,4.711,2.198,6.282,5.083,1.570,0.000,0.000,7.983,0.630,0.990,4.817,1.614,1.527,
23.800,28.675,7.608,0.197,1.466,1.012,6.265,0.000,2.138,2.092,0.000,2.223,0.000,3.151,0.641,1.426,4.991,0.000,3.142,0.000,0.000,0.000,1.921,0.000,0.000,0.000,0.000,0.000,0.000,0.000,3.142,6.282,0.000,1.004,1.569,1.569,4.085,6.281,1.199,4.712,0.000,0.000,7.342,0.817,0.990,4.817,1.617,1.524,5.281,4.711,4.711,2.198,6.282,5.083,1.570,0.000,0.000,7.995,0.749,0.990,4.817,1.614,1.527,
23.899,28.774,7.616,0.276,1.469,1.011,0.173,0.000,2.145,1.460,0.000,2.322,0.000,3.247,1.508,1.419,4.875,0.000,3.142,0.000,0.000,0.000,2.018,0.000,0.000,0.000,0.000,0.000,0.000,0.000,3.142,0.000,0.000,1.003,1.570,1.570,4.086,6.281,1.199,4.712,0.000,0.000,7.350,0.896,0.990,4.816,1.620,1.521,5.281,4.712,4.712,2.199,6.282,5.083,1.570,0.000,0.000,8.003,0.829,0.990,4.815,1.609,1.532,
24.000,28.875,7.627,0.395,1.526,1.012,0.671,0.000,1.983,1.335,0.000,2.368,0.000,3.508,1.227,1.429,4.502,0.000,3.142,0.000,0.000,0.000,2.250,0.000,0.000,0.000,0.000,0.000,0.000,0.000,3.142,0.001,0.000,1.004,1.570,1.569,4.085,6.281,1.199,4.712,0.000,0.000,7.325,0.998,0.990,4.757,1.680,1.461,5.281,4.712,4.712,2.198,6.282,5.083,1.570,0.000,0.000,7.981,0.969,0.991,4.758,1.652,1.489,
24.100,28.975,7.630,0.475,1.552,1.013,0.150,0.000,1.917,1.283,0.000,2.421,0.000,0.983,1.446,1.437,2.541,0.000,3.142,0.000,0.000,0.000,2.337,0.000,0.000,0.000,0.000,0.000,0.000,0.000,3.142,6.283,0.000,1.004,1.569,1.567,4.085,6.281,1.199,4.712,0.000,0.000,7.311,1.070,0.990,4.730,1.861,1.279,5.281,4.711,4.710,2.198,6.282,5.083,1.570,0.000,0.000,7.967,1.058,0.991,4.730,1.812,1.329,
24.200,29.075,7.632,0.574,1.553,1.011,6.265,0.000,1.917,1.284,0.000,2.541,0.000,1.023,1.444,1.435,2.416,0.000,3.142,0.000,0.000,0.000,2.521,0.000,0.000,0.000,0.000,0.000,0.000,0.000,3.142,6.282,0.000,1.004,1.569,1.569,4.085,6.281,1.199,4.712,0.000,0.000,7.314,1.169,0.990,4.731,1.835,1.305,5.281,4.711,4.711,2.198,6.282,5.083,1.570,0.000,0.000,7.970,1.158,0.990,4.730,1.826,1.315,
24.300,29.175,7.634,0.674,1.553,1.011,6.265,0.000,1.919,1.189,0.000,2.662,0.000,2.370,1.442,1.434,2.292,0.000,3.142,0.000,0.000,0.000,2.704,0.000,0.000,0.000,0.000,0.000,0.000,0.000,3.142,6.282,0.000,1.004,1.569,1.569,4.085,6.281,1.199,4.712,0.000,0.000,7.315,1.268,0.990,4.730,1.843,1.297,5.281,4.711,4.711,2.198,6.282,5.083,1.570,0.000,0.000,7.971,1.257,0.990,4.730,1.834,1.307,
24.398,29.273,7.635,0.773,1.554,1.012,6.266,0.000,1.921,1.191,0.000,2.783,0.000,0.981,1.440,1.432,2.228,0.000,3.142,0.000,0.000,0.000,2.917,0.000,0.000,0.000,0.000,0.000,0.000,0.000,3.142,6.282,0.000,1.004,1.569,1.569,4.085,6.281,1.199,4.712,0.000,0.000,7.316,1.368,0.990,4.730,1.850,1.291,5.281,4.711,4.711,2.198,6.282,5.083,1.570,0.000,0.000,7.972,1.357,0.990,4.729,1.841,1.301,
24.482,29.357,7.637,0.893,1.554,1.012,6.265,0.000,1.923,1.193,0.000,2.928,0.000,2.361,1.437,1.430,2.311,0.000,3.142,0.000,0.000,0.000,4.261,0.000,0.000,0.000,0.000,0.000,0.000,0.000,3.142,6.282,0.000,1.004,1.569,1.569,4.085,6.281,1.199,4.712,0.000,0.000,7.318,1.487,0.990,4.729,1.858,1.283,5.281,4.711,4.711,2.198,6.282,5.083,1.570,0.000,0.000,7.974,1.476,0.990,4.729,1.848,1.293,
24.600,29.475,7.639,0.992,1.555,1.011,6.266,0.000,1.924,1.194,1.941,3.049,0.000,2.357,1.435,1.376,2.309,0.000,3.142,0.000,0.000,0.000,0.000,0.000,0.000,0.000,0.000,0.000,0.000,0.000,3.142,6.282,0.000,1.004,1.569,1.569,4.085,6.281,1.199,4.712,0.000,0.000,7.320,1.586,0.990,4.729,1.865,1.276,5.281,4.711,4.711,2.198,6.282,5.083,1.570,0.000,0.000,7.975,1.576,0.990,4.729,1.855,1.286,
24.700,29.575,7.640,1.072,1.560,1.011,0.332,0.000,1.912,1.193,1.946,3.133,0.000,2.336,1.431,0.000,2.325,0.000,3.142,0.000,0.000,0.000,0.000,0.000,0.000,0.000,0.000,0.000,0.000,0.000,3.142,0.000,0.000,1.003,1.570,1.571,4.086,6.281,1.199,4.712,0.000,0.000,7.319,1.664,0.990,4.726,1.958,1.183,5.281,4.712,4.713,2.199,6.282,5.083,1.570,0.000,0.000,7.975,1.657,0.991,4.725,1.869,1.272,
24.800,29.675,7.640,1.171,1.628,1.011,1.049,0.000,1.756,1.171,1.997,3.116,0.000,2.139,1.404,0.000,1.788,0.000,3.142,0.000,0.000,0.000,0.000,0.000,0.000,0.000,0.000,0.000,0.000,0.000,3.142,0.001,0.000,1.003,1.570,1.571,4.086,6.281,1.199,4.712,0.000,0.000,7.279,1.741,0.990,4.768,4.627,4.796,5.282,4.713,4.713,2.198,6.282,5.083,1.571,0.000,0.000,7.934,1.778,0.991,4.768,4.655,4.770,
24.899,29.774,7.632,1.271,1.684,1.017,0.185,0.000,1.639,1.150,2.040,3.132,0.000,2.018,1.394,0.000,2.846,0.000,3.142,0.000,0.000,0.000,0.000,0.000,0.000,0.000,0.000,0.000,0.000,0.000,3.142,6.283,0.000,1.004,1.568,1.567,4.085,6.282,1.199,4.711,0.000,0.000,7.237,1.819,0.990,4.829,4.670,4.752,5.281,4.711,4.709,2.198,6.283,5.083,1.570,0.000,0.000,7.890,1.893,0.990,4.828,4.676,4.747,
24.993,29.868,7.619,1.390,1.684,1.009,6.270,0.000,1.619,1.136,2.025,3.266,0.000,2.037,1.408,0.000,2.877,0.000,3.142,0.000,0.000,0.000,0.000,0.000,0.000,0.000,0.000,0.000,0.000,0.000,3.142,6.282,0.000,1.004,1.569,1.569,4.085,6.281,1.199,4.712,0.000,0.000,7.225,1.938,0.990,4.826,4.671,4.752,5.281,4.711,4.711,2.198,6.282,5.083,1.570,0.000,0.000,7.877,2.012,0.990,4.827,4.671,4.753,
25.082,29.957,7.607,1.488,1.684,1.009,6.270,0.000,1.603,1.125,1.336,3.377,0.000,2.053,1.419,0.000,2.901,0.000,3.142,0.000,0.000,0.000,0.000,0.000,0.000,0.000,0.000,0.000,0.000,0.000,3.142,6.282,0.000,1.004,1.569,1.569,4.085,6.281,1.199,4.712,0.000,0.000,7.214,2.036,0.990,4.827,4.671,4.752,5.281,4.711,4.711,2.198,6.282,5.083,1.570,0.000,0.000,7.866,2.111,0.990,4.827,4.671,4.753,
25.200,30.075,7.596,1.587,1.684,1.013,6.269,0.000,1.586,1.113,1.221,3.488,0.000,2.070,1.431,0.000,2.925,0.000,3.142,0.000,0.000,0.000,0.000,0.000,0.000,0.000,0.000,0.000,0.000,0.000,3.142,6.282,0.000,1.004,1.569,1.569,4.085,6.281,1.199,4.712,0.000,0.000,7.202,2.135,0.990,4.827,4.671,4.752,5.281,4.711,4.711,2.198,6.282,5.083,1.570,0.000,0.000,7.854,2.210,0.990,4.827,4.671,4.752,
25.300,30.175,7.587,1.666,1.685,1.013,6.268,0.000,1.573,1.104,1.211,3.577,0.000,2.083,1.389,0.000,2.944,0.000,3.142,0.000,0.000,0.000,0.000,0.000,0.000,0.000,0.000,0.000,0.000,0.000,3.142,6.282,0.000,1.004,1.569,1.569,4.085,6.281,1.199,4.712,0.000,0.000,7.193,2.214,0.990,4.827,4.671,4.752,5.281,4.711,4.711,2.198,6.282,5.083,1.570,0.000,0.000,7.845,2.289,0.990,4.827,4.672,4.752,
25.399,30.275,7.576,1.765,1.685,1.011,6.268,0.000,1.556,1.093,1.198,3.689,0.000,2.099,1.418,0.000,2.969,0.000,3.142,0.000,0.000,0.000,0.000,0.000,0.000,0.000,0.000,0.000,0.000,0.000,3.142,6.282,0.000,1.004,1.569,1.569,4.085,6.281,1.199,4.712,0.000,0.000,7.182,2.313,0.990,4.827,4.671,4.752,5.281,4.711,4.711,2.198,6.282,5.083,1.570,0.000,0.000,7.834,2.388,0.990,4.827,4.672,4.752,
25.498,30.373,7.562,1.884,1.685,1.011,6.268,0.000,1.536,1.079,1.183,4.078,0.000,2.118,2.033,1.533,2.999,0.000,3.142,0.000,0.000,0.000,0.000,0.000,0.000,0.000,0.000,0.000,0.000,0.000,3.142,6.282,0.000,1.004,1.569,1.569,4.085,6.281,1.199,4.712,0.000,0.000,7.168,2.431,0.990,4.827,4.671,4.752,5.281,4.711,4.711,2.198,6.282,5.083,1.570,0.000,0.000,7.820,2.507,0.990,4.827,4.672,4.752,
25.591,30.467,7.551,1.983,1.685,1.012,6.268,0.000,1.519,1.067,1.171,4.056,0.000,2.135,2.552,1.546,3.024,0.000,3.142,0.000,0.000,0.000,0.000,0.000,0.000,0.000,0.000,0.000,0.000,0.000,3.142,6.282,0.000,1.004,1.569,1.569,4.085,6.281,1.199,4.712,0.000,0.000,7.157,2.530,0.990,4.827,4.671,4.752,5.281,4.711,4.711,2.198,6.282,5.083,1.570,0.000,0.000,7.808,2.606,0.990,4.828,4.672,4.752,
25.682,30.558,7.539,2.082,1.686,1.012,6.267,0.000,1.502,1.056,1.158,4.044,0.000,2.151,3.661,1.614,3.049,0.000,3.142,0.000,0.000,0.000,0.000,0.000,0.000,0.000,0.000,0.000,0.000,0.000,3.142,6.282,0.000,1.004,1.569,1.569,4.085,6.281,1.199,4.712,0.000,0.000,7.145,2.629,0.990,4.828,4.671,4.752,5.281,4.711,4.711,2.198,6.282,5.083,1.570,0.000,0.000,7.797,2.704,0.990,4.828,4.672,4.752,
25.800,30.675,7.528,2.180,1.686,1.011,6.267,0.000,1.485,1.044,1.146,4.155,0.000,2.167,3.672,1.195,3.074,0.000,3.142,0.000,0.000,0.000,0.000,0.000,0.000,0.000,0.000,0.000,0.000,0.000,3.142,6.282,0.000,1.004,1.569,1.569,4.085,6.281,1.199,4.712,0.000,0.000,7.134,2.728,0.990,4.828,4.671,4.752,5.281,4.711,4.711,2.198,6.282,5.083,1.570,0.000,0.000,7.785,2.803,0.990,4.828,4.672,4.751,
25.900,30.775,7.519,2.259,1.686,1.011,6.267,0.000,1.472,1.035,1.136,4.244,0.000,2.180,3.681,1.149,3.095,0.000,3.142,0.000,0.000,0.000,0.000,0.000,0.000,0.000,0.000,0.000,0.000,0.000,3.142,6.282,0.000,1.004,1.569,1.569,4.085,6.281,1.199,4.712,0.000,0.000,7.124,2.807,0.990,4.828,4.671,4.752,5.281,4.711,4.711,2.198,6.282,5.083,1.570,0.000,0.000,7.776,2.883,0.990,4.828,4.673,4.751,
26.000,30.875,7.507,2.358,1.686,1.012,6.266,0.000,1.383,1.023,1.123,4.355,0.000,2.196,3.693,1.650,2.312,0.000,3.142,0.000,0.000,0.000,0.000,0.000,0.000,0.000,0.000,0.000,0.000,0.000,3.142,6.282,0.000,1.004,1.569,1.569,4.085,6.281,1.199,4.712,0.000,0.000,7.113,2.905,0.990,4.828,4.671,4.752,5.281,4.711,4.711,2.198,6.282,5.083,1.570,0.000,0.000,7.764,2.981,0.990,4.829,4.673,4.751,
26.100,30.975,7.494,2.477,1.687,1.012,6.267,0.000,1.362,1.009,1.108,4.488,0.000,2.215,3.706,1.665,2.228,0.000,3.142,0.000,0.000,0.000,0.000,0.000,0.000,0.000,0.000,0.000,0.000,0.000,3.142,6.282,0.000,1.004,1.569,1.569,4.085,6.281,1.199,4.712,0.000,0.000,7.099,3.024,0.990,4.829,4.672,4.752,5.281,4.711,4.711,2.198,6.282,5.083,1.570,0.000,0.000,7.750,3.100,0.990,4.829,4.673,4.751,
26.200,31.075,7.484,2.556,1.687,1.012,6.266,0.000,3.945,0.999,1.098,4.576,0.000,2.228,3.716,1.676,3.173,0.000,3.142,0.000,0.000,0.000,0.000,0.000,0.000,0.000,0.000,0.000,0.000,0.000,3.142,6.282,0.000,1.004,1.569,1.569,4.085,6.281,1.199,4.712,0.000,0.000,7.089,3.103,0.990,4.829,4.672,4.752,5.281,4.711,4.711,2.198,6.282,5.083,1.570,0.000,0.000,7.741,3.179,0.990,4.829,4.673,4.751,
26.300,31.175,7.473,2.655,1.687,1.012,6.267,0.000,3.809,0.988,1.085,4.687,0.000,2.244,4.056,1.689,3.199,0.000,3.142,0.000,0.000,0.000,0.000,0.000,0.000,0.000,0.000,0.000,0.000,0.000,3.142,6.282,0.000,1.004,1.569,1.569,4.085,6.281,1.199,4.712,0.000,0.000,7.078,3.202,0.990,4.829,4.672,4.752,5.281,4.711,4.711,2.198,6.282,5.083,1.570,0.000,0.000,7.729,3.278,0.990,4.830,4.673,4.751,
26.396,31.272,7.461,2.754,1.688,1.012,6.266,0.000,3.673,0.976,1.072,4.797,0.000,2.261,4.586,1.702,3.225,0.000,3.142,0.000,0.000,0.000,0.000,0.000,0.000,0.000,0.000,0.000,0.000,0.000,3.142,6.282,0.000,1.004,1.569,1.569,4.085,6.281,1.199,4.712,0.000,0.000,7.066,3.300,0.990,4.830,4.672,4.752,5.281,4.711,4.711,2.198,6.282,5.083,1.570,0.000,0.000,7.717,3.377,0.990,4.830,4.673,4.751,
26.480,31.355,7.447,2.872,1.688,1.012,6.266,0.000,3.510,0.961,1.057,2.054,0.000,2.280,1.530,1.718,3.257,0.000,3.142,0.000,0.000,0.000,0.000,0.000,0.000,0.000,0.000,0.000,0.000,0.000,3.142,6.282,0.000,1.004,1.569,1.569,4.085,6.281,1.199,4.712,0.000,0.000,7.052,3.419,0.990,4.830,4.672,4.752,5.281,4.711,4.711,2.198,6.282,5.083,1.570,0.000,0.000,7.703,3.496,0.990,4.830,4.673,4.750,
26.600,31.475,7.436,2.971,1.688,1.012,6.266,0.000,2.823,0.950,1.044,2.030,0.000,2.223,1.143,1.731,3.284,0.000,3.142,3.030,0.000,0.000,0.000,0.000,0.000,0.000,0.000,0.000,0.000,0.000,3.142,6.282,0.000,1.004,1.569,1.569,4.085,6.281,1.199,4.712,0.000,0.000,7.040,3.518,0.990,4.831,4.672,4.751,5.281,4.711,4.711,2.198,6.282,5.083,1.570,0.000,0.000,7.691,3.595,0.990,4.831,4.674,4.750,
26.700,31.575,7.426,3.050,1.689,1.012,6.265,0.000,2.595,0.940,1.034,2.011,0.000,2.236,1.602,1.742,3.305,0.000,3.142,2.782,0.000,0.000,0.000,0.000,0.000,0.000,0.000,0.000,0.000,0.000,3.142,6.282,0.000,1.004,1.569,1.569,4.085,6.281,1.199,4.712,0.000,0.000,7.030,3.596,0.990,4.831,4.672,4.751,5.281,4.711,4.711,2.198,6.282,5.083,1.570,0.000,0.000,7.682,3.674,0.990,4.831,4.674,4.750,
26.795,31.670,7.415,3.149,1.674,1.012,5.713,0.000,2.191,0.931,1.013,1.929,0.000,2.291,1.619,1.742,3.239,0.000,3.142,2.519,0.000,0.000,0.000,0.000,0.000,0.000,0.000,0.000,0.000,0.000,3.142,6.281,0.001,1.004,1.568,1.566,4.084,6.281,1.199,4.712,0.000,0.000,7.025,3.701,0.990,4.820,4.671,4.752,5.281,4.710,4.708,2.197,6.282,5.083,1.570,0.000,0.000,7.677,3.769,0.990,4.819,4.663,4.760,
26.881,31.756,7.405,3.268,1.562,1.011,5.124,0.000,1.545,3.895,0.958,1.591,0.000,2.733,1.678,1.678,2.734,0.000,3.142,2.350,0.000,0.000,0.000,0.000,0.000,0.000,0.000,0.000,0.000,0.000,3.142,6.280,0.001,1.004,1.569,1.567,4.085,6.281,1.199,4.712,0.000,0.000,7.080,3.860,0.990,4.721,2.213,0.928,5.282,4.711,4.710,2.197,6.282,5.083,1.570,0.000,0.000,7.737,3.855,0.991,4.721,2.041,1.100,
27.000,31.875,7.408,3.368,1.513,1.014,0.022,0.000,1.538,3.099,0.946,1.491,0.000,2.932,1.704,1.651,2.557,0.000,3.142,0.000,0.000,0.000,0.000,0.000,0.000,0.000,0.000,0.000,0.000,0.000,3.142,6.282,0.000,1.004,1.570,1.571,4.085,6.280,1.199,4.712,0.000,0.000,7.115,3.975,0.990,4.773,1.650,1.491,5.282,4.712,4.713,2.198,6.281,5.083,1.571,0.000,0.000,7.770,3.937,0.991,4.773,1.639,1.502,
27.100,31.975,7.412,3.448,1.514,1.011,6.270,0.000,1.633,3.102,0.951,1.501,0.000,2.918,1.699,1.646,2.554,0.000,3.142,0.000,0.000,0.000,0.000,0.000,0.000,0.000,0.000,0.000,0.000,0.000,3.142,6.283,0.000,1.003,1.569,1.569,4.085,6.281,1.199,4.712,0.000,0.000,7.117,4.054,0.990,4.769,1.658,1.483,5.281,4.711,4.711,2.198,6.282,5.083,1.570,0.000,0.000,7.772,4.017,0.990,4.769,1.647,1.494,
27.197,32.072,7.418,3.547,1.515,1.011,6.266,0.000,1.640,3.107,0.957,1.512,0.000,2.903,1.692,1.641,2.548,0.000,3.142,0.000,0.000,0.000,0.000,0.000,0.000,0.000,0.000,0.000,0.000,0.000,3.142,6.283,0.000,1.003,1.569,1.569,4.085,6.281,1.199,4.712,0.000,0.000,7.123,4.153,0.990,4.768,1.659,1.482,5.281,4.711,4.711,2.198,6.282,5.083,1.570,0.000,0.000,7.778,4.117,0.990,4.768,1.648,1.493,
27.283,32.159,7.425,3.666,1.516,1.012,6.260,0.000,1.650,3.113,0.912,1.525,0.000,2.886,1.684,1.635,2.541,0.000,3.142,0.000,0.000,0.000,0.000,0.000,0.000,0.000,0.000,0.000,0.000,0.000,3.142,6.283,0.000,1.003,1.569,1.569,4.085,6.281,1.199,4.712,0.000,0.000,7.128,4.272,0.990,4.767,1.660,1.481,5.281,4.711,4.711,2.198,6.282,5.083,1.570,0.000,0.000,7.783,4.237,0.990,4.767,1.651,1.490,
27.400,32.275,7.430,3.766,1.517,1.012,6.262,0.000,1.657,3.117,1.016,1.536,0.000,2.782,1.678,1.630,2.535,0.000,3.142,0.000,0.000,0.000,0.000,0.000,0.000,0.000,0.000,0.000,0.000,0.000,3.142,6.283,0.000,1.003,1.569,1.569,4.085,6.281,1.199,4.712,0.000,0.000,7.133,4.371,0.990,4.766,1.661,1.480,5.281,4.711,4.711,2.198,6.282,5.083,1.570,0.000,0.000,7.788,4.336,0.990,4.766,1.653,1.488,
27.498,32.373,7.434,3.845,1.518,1.012,6.262,0.000,1.663,3.121,0.000,1.544,0.000,2.810,1.673,1.625,2.530,0.000,3.142,0.000,0.000,0.000,0.000,0.000,0.000,0.000,0.000,0.000,0.000,0.000,3.142,6.283,0.000,1.004,1.569,1.569,4.085,6.281,1.199,4.712,0.000,0.000,7.137,4.451,0.990,4.766,1.662,1.479,5.281,4.711,4.711,2.198,6.282,5.083,1.570,0.000,0.000,7.792,4.416,0.990,4.765,1.654,1.487,
27.583,32.459,7.440,3.964,1.519,1.011,6.263,0.000,1.673,3.127,3.502,1.556,0.000,2.954,1.666,1.619,2.522,0.000,3.142,0.000,0.000,0.000,0.000,0.000,0.000,0.000,0.000,0.000,0.000,0.000,3.142,6.282,0.000,1.004,1.569,1.569,4.085,6.281,1.199,4.712,0.000,0.000,7.143,4.570,0.990,4.765,1.663,1.478,5.281,4.711,4.711,2.198,6.282,5.083,1.570,0.000,0.000,7.798,4.536,0.990,4.765,1.656,1.485,
27.700,32.575,7.446,4.064,1.507,1.012,5.793,4.942,0.000,3.146,2.948,1.541,0.000,3.050,1.668,1.609,2.477,0.000,3.142,0.000,1.035,0.000,0.000,0.000,0.000,0.000,0.000,0.000,0.000,0.000,3.142,6.281,0.001,1.004,1.568,1.566,4.084,6.281,1.199,4.712,0.000,0.000,7.153,4.672,0.990,4.773,1.644,1.497,5.281,4.710,4.709,2.197,6.282,5.083,1.570,0.000,0.000,7.808,4.631,0.990,4.773,1.658,1.483,
27.800,32.675,7.451,4.143,1.449,1.013,5.291,4.883,0.000,0.983,2.998,1.445,0.000,3.072,1.703,1.581,2.306,0.000,3.142,0.000,0.840,0.000,0.000,0.000,0.000,0.000,0.000,0.000,0.000,0.000,3.142,6.280,0.001,1.004,1.568,1.567,4.085,6.281,1.199,4.712,0.000,0.000,7.195,4.768,0.990,4.832,1.611,1.529,5.282,4.711,4.709,2.197,6.282,5.083,1.570,0.000,0.000,7.847,4.689,0.990,4.832,1.609,1.532,
27.883,32.758,7.465,4.242,1.395,1.013,6.116,4.818,0.000,1.080,3.071,1.383,0.000,3.486,1.733,1.106,2.160,0.000,3.142,0.000,0.739,0.000,0.000,0.000,0.000,0.000,0.000,0.000,0.000,0.000,3.142,6.282,0.000,1.004,1.570,1.571,4.085,6.281,1.199,4.712,0.000,0.000,7.246,4.880,0.990,4.890,1.598,1.543,5.282,4.712,4.713,2.198,6.281,5.083,1.571,0.000,0.000,7.892,4.765,0.991,4.890,1.594,1.548,
28.000,32.875,7.486,4.360,1.395,1.009,6.262,4.699,0.000,1.103,3.131,1.341,0.000,3.324,1.709,1.531,2.131,0.000,3.142,0.000,0.676,0.000,0.000,0.000,0.000,0.000,0.000,0.000,0.000,0.000,3.142,6.283,0.000,1.004,1.569,1.569,4.085,6.281,1.199,4.712,0.000,0.000,7.265,4.997,0.990,4.888,1.599,1.542,5.281,4.711,4.711,2.198,6.282,5.083,1.570,0.000,0.000,7.911,4.883,0.990,4.888,1.596,1.545,
28.085,32.960,7.500,4.438,1.396,1.011,6.262,4.619,0.000,1.119,3.172,1.362,0.000,3.288,1.693,1.517,2.113,0.000,3.142,0.000,0.651,0.000,0.000,0.000,0.000,0.000,0.000,0.000,0.000,0.000,3.142,6.283,0.000,1.004,1.569,1.569,4.085,6.281,1.199,4.712,0.000,0.000,7.279,5.075,0.990,4.887,1.598,1.543,5.281,4.711,4.711,2.198,6.282,5.083,1.570,0.000,0.000,7.925,4.961,0.990,4.887,1.596,1.545,
28.200,33.075,7.520,4.554,1.396,1.001,6.261,4.501,0.000,1.141,4.151,1.503,0.000,3.412,1.669,1.496,2.085,0.000,3.142,0.000,0.654,0.000,0.000,0.000,0.000,0.000,0.000,0.000,0.000,0.000,3.142,6.282,0.000,1.004,1.571,1.575,4.084,6.278,1.202,4.711,0.005,0.000,7.303,5.190,0.989,4.896,1.606,1.535,5.281,4.711,4.711,2.198,6.282,5.083,1.570,0.000,0.000,7.945,5.078,0.990,4.886,1.597,1.545,
28.300,33.175,7.538,4.653,1.397,1.027,6.264,4.401,0.000,1.160,4.169,1.639,0.000,3.523,1.649,1.479,2.062,0.000,3.142,0.000,0.668,0.000,0.000,0.000,0.000,0.000,0.000,0.000,0.000,0.000,3.142,6.282,0.000,1.004,1.569,1.569,4.085,6.281,1.199,4.712,0.000,0.000,7.316,5.290,0.990,4.886,1.598,1.543,5.281,4.711,4.711,2.198,6.282,5.083,1.570,0.000,0.000,7.962,5.177,0.990,4.886,1.597,1.545,
28.389,33.264,7.552,4.732,1.397,1.020,6.263,4.320,0.000,1.175,1.016,0.000,0.000,2.275,1.633,1.465,2.044,0.000,3.142,0.000,0.654,0.000,0.000,0.000,0.000,0.000,0.000,0.000,0.000,0.000,3.142,6.283,0.000,1.004,1.569,1.569,4.085,6.281,1.199,4.712,0.000,0.000,7.330,5.369,0.990,4.886,1.599,1.542,5.281,4.711,4.711,2.198,6.282,5.083,1.570,0.000,0.000,7.976,5.256,0.990,4.885,1.597,1.545,
28.498,33.373,7.572,4.850,1.398,1.004,6.264,4.201,0.000,1.198,1.075,0.000,0.000,2.307,1.610,1.444,2.016,0.000,3.142,0.000,0.622,0.000,0.000,0.000,0.000,0.000,0.000,0.000,0.000,0.000,3.142,6.282,0.000,1.004,1.570,1.570,4.085,6.279,1.200,4.711,0.006,0.000,7.351,5.486,0.989,4.888,1.605,1.535,5.281,4.711,4.711,2.198,6.282,5.083,1.570,0.000,0.000,7.996,5.374,0.990,4.885,1.597,1.544,
28.600,33.475,7.589,4.947,1.399,1.010,6.264,4.102,4.600,0.000,1.105,0.000,0.000,3.853,1.092,1.427,1.960,0.000,3.142,0.000,0.000,0.608,0.000,0.000,0.000,0.000,0.000,0.000,0.000,0.000,3.142,6.282,0.000,1.004,1.569,1.569,4.085,6.281,1.199,4.712,0.000,0.000,7.366,5.584,0.990,4.884,1.598,1.542,5.281,4.711,4.711,2.198,6.282,5.083,1.570,0.000,0.000,8.013,5.472,0.990,4.884,1.597,1.544,
28.682,33.557,7.603,5.026,1.399,1.016,6.265,4.022,4.626,0.000,1.119,0.000,0.000,3.942,1.119,1.414,1.904,0.000,3.142,0.000,0.000,0.512,0.000,0.000,0.000,0.000,0.000,0.000,0.000,0.000,3.142,6.282,0.000,1.004,1.569,1.569,4.085,6.281,1.199,4.712,0.000,0.000,7.380,5.663,0.990,4.884,1.599,1.542,5.281,4.711,4.711,2.198,6.282,5.083,1.570,0.000,0.000,8.026,5.551,0.990,4.884,1.597,1.544,
28.789,33.664,7.620,5.124,1.400,1.013,6.265,3.922,0.000,0.000,1.136,0.000,0.000,4.053,1.555,1.397,1.423,0.000,3.142,0.000,0.000,0.447,0.000,0.000,0.000,0.000,0.000,0.000,0.000,0.000,3.142,6.282,0.000,1.004,1.569,1.569,4.085,6.281,1.199,4.712,0.000,0.000,7.396,5.761,0.990,4.883,1.599,1.542,5.281,4.711,4.711,2.198,6.282,5.083,1.570,0.000,0.000,8.043,5.649,0.990,4.883,1.597,1.544,
28.884,33.760,7.640,5.242,1.400,1.009,6.265,3.803,0.000,0.000,1.157,0.000,0.000,2.944,1.531,1.376,1.304,0.000,3.142,0.000,0.000,0.427,0.000,0.000,0.000,0.000,0.000,0.000,0.000,0.000,3.142,6.282,0.000,1.004,1.569,1.569,4.085,6.281,1.199,4.712,0.000,0.000,7.416,5.878,0.990,4.883,1.599,1.542,5.281,4.711,4.711,2.198,6.282,5.083,1.570,0.000,0.000,8.063,5.767,0.990,4.883,1.598,1.544,
29.000,33.875,7.654,5.320,1.400,1.011,6.265,3.723,0.000,0.000,0.000,0.000,0.000,2.962,1.516,1.363,4.793,0.000,3.142,0.000,0.000,0.456,0.542,0.000,0.000,0.000,0.000,0.000,0.000,0.000,3.142,6.282,0.000,1.004,1.569,1.569,4.085,6.281,1.199,4.712,0.000,0.000,7.429,5.957,0.990,4.882,1.599,1.542,5.281,4.711,4.711,2.198,6.282,5.083,1.570,0.000,0.000,8.076,5.846,0.990,4.882,1.598,1.544,
29.098,33.973,7.671,5.418,1.401,1.013,6.266,3.624,0.000,0.000,0.000,0.000,0.000,2.983,1.497,1.346,4.652,0.000,3.142,0.000,0.000,0.000,0.498,0.000,0.000,0.000,0.000,0.000,0.000,0.000,3.142,6.282,0.000,1.004,1.569,1.569,4.085,6.281,1.199,4.712,0.000,0.000,7.446,6.055,0.990,4.882,1.599,1.542,5.281,4.711,4.711,2.198,6.282,5.083,1.570,0.000,0.000,8.093,5.944,0.990,4.882,1.598,1.544,
29.182,34.057,7.687,5.517,1.414,1.011,0.553,3.517,0.000,0.000,0.000,0.000,0.000,2.870,1.468,1.331,4.455,0.000,3.142,0.000,0.000,0.000,0.509,0.000,0.000,0.000,0.000,0.000,0.000,0.000,3.142,0.001,0.000,1.003,1.571,1.572,4.086,6.281,1.199,4.712,0.000,0.000,7.456,6.150,0.990,4.872,1.603,1.539,5.281,4.712,4.714,2.199,6.281,5.083,1.571,0.000,0.000,8.104,6.047,0.991,4.872,1.593,1.549,
29.290,34.165,7.701,5.615,1.504,1.010,1.391,3.389,4.045,0.000,0.000,0.000,0.000,2.427,1.396,1.343,4.047,0.000,3.142,0.000,0.000,0.000,0.565,0.000,0.000,0.000,0.000,0.000,0.000,0.000,3.142,0.002,0.000,1.003,1.571,1.571,4.086,6.281,1.199,4.712,0.000,0.000,7.414,6.225,0.990,4.782,1.638,1.503,5.282,4.713,4.714,2.198,6.282,5.083,1.571,0.000,0.000,8.069,6.181,0.991,4.782,1.612,1.529,
29.400,34.275,7.705,5.735,1.594,1.021,0.113,3.268,4.174,0.000,0.000,0.000,0.000,2.126,1.349,1.378,2.235,0.000,3.142,0.000,0.000,0.000,0.682,0.000,0.000,0.000,0.000,0.000,0.000,0.000,3.142,6.283,0.000,1.004,1.568,1.566,4.085,6.282,1.199,4.711,0.000,0.000,7.360,6.316,0.990,4.741,4.543,4.880,5.281,4.710,4.709,2.198,6.283,5.083,1.570,0.000,0.000,8.016,6.332,0.990,4.740,4.555,4.868,
29.500,34.375,7.702,5.835,1.594,1.013,6.275,3.167,4.045,0.000,1.287,0.000,0.000,2.131,1.352,0.914,2.328,0.000,3.142,0.000,0.000,0.000,0.000,0.000,0.000,0.000,0.000,0.000,0.000,0.000,3.142,6.282,0.000,1.004,1.569,1.569,4.084,6.281,1.199,4.712,0.000,0.000,7.360,6.416,0.990,4.736,4.520,4.904,5.281,4.711,4.711,2.197,6.282,5.083,1.570,0.000,0.000,8.016,6.432,0.990,4.737,4.509,4.915,
29.600,34.475,7.701,5.915,1.593,1.007,6.275,3.088,3.943,0.000,1.285,0.000,0.000,2.135,1.354,1.329,2.330,0.000,3.142,0.000,0.000,0.000,0.000,0.972,0.000,0.000,0.000,0.000,0.000,0.000,3.142,6.282,0.000,1.004,1.569,1.569,4.084,6.281,1.199,4.712,0.000,0.000,7.358,6.496,0.990,4.736,4.519,4.905,5.281,4.711,4.711,2.197,6.282,5.083,1.570,0.000,0.000,8.014,6.511,0.990,4.737,4.510,4.914,
29.685,34.560,7.698,6.014,1.593,1.010,6.273,2.989,3.751,0.000,1.441,0.000,0.000,2.139,1.356,1.331,2.333,0.000,3.142,0.000,0.000,0.000,0.000,1.006,0.000,0.000,0.000,0.000,0.000,0.000,3.142,6.282,0.000,1.004,1.569,1.569,4.084,6.281,1.199,4.712,0.000,0.000,7.356,6.595,0.990,4.736,4.518,4.906,5.281,4.711,4.711,2.197,6.282,5.083,1.570,0.000,0.000,8.012,6.610,0.990,4.736,4.510,4.914,
29.800,34.675,7.696,6.133,1.593,1.014,6.272,2.869,3.598,0.000,1.777,0.000,0.000,2.144,1.359,0.000,2.337,0.000,3.142,0.000,0.000,0.000,0.000,1.186,0.000,0.000,0.000,0.000,0.000,0.000,3.142,6.282,0.000,1.004,1.569,1.569,4.085,6.281,1.199,4.712,0.000,0.000,7.353,6.715,0.990,4.736,4.513,4.910,5.281,4.711,4.711,2.197,6.282,5.083,1.570,0.000,0.000,8.009,6.730,0.990,4.736,4.509,4.915,
29.900,34.775,7.693,6.233,1.593,1.012,6.271,2.769,3.563,0.000,2.056,0.000,0.000,2.148,1.362,0.000,2.341,0.000,3.142,0.000,0.000,0.000,0.000,1.396,0.000,0.000,0.000,0.000,0.000,0.000,3.142,6.282,0.000,1.004,1.569,1.569,4.085,6.281,1.199,4.712,0.000,0.000,7.351,6.814,0.990,4.736,4.511,4.913,5.281,4.711,4.711,2.198,6.282,5.083,1.570,0.000,0.000,8.007,6.830,0.990,4.736,4.510,4.914,
30.000,34.875,7.692,6.313,1.596,1.010,0.223,2.690,3.545,0.000,2.260,0.000,0.000,2.141,1.362,0.000,2.356,0.000,3.142,0.000,0.000,0.000,0.000,1.671,0.000,0.000,0.000,0.000,0.000,0.000,3.142,0.000,0.000,1.003,1.570,1.571,4.086,6.281,1.199,4.712,0.000,0.000,7.349,6.893,0.990,4.737,4.504,4.920,5.281,4.712,4.713,2.199,6.282,5.083,1.570,0.000,0.000,8.005,6.910,0.991,4.737,4.554,4.870,
30.100,34.975,7.688,6.412,1.658,1.011,1.219,2.602,3.426,0.000,2.190,0.000,0.000,1.992,0.923,0.000,2.608,0.000,3.142,0.000,0.000,0.000,0.000,1.901,0.000,0.000,0.000,0.000,0.000,0.000,3.142,0.001,0.000,1.003,1.571,1.572,4.086,6.281,1.199,4.712,0.000,0.000,7.311,6.971,0.990,4.796,4.654,4.770,5.282,4.713,4.714,2.199,6.282,5.083,1.571,0.000,0.000,7.965,7.027,0.991,4.796,4.677,4.747,
30.191,35.066,7.676,6.511,1.777,1.014,1.125,2.552,3.794,0.000,1.940,0.000,0.000,1.781,1.280,4.293,2.712,0.000,3.142,0.000,0.000,0.000,0.000,1.969,0.000,0.000,0.000,0.000,0.000,0.000,3.142,0.001,0.000,1.003,1.570,1.568,4.085,6.282,1.199,4.712,0.000,0.000,7.234,7.020,0.990,4.920,4.691,4.732,5.282,4.712,4.711,2.198,6.283,5.083,1.570,0.000,0.000,7.876,7.155,0.991,4.919,4.695,4.728,
30.284,35.159,7.649,6.629,1.821,1.019,0.224,2.459,3.813,0.000,2.021,0.000,0.000,1.749,0.000,1.646,2.538,0.000,3.142,0.000,0.000,0.000,0.000,2.241,0.000,0.000,0.000,0.000,0.000,0.000,3.142,0.000,0.000,1.003,1.569,1.569,4.086,6.281,1.199,4.712,0.000,0.000,7.185,7.118,0.990,4.963,4.692,4.731,5.281,4.711,4.711,2.198,6.282,5.083,1.570,0.000,0.000,7.821,7.280,0.991,4.963,4.697,4.727,
30.400,35.275,7.624,6.725,1.867,1.007,0.981,2.392,3.606,0.000,2.055,0.000,0.000,1.719,0.000,1.692,2.395,0.000,3.142,0.000,0.000,0.000,0.000,2.432,0.000,0.000,0.000,0.000,0.000,0.000,3.142,0.001,0.000,1.003,1.571,1.572,4.086,6.281,1.199,4.712,0.000,0.000,7.139,7.193,0.990,5.006,4.695,4.729,5.281,4.713,4.714,2.199,6.282,5.083,1.571,0.000,0.000,7.767,7.384,0.991,5.006,4.701,4.723,
30.500,35.375,7.600,6.800,1.953,1.008,1.359,2.388,3.379,0.000,1.962,0.000,2.569,1.133,0.000,1.842,2.260,0.000,3.036,0.000,0.000,0.000,0.000,2.604,0.000,0.000,0.000,0.000,0.000,0.000,3.142,0.001,0.000,1.003,1.571,1.571,4.085,6.282,1.199,4.712,0.000,0.000,7.076,7.225,0.990,5.094,4.700,4.723,5.282,4.713,4.713,2.198,6.282,5.083,1.571,0.000,0.000,7.685,7.470,0.991,5.093,4.704,4.719,
30.599,35.475,7.560,6.892,2.065,1.017,1.097,0.000,3.757,4.861,1.876,0.000,3.039,1.596,0.000,2.107,2.124,0.000,2.931,0.000,0.000,0.000,0.000,0.000,0.000,0.000,0.000,0.000,0.000,0.000,3.142,0.001,0.000,1.003,1.570,1.569,4.085,6.282,1.199,4.712,0.000,0.000,6.991,7.255,0.990,5.207,4.703,4.719,5.282,4.712,4.712,2.198,6.283,5.083,1.570,0.000,0.000,7.569,7.566,0.991,5.206,4.705,4.718,
30.700,35.575,7.500,6.996,2.159,1.019,0.852,0.000,4.128,0.000,1.865,0.000,2.702,1.544,0.000,2.285,2.004,0.000,2.861,0.000,0.000,0.000,0.000,0.000,0.000,0.000,0.000,0.000,0.000,0.000,3.142,0.001,0.000,1.003,1.570,1.570,4.086,6.281,1.199,4.712,0.000,0.000,6.899,7.304,0.990,5.301,4.704,4.719,5.282,4.712,4.712,2.198,6.282,5.083,1.570,0.000,0.000,7.445,7.668,0.991,5.301,4.706,4.717,
30.800,35.675,7.454,7.062,2.222,1.012,0.980,0.000,4.002,4.418,1.865,0.000,2.551,4.182,1.589,2.340,1.939,0.000,2.791,0.000,0.000,0.000,0.000,0.000,0.000,0.000,0.000,0.000,0.000,0.000,3.142,0.001,0.000,1.003,1.570,1.570,4.086,6.281,1.199,4.712,0.000,0.000,6.836,7.332,0.990,5.362,4.704,4.718,5.282,4.712,4.713,2.198,6.282,5.083,1.570,0.000,0.000,7.358,7.730,0.991,5.362,4.707,4.716,
30.889,35.764,7.392,7.140,2.312,1.010,1.068,0.000,4.802,1.992,1.906,0.000,2.381,0.000,1.772,2.125,1.875,0.000,2.720,0.000,0.000,0.000,0.000,0.000,0.000,0.000,0.000,0.000,0.000,0.000,3.142,0.001,0.000,1.003,1.570,1.570,4.085,6.282,1.199,4.712,0.000,0.000,6.752,7.353,0.990,5.453,4.706,4.717,5.282,4.712,4.712,2.198,6.282,5.083,1.570,0.000,0.000,7.236,7.796,0.991,5.453,4.708,4.715,
30.993,35.869,7.309,7.225,2.420,1.015,1.006,2.742,0.000,1.741,2.184,0.000,2.253,0.000,1.975,1.924,1.825,0.000,2.615,0.000,0.000,0.000,0.000,0.000,0.000,0.000,0.000,0.000,0.000,0.000,3.142,0.001,0.000,1.003,1.570,1.570,4.085,6.282,1.199,4.712,0.000,0.000,6.649,7.368,0.990,5.562,4.706,4.715,5.282,4.712,4.712,2.198,6.282,5.083,1.570,0.000,0.000,7.083,7.861,0.991,5.561,4.708,4.715,
31.100,35.975,7.232,7.290,2.506,1.016,0.999,2.952,4.999,2.974,2.532,0.000,2.197,0.000,2.185,1.796,1.786,0.000,2.545,0.000,0.000,0.000,0.000,0.000,0.000,0.000,0.000,0.000,0.000,0.000,3.142,0.001,0.000,1.003,1.570,1.570,4.085,6.281,1.199,4.712,0.000,0.000,6.563,7.375,0.990,5.647,4.706,4.715,5.282,4.712,4.712,2.198,6.282,5.083,1.570,0.000,0.000,6.952,7.903,0.991,5.647,4.708,4.714,
31.200,36.075,7.167,7.336,2.575,1.014,1.014,2.891,0.000,2.801,2.776,4.623,2.172,0.000,2.287,1.713,0.000,0.000,2.510,0.000,0.000,0.000,0.000,0.000,0.000,0.000,0.000,0.000,0.000,0.000,3.142,0.001,0.000,1.003,1.570,1.570,4.086,6.281,1.199,4.712,0.000,0.000,6.493,7.375,0.990,5.717,4.707,4.714,5.282,4.712,4.712,2.198,6.282,5.083,1.570,0.000,0.000,6.846,7.929,0.991,5.716,4.708,4.714,
31.300,36.175,7.081,7.388,2.659,1.013,0.779,2.664,0.000,2.635,3.950,3.264,2.110,1.940,2.290,1.632,4.622,0.000,2.440,0.000,0.000,0.000,0.000,0.000,0.000,0.000,0.000,0.000,0.000,0.000,3.142,0.001,0.000,1.004,1.569,1.569,4.085,6.282,1.199,4.712,0.000,0.000,6.407,7.370,0.990,5.802,4.707,4.714,5.282,4.712,4.711,2.198,6.282,5.083,1.570,0.000,0.000,6.711,7.951,0.991,5.801,4.708,4.713,
31.391,36.267,6.975,7.442,2.683,1.011,6.273,2.516,0.000,2.650,3.993,4.109,2.203,2.056,2.161,1.572,4.620,0.000,2.440,0.000,0.000,0.000,0.000,0.000,0.000,0.000,0.000,0.000,0.000,0.000,3.142,6.282,0.000,1.004,1.569,1.569,4.085,6.281,1.199,4.712,0.000,0.000,6.301,7.408,0.990,5.825,4.707,4.714,5.281,4.711,4.711,2.198,6.282,5.083,1.570,0.000,0.000,6.591,7.996,0.990,5.825,4.707,4.714,
31.496,36.372,6.886,7.486,2.683,1.010,6.269,2.417,0.000,1.612,2.892,3.420,2.302,2.146,2.100,1.528,4.570,0.000,2.440,0.000,0.000,0.000,0.000,0.000,0.000,0.000,0.000,0.000,0.000,0.000,3.142,6.282,0.000,1.004,1.569,1.569,4.085,6.281,1.199,4.712,0.000,0.000,6.212,7.452,0.990,5.825,4.707,4.714,5.281,4.711,4.711,2.198,6.282,5.083,1.570,0.000,0.000,6.502,8.040,0.990,5.825,4.707,4.714,
31.600,36.475,6.796,7.530,2.687,1.012,0.256,2.314,0.000,2.760,2.644,3.550,2.397,2.239,2.031,1.482,4.529,0.000,2.475,0.000,0.000,0.000,0.000,0.000,0.000,0.000,0.000,0.000,0.000,0.000,3.142,0.000,0.000,1.003,1.570,1.571,4.086,6.281,1.199,4.712,0.000,0.000,6.123,7.494,0.990,5.827,4.707,4.714,5.281,4.712,4.713,2.199,6.282,5.083,1.570,0.000,0.000,6.411,8.084,0.991,5.827,4.708,4.714,
31.700,36.575,6.725,7.565,2.732,1.012,1.075,2.315,0.000,2.699,2.903,4.256,4.240,2.332,1.905,1.441,4.607,0.000,2.440,0.000,0.000,0.000,0.000,0.000,0.000,0.000,0.000,0.000,0.000,0.000,3.142,0.001,0.000,1.003,1.571,1.572,4.086,6.281,1.199,4.712,0.000,0.000,6.054,7.500,0.990,5.870,4.707,4.714,5.282,4.713,4.714,2.199,6.281,5.083,1.571,0.000,0.000,6.316,8.102,0.991,5.870,4.709,4.714,
31.790,36.666,6.613,7.608,2.875,1.014,1.348,3.111,4.110,1.535,0.000,3.673,0.000,2.555,1.657,1.344,1.786,0.000,3.142,0.000,0.000,0.000,0.000,0.000,0.000,0.000,0.000,0.000,0.000,0.000,3.142,0.001,0.000,1.003,1.570,1.569,4.085,6.282,1.199,4.712,0.000,0.000,5.958,7.446,0.990,6.017,4.708,4.713,5.282,4.713,4.712,2.198,6.283,5.083,1.570,0.000,0.000,6.131,8.080,0.991,6.016,4.709,4.713,
31.900,36.775,6.516,7.632,2.971,1.022,0.881,2.952,4.186,2.118,0.000,3.452,0.000,2.636,1.541,0.000,1.936,0.000,3.142,0.000,0.000,0.000,0.000,0.000,0.000,0.000,0.000,0.000,0.000,0.000,3.142,0.001,0.000,1.003,1.570,1.569,4.085,6.282,1.199,4.712,0.000,0.000,5.879,7.408,0.990,6.114,4.708,4.712,5.282,4.712,4.711,2.198,6.283,5.083,1.570,0.000,0.000,5.990,8.055,0.991,6.113,4.709,4.712,
32.000,36.875,6.436,7.645,3.027,1.017,0.823,3.667,4.208,2.333,0.000,3.385,0.000,2.741,1.486,0.000,2.035,0.000,3.142,0.000,0.000,0.000,0.000,0.000,0.000,0.000,0.000,0.000,0.000,0.000,3.142,0.001,0.000,1.003,1.570,1.570,4.086,6.281,1.199,4.712,0.000,0.000,5.813,7.386,0.990,6.168,4.707,4.712,5.282,4.712,4.712,2.198,6.282,5.083,1.570,0.000,0.000,5.888,8.038,0.991,6.168,4.709,4.712,
32.094,36.969,6.317,7.655,3.125,1.008,1.063,0.000,3.646,2.260,0.000,3.282,2.633,2.332,1.419,4.350,2.003,0.000,3.106,0.000,0.000,0.000,0.000,0.000,0.000,0.000,0.000,0.000,0.000,0.000,3.142,0.001,0.000,1.003,1.570,1.570,4.086,6.282,1.199,4.712,0.000,0.000,5.722,7.337,0.990,6.265,4.708,4.712,5.282,4.712,4.713,2.198,6.282,5.083,1.571,0.000,0.000,5.734,7.993,0.991,6.265,4.709,4.712,
32.200,37.075,6.218,7.654,3.219,1.011,1.082,0.000,3.243,1.964,0.000,3.205,2.791,2.067,1.331,4.179,1.767,0.000,3.001,0.000,0.000,0.000,0.000,0.000,0.000,0.000,0.000,0.000,0.000,0.000,3.142,0.001,0.000,1.003,1.570,1.570,4.085,6.281,1.199,4.712,0.000,0.000,5.656,7.281,0.990,0.077,4.708,4.711,5.282,4.712,4.712,2.198,6.282,5.083,1.570,0.000,0.000,5.605,7.936,0.991,0.076,4.709,4.711,
32.299,37.175,6.118,7.644,3.288,1.017,0.373,0.000,3.003,2.167,0.000,3.201,2.913,1.932,4.855,1.465,1.785,0.000,2.931,0.000,0.000,0.000,0.000,0.000,0.000,0.000,0.000,0.000,0.000,0.000,3.142,6.283,0.000,1.004,1.569,1.567,4.085,6.282,1.199,4.712,0.000,0.000,5.584,7.232,0.990,0.149,4.708,4.710,5.281,4.711,4.710,2.198,6.283,5.083,1.570,0.000,0.000,5.488,7.881,0.991,0.149,4.708,4.710,
32.400,37.275,6.020,7.630,3.292,1.012,6.270,0.000,2.970,1.338,0.000,3.305,3.014,1.945,4.822,1.485,1.832,0.000,2.931,0.000,0.000,0.000,0.000,0.000,0.000,0.000,0.000,0.000,0.000,0.000,3.142,6.282,0.000,1.004,1.569,1.569,4.085,6.281,1.199,4.712,0.000,0.000,5.486,7.216,0.990,0.150,4.708,4.711,5.281,4.711,4.711,2.197,6.282,5.083,1.570,0.000,0.000,5.388,7.865,0.990,0.150,4.708,4.711,
32.500,37.375,5.921,7.615,3.292,1.008,6.269,0.000,2.950,2.135,0.000,3.414,3.114,1.966,4.799,1.558,1.866,0.000,2.931,0.000,0.000,0.000,0.000,0.000,0.000,0.000,0.000,0.000,0.000,0.000,3.142,6.282,0.000,1.004,1.569,1.569,4.085,6.281,1.199,4.712,0.000,0.000,5.388,7.201,0.990,0.151,4.708,4.711,5.281,4.711,4.711,2.198,6.282,5.083,1.570,0.000,0.000,5.290,7.850,0.990,0.151,4.708,4.711,
32.600,37.475,5.843,7.603,3.292,1.011,6.269,0.000,2.933,1.887,0.000,3.500,3.193,1.983,4.781,1.571,1.892,0.000,2.931,0.000,0.000,0.000,0.000,0.000,0.000,0.000,0.000,0.000,0.000,0.000,3.142,6.282,0.000,1.004,1.569,1.569,4.085,6.281,1.199,4.712,0.000,0.000,5.310,7.189,0.990,0.151,4.708,4.711,5.281,4.711,4.711,2.198,6.282,5.083,1.570,0.000,0.000,5.211,7.838,0.990,0.151,4.708,4.711,
32.700,37.575,5.725,7.585,3.293,1.013,0.098,0.000,2.903,1.293,0.000,3.193,3.313,2.005,4.750,1.592,1.938,0.000,2.966,0.000,0.000,0.000,0.000,0.000,0.000,0.000,0.000,0.000,0.000,0.000,3.142,6.283,0.000,1.003,1.570,1.570,4.086,6.281,1.199,4.712,0.000,0.000,5.192,7.172,0.990,0.151,4.707,4.711,5.281,4.712,4.712,2.199,6.282,5.083,1.570,0.000,0.000,5.093,7.820,0.990,0.151,4.708,4.711,
32.796,37.671,5.626,7.569,3.341,1.011,1.080,0.000,2.758,2.078,0.000,3.659,3.442,1.937,0.000,1.652,2.217,0.000,2.896,0.000,0.000,0.000,0.000,0.000,0.000,0.000,0.000,0.000,0.000,0.000,3.142,0.001,0.000,1.003,1.571,1.572,4.086,6.281,1.199,4.712,0.000,0.000,5.113,7.133,0.990,0.196,4.707,4.711,5.282,4.713,4.714,2.199,6.282,5.083,1.571,0.000,0.000,4.984,7.776,0.991,0.196,4.709,4.712,
32.900,37.775,5.529,7.547,3.460,1.011,1.414,0.000,2.486,1.243,0.000,0.000,3.654,1.725,0.000,1.383,2.019,0.000,2.791,0.000,0.000,0.000,0.000,0.000,0.000,0.000,0.000,0.000,0.000,0.000,3.142,0.001,0.000,1.003,1.570,1.570,4.085,6.282,1.199,4.712,0.000,0.000,5.072,7.051,0.990,0.318,4.708,4.710,5.282,4.713,4.713,2.198,6.282,5.083,1.571,0.000,0.000,4.867,7.675,0.991,0.317,4.709,4.711,
33.000,37.875,5.435,7.513,3.554,1.022,0.532,3.267,2.305,1.218,0.000,0.000,3.707,4.612,1.495,1.266,2.409,0.000,2.720,0.000,0.000,0.000,0.000,0.000,0.000,0.000,0.000,0.000,0.000,0.000,3.142,0.000,0.000,1.004,1.569,1.567,4.085,6.282,1.199,4.712,0.000,0.000,5.028,6.974,0.990,0.417,4.708,4.709,5.282,4.711,4.709,2.198,6.283,5.083,1.570,0.000,0.000,4.764,7.575,0.991,0.416,4.708,4.709,
33.100,37.975,5.362,7.480,3.561,1.018,6.270,3.145,2.259,1.761,0.000,0.000,3.732,4.632,1.529,1.318,2.682,0.000,2.720,0.000,0.000,0.000,0.000,0.000,0.000,0.000,0.000,0.000,0.000,0.000,3.142,6.282,0.000,1.004,1.569,1.568,4.084,6.281,1.199,4.712,0.000,0.000,4.958,6.940,0.990,0.420,4.707,4.709,5.281,4.711,4.711,2.197,6.282,5.083,1.570,0.000,0.000,4.690,7.539,0.990,0.421,4.707,4.710,
33.200,38.075,5.253,7.432,3.561,1.006,6.273,3.032,2.204,1.948,0.000,0.000,3.855,4.689,1.578,1.383,2.927,0.000,2.720,0.000,0.000,0.000,0.000,0.000,0.000,0.000,0.000,0.000,0.000,0.000,3.142,6.282,0.000,1.004,1.569,1.569,4.084,6.281,1.199,4.712,0.000,0.000,4.849,6.892,0.990,0.420,4.707,4.709,5.281,4.711,4.711,2.197,6.282,5.083,1.570,0.000,0.000,4.581,7.491,0.990,0.420,4.707,4.710,
33.299,38.174,5.162,7.392,3.560,1.010,6.272,2.938,2.159,1.908,0.000,0.000,3.956,4.736,1.618,1.438,3.131,0.000,2.755,0.000,0.000,0.000,0.000,0.000,0.000,0.000,0.000,0.000,0.000,0.000,3.142,6.282,0.000,1.004,1.569,1.569,4.084,6.281,1.199,4.712,0.000,0.000,4.758,6.852,0.990,0.420,4.707,4.709,5.281,4.711,4.711,2.197,6.282,5.083,1.570,0.000,0.000,4.491,7.451,0.990,0.420,4.707,4.710,
33.400,38.275,5.071,7.351,3.560,1.015,6.271,2.843,2.113,1.867,0.000,0.000,4.056,4.783,1.659,1.493,3.338,0.000,2.755,0.000,0.000,0.000,0.000,0.000,0.000,0.000,0.000,0.000,0.000,0.000,3.142,6.282,0.000,1.004,1.569,1.569,4.085,6.281,1.199,4.712,0.000,0.000,4.667,6.811,0.990,0.419,4.707,4.709,5.281,4.711,4.711,2.197,6.282,5.083,1.570,0.000,0.000,4.400,7.410,0.990,0.419,4.707,4.710,
33.500,38.375,4.980,7.311,3.560,1.012,6.270,2.747,2.066,1.826,0.000,0.000,4.156,4.829,1.700,1.548,3.546,0.000,2.755,0.000,0.000,0.000,0.000,0.000,0.000,0.000,0.000,0.000,0.000,0.000,3.142,6.282,0.000,1.004,1.569,1.569,4.085,6.281,1.199,4.712,0.000,0.000,4.576,6.771,0.990,0.419,4.707,4.709,5.281,4.711,4.711,2.198,6.282,5.083,1.570,0.000,0.000,4.309,7.370,0.990,0.419,4.707,4.710,
