deveshdatwani/Gopher/Assets/Data/07-21 07-01-37/Obstacle Handling_robot_value.csv
game_time,true_time,x,y,az,vx,vaz,dis_to_obs_0,dis_to_obs_36,dis_to_obs_72,dis_to_obs_108,dis_to_obs_144,dis_to_obs_180,dis_to_obs_-144,dis_to_obs_-108,dis_to_obs_-72,dis_to_obs_-36,dis_to_min_obs,direction_to_min_obs,dis_to_human_0,dis_to_human_36,dis_to_human_72,dis_to_human_108,dis_to_human_144,dis_to_human_180,dis_to_human_-144,dis_to_human_-108,dis_to_human_-72,dis_to_human_-36,dis_to_min_human,direction_to_min_human,main_cam_yaw,main_cam_pitch,left_joint_1,left_joint_2,left_joint_3,left_joint_4,left_joint_5,left_joint_6,left_joint_7,left_joint_gripper,left_is_grasping,left_end_x,left_end_y,left_end_z,left_end_ax,left_end_ay,left_end_az,right_joint_1,right_joint_2,right_joint_3,right_joint_4,right_joint_5,right_joint_6,right_joint_7,right_joint_gripper,right_is_grasping,right_end_x,right_end_y,right_end_z,right_end_ax,right_end_ay,right_end_az,
8.780,17.680,0.976,-9.884,1.818,1.008,1.113,3.506,0.000,1.534,1.397,3.392,0.000,2.627,2.027,0.000,3.625,0.000,3.142,0.000,0.000,0.000,0.000,0.000,0.000,0.000,0.000,0.000,0.000,0.000,3.142,0.001,0.000,1.003,1.570,1.569,4.085,6.282,1.199,4.712,0.000,0.000,0.513,-9.393,0.990,4.961,4.694,4.729,5.282,4.712,4.712,2.198,6.283,5.083,1.570,0.000,0.000,1.150,-9.232,0.991,4.960,4.698,4.725,
8.880,17.780,0.950,-9.788,1.897,1.008,0.812,3.493,0.000,1.483,1.446,0.000,4.532,2.506,2.050,4.697,3.429,0.000,3.106,0.000,0.000,0.000,0.000,0.000,0.000,0.000,0.000,0.000,0.000,0.000,3.142,0.001,0.000,1.004,1.570,1.569,4.085,6.281,1.199,4.712,0.000,0.000,0.450,-9.335,0.990,5.039,4.697,4.726,5.282,4.712,4.712,2.198,6.282,5.083,1.570,0.000,0.000,1.071,-9.125,0.991,5.039,4.701,4.722,
8.972,17.871,0.924,-9.713,1.935,1.015,0.288,3.462,0.000,1.480,1.457,0.000,3.598,2.474,1.681,0.000,3.316,0.000,3.071,0.000,0.000,0.000,0.000,0.000,0.000,0.000,0.000,0.000,0.000,0.000,3.142,6.283,0.000,1.004,1.569,1.567,4.085,6.282,1.199,4.712,0.000,0.000,0.406,-9.280,0.990,5.079,4.699,4.724,5.281,4.711,4.710,2.198,6.282,5.083,1.570,0.000,0.000,1.019,-9.046,0.991,5.078,4.701,4.722,
9.080,17.980,0.881,-9.601,1.938,1.012,6.267,3.346,0.000,1.540,1.404,0.000,3.688,2.520,1.724,4.861,3.198,0.000,3.071,0.000,0.000,0.000,0.000,0.000,0.000,0.000,0.000,0.000,0.000,0.000,3.142,6.282,0.000,1.004,1.569,1.569,4.085,6.281,1.199,4.712,0.000,0.000,0.363,-9.169,0.990,5.080,4.699,4.724,5.281,4.711,4.711,2.198,6.282,5.083,1.570,0.000,0.000,0.975,-8.934,0.990,5.080,4.700,4.724,
9.180,18.080,0.845,-9.508,1.938,1.009,6.266,3.246,0.000,1.592,1.358,0.000,3.784,2.562,1.760,4.714,3.102,0.000,3.071,0.000,0.000,0.000,0.000,0.000,0.000,0.000,0.000,0.000,0.000,0.000,3.142,6.282,0.000,1.004,1.569,1.569,4.085,6.281,1.199,4.712,0.000,0.000,0.327,-9.077,0.990,5.080,4.699,4.724,5.281,4.711,4.711,2.198,6.282,5.083,1.570,0.000,0.000,0.939,-8.841,0.990,5.080,4.700,4.724,
9.280,18.180,0.809,-9.416,1.939,1.011,6.266,3.147,0.000,1.645,1.311,0.000,3.880,2.604,1.796,4.566,3.007,0.000,3.071,0.000,0.000,0.000,0.000,0.000,0.000,0.000,0.000,0.000,0.000,0.000,3.142,6.282,0.000,1.004,1.569,1.569,4.085,6.281,1.199,4.712,0.000,0.000,0.291,-8.984,0.990,5.081,4.699,4.724,5.281,4.711,4.711,2.198,6.282,5.083,1.570,0.000,0.000,0.903,-8.748,0.990,5.081,4.700,4.724,
9.368,18.268,0.774,-9.323,1.939,1.013,6.266,3.047,0.000,1.697,1.294,4.230,3.976,2.646,1.832,4.419,2.910,0.000,3.106,0.000,0.000,0.000,0.000,0.000,0.000,0.000,0.000,0.000,0.000,0.000,3.142,6.282,0.000,1.004,1.569,1.569,4.085,6.281,1.199,4.712,0.000,0.000,0.255,-8.892,0.990,5.081,4.699,4.724,5.281,4.711,4.711,2.198,6.282,5.083,1.570,0.000,0.000,0.867,-8.655,0.990,5.081,4.700,4.724,
9.480,18.380,0.738,-9.230,1.939,1.012,6.266,2.947,0.000,1.375,1.335,4.078,4.072,2.688,2.267,4.272,2.814,0.000,3.106,0.000,0.000,0.000,0.000,0.000,0.000,0.000,0.000,0.000,0.000,0.000,3.142,6.282,0.000,1.004,1.569,1.569,4.085,6.281,1.199,4.712,0.000,0.000,0.219,-8.799,0.990,5.081,4.699,4.724,5.281,4.711,4.711,2.198,6.282,5.083,1.570,0.000,0.000,0.830,-8.562,0.990,5.082,4.700,4.724,
9.580,18.480,0.709,-9.156,1.940,1.011,6.266,2.867,0.000,1.301,1.367,3.956,4.148,2.721,2.295,4.154,2.283,0.000,3.106,0.000,0.000,0.000,0.000,0.000,0.000,0.000,0.000,0.000,0.000,0.000,3.142,6.282,0.000,1.004,1.569,1.569,4.085,6.281,1.199,4.712,0.000,0.000,0.190,-8.725,0.990,5.082,4.699,4.724,5.281,4.711,4.711,2.198,6.282,5.083,1.570,0.000,0.000,0.802,-8.488,0.990,5.082,4.700,4.724,
9.680,18.580,0.666,-9.045,1.962,1.010,0.736,2.773,0.000,1.206,1.413,4.166,4.036,2.734,0.000,3.877,2.609,0.000,3.071,0.000,0.000,0.000,0.000,0.000,0.000,0.000,0.000,0.000,0.000,0.000,3.142,0.001,0.000,1.003,1.571,1.572,4.086,6.281,1.199,4.712,0.000,0.000,0.139,-8.624,0.990,5.100,4.699,4.725,5.281,4.712,4.714,2.199,6.281,5.083,1.571,0.000,0.000,0.746,-8.374,0.991,5.100,4.704,4.721,
9.780,18.680,0.634,-8.971,2.039,1.012,1.381,2.299,0.000,1.198,1.441,0.000,4.161,2.654,0.000,3.469,2.498,0.000,3.001,0.000,0.000,0.000,0.000,0.000,0.000,0.000,0.000,0.000,0.000,0.000,3.142,0.002,0.000,1.003,1.571,1.572,4.086,6.281,1.199,4.712,0.000,0.000,0.077,-8.593,0.990,5.178,4.702,4.721,5.282,4.713,4.714,2.198,6.282,5.083,1.571,0.000,0.000,0.662,-8.297,0.991,5.178,4.706,4.718,
9.880,18.780,0.576,-8.867,2.182,1.017,1.123,2.557,0.000,1.222,1.494,0.000,4.227,2.140,0.000,2.941,2.367,0.000,2.861,0.000,0.000,0.000,0.000,0.000,0.000,0.000,0.000,0.000,0.000,0.000,3.142,0.001,0.000,1.003,1.570,1.569,4.085,6.282,1.199,4.712,0.000,0.000,-0.032,-8.573,0.990,5.324,4.705,4.718,5.282,4.712,4.712,2.198,6.283,5.083,1.570,0.000,0.000,0.506,-8.196,0.991,5.323,4.706,4.716,
9.980,18.880,0.529,-8.802,2.237,1.012,0.408,0.000,0.000,1.188,1.524,0.000,4.000,2.153,0.000,2.752,2.305,0.000,2.826,0.000,0.000,0.000,0.000,0.000,0.000,0.000,0.000,0.000,0.000,0.000,3.142,0.000,0.000,1.004,1.569,1.567,4.085,6.282,1.199,4.712,0.000,0.000,-0.095,-8.543,0.990,5.381,4.705,4.717,5.281,4.711,4.710,2.198,6.283,5.083,1.570,0.000,0.000,0.421,-8.137,0.991,5.381,4.706,4.716,
10.080,18.980,0.456,-8.710,2.241,0.982,6.272,4.931,0.000,1.018,1.539,0.000,4.095,2.226,0.000,2.634,2.213,0.000,2.826,0.000,0.000,0.000,0.000,0.000,0.000,0.000,0.000,0.000,0.000,0.000,3.142,6.282,0.000,1.004,1.569,1.569,4.085,6.281,1.199,4.712,0.000,0.000,-0.167,-8.452,0.990,5.383,4.705,4.717,5.281,4.711,4.711,2.197,6.282,5.083,1.570,0.000,0.000,0.346,-8.044,0.990,5.383,4.705,4.718,
10.177,19.077,0.408,-8.649,2.241,0.984,6.271,4.853,0.000,0.902,1.549,0.000,4.172,2.275,0.000,2.562,2.153,0.000,2.826,0.000,0.000,0.000,0.000,0.000,0.000,0.000,0.000,0.000,0.000,0.000,3.142,6.282,0.000,1.004,1.569,1.569,4.085,6.281,1.199,4.712,0.000,0.000,-0.216,-8.392,0.990,5.383,4.705,4.717,5.281,4.711,4.711,2.197,6.282,5.083,1.570,0.000,0.000,0.298,-7.984,0.990,5.384,4.705,4.718,
10.280,19.180,0.335,-8.557,2.241,1.000,6.269,4.734,0.000,0.955,1.562,0.000,4.289,2.351,4.582,2.453,2.061,0.000,2.826,0.000,0.000,0.000,0.000,0.000,0.000,0.000,0.000,0.000,0.000,0.000,3.142,6.282,0.000,1.004,1.569,1.569,4.085,6.281,1.199,4.712,0.000,0.000,-0.288,-8.300,0.990,5.383,4.705,4.717,5.281,4.711,4.711,2.198,6.282,5.083,1.570,0.000,0.000,0.225,-7.892,0.990,5.384,4.705,4.718,
10.380,19.280,0.286,-8.496,2.241,0.999,6.269,4.654,0.000,0.992,1.572,0.000,4.367,2.402,0.000,1.853,1.999,0.000,2.861,0.000,0.000,0.000,0.000,0.000,0.000,0.000,0.000,0.000,0.000,0.000,3.142,6.282,0.000,1.004,1.569,1.569,4.085,6.281,1.199,4.712,0.000,0.000,-0.337,-8.239,0.990,5.383,4.705,4.717,5.281,4.711,4.711,2.198,6.282,5.083,1.570,0.000,0.000,0.176,-7.831,0.990,5.384,4.705,4.718,
10.480,19.380,0.217,-8.408,2.260,0.895,0.681,4.613,0.000,1.029,1.592,0.000,4.376,2.872,0.000,2.247,1.913,0.000,3.036,0.000,0.000,0.000,0.000,0.000,0.000,0.000,0.000,0.000,0.000,0.000,3.142,0.001,0.000,1.002,1.571,1.573,4.087,6.281,1.199,4.712,0.000,0.000,-0.410,-8.160,0.990,5.398,4.704,4.719,5.281,4.713,4.714,2.199,6.281,5.083,1.571,0.000,0.000,0.096,-7.744,0.991,5.398,4.707,4.717,
10.580,19.480,0.172,-8.355,2.334,0.871,1.356,4.506,0.000,1.005,1.633,0.000,4.091,3.690,4.211,2.095,1.876,0.000,2.966,0.000,0.000,0.000,0.000,0.000,0.000,0.000,0.000,0.000,0.000,0.000,3.142,0.002,0.000,1.003,1.571,1.572,4.086,6.281,1.199,4.712,0.000,0.000,-0.472,-8.155,0.990,5.473,4.705,4.717,5.282,4.713,4.714,2.198,6.282,5.083,1.571,0.000,0.000,0.003,-7.702,0.991,5.473,4.708,4.715,
10.680,19.580,0.095,-8.282,2.478,0.930,1.155,3.878,3.346,0.957,1.730,0.000,3.688,0.000,3.157,1.890,1.861,0.000,2.826,0.000,0.000,0.000,0.000,0.000,0.000,0.000,0.000,0.000,0.000,0.000,3.142,0.001,0.000,1.004,1.570,1.569,4.085,6.282,1.199,4.712,0.000,0.000,-0.571,-8.178,0.990,5.621,4.707,4.715,5.282,4.712,4.711,2.198,6.283,5.083,1.570,0.000,0.000,-0.167,-7.661,0.991,5.620,4.708,4.714,
10.780,19.680,0.036,-8.237,2.545,0.943,0.851,0.000,3.291,0.940,1.783,0.000,3.582,0.000,2.807,1.803,1.388,0.000,2.791,1.911,0.000,0.000,0.000,0.000,0.000,0.000,0.000,0.000,0.000,0.000,3.142,0.001,0.000,1.003,1.570,1.569,4.085,6.282,1.199,4.712,0.000,0.000,-0.636,-8.179,0.990,5.688,4.707,4.714,5.282,4.712,4.711,2.198,6.282,5.083,1.570,0.000,0.000,-0.267,-7.635,0.991,5.687,4.708,4.714,
10.880,19.780,-0.053,-8.179,2.584,0.856,0.013,0.000,3.210,0.933,1.800,0.000,3.598,0.000,2.588,1.726,1.498,0.000,2.755,1.777,0.000,0.000,0.000,0.000,0.000,0.000,0.000,0.000,0.000,0.000,3.142,6.283,0.000,1.003,1.569,1.568,4.086,6.281,1.199,4.712,0.000,0.000,-0.727,-8.147,0.990,5.727,4.706,4.714,5.281,4.711,4.710,2.198,6.282,5.083,1.570,0.000,0.000,-0.380,-7.590,0.990,5.727,4.707,4.714,
10.980,19.880,-0.123,-8.136,2.584,0.838,6.268,0.000,3.140,0.936,1.778,0.000,3.680,0.000,1.840,1.681,1.451,0.000,2.791,1.695,0.000,0.000,0.000,0.000,0.000,0.000,0.000,0.000,0.000,0.000,3.142,6.282,0.000,1.004,1.569,1.569,4.085,6.281,1.199,4.712,0.000,0.000,-0.797,-8.103,0.990,5.726,4.707,4.714,5.281,4.711,4.711,2.198,6.282,5.083,1.570,0.000,0.000,-0.450,-7.546,0.990,5.726,4.707,4.715,
11.080,19.980,-0.180,-8.100,2.584,0.872,6.267,0.000,3.083,0.938,1.760,0.000,3.746,0.000,1.800,1.644,1.413,0.000,2.791,1.628,0.000,0.000,0.000,0.000,0.000,0.000,0.000,0.000,0.000,0.000,3.142,6.282,0.000,1.004,1.569,1.569,4.084,6.281,1.199,4.712,0.000,0.000,-0.853,-8.068,0.990,5.727,4.707,4.714,5.281,4.711,4.711,2.198,6.282,5.083,1.570,0.000,0.000,-0.507,-7.511,0.990,5.727,4.707,4.715,
11.180,20.080,-0.268,-8.045,2.585,0.888,6.267,0.000,2.995,0.942,0.937,0.000,3.850,0.000,2.379,1.588,1.353,0.000,2.826,1.524,0.000,0.000,0.000,0.000,0.000,0.000,0.000,0.000,0.000,0.000,3.142,6.282,0.000,1.004,1.569,1.569,4.085,6.281,1.199,4.712,0.000,0.000,-0.942,-8.013,0.990,5.727,4.707,4.714,5.281,4.711,4.711,2.198,6.282,5.083,1.570,0.000,0.000,-0.596,-7.456,0.990,5.727,4.707,4.715,
11.276,20.176,-0.327,-8.009,2.585,0.870,6.267,0.000,2.936,0.944,0.940,0.000,3.919,0.000,2.323,1.550,1.314,0.000,2.826,1.455,0.000,0.000,0.000,0.000,0.000,0.000,0.000,0.000,0.000,0.000,3.142,6.282,0.000,1.004,1.569,1.569,4.085,6.281,1.199,4.712,0.000,0.000,-1.001,-7.976,0.990,5.727,4.707,4.714,5.281,4.711,4.711,2.198,6.282,5.083,1.570,0.000,0.000,-0.654,-7.419,0.990,5.727,4.707,4.715,
11.380,20.280,-0.413,-7.955,2.585,0.863,6.266,0.000,2.849,1.813,0.943,0.000,4.019,0.000,2.239,1.495,1.256,0.000,2.861,1.353,0.000,0.000,0.000,0.000,0.000,0.000,0.000,0.000,0.000,0.000,3.142,6.282,0.000,1.004,1.569,1.569,4.085,6.281,1.199,4.712,0.000,0.000,-1.087,-7.923,0.990,5.727,4.707,4.714,5.281,4.711,4.711,2.198,6.282,5.083,1.570,0.000,0.000,-0.741,-7.366,0.990,5.727,4.707,4.715,
11.480,20.380,-0.486,-7.910,2.586,0.874,6.266,0.000,2.777,1.880,0.946,0.000,4.104,0.000,2.169,1.449,1.207,0.000,2.896,1.268,0.000,0.000,0.000,0.000,0.000,0.000,0.000,0.000,0.000,0.000,3.142,6.282,0.000,1.004,1.569,1.569,4.085,6.281,1.199,4.712,0.000,0.000,-1.159,-7.878,0.990,5.728,4.707,4.714,5.281,4.711,4.711,2.198,6.282,5.083,1.570,0.000,0.000,-0.813,-7.321,0.990,5.728,4.707,4.715,
11.574,20.474,-0.544,-7.874,2.586,0.876,6.266,0.000,2.718,1.934,0.949,0.000,4.172,0.000,2.113,1.411,0.000,0.000,2.896,1.200,0.000,0.000,0.000,0.000,0.000,0.000,0.000,0.000,0.000,0.000,3.142,6.282,0.000,1.004,1.569,1.569,4.085,6.281,1.199,4.712,0.000,0.000,-1.218,-7.842,0.990,5.728,4.707,4.714,5.281,4.711,4.711,2.198,6.282,5.083,1.570,0.000,0.000,-0.872,-7.285,0.990,5.728,4.707,4.715,
11.680,20.580,-0.631,-7.820,2.586,0.870,6.266,0.000,2.987,3.167,0.952,0.000,4.273,0.000,2.028,1.355,0.000,0.000,2.931,1.097,0.000,0.000,0.000,0.000,0.000,0.000,0.000,0.000,0.000,0.000,3.142,6.282,0.000,1.004,1.569,1.569,4.085,6.281,1.199,4.712,0.000,0.000,-1.305,-7.788,0.990,5.728,4.707,4.714,5.281,4.711,4.711,2.198,6.282,5.083,1.570,0.000,0.000,-0.960,-7.231,0.990,5.728,4.707,4.715,
11.780,20.680,-0.689,-7.784,2.587,0.869,6.266,0.000,0.000,3.090,0.955,0.000,4.341,0.000,1.972,0.869,0.000,0.000,2.931,1.030,0.000,0.000,0.000,0.000,0.000,0.000,0.000,0.000,0.000,0.000,3.142,6.282,0.000,1.004,1.569,1.569,4.085,6.281,1.199,4.712,0.000,0.000,-1.363,-7.753,0.990,5.729,4.707,4.714,5.281,4.711,4.711,2.198,6.282,5.083,1.570,0.000,0.000,-1.018,-7.195,0.990,5.729,4.707,4.715,
11.880,20.780,-0.776,-7.730,2.587,0.872,6.266,0.000,0.000,2.975,0.958,0.000,4.442,0.000,1.889,1.263,0.000,0.000,2.966,0.927,0.000,0.000,0.000,0.000,0.000,0.000,0.000,0.000,0.000,0.000,3.142,6.282,0.000,1.004,1.569,1.569,4.085,6.281,1.199,4.712,0.000,0.000,-1.450,-7.699,0.990,5.729,4.707,4.714,5.281,4.711,4.711,2.198,6.282,5.083,1.570,0.000,0.000,-1.105,-7.141,0.990,5.729,4.707,4.715,
11.980,20.880,-0.849,-7.685,2.587,0.872,6.266,0.000,0.000,2.879,0.961,0.000,4.527,0.000,1.819,0.910,3.834,0.000,3.001,0.842,0.000,0.000,0.000,0.000,0.000,0.000,0.000,0.000,0.000,0.000,3.142,6.282,0.000,1.004,1.569,1.569,4.085,6.281,1.199,4.712,0.000,0.000,-1.523,-7.654,0.990,5.729,4.707,4.714,5.281,4.711,4.711,2.198,6.282,5.083,1.570,0.000,0.000,-1.178,-7.096,0.990,5.729,4.707,4.715,
12.073,20.973,-0.907,-7.649,2.588,0.871,6.266,0.000,0.000,2.801,0.963,0.000,4.594,0.000,1.763,0.873,3.683,0.000,3.001,0.773,0.000,0.000,0.000,0.000,0.000,0.000,0.000,0.000,0.000,0.000,3.142,6.282,0.000,1.004,1.569,1.569,4.085,6.281,1.199,4.712,0.000,0.000,-1.581,-7.618,0.990,5.730,4.707,4.714,5.281,4.711,4.711,2.198,6.282,5.083,1.570,0.000,0.000,-1.236,-7.060,0.990,5.730,4.707,4.715,
12.180,21.080,-0.994,-7.595,2.588,0.871,6.266,0.000,0.000,2.686,1.251,0.000,4.696,0.000,1.679,0.818,3.457,0.000,3.036,0.670,0.000,0.000,0.000,0.000,0.000,0.000,0.000,0.000,0.000,0.000,3.142,6.282,0.000,1.004,1.569,1.569,4.085,6.281,1.199,4.712,0.000,0.000,-1.668,-7.565,0.990,5.730,4.707,4.714,5.281,4.711,4.711,2.198,6.282,5.083,1.570,0.000,0.000,-1.324,-7.007,0.990,5.730,4.707,4.715,
12.280,21.180,-1.067,-7.550,2.588,0.871,6.266,0.000,0.000,2.589,1.644,0.000,4.780,0.000,1.610,0.772,3.268,0.000,3.071,0.586,0.000,0.000,0.000,0.000,0.000,0.000,0.000,0.000,0.000,0.000,3.142,6.282,0.000,1.004,1.569,1.569,4.085,6.281,1.199,4.712,0.000,0.000,-1.741,-7.520,0.990,5.730,4.707,4.714,5.281,4.711,4.711,2.198,6.282,5.083,1.570,0.000,0.000,-1.397,-6.962,0.990,5.731,4.707,4.715,
12.370,21.269,-1.125,-7.514,2.589,0.872,6.266,0.000,0.000,2.351,1.680,1.577,4.848,0.000,0.883,0.735,3.118,0.000,3.071,0.524,0.000,0.000,0.000,0.000,0.000,0.000,0.000,0.000,0.000,0.000,3.142,6.282,0.000,1.004,1.569,1.569,4.085,6.281,1.199,4.712,0.000,0.000,-1.799,-7.485,0.990,5.731,4.707,4.714,5.281,4.711,4.711,2.198,6.282,5.083,1.570,0.000,0.000,-1.455,-6.926,0.990,5.731,4.707,4.715,
12.480,21.380,-1.205,-7.465,2.587,0.527,6.172,0.000,0.000,2.402,1.731,1.579,4.946,0.000,0.915,0.915,2.925,0.000,3.106,0.449,0.000,0.000,0.000,0.000,0.000,0.000,0.000,0.000,0.000,0.000,3.142,0.001,0.001,1.001,1.570,1.570,4.090,6.281,1.200,4.712,0.000,0.000,-1.880,-7.433,0.989,5.728,4.703,4.716,5.281,4.712,4.712,2.197,6.282,5.083,1.570,0.000,0.000,-1.534,-6.876,0.990,5.728,4.706,4.715,
12.580,21.480,-1.219,-7.457,2.544,-0.093,5.224,0.000,0.000,2.443,1.757,1.493,0.000,0.000,0.901,0.824,3.217,0.000,3.142,0.478,0.000,0.000,0.000,0.000,0.000,0.000,0.000,0.000,0.000,0.000,3.142,6.283,0.001,1.002,1.569,1.567,4.088,6.281,1.199,4.711,0.000,0.000,-1.892,-7.398,0.990,5.689,4.706,4.714,5.280,4.712,4.716,2.208,6.254,5.071,1.576,0.043,0.000,-1.514,-6.848,0.990,5.656,4.703,4.715,
12.672,21.572,-1.212,-7.462,2.453,-0.078,4.883,0.000,0.000,2.457,1.803,1.342,0.000,0.000,1.769,0.710,0.000,0.000,3.142,0.536,0.000,0.000,0.000,0.000,0.000,0.000,0.000,0.000,0.000,0.000,3.142,6.280,0.000,1.004,1.568,1.567,4.084,6.281,1.199,4.712,0.000,0.000,-1.876,-7.342,0.990,5.597,4.707,4.714,5.282,4.710,4.709,2.198,6.282,5.083,1.570,0.001,0.000,-1.460,-6.835,0.991,5.598,4.707,4.714,
12.780,21.680,-1.220,-7.455,2.310,0.228,5.030,0.000,0.000,2.255,3.789,1.181,0.000,0.000,2.279,0.751,4.023,0.000,3.142,0.607,0.000,0.000,0.000,0.000,0.000,0.000,0.000,0.000,0.000,0.000,3.142,6.280,0.000,1.005,1.568,1.568,4.083,6.281,1.199,4.712,0.000,0.000,-1.860,-7.242,0.990,5.454,4.706,4.716,5.282,4.711,4.710,2.197,6.282,5.083,1.570,0.000,0.000,-1.375,-6.799,0.991,5.453,4.707,4.716,
12.880,21.780,-1.235,-7.436,2.234,0.255,5.951,0.000,0.000,2.164,3.294,1.208,0.000,0.000,2.686,0.764,4.131,0.000,3.142,0.634,0.000,0.000,0.000,0.000,0.000,0.000,0.000,0.000,0.000,0.000,3.142,6.282,0.000,1.003,1.570,1.572,4.085,6.281,1.199,4.712,0.000,0.000,-1.856,-7.173,0.990,5.373,4.704,4.719,5.282,4.712,4.713,2.198,6.281,5.083,1.571,0.000,0.000,-1.339,-6.769,0.991,5.373,4.706,4.718,
12.980,21.880,-1.248,-7.420,2.232,0.179,6.260,0.000,0.000,2.149,3.260,1.246,0.000,0.000,2.656,0.746,4.113,0.000,3.142,0.704,0.000,0.000,0.000,0.000,0.000,0.000,0.000,0.000,0.000,0.000,3.142,6.283,0.000,1.003,1.569,1.569,4.086,6.281,1.199,4.712,0.000,0.000,-1.869,-7.157,0.990,5.373,4.704,4.718,5.281,4.711,4.712,2.198,6.282,5.083,1.570,0.000,0.000,-1.351,-6.754,0.990,5.373,4.705,4.717,
13.070,21.970,-1.257,-7.409,2.233,0.167,6.263,0.000,0.000,2.140,3.247,1.269,0.000,0.000,2.617,0.732,4.095,0.000,3.142,0.792,0.000,0.000,0.000,0.000,0.000,0.000,0.000,0.000,0.000,0.000,3.142,6.283,0.000,1.003,1.569,1.569,4.085,6.281,1.199,4.712,0.000,0.000,-1.878,-7.146,0.990,5.374,4.704,4.718,5.281,4.711,4.711,2.198,6.282,5.083,1.570,0.000,0.000,-1.361,-6.743,0.990,5.374,4.705,4.717,
13.180,22.080,-1.267,-7.395,2.233,0.207,6.275,0.000,0.000,2.129,3.231,1.296,0.000,0.000,2.573,0.715,4.074,0.000,3.142,0.872,0.000,0.000,0.000,0.000,0.000,0.000,0.000,0.000,0.000,0.000,3.142,6.282,0.000,1.004,1.569,1.569,4.085,6.281,1.199,4.712,0.000,0.000,-1.889,-7.133,0.990,5.375,4.705,4.717,5.281,4.711,4.711,2.198,6.282,5.083,1.570,0.000,0.000,-1.372,-6.729,0.990,5.375,4.705,4.717,
13.260,22.160,-1.280,-7.380,2.234,0.212,6.259,2.734,0.000,2.116,3.211,1.328,0.000,0.000,2.524,0.696,4.051,0.000,3.142,0.000,0.000,0.000,0.000,0.000,0.000,0.000,0.000,0.000,0.000,0.000,3.142,6.283,0.000,1.003,1.569,1.569,4.085,6.281,1.199,4.712,0.000,0.000,-1.901,-7.118,0.990,5.376,4.704,4.718,5.281,4.711,4.711,2.198,6.282,5.083,1.570,0.000,0.000,-1.384,-6.714,0.990,5.376,4.705,4.717,
13.380,22.280,-1.291,-7.365,2.235,0.191,6.272,2.714,3.198,2.105,3.193,1.358,0.000,0.000,2.478,0.679,4.029,0.000,3.142,0.000,0.000,0.000,0.000,0.000,0.000,0.000,0.000,0.000,0.000,0.000,3.142,6.283,0.000,1.003,1.569,1.569,4.085,6.281,1.199,4.712,0.000,0.000,-1.913,-7.103,0.990,5.376,4.704,4.718,5.281,4.711,4.711,2.198,6.282,5.083,1.570,0.000,0.000,-1.396,-6.699,0.990,5.376,4.705,4.718,
13.480,22.380,-1.302,-7.352,2.235,0.189,6.261,2.695,3.151,2.094,3.176,1.385,0.000,0.000,2.436,0.662,0.000,0.000,3.142,0.000,0.000,0.000,0.000,0.000,0.000,0.000,0.000,0.000,1.046,0.000,3.142,6.283,0.000,1.004,1.569,1.569,4.085,6.281,1.199,4.712,0.000,0.000,-1.924,-7.090,0.990,5.377,4.704,4.718,5.281,4.711,4.711,2.198,6.282,5.083,1.570,0.000,0.000,-1.407,-6.686,0.990,5.377,4.705,4.718,
13.580,22.480,-1.310,-7.340,2.235,0.198,6.261,2.680,3.112,2.085,3.161,1.408,0.000,0.000,2.401,0.649,0.000,0.000,3.142,0.000,0.000,0.000,0.000,0.000,0.000,0.000,0.000,0.000,1.031,0.000,3.142,6.282,0.000,1.004,1.569,1.569,4.085,6.281,1.199,4.712,0.000,0.000,-1.932,-7.079,0.990,5.377,4.705,4.718,5.281,4.711,4.711,2.198,6.282,5.083,1.570,0.000,0.000,-1.416,-6.675,0.990,5.377,4.705,4.718,
13.680,22.580,-1.324,-7.323,2.236,0.201,6.262,2.657,3.050,2.118,3.138,1.444,0.000,0.000,2.348,0.628,0.000,0.000,3.142,0.000,0.000,0.000,0.000,0.000,0.000,0.000,0.000,0.000,1.093,0.000,3.142,6.282,0.000,1.004,1.569,1.569,4.085,6.281,1.199,4.712,0.000,0.000,-1.946,-7.062,0.990,5.378,4.704,4.718,5.281,4.711,4.711,2.198,6.282,5.083,1.570,0.000,0.000,-1.430,-6.657,0.990,5.378,4.705,4.718,
13.768,22.668,-1.333,-7.311,2.236,0.196,6.262,2.641,3.008,2.148,3.123,1.467,0.000,0.000,2.314,0.614,0.000,0.000,3.142,0.000,0.000,0.000,0.000,0.000,0.000,0.000,0.000,0.000,1.154,0.000,3.142,6.282,0.000,1.004,1.569,1.569,4.085,6.281,1.199,4.712,0.000,0.000,-1.955,-7.051,0.990,5.378,4.704,4.718,5.281,4.711,4.711,2.198,6.282,5.083,1.570,0.000,0.000,-1.439,-6.646,0.990,5.378,4.705,4.718,
13.880,22.780,-1.346,-7.295,2.237,0.195,6.262,2.619,2.979,2.191,3.100,1.502,0.000,0.000,2.263,0.637,0.000,0.000,3.142,0.000,0.000,0.000,0.000,0.000,0.000,0.000,0.000,0.000,1.340,0.000,3.142,6.282,0.000,1.004,1.569,1.569,4.085,6.281,1.199,4.712,0.000,0.000,-1.969,-7.035,0.990,5.379,4.705,4.718,5.281,4.711,4.711,2.198,6.282,5.083,1.570,0.000,0.000,-1.453,-6.629,0.990,5.379,4.705,4.718,
13.963,22.863,-1.355,-7.283,2.237,0.197,6.263,2.604,2.969,2.220,3.085,1.525,0.000,0.000,0.983,0.654,3.909,0.000,3.142,0.000,0.000,0.000,0.000,0.000,0.000,0.000,0.000,0.000,0.000,0.000,3.142,6.282,0.000,1.004,1.569,1.569,4.085,6.281,1.199,4.712,0.000,0.000,-1.978,-7.023,0.990,5.379,4.705,4.718,5.281,4.711,4.711,2.198,6.282,5.083,1.570,0.000,0.000,-1.462,-6.618,0.990,5.379,4.705,4.718,
14.080,22.980,-1.369,-7.266,2.237,0.198,6.263,2.581,2.955,2.264,3.062,1.560,0.000,0.000,0.933,0.679,3.884,0.000,3.142,0.000,0.000,0.000,0.000,0.000,0.000,0.000,0.000,0.000,0.000,0.000,3.142,6.282,0.000,1.004,1.569,1.569,4.085,6.281,1.199,4.712,0.000,0.000,-1.991,-7.007,0.990,5.379,4.705,4.718,5.281,4.711,4.711,2.198,6.282,5.083,1.570,0.000,0.000,-1.476,-6.601,0.990,5.380,4.705,4.718,
14.166,23.066,-1.378,-7.255,2.238,0.197,6.263,2.566,2.946,2.294,3.046,1.584,0.000,0.000,0.926,0.696,3.867,0.000,3.142,0.000,0.000,0.000,0.000,0.000,0.000,0.000,0.000,0.000,0.000,0.000,3.142,6.282,0.000,1.004,1.569,1.569,4.085,6.281,1.199,4.712,0.000,0.000,-2.000,-6.995,0.990,5.380,4.705,4.718,5.281,4.711,4.711,2.198,6.282,5.083,1.570,0.000,0.000,-1.485,-6.589,0.990,5.380,4.705,4.718,
14.280,23.180,-1.391,-7.238,2.238,0.196,6.263,2.544,2.931,2.338,3.023,1.619,0.000,0.000,0.941,0.720,3.842,0.000,3.142,0.000,0.000,0.000,0.000,0.000,0.000,0.000,0.000,0.000,0.000,0.000,3.142,6.282,0.000,1.004,1.569,1.569,4.085,6.281,1.199,4.712,0.000,0.000,-2.014,-6.979,0.990,5.380,4.705,4.718,5.281,4.711,4.711,2.198,6.282,5.083,1.570,0.000,0.000,-1.499,-6.572,0.990,5.380,4.705,4.718,
14.365,23.264,-1.400,-7.227,2.238,0.197,6.264,2.529,2.893,2.367,3.007,1.642,0.000,0.000,0.950,0.737,3.826,0.000,3.142,0.000,0.000,0.000,0.000,0.000,0.000,0.000,0.000,0.000,0.000,0.000,3.142,6.282,0.000,1.004,1.569,1.569,4.085,6.281,1.199,4.712,0.000,0.000,-2.023,-6.967,0.990,5.380,4.705,4.718,5.281,4.711,4.711,2.198,6.282,5.083,1.570,0.000,0.000,-1.508,-6.561,0.990,5.380,4.705,4.718,
14.480,23.380,-1.413,-7.210,2.239,0.197,6.264,2.506,2.829,2.411,2.984,1.677,0.000,0.000,0.965,0.762,3.801,0.000,3.142,0.000,0.000,0.000,0.000,0.000,0.000,0.000,0.000,0.000,0.000,0.000,3.142,6.282,0.000,1.004,1.569,1.569,4.085,6.281,1.199,4.712,0.000,0.000,-2.036,-6.951,0.990,5.381,4.705,4.718,5.281,4.711,4.711,2.198,6.282,5.083,1.570,0.000,0.000,-1.522,-6.544,0.990,5.381,4.705,4.718,
14.580,23.480,-1.422,-7.198,2.239,0.197,6.263,2.492,2.786,2.440,2.968,1.701,0.000,0.000,1.977,0.779,3.784,0.000,3.142,0.000,0.000,0.000,0.000,0.000,0.000,0.000,0.000,0.000,0.000,0.000,3.142,6.282,0.000,1.004,1.569,1.569,4.085,6.281,1.199,4.712,0.000,0.000,-2.045,-6.939,0.990,5.381,4.705,4.718,5.281,4.711,4.711,2.198,6.282,5.083,1.570,0.000,0.000,-1.531,-6.533,0.990,5.381,4.705,4.718,
14.680,23.580,-1.428,-7.191,2.239,0.008,6.269,2.481,2.764,2.456,2.960,1.714,0.000,0.000,1.954,0.789,3.774,0.000,3.142,0.000,0.000,0.000,0.000,0.000,0.000,0.000,0.000,0.000,0.000,0.000,3.142,6.283,0.001,1.003,1.569,1.569,4.086,6.281,1.199,4.712,0.000,0.000,-2.051,-6.932,0.990,5.381,4.704,4.718,5.281,4.711,4.712,2.198,6.282,5.083,1.570,0.000,0.000,-1.536,-6.526,0.990,5.381,4.705,4.718,
14.765,23.665,-1.428,-7.191,2.240,0.000,6.272,2.481,2.765,2.456,2.960,1.714,0.000,0.000,1.954,0.790,3.773,0.000,3.142,0.000,0.000,0.000,0.000,0.000,0.000,0.000,0.000,0.000,0.000,0.000,3.142,6.283,0.000,1.003,1.569,1.569,4.085,6.281,1.199,4.712,0.000,0.000,-2.051,-6.933,0.990,5.381,4.704,4.718,5.281,4.711,4.711,2.198,6.282,5.083,1.570,0.000,0.000,-1.536,-6.526,0.990,5.381,4.705,4.717,
14.880,23.780,-1.428,-7.191,2.257,-0.002,0.690,2.428,2.879,2.350,3.048,1.670,0.000,0.000,1.866,0.812,3.740,0.000,3.142,0.000,0.000,0.000,0.000,0.000,0.000,0.000,0.000,0.000,0.000,0.000,3.142,0.002,0.000,1.002,1.571,1.573,4.087,6.280,1.200,4.712,0.000,0.000,-2.054,-6.942,0.990,5.395,4.704,4.719,5.281,4.712,4.715,2.199,6.281,5.083,1.571,0.000,0.000,-1.546,-6.527,0.991,5.395,4.708,4.716,
14.969,23.869,-1.428,-7.191,2.332,-0.005,1.456,2.238,4.231,2.046,3.492,1.513,0.000,0.000,0.896,0.924,4.380,0.000,3.142,0.000,0.000,0.000,0.000,0.000,0.000,0.000,0.000,0.000,0.000,0.000,3.142,0.002,0.000,1.002,1.571,1.572,4.087,6.281,1.199,4.712,0.000,0.000,-2.071,-6.990,0.990,5.471,4.705,4.717,5.281,4.713,4.714,2.199,6.282,5.083,1.571,0.000,0.000,-1.595,-6.538,0.991,5.471,4.709,4.715,
15.080,23.980,-1.428,-7.191,2.494,0.010,1.449,1.946,0.000,2.260,3.889,1.594,0.000,0.000,0.681,2.863,3.036,0.000,3.142,0.000,0.000,0.000,0.000,0.000,0.000,0.000,0.000,0.000,0.000,0.000,3.142,0.002,0.000,1.003,1.569,1.568,4.086,6.281,1.199,4.712,0.000,0.000,-2.097,-7.098,0.990,5.636,4.707,4.714,5.282,4.712,4.712,2.199,6.282,5.083,1.570,0.000,0.000,-1.700,-6.575,0.991,5.635,4.709,4.714,
15.180,24.080,-1.429,-7.190,2.600,0.023,1.039,1.814,0.000,2.465,2.007,1.825,4.704,0.000,0.593,3.576,2.503,0.000,3.106,0.000,0.000,0.000,0.000,0.000,0.000,0.000,0.000,0.000,0.000,0.000,3.142,0.002,0.000,1.003,1.569,1.569,4.086,6.281,1.199,4.712,0.000,0.000,-2.104,-7.169,0.990,5.743,4.707,4.714,5.281,4.712,4.711,2.199,6.282,5.083,1.570,0.000,0.000,-1.765,-6.606,0.991,5.742,4.709,4.713,
15.266,24.166,-1.430,-7.190,2.681,-0.014,0.925,1.738,0.000,2.474,1.981,0.000,4.501,4.054,0.623,3.524,2.604,0.000,3.036,0.000,0.000,0.000,0.000,0.000,0.000,0.000,0.000,0.000,0.000,0.000,3.142,0.002,0.000,1.003,1.570,1.570,4.086,6.281,1.199,4.712,0.000,0.000,-2.104,-7.222,0.990,5.822,4.706,4.714,5.281,4.712,4.712,2.199,6.282,5.083,1.570,0.000,0.000,-1.811,-6.635,0.991,5.822,4.709,4.713,
15.380,24.280,-1.428,-7.191,2.764,-0.011,1.097,1.792,4.891,2.403,1.968,0.000,4.910,1.004,0.682,4.632,2.872,0.000,2.966,0.000,0.000,0.000,0.000,0.000,0.000,0.000,0.000,0.000,0.000,0.000,3.142,0.002,0.000,1.003,1.570,1.570,4.086,6.281,1.199,4.712,0.000,0.000,-2.097,-7.279,0.990,5.905,4.707,4.713,5.281,4.712,4.713,2.199,6.282,5.083,1.570,0.000,0.000,-1.855,-6.669,0.991,5.905,4.709,4.713,
15.478,24.378,-1.428,-7.191,2.863,0.011,1.235,2.673,4.997,2.919,1.737,0.000,0.000,1.998,0.780,3.790,2.507,0.000,3.142,0.000,0.000,0.000,0.000,0.000,0.000,0.000,0.000,0.000,0.000,0.000,3.142,0.002,0.000,1.003,1.570,1.570,4.086,6.281,1.199,4.712,0.000,0.000,-2.085,-7.344,0.990,6.004,4.707,4.713,5.281,4.712,4.712,2.199,6.282,5.083,1.570,0.000,0.000,-1.904,-6.713,0.991,6.003,4.709,4.713,
15.580,24.480,-1.430,-7.190,2.967,0.017,1.205,4.227,2.046,3.503,1.513,0.000,0.000,0.889,0.934,4.411,2.229,0.000,3.142,0.000,0.000,0.000,0.000,0.000,0.000,0.000,0.000,0.000,0.000,0.000,3.142,0.002,0.000,1.003,1.570,1.570,4.086,6.281,1.199,4.712,0.000,0.000,-2.068,-7.411,0.990,6.108,4.708,4.712,5.281,4.712,4.712,2.199,6.282,5.083,1.570,0.000,0.000,-1.953,-6.765,0.991,6.107,4.709,4.712,
15.680,24.580,-1.432,-7.190,3.047,0.016,1.115,4.783,2.139,4.001,1.467,0.000,0.000,0.766,1.112,0.000,2.066,0.000,3.142,0.000,0.000,0.000,0.000,0.000,0.000,0.000,0.000,0.000,0.000,0.000,3.142,0.002,0.000,1.002,1.569,1.569,4.086,6.281,1.199,4.712,0.000,0.000,-2.049,-7.462,0.990,6.189,4.708,4.712,5.281,4.712,4.712,2.199,6.282,5.083,1.570,0.000,0.000,-1.987,-6.808,0.991,6.188,4.710,4.712,
15.780,24.680,-1.430,-7.190,3.156,-0.025,1.048,0.000,2.310,2.044,1.651,0.000,0.000,0.651,3.221,2.767,1.902,0.000,3.142,0.000,0.000,0.000,0.000,0.000,0.000,0.000,0.000,0.000,0.000,0.000,3.142,0.002,0.000,1.003,1.570,1.570,4.086,6.281,1.199,4.712,0.000,0.000,-2.015,-7.527,0.990,0.014,4.707,4.711,5.281,4.712,4.712,2.199,6.282,5.083,1.570,0.000,0.000,-2.024,-6.871,0.991,0.013,4.709,4.712,
15.880,24.780,-1.440,-7.190,3.224,0.381,0.727,0.000,2.434,2.010,1.797,4.641,0.000,0.598,3.582,2.494,1.810,0.000,3.142,0.000,0.000,0.000,0.000,0.000,0.000,0.000,0.000,0.000,0.000,0.000,3.142,6.280,6.283,1.007,1.567,1.565,4.078,6.282,1.199,4.712,0.000,0.000,-1.997,-7.570,0.991,0.088,4.712,4.711,5.283,4.709,4.708,2.198,6.282,5.083,1.570,0.000,0.000,-2.054,-6.915,0.991,0.087,4.709,4.711,
15.980,24.880,-1.540,-7.200,3.257,1.251,0.154,0.000,2.371,1.987,1.780,4.671,2.748,0.740,3.567,2.543,1.663,0.000,3.106,0.000,0.000,0.000,0.000,0.000,0.000,0.000,0.000,0.000,0.000,0.000,3.142,6.280,6.283,1.006,1.568,1.567,4.080,6.281,1.199,4.712,0.000,0.000,-2.085,-7.596,0.990,0.119,4.710,4.711,5.281,4.710,4.709,2.198,6.282,5.083,1.570,0.000,0.000,-2.163,-6.945,0.991,0.118,4.709,4.711,
16.080,24.980,-1.645,-7.213,3.280,1.344,0.463,0.000,2.274,1.967,1.723,4.736,0.000,0.903,3.858,2.585,1.555,0.000,3.142,0.000,0.000,0.000,0.000,0.000,0.000,0.000,0.000,0.000,0.000,0.000,3.142,0.001,0.000,1.003,1.570,1.570,4.086,6.281,1.199,4.712,0.000,0.000,-2.184,-7.619,0.990,0.137,4.707,4.711,5.281,4.712,4.713,2.199,6.282,5.083,1.570,0.000,0.000,-2.274,-6.969,0.991,0.137,4.709,4.711,
16.180,25.080,-1.775,-7.232,3.306,0.881,0.061,0.000,2.147,4.912,1.639,4.821,4.477,1.113,4.495,2.607,1.477,0.000,3.106,0.000,0.000,0.000,0.000,0.000,0.000,0.000,0.000,0.000,0.000,0.000,3.142,0.001,0.001,1.002,1.570,1.570,4.088,6.281,1.200,4.712,0.000,0.000,-2.304,-7.652,0.989,0.164,4.706,4.710,5.281,4.712,4.712,2.198,6.282,5.083,1.570,0.000,0.000,-2.410,-7.005,0.990,0.164,4.708,4.711,
16.280,25.180,-1.840,-7.243,3.307,0.843,6.263,0.000,2.054,4.900,1.559,4.891,4.524,1.206,4.726,2.467,1.405,0.000,3.106,0.000,0.000,0.000,0.000,0.000,0.000,0.000,0.000,0.000,0.000,0.000,3.142,6.282,0.000,1.004,1.569,1.569,4.085,6.281,1.199,4.712,0.000,0.000,-2.367,-7.664,0.990,0.165,4.708,4.711,5.281,4.711,4.711,2.198,6.282,5.083,1.570,0.000,0.000,-2.475,-7.017,0.990,0.165,4.708,4.711,
16.380,25.280,-1.952,-7.262,3.307,1.083,6.263,0.000,1.892,4.028,1.609,0.000,4.616,1.368,4.021,2.224,1.374,0.000,3.106,0.000,0.000,0.000,0.000,0.000,0.000,0.000,0.000,0.000,0.000,0.000,3.142,6.282,0.000,1.004,1.569,1.568,4.084,6.281,1.199,4.712,0.000,0.000,-2.479,-7.683,0.990,0.167,4.708,4.711,5.281,4.711,4.711,2.198,6.282,5.083,1.570,0.000,0.000,-2.587,-7.036,0.990,0.167,4.708,4.711,
16.480,25.380,-2.038,-7.276,3.308,1.097,6.263,0.000,1.768,3.652,1.687,0.000,4.689,1.491,3.981,2.040,1.791,0.000,3.106,0.000,0.000,0.000,0.000,0.000,0.000,0.000,0.000,0.000,0.000,0.000,3.142,6.283,0.000,1.003,1.569,1.569,4.085,6.281,1.199,4.712,0.000,0.000,-2.565,-7.698,0.990,0.166,4.707,4.711,5.281,4.711,4.711,2.198,6.282,5.083,1.570,0.000,0.000,-2.673,-7.051,0.990,0.166,4.708,4.711,
16.580,25.480,-2.158,-7.296,3.309,0.974,6.264,0.000,1.594,3.631,1.795,0.000,4.789,2.306,3.925,1.782,1.841,0.000,3.106,0.000,0.000,0.000,0.000,0.000,0.000,0.000,0.000,0.000,0.000,0.000,3.142,6.283,0.000,1.003,1.569,1.569,4.086,6.281,1.199,4.712,0.000,0.000,-2.685,-7.718,0.990,0.167,4.707,4.711,5.281,4.711,4.712,2.198,6.282,5.083,1.570,0.000,0.000,-2.794,-7.071,0.990,0.167,4.708,4.711,
16.680,25.580,-2.252,-7.312,3.309,0.978,6.264,0.000,1.458,3.615,1.880,0.000,4.868,2.442,3.881,1.582,1.880,0.000,3.106,0.000,0.000,0.000,0.000,0.000,0.000,0.000,0.000,0.000,0.000,0.000,3.142,6.282,0.000,1.004,1.569,1.569,4.085,6.281,1.199,4.712,0.000,0.000,-2.778,-7.735,0.990,0.168,4.708,4.711,5.281,4.711,4.711,2.198,6.282,5.083,1.570,0.000,0.000,-2.888,-7.088,0.990,0.168,4.708,4.711,
16.780,25.680,-2.350,-7.329,3.303,1.032,5.954,0.000,1.307,3.601,2.088,0.000,0.000,0.000,3.994,1.391,1.895,0.000,3.142,0.000,0.000,0.000,0.000,0.000,0.000,0.000,0.000,0.000,0.000,0.000,3.142,6.281,0.001,1.005,1.568,1.567,4.084,6.281,1.199,4.712,0.000,0.000,-2.877,-7.750,0.990,0.165,4.708,4.710,5.281,4.710,4.709,2.197,6.282,5.083,1.570,0.000,0.000,-2.984,-7.102,0.990,0.165,4.707,4.711,
16.880,25.780,-2.415,-7.339,3.261,0.241,5.933,0.000,1.162,3.452,2.030,0.000,3.630,2.551,3.962,1.363,1.766,0.000,3.106,0.000,0.000,0.000,0.000,0.000,0.000,0.000,0.000,0.000,0.000,0.000,3.142,0.003,0.001,0.999,1.571,1.573,4.093,6.280,1.200,4.712,0.000,0.000,-2.964,-7.733,0.989,0.115,4.703,4.711,5.280,4.713,4.715,2.197,6.281,5.083,1.570,0.000,0.000,-3.039,-7.082,0.990,0.116,4.707,4.712,
16.980,25.880,-2.401,-7.338,3.212,-0.364,5.319,0.000,1.156,2.749,1.985,0.000,0.000,2.489,4.151,1.558,1.618,0.000,3.142,0.000,0.000,0.000,0.000,0.000,0.000,0.000,0.000,0.000,0.000,0.000,3.142,6.283,0.001,1.002,1.569,1.568,4.088,6.281,1.199,4.712,0.000,0.000,-2.966,-7.708,0.990,0.072,4.707,4.710,5.280,4.711,4.711,2.198,6.282,5.083,1.570,0.000,0.000,-3.011,-7.053,0.990,0.071,4.707,4.711,
17.078,25.978,-2.377,-7.337,3.124,-0.198,4.907,0.000,1.292,2.059,1.920,0.000,0.000,1.688,4.323,2.062,1.136,0.000,3.142,0.000,0.000,0.000,0.000,0.000,0.000,0.000,0.000,0.000,0.000,0.000,3.142,6.279,0.000,1.005,1.568,1.567,4.082,6.281,1.199,4.712,0.000,0.000,-2.971,-7.657,0.990,6.269,4.709,4.711,5.282,4.711,4.710,2.198,6.282,5.083,1.570,0.000,0.000,-2.960,-7.000,0.991,6.268,4.709,4.711,
17.180,26.080,-2.378,-7.337,2.984,0.114,5.077,3.860,3.639,1.845,1.976,1.972,0.000,1.552,4.188,2.471,1.016,0.000,3.142,0.000,0.000,0.000,0.000,0.000,0.000,0.000,0.000,0.000,0.000,0.000,3.142,6.280,0.000,1.004,1.569,1.568,4.084,6.281,1.199,4.712,0.000,0.000,-3.011,-7.570,0.990,6.127,4.708,4.712,5.282,4.711,4.711,2.197,6.282,5.083,1.570,0.000,0.000,-2.909,-6.921,0.991,6.126,4.709,4.712,
17.261,26.161,-2.385,-7.336,2.906,0.078,5.283,3.860,4.141,1.725,0.000,1.803,0.000,1.504,3.648,2.445,1.112,0.000,3.142,0.000,0.000,0.000,0.000,0.000,0.000,0.000,0.000,0.000,0.000,0.000,3.142,6.281,0.001,1.004,1.569,1.569,4.086,6.281,1.199,4.712,0.000,0.000,-3.034,-7.518,0.990,6.047,4.707,4.713,5.282,4.712,4.712,2.198,6.282,5.083,1.570,0.000,0.000,-2.881,-6.880,0.991,6.047,4.708,4.713,
17.380,26.280,-2.341,-7.348,2.841,-0.834,6.034,3.399,4.140,1.632,0.000,1.799,0.000,1.692,0.000,2.448,1.081,0.000,3.142,0.000,0.000,0.000,0.000,0.000,0.000,0.000,0.000,0.000,0.000,0.000,3.142,0.004,0.001,0.999,1.572,1.574,4.094,6.280,1.200,4.712,0.000,0.000,-3.003,-7.483,0.989,5.976,4.703,4.714,5.280,4.714,4.716,2.199,6.281,5.083,1.570,0.000,0.000,-2.806,-6.857,0.990,5.977,4.708,4.713,
17.463,26.363,-2.231,-7.382,2.821,-1.385,5.742,4.142,4.223,1.778,0.000,1.691,0.000,2.881,0.000,0.000,1.295,0.000,3.142,0.000,0.000,0.000,0.000,0.000,0.000,0.000,0.000,0.000,0.000,0.000,3.142,0.000,0.001,1.002,1.569,1.568,4.088,6.281,1.199,4.712,0.000,0.000,-2.895,-7.509,0.989,5.964,4.706,4.713,5.280,4.711,4.711,2.198,6.282,5.083,1.570,0.000,0.000,-2.687,-6.886,0.990,5.964,4.707,4.713,
17.580,26.480,-2.110,-7.425,2.731,-1.115,4.923,2.293,4.308,1.770,4.691,1.621,0.000,4.210,2.373,4.050,1.714,0.000,3.142,0.000,0.000,0.000,0.000,0.000,0.000,0.000,0.000,0.000,0.000,0.000,3.142,6.279,0.000,1.005,1.569,1.566,4.082,6.282,1.199,4.712,0.000,0.000,-2.781,-7.493,0.990,5.877,4.709,4.712,5.282,4.711,4.710,2.198,6.283,5.083,1.570,0.000,0.000,-2.520,-6.891,0.991,5.875,4.709,4.713,
17.666,26.566,-2.027,-7.464,2.611,-0.817,5.082,1.963,0.000,1.672,3.498,1.633,0.000,0.000,1.386,4.769,2.357,0.000,3.142,0.000,0.000,0.000,0.000,0.000,0.000,0.000,0.000,0.000,0.000,0.000,3.142,6.281,0.000,1.004,1.570,1.570,4.085,6.281,1.199,4.712,0.000,0.000,-2.701,-7.448,0.990,5.751,4.707,4.714,5.282,4.713,4.713,2.198,6.282,5.083,1.571,0.000,0.000,-2.369,-6.882,0.991,5.751,4.709,4.713,
17.780,26.680,-1.955,-7.509,2.522,-0.968,5.419,1.489,0.000,1.641,3.526,1.757,0.000,0.000,1.198,3.984,3.165,0.000,3.142,0.000,0.000,0.000,0.000,0.000,0.000,0.000,0.000,0.000,0.000,0.000,3.142,6.283,0.001,1.002,1.571,1.571,4.088,6.281,1.199,4.712,0.000,0.000,-2.625,-7.433,0.990,5.661,4.705,4.716,5.281,4.713,4.714,2.199,6.282,5.083,1.571,0.000,0.000,-2.243,-6.899,0.990,5.661,4.708,4.715,
17.874,26.774,-1.888,-7.559,2.462,-1.110,5.415,1.543,0.000,1.652,3.358,1.670,0.000,0.000,1.379,3.993,2.764,0.000,3.142,0.000,0.000,0.000,0.000,0.000,0.000,0.000,0.000,0.000,0.000,0.000,3.142,6.283,0.001,1.002,1.570,1.570,4.087,6.281,1.199,4.712,0.000,0.000,-2.553,-7.443,0.990,5.603,4.705,4.716,5.281,4.713,4.712,2.198,6.282,5.083,1.570,0.000,0.000,-2.140,-6.933,0.990,5.602,4.707,4.715,
17.980,26.880,-1.799,-7.635,2.362,-0.616,5.535,1.661,4.439,1.655,2.834,1.552,1.905,0.000,1.498,0.000,3.140,0.000,0.895,0.000,0.000,0.000,0.000,0.000,0.000,0.000,0.000,0.000,0.000,0.000,3.142,6.277,6.283,1.007,1.567,1.567,4.077,6.281,1.199,4.712,0.000,0.000,-2.448,-7.457,0.991,5.507,4.712,4.712,5.282,4.710,4.710,2.198,6.282,5.083,1.571,0.000,0.000,-1.988,-6.988,0.991,5.506,4.708,4.715,
18.080,26.980,-1.787,-7.643,2.314,0.179,5.606,1.760,4.484,1.627,2.599,1.530,1.608,0.000,2.708,1.638,0.000,0.000,0.930,0.000,0.000,0.000,0.000,0.000,0.000,0.000,0.000,0.000,0.000,0.000,3.142,6.277,6.283,1.008,1.568,1.566,4.076,6.283,1.199,4.712,0.000,0.000,-2.428,-7.436,0.990,5.461,4.712,4.712,5.282,4.710,4.708,2.197,6.283,5.083,1.571,0.000,0.000,-1.946,-6.989,0.991,5.460,4.706,4.716,
18.161,27.061,-1.815,-7.611,2.216,0.315,5.109,1.927,3.939,1.530,2.150,1.548,1.264,0.000,3.354,1.446,4.554,0.000,1.035,0.000,0.000,0.000,0.000,0.000,0.000,0.000,0.000,0.000,0.000,0.000,3.142,6.282,0.001,1.003,1.569,1.568,4.087,6.281,1.199,4.712,0.000,0.000,-2.433,-7.338,0.989,5.359,4.702,4.719,5.281,4.711,4.711,2.197,6.282,5.083,1.570,0.000,0.000,-1.908,-6.944,0.990,5.358,4.705,4.718,
18.280,27.180,-1.820,-7.606,2.107,-0.111,5.019,2.245,4.710,4.532,1.849,1.554,1.254,4.806,3.090,1.262,4.281,0.000,1.141,0.000,0.000,0.000,0.000,0.000,0.000,0.000,0.000,0.000,0.000,0.000,3.142,6.283,0.001,1.002,1.570,1.570,4.088,6.281,1.199,4.712,0.000,0.000,-2.403,-7.266,0.990,5.248,4.700,4.722,5.281,4.712,4.712,2.198,6.282,5.083,1.570,0.000,0.000,-1.838,-6.932,0.991,5.247,4.704,4.718,
18.375,27.275,-1.815,-7.615,2.016,-0.138,5.058,2.653,2.435,4.778,1.953,4.541,1.315,0.000,0.000,1.174,4.889,0.000,1.246,0.000,0.000,0.000,0.000,0.000,0.000,0.000,0.000,0.000,0.000,0.000,3.142,6.281,0.000,1.003,1.569,1.569,4.085,6.281,1.199,4.712,0.000,0.000,-2.365,-7.225,0.990,5.158,4.702,4.721,5.281,4.712,4.712,2.198,6.282,5.083,1.570,0.000,0.000,-1.773,-6.943,0.991,5.158,4.704,4.719,
18.480,27.380,-1.815,-7.613,1.909,0.378,5.763,2.894,1.720,0.000,1.845,3.400,1.431,0.000,0.000,1.324,4.069,0.000,1.351,0.000,0.000,0.000,0.000,0.000,0.000,0.000,0.000,0.000,0.000,0.000,3.142,6.277,6.283,1.008,1.567,1.567,4.077,6.281,1.199,4.712,0.000,0.000,-2.322,-7.169,0.991,5.054,4.711,4.713,5.283,4.709,4.709,2.197,6.281,5.083,1.570,0.000,0.000,-1.704,-6.949,0.991,5.053,4.701,4.723,
18.580,27.480,-1.842,-7.537,1.880,1.188,6.164,2.784,1.544,0.000,1.770,3.507,1.551,0.000,0.000,1.247,4.024,0.000,1.387,0.000,0.000,0.000,0.000,0.000,0.000,0.000,0.000,0.000,0.000,0.000,3.142,6.278,6.283,1.008,1.567,1.566,4.078,6.282,1.199,4.712,0.000,0.000,-2.336,-7.079,0.990,5.026,4.709,4.715,5.282,4.710,4.708,2.197,6.282,5.083,1.570,0.000,0.000,-1.712,-6.876,0.991,5.025,4.697,4.726,
18.667,27.567,-1.881,-7.412,1.837,1.282,5.359,2.617,1.498,0.000,1.669,3.452,1.809,0.000,0.000,1.102,4.054,0.000,1.457,0.000,0.000,0.000,0.000,0.000,0.000,0.000,0.000,0.000,0.000,0.000,3.142,6.281,0.001,1.004,1.568,1.566,4.086,6.281,1.199,4.711,0.000,0.000,-2.356,-6.931,0.989,4.983,4.691,4.731,5.281,4.710,4.709,2.197,6.282,5.083,1.570,0.000,0.000,-1.722,-6.758,0.990,4.982,4.693,4.730,
18.780,27.680,-1.907,-7.311,1.741,0.866,5.371,2.454,1.495,4.324,1.609,2.643,1.873,0.000,0.000,1.079,3.160,0.000,1.562,0.000,0.000,0.000,0.000,0.000,0.000,0.000,0.000,0.000,0.000,0.000,3.142,6.282,0.001,1.002,1.570,1.570,4.088,6.280,1.199,4.712,0.000,0.000,-2.330,-6.785,0.989,4.881,4.673,4.750,5.281,4.712,4.713,2.198,6.281,5.083,1.570,0.000,0.000,-1.683,-6.674,0.991,4.881,4.687,4.737,
18.872,27.772,-1.918,-7.247,1.712,0.839,0.005,2.733,1.523,0.000,1.835,2.461,1.929,0.000,0.000,1.031,3.112,0.000,1.632,0.000,0.000,0.000,0.000,0.000,0.000,0.000,0.000,0.000,0.000,0.000,3.142,6.282,0.000,1.004,1.570,1.571,4.084,6.281,1.199,4.712,0.000,0.000,-2.325,-6.710,0.990,4.851,4.681,4.743,5.282,4.712,4.713,2.198,6.281,5.083,1.571,0.000,0.000,-1.675,-6.617,0.991,4.852,4.682,4.742,
18.980,27.880,-1.934,-7.134,1.713,1.088,6.264,2.611,1.498,4.328,4.127,2.164,2.044,0.000,0.000,1.049,3.045,0.000,1.632,0.000,0.000,0.000,0.000,0.000,0.000,0.000,0.000,0.000,0.000,0.000,3.142,6.282,0.000,1.004,1.569,1.569,4.084,6.281,1.199,4.712,0.000,0.000,-2.343,-6.598,0.990,4.856,4.684,4.739,5.281,4.711,4.711,2.198,6.282,5.083,1.570,0.000,0.000,-1.694,-6.504,0.990,4.856,4.682,4.741,
19.072,27.972,-1.946,-7.048,1.714,1.099,6.260,2.522,1.480,3.698,4.115,2.405,2.131,0.000,0.000,1.064,3.187,0.000,2.931,0.000,0.000,0.000,0.000,0.000,0.000,0.000,0.000,0.000,0.000,0.000,3.142,6.283,0.000,1.003,1.569,1.569,4.086,6.281,1.199,4.712,0.000,0.000,-2.355,-6.511,0.990,4.856,4.677,4.746,5.281,4.711,4.712,2.198,6.282,5.083,1.570,0.000,0.000,-1.706,-6.418,0.990,4.856,4.682,4.742,
19.180,28.080,-1.964,-6.927,1.698,0.971,5.687,2.674,1.478,2.336,4.580,2.324,2.248,0.000,0.000,1.075,3.129,0.000,2.966,0.000,0.000,0.000,0.000,0.000,0.000,0.000,0.000,0.000,0.000,0.000,3.142,6.281,0.001,1.004,1.568,1.566,4.085,6.281,1.199,4.712,0.000,0.000,-2.367,-6.385,0.990,4.844,4.676,4.747,5.281,4.710,4.709,2.197,6.282,5.083,1.570,0.000,0.000,-1.716,-6.301,0.990,4.844,4.671,4.752,
19.278,28.178,-1.973,-6.852,1.627,0.968,4.948,4.722,1.584,1.164,4.568,2.505,2.309,0.000,0.000,1.051,2.800,0.000,3.036,0.000,0.000,0.000,0.000,0.000,0.000,0.000,0.000,0.000,0.000,0.000,3.142,6.280,0.001,1.005,1.568,1.565,4.084,6.281,1.199,4.711,0.000,0.000,-2.337,-6.283,0.990,4.774,4.637,4.786,5.282,4.710,4.708,2.197,6.282,5.083,1.570,0.000,0.000,-1.681,-6.245,0.991,4.772,4.636,4.787,
19.380,28.280,-1.975,-6.733,1.480,1.029,5.039,3.299,1.935,1.104,0.000,2.010,0.000,2.425,0.000,1.005,0.000,0.000,3.142,0.000,0.000,0.000,0.000,0.000,0.000,0.000,0.000,0.000,0.000,0.000,3.142,6.280,0.001,1.004,1.569,1.568,4.085,6.281,1.199,4.712,0.000,0.000,-2.250,-6.117,0.990,4.802,1.624,1.516,5.282,4.711,4.710,2.197,6.282,5.083,1.570,0.000,0.000,-1.596,-6.176,0.991,4.802,1.611,1.530,
19.480,28.380,-1.966,-6.652,1.404,1.031,5.345,3.362,2.226,1.151,0.000,2.003,4.307,2.274,0.000,0.982,0.000,0.000,2.404,0.000,0.000,0.000,0.000,0.000,0.000,0.000,0.000,0.000,0.000,0.000,3.142,6.281,0.001,1.004,1.569,1.568,4.085,6.281,1.199,4.712,0.000,0.000,-2.193,-6.017,0.990,4.878,1.601,1.540,5.282,4.711,4.711,2.197,6.282,5.083,1.570,0.000,0.000,-1.546,-6.125,0.991,4.878,1.596,1.545,
19.562,28.462,-1.944,-6.534,1.362,1.004,0.002,3.362,1.807,1.202,4.294,2.261,4.463,2.332,0.000,0.953,0.000,0.000,2.475,0.000,0.000,0.000,0.000,0.000,0.000,0.000,0.000,0.000,0.000,0.000,3.142,6.282,0.000,1.003,1.570,1.570,4.085,6.281,1.199,4.712,0.000,0.000,-2.142,-5.890,0.990,4.923,1.594,1.547,5.281,4.712,4.712,2.198,6.281,5.083,1.570,0.000,0.000,-1.501,-6.026,0.990,4.922,1.592,1.550,
19.680,28.580,-1.924,-6.438,1.363,1.002,6.261,3.263,1.701,1.225,1.192,2.398,4.560,2.495,0.000,0.933,0.000,0.000,2.510,0.000,0.000,0.000,0.000,0.000,0.000,0.000,0.000,0.000,0.000,0.000,3.142,6.283,0.000,1.004,1.569,1.569,4.085,6.281,1.199,4.712,0.000,0.000,-2.123,-5.794,0.990,4.920,1.594,1.547,5.281,4.711,4.711,2.198,6.282,5.083,1.570,0.000,0.000,-1.482,-5.929,0.990,4.920,1.592,1.549,
19.780,28.680,-1.907,-6.360,1.363,1.014,6.262,3.184,1.616,1.243,1.289,2.508,4.639,2.626,0.000,0.917,0.000,0.000,2.510,0.000,0.000,0.000,0.000,0.000,0.000,0.000,0.000,0.000,0.000,0.000,3.142,6.282,0.000,1.004,1.569,1.569,4.085,6.281,1.199,4.712,0.000,0.000,-2.108,-5.716,0.990,4.920,1.594,1.547,5.281,4.711,4.711,2.198,6.282,5.083,1.570,0.000,0.000,-1.466,-5.851,0.990,4.920,1.592,1.549,
19.880,28.780,-1.883,-6.243,1.364,1.016,6.262,3.063,1.486,1.271,1.128,0.000,4.758,2.825,1.017,1.392,4.980,0.000,2.545,0.000,0.000,0.000,0.000,0.000,0.000,0.000,0.000,0.000,0.000,0.000,3.142,6.282,0.000,1.004,1.569,1.569,4.085,6.281,1.199,4.712,0.000,0.000,-2.083,-5.599,0.990,4.919,1.594,1.547,5.281,4.711,4.711,2.198,6.282,5.083,1.570,0.000,0.000,-1.441,-5.733,0.990,4.919,1.593,1.549,
19.980,28.880,-1.862,-6.145,1.365,1.010,6.263,2.964,1.379,1.294,1.148,0.000,4.857,2.989,0.993,1.372,4.833,0.000,2.545,0.000,0.000,0.000,0.000,0.000,0.000,0.000,0.000,0.000,0.000,0.000,3.142,6.282,0.000,1.004,1.569,1.569,4.085,6.281,1.199,4.712,0.000,0.000,-2.063,-5.502,0.990,4.919,1.594,1.547,5.281,4.711,4.711,2.198,6.282,5.083,1.570,0.000,0.000,-1.421,-5.636,0.990,4.918,1.593,1.549,
20.068,28.968,-1.843,-6.055,1.365,0.703,6.267,2.871,1.278,1.315,1.168,0.000,4.950,3.143,0.971,1.353,4.697,0.000,2.580,0.000,0.000,0.000,0.000,0.000,0.000,0.000,0.000,0.000,0.000,0.000,3.142,0.002,0.001,1.001,1.571,1.571,4.091,6.281,1.200,4.712,0.000,0.000,-2.043,-5.409,0.989,4.921,1.609,1.532,5.280,4.712,4.713,2.198,6.282,5.083,1.570,0.000,0.000,-1.401,-5.545,0.990,4.920,1.594,1.548,
20.180,29.080,-1.834,-6.012,1.366,0.257,6.265,2.827,1.231,1.325,1.177,0.000,4.993,3.217,0.961,1.344,4.632,0.000,2.580,0.000,0.000,0.000,0.000,0.000,0.000,0.000,0.000,0.000,0.000,0.000,3.142,0.001,0.001,1.002,1.570,1.570,4.088,6.281,1.200,4.712,0.000,0.000,-2.035,-5.367,0.989,4.919,1.602,1.539,5.281,4.712,4.712,2.198,6.282,5.083,1.570,0.000,0.000,-1.393,-5.502,0.990,4.919,1.594,1.548,
20.268,29.168,-1.832,-5.999,1.366,0.057,6.267,2.813,1.218,1.327,1.179,0.000,0.000,3.240,0.958,1.341,4.611,0.000,3.142,0.000,0.000,0.000,0.000,0.000,0.000,0.000,0.000,0.000,0.000,0.000,3.142,6.283,0.001,1.003,1.570,1.570,4.086,6.281,1.199,4.712,0.000,0.000,-2.033,-5.355,0.990,4.918,1.598,1.543,5.281,4.711,4.712,2.198,6.282,5.083,1.570,0.000,0.000,-1.391,-5.489,0.990,4.917,1.594,1.548,
20.380,29.280,-1.832,-5.998,1.366,0.000,6.271,2.811,1.217,1.327,1.180,0.000,0.000,3.243,0.957,1.341,4.609,0.000,3.142,0.000,0.000,0.000,0.000,0.000,0.000,0.000,0.000,0.000,0.000,0.000,3.142,6.283,0.000,1.003,1.569,1.569,4.085,6.281,1.199,4.712,0.000,0.000,-2.034,-5.355,0.990,4.917,1.596,1.546,5.281,4.711,4.711,2.198,6.282,5.083,1.570,0.000,0.000,-1.391,-5.488,0.990,4.917,1.592,1.549,
20.467,29.367,-1.832,-5.998,1.366,0.000,6.271,2.811,1.217,1.327,1.180,0.000,0.000,3.243,0.957,1.341,4.609,0.000,3.142,0.000,0.000,0.000,0.000,0.000,0.000,0.000,0.000,0.000,0.000,0.000,3.142,6.283,0.000,1.003,1.569,1.569,4.085,6.281,1.199,4.712,0.000,0.000,-2.034,-5.355,0.990,4.917,1.596,1.546,5.281,4.711,4.712,2.198,6.282,5.083,1.570,0.000,0.000,-1.391,-5.488,0.990,4.917,1.592,1.549,
20.580,29.480,-1.832,-5.998,1.366,0.000,6.271,2.811,1.217,1.327,1.180,0.000,0.000,3.243,0.957,1.341,4.609,0.000,3.142,0.000,0.000,0.000,0.000,0.000,0.000,0.000,0.000,0.000,0.000,0.000,3.142,6.283,0.000,1.003,1.569,1.569,4.085,6.281,1.199,4.712,0.000,0.000,-2.034,-5.355,0.990,4.917,1.596,1.546,5.281,4.711,4.711,2.198,6.282,5.083,1.570,0.000,0.000,-1.391,-5.488,0.990,4.917,1.592,1.549,
20.666,29.566,-1.832,-5.998,1.366,0.000,6.271,2.811,1.217,1.327,1.180,0.000,0.000,3.243,0.957,1.341,4.609,0.000,3.142,0.000,0.000,0.000,0.000,0.000,0.000,0.000,0.000,0.000,0.000,0.000,3.142,6.283,0.000,1.003,1.569,1.569,4.085,6.281,1.199,4.712,0.000,0.000,-2.034,-5.355,0.990,4.917,1.596,1.546,5.281,4.711,4.711,2.198,6.282,5.083,1.570,0.000,0.000,-1.391,-5.488,0.990,4.917,1.592,1.549,
20.780,29.680,-1.829,-5.989,1.366,0.392,0.014,2.803,1.212,1.331,1.182,0.000,0.000,3.258,0.954,1.338,4.596,0.000,3.142,0.000,0.000,0.000,0.000,0.000,0.000,0.000,0.000,0.000,0.000,0.000,3.142,6.278,6.283,1.008,1.567,1.566,4.078,6.281,1.199,4.712,0.000,0.000,-2.034,-5.347,0.991,4.913,1.574,1.566,5.282,4.709,4.708,2.197,6.282,5.083,1.570,0.000,0.000,-1.391,-5.478,0.991,4.913,1.593,1.549,
20.872,29.772,-1.813,-5.912,1.366,1.183,0.062,2.724,1.249,1.349,1.199,0.000,0.000,0.000,0.935,1.322,4.481,0.000,3.142,0.000,0.000,0.000,0.000,0.000,0.000,0.000,0.000,0.000,0.000,0.000,3.142,6.278,6.283,1.008,1.567,1.566,4.078,6.282,1.199,4.712,0.000,0.000,-2.018,-5.270,0.991,4.912,1.574,1.566,5.282,4.710,4.709,2.197,6.282,5.083,1.570,0.000,0.000,-1.374,-5.400,0.991,4.913,1.592,1.549,
20.980,29.880,-1.785,-5.780,1.367,1.362,6.266,2.590,1.309,1.379,1.226,0.000,0.000,0.000,0.904,1.245,1.906,0.000,3.142,0.000,0.000,0.000,0.000,0.000,0.000,0.000,0.000,0.000,0.000,0.000,3.142,6.283,0.000,1.003,1.570,1.570,4.086,6.281,1.199,4.712,0.000,0.000,-1.988,-5.136,0.990,4.916,1.598,1.544,5.281,4.711,4.712,2.198,6.282,5.083,1.570,0.000,0.000,-1.345,-5.269,0.990,4.916,1.593,1.548,
21.067,29.967,-1.766,-5.688,1.368,0.996,6.264,2.497,1.352,1.400,1.246,0.000,0.000,0.000,0.961,1.226,1.771,0.000,3.142,0.000,0.000,0.000,0.000,0.000,0.000,0.000,0.000,0.000,0.000,0.000,3.142,0.001,0.001,1.001,1.570,1.571,4.089,6.281,1.200,4.712,0.000,0.000,-1.968,-5.044,0.989,4.918,1.605,1.536,5.281,4.712,4.713,2.198,6.282,5.083,1.570,0.000,0.000,-1.326,-5.177,0.990,4.917,1.594,1.548,
21.180,30.080,-1.750,-5.606,1.368,0.807,6.265,2.413,1.389,1.419,1.263,0.000,0.000,0.000,1.131,0.000,1.650,0.000,3.142,0.000,0.000,0.000,0.000,0.000,0.000,0.000,0.000,0.000,0.000,0.000,3.142,6.282,0.000,1.004,1.569,1.569,4.085,6.281,1.199,4.712,0.000,0.000,-1.953,-4.963,0.990,4.915,1.595,1.546,5.281,4.711,4.711,2.198,6.282,5.083,1.570,0.000,0.000,-1.311,-5.095,0.990,4.915,1.594,1.548,
21.280,30.180,-1.728,-5.499,1.369,1.066,6.266,2.304,1.439,1.269,1.285,0.000,0.000,0.000,1.406,4.581,1.616,0.000,3.142,0.000,0.000,0.000,0.000,0.000,0.000,0.000,0.000,0.000,0.000,0.000,3.142,6.281,0.000,1.005,1.569,1.568,4.083,6.281,1.199,4.712,0.000,0.000,-1.932,-4.856,0.990,4.913,1.589,1.552,5.281,4.711,4.710,2.198,6.282,5.083,1.570,0.000,0.000,-1.289,-4.987,0.990,4.913,1.593,1.548,
21.380,30.280,-1.710,-5.413,1.369,1.116,6.265,2.218,2.980,1.088,1.303,0.000,0.000,0.000,1.386,4.534,1.661,0.000,3.142,0.000,0.000,0.000,0.000,0.000,0.000,0.000,0.000,0.000,0.000,0.000,3.142,6.282,0.000,1.004,1.569,1.569,4.085,6.281,1.199,4.712,0.000,0.000,-1.914,-4.770,0.990,4.914,1.595,1.547,5.281,4.711,4.711,2.198,6.282,5.083,1.570,0.000,0.000,-1.272,-4.902,0.990,4.914,1.594,1.548,
21.480,30.380,-1.686,-5.297,1.370,0.716,6.266,2.100,3.031,0.843,1.327,0.000,0.000,1.652,1.358,4.470,1.630,0.000,3.142,0.000,0.000,0.000,0.000,0.000,0.000,0.000,0.000,0.000,0.000,0.000,3.142,0.002,0.001,1.001,1.571,1.572,4.091,6.281,1.200,4.712,0.000,0.000,-1.889,-4.653,0.989,4.917,1.611,1.531,5.280,4.712,4.713,2.198,6.282,5.083,1.570,0.000,0.000,-1.246,-4.786,0.990,4.916,1.594,1.547,
21.580,30.480,-1.679,-5.259,1.370,0.328,6.264,2.061,3.046,0.762,1.335,1.994,0.000,1.632,1.349,4.448,1.620,0.000,3.142,0.000,0.000,0.000,0.000,0.000,0.000,0.000,0.000,0.000,0.000,0.000,3.142,0.001,0.001,1.002,1.570,1.571,4.089,6.281,1.200,4.712,0.000,0.000,-1.882,-4.615,0.989,4.915,1.604,1.537,5.281,4.712,4.712,2.198,6.282,5.083,1.570,0.000,0.000,-1.240,-4.747,0.990,4.914,1.594,1.547,
21.680,30.580,-1.675,-5.240,1.371,0.059,6.267,2.041,3.051,0.765,1.339,2.000,0.000,1.620,1.344,4.438,1.615,0.000,3.142,0.000,0.000,0.000,0.000,0.000,0.000,0.000,0.000,0.000,0.000,0.000,3.142,6.283,0.001,1.003,1.570,1.570,4.086,6.281,1.199,4.712,0.000,0.000,-1.880,-4.597,0.990,4.913,1.599,1.542,5.281,4.711,4.712,2.198,6.282,5.083,1.570,0.000,0.000,-1.237,-4.728,0.990,4.913,1.594,1.547,
21.780,30.680,-1.675,-5.240,1.372,-0.002,0.080,2.037,3.041,0.764,1.339,2.003,0.000,1.615,1.343,4.436,1.618,0.000,3.142,0.000,0.000,0.000,0.000,0.000,0.000,0.000,0.000,0.000,0.000,0.000,3.142,0.001,0.000,1.003,1.571,1.570,4.087,6.281,1.199,4.712,0.000,0.000,-1.880,-4.597,0.990,4.913,1.599,1.541,5.280,4.713,4.713,2.199,6.282,5.083,1.570,0.000,0.000,-1.237,-4.727,0.991,4.912,1.589,1.552,
21.880,30.780,-1.675,-5.241,1.438,-0.010,1.296,1.934,2.683,0.831,1.355,0.000,0.000,1.417,1.299,4.380,1.729,0.000,3.142,0.000,0.000,0.000,0.000,0.000,0.000,0.000,0.000,0.000,0.000,0.000,3.142,0.002,0.000,1.002,1.571,1.572,4.087,6.281,1.199,4.712,0.000,0.000,-1.920,-4.613,0.990,4.849,1.609,1.532,5.281,4.713,4.715,2.199,6.281,5.083,1.571,0.000,0.000,-1.270,-4.701,0.991,4.849,1.589,1.552,
21.980,30.880,-1.675,-5.241,1.509,-0.003,0.542,1.843,1.218,0.990,1.379,0.000,3.924,1.257,1.260,0.000,1.877,0.000,3.106,0.000,0.000,0.000,0.000,0.000,0.000,0.000,0.000,0.000,0.000,0.000,3.142,0.000,0.000,1.003,1.568,1.565,4.085,6.282,1.199,4.711,0.000,0.000,-1.969,-4.632,0.990,4.770,1.653,1.487,5.281,4.710,4.708,2.198,6.283,5.083,1.570,0.000,0.000,-1.314,-4.673,0.991,4.771,1.636,1.505,
22.077,30.977,-1.675,-5.241,1.517,0.001,6.268,1.833,1.203,1.013,1.382,0.000,3.922,1.241,1.202,4.670,1.897,0.000,3.106,0.000,0.000,0.000,0.000,0.000,0.000,0.000,0.000,0.000,0.000,0.000,3.142,6.283,0.000,1.003,1.570,1.570,4.085,6.281,1.199,4.712,0.000,0.000,-1.971,-4.635,0.990,4.767,1.663,1.478,5.281,4.711,4.712,2.198,6.282,5.083,1.570,0.000,0.000,-1.316,-4.670,0.990,4.767,1.650,1.491,
22.180,31.080,-1.675,-5.241,1.517,0.001,6.268,1.833,1.203,1.013,1.382,0.000,3.922,1.241,1.202,4.670,1.897,0.000,3.106,0.000,0.000,0.000,0.000,0.000,0.000,0.000,0.000,0.000,0.000,0.000,3.142,6.283,0.000,1.003,1.569,1.569,4.085,6.281,1.199,4.712,0.000,0.000,-1.971,-4.635,0.990,4.767,1.664,1.477,5.281,4.711,4.711,2.198,6.282,5.083,1.570,0.000,0.000,-1.316,-4.670,0.990,4.766,1.651,1.490,
22.280,31.180,-1.675,-5.241,1.517,0.001,6.268,1.833,1.203,1.013,1.382,0.000,3.922,1.241,1.202,4.670,1.897,0.000,3.106,0.000,0.000,0.000,0.000,0.000,0.000,0.000,0.000,0.000,0.000,0.000,3.142,6.283,0.000,1.003,1.569,1.569,4.085,6.281,1.199,4.712,0.000,0.000,-1.971,-4.635,0.990,4.767,1.664,1.477,5.281,4.711,4.712,2.198,6.282,5.083,1.570,0.000,0.000,-1.316,-4.670,0.990,4.766,1.651,1.490,
22.372,31.272,-1.675,-5.241,1.517,0.001,6.268,1.833,1.203,1.013,1.382,0.000,3.922,1.241,1.202,4.670,1.897,0.000,3.106,0.000,0.000,0.000,0.000,0.000,0.000,0.000,0.000,0.000,0.000,0.000,3.142,6.283,0.000,1.003,1.569,1.569,4.085,6.281,1.199,4.712,0.000,0.000,-1.971,-4.635,0.990,4.767,1.664,1.477,5.281,4.711,4.712,2.198,6.282,5.083,1.570,0.000,0.000,-1.316,-4.670,0.990,4.766,1.651,1.490,
22.480,31.380,-1.675,-5.241,1.517,0.001,6.268,1.833,1.203,1.013,1.382,0.000,3.922,1.241,1.202,4.670,1.897,0.000,3.106,0.000,0.000,0.000,0.000,0.000,0.000,0.000,0.000,0.000,0.000,0.000,3.142,6.283,0.000,1.003,1.569,1.569,4.085,6.281,1.199,4.712,0.000,0.000,-1.971,-4.635,0.990,4.767,1.664,1.477,5.281,4.711,4.712,2.198,6.282,5.083,1.570,0.000,0.000,-1.316,-4.670,0.990,4.766,1.651,1.490,
22.580,31.480,-1.675,-5.241,1.517,0.001,6.268,1.833,1.203,1.013,1.382,0.000,3.922,1.241,1.202,4.670,1.897,0.000,3.106,0.000,0.000,0.000,0.000,0.000,0.000,0.000,0.000,0.000,0.000,0.000,3.142,6.283,0.000,1.003,1.569,1.569,4.085,6.281,1.199,4.712,0.000,0.000,-1.971,-4.635,0.990,4.767,1.664,1.477,5.281,4.711,4.712,2.198,6.282,5.083,1.570,0.000,0.000,-1.316,-4.670,0.990,4.766,1.651,1.490,
22.680,31.580,-1.675,-5.241,1.517,0.001,6.268,1.833,1.203,1.013,1.382,0.000,3.922,1.241,1.202,4.670,1.897,0.000,3.106,0.000,0.000,0.000,0.000,0.000,0.000,0.000,0.000,0.000,0.000,0.000,3.142,6.283,0.000,1.003,1.569,1.569,4.085,6.281,1.199,4.712,0.000,0.000,-1.971,-4.635,0.990,4.767,1.664,1.477,5.281,4.711,4.712,2.198,6.282,5.083,1.570,0.000,0.000,-1.316,-4.670,0.990,4.766,1.651,1.490,
22.780,31.680,-1.675,-5.241,1.517,0.001,6.268,1.833,1.203,1.013,1.382,0.000,3.922,1.241,1.202,4.670,1.897,0.000,3.106,0.000,0.000,0.000,0.000,0.000,0.000,0.000,0.000,0.000,0.000,0.000,3.142,6.283,0.000,1.003,1.569,1.569,4.085,6.281,1.199,4.712,0.000,0.000,-1.971,-4.635,0.990,4.767,1.664,1.477,5.281,4.711,4.712,2.198,6.282,5.083,1.570,0.000,0.000,-1.316,-4.670,0.990,4.766,1.651,1.490,
22.880,31.780,-1.675,-5.241,1.517,0.001,6.268,1.833,1.203,1.013,1.382,0.000,3.922,1.241,1.202,4.670,1.897,0.000,3.106,0.000,0.000,0.000,0.000,0.000,0.000,0.000,0.000,0.000,0.000,0.000,3.142,6.283,0.000,1.003,1.569,1.569,4.085,6.281,1.199,4.712,0.000,0.000,-1.971,-4.635,0.990,4.767,1.664,1.477,5.281,4.711,4.712,2.198,6.282,5.083,1.570,0.000,0.000,-1.316,-4.670,0.990,4.766,1.651,1.490,
22.976,31.876,-1.675,-5.241,1.517,0.001,6.268,1.833,1.203,1.013,1.382,0.000,3.922,1.241,1.202,4.670,1.897,0.000,3.106,0.000,0.000,0.000,0.000,0.000,0.000,0.000,0.000,0.000,0.000,0.000,3.142,6.283,0.000,1.003,1.569,1.569,4.085,6.281,1.199,4.712,0.000,0.000,-1.971,-4.635,0.990,4.767,1.664,1.477,5.281,4.711,4.712,2.198,6.282,5.083,1.570,0.000,0.000,-1.316,-4.670,0.990,4.766,1.651,1.490,
23.062,31.962,-1.675,-5.241,1.517,0.001,6.268,1.833,1.203,1.013,1.382,0.000,3.922,1.241,1.202,4.670,1.897,0.000,3.106,0.000,0.000,0.000,0.000,0.000,0.000,0.000,0.000,0.000,0.000,0.000,3.142,6.283,0.000,1.003,1.569,1.569,4.085,6.281,1.199,4.712,0.000,0.000,-1.971,-4.635,0.990,4.767,1.664,1.477,5.281,4.711,4.712,2.198,6.282,5.083,1.570,0.000,0.000,-1.316,-4.670,0.990,4.766,1.651,1.490,
23.180,32.080,-1.675,-5.241,1.517,0.001,6.268,1.833,1.203,1.013,1.382,0.000,3.922,1.241,1.202,4.670,1.897,0.000,3.106,0.000,0.000,0.000,0.000,0.000,0.000,0.000,0.000,0.000,0.000,0.000,3.142,6.283,0.000,1.003,1.569,1.569,4.085,6.281,1.199,4.712,0.000,0.000,-1.971,-4.635,0.990,4.767,1.664,1.477,5.281,4.711,4.712,2.198,6.282,5.083,1.570,0.000,0.000,-1.316,-4.670,0.990,4.766,1.651,1.490,
23.280,32.180,-1.675,-5.241,1.517,0.001,6.268,1.833,1.203,1.013,1.382,0.000,3.922,1.241,1.202,4.670,1.897,0.000,3.106,0.000,0.000,0.000,0.000,0.000,0.000,0.000,0.000,0.000,0.000,0.000,3.142,6.283,0.000,1.003,1.569,1.569,4.085,6.281,1.199,4.712,0.000,0.000,-1.971,-4.635,0.990,4.767,1.664,1.477,5.281,4.711,4.712,2.198,6.282,5.083,1.570,0.000,0.000,-1.316,-4.670,0.990,4.766,1.651,1.490,
23.380,32.280,-1.675,-5.241,1.517,0.001,6.268,1.833,1.203,1.013,1.382,0.000,3.922,1.241,1.202,4.670,1.897,0.000,3.106,0.000,0.000,0.000,0.000,0.000,0.000,0.000,0.000,0.000,0.000,0.000,3.142,6.283,0.000,1.003,1.569,1.569,4.085,6.281,1.199,4.712,0.000,0.000,-1.971,-4.635,0.990,4.767,1.664,1.477,5.281,4.711,4.712,2.198,6.282,5.083,1.570,0.000,0.000,-1.316,-4.670,0.990,4.766,1.651,1.490,
23.480,32.380,-1.675,-5.241,1.517,0.001,6.268,1.833,1.203,1.013,1.382,0.000,3.922,1.241,1.202,4.670,1.897,0.000,3.106,0.000,0.000,0.000,0.000,0.000,0.000,0.000,0.000,0.000,0.000,0.000,3.142,6.283,0.000,1.003,1.569,1.569,4.085,6.281,1.199,4.712,0.000,0.000,-1.971,-4.635,0.990,4.767,1.664,1.477,5.281,4.711,4.712,2.198,6.282,5.083,1.570,0.000,0.000,-1.316,-4.670,0.990,4.766,1.651,1.490,
23.580,32.480,-1.675,-5.241,1.517,0.001,6.268,1.833,1.203,1.013,1.382,0.000,3.922,1.241,1.202,4.670,1.897,0.000,3.106,0.000,0.000,0.000,0.000,0.000,0.000,0.000,0.000,0.000,0.000,0.000,3.142,6.283,0.000,1.003,1.569,1.569,4.085,6.281,1.199,4.712,0.000,0.000,-1.971,-4.635,0.990,4.767,1.664,1.477,5.281,4.711,4.712,2.198,6.282,5.083,1.570,0.000,0.000,-1.316,-4.670,0.990,4.766,1.651,1.490,
23.671,32.571,-1.675,-5.241,1.517,0.001,6.268,1.833,1.203,1.013,1.382,0.000,3.922,1.241,1.202,4.670,1.897,0.000,3.106,0.000,0.000,0.000,0.000,0.000,0.000,0.000,0.000,0.000,0.000,0.000,3.142,6.283,0.000,1.003,1.569,1.569,4.085,6.281,1.199,4.712,0.000,0.000,-1.971,-4.635,0.990,4.767,1.664,1.477,5.281,4.711,4.712,2.198,6.282,5.083,1.570,0.000,0.000,-1.316,-4.670,0.990,4.766,1.651,1.490,
23.780,32.680,-1.675,-5.241,1.517,0.001,6.268,1.833,1.203,1.013,1.382,0.000,3.922,1.241,1.202,4.670,1.897,0.000,3.106,0.000,0.000,0.000,0.000,0.000,0.000,0.000,0.000,0.000,0.000,0.000,3.142,6.283,0.000,1.003,1.569,1.569,4.085,6.281,1.199,4.712,0.000,0.000,-1.971,-4.635,0.990,4.767,1.664,1.477,5.281,4.711,4.712,2.198,6.282,5.083,1.570,0.000,0.000,-1.316,-4.670,0.990,4.766,1.651,1.490,
23.880,32.780,-1.675,-5.241,1.517,0.001,6.268,1.833,1.203,1.013,1.382,0.000,3.922,1.241,1.202,4.670,1.897,0.000,3.106,0.000,0.000,0.000,0.000,0.000,0.000,0.000,0.000,0.000,0.000,0.000,3.142,6.283,0.000,1.003,1.569,1.569,4.085,6.281,1.199,4.712,0.000,0.000,-1.971,-4.635,0.990,4.767,1.664,1.477,5.281,4.711,4.712,2.198,6.282,5.083,1.570,0.000,0.000,-1.316,-4.670,0.990,4.766,1.651,1.490,
23.965,32.865,-1.675,-5.241,1.517,0.001,6.268,1.833,1.203,1.013,1.382,0.000,3.922,1.241,1.202,4.670,1.897,0.000,3.106,0.000,0.000,0.000,0.000,0.000,0.000,0.000,0.000,0.000,0.000,0.000,3.142,6.283,0.000,1.003,1.569,1.569,4.085,6.281,1.199,4.712,0.000,0.000,-1.971,-4.635,0.990,4.767,1.664,1.477,5.281,4.711,4.712,2.198,6.282,5.083,1.570,0.000,0.000,-1.316,-4.670,0.990,4.766,1.651,1.490,
24.080,32.980,-1.675,-5.241,1.517,0.001,6.268,1.833,1.203,1.013,1.382,0.000,3.922,1.241,1.202,4.670,1.897,0.000,3.106,0.000,0.000,0.000,0.000,0.000,0.000,0.000,0.000,0.000,0.000,0.000,3.142,6.283,0.000,1.003,1.569,1.569,4.085,6.281,1.199,4.712,0.000,0.000,-1.971,-4.635,0.990,4.767,1.664,1.477,5.281,4.711,4.712,2.198,6.282,5.083,1.570,0.000,0.000,-1.316,-4.670,0.990,4.766,1.651,1.490,
24.180,33.080,-1.675,-5.241,1.517,0.001,6.268,1.833,1.203,1.013,1.382,0.000,3.922,1.241,1.202,4.670,1.897,0.000,3.106,0.000,0.000,0.000,0.000,0.000,0.000,0.000,0.000,0.000,0.000,0.000,3.142,6.283,0.000,1.003,1.569,1.569,4.085,6.281,1.199,4.712,0.000,0.000,-1.971,-4.635,0.990,4.767,1.664,1.477,5.281,4.711,4.712,2.198,6.282,5.083,1.570,0.000,0.000,-1.316,-4.670,0.990,4.766,1.651,1.490,
24.280,33.180,-1.675,-5.241,1.517,0.001,6.268,1.833,1.203,1.013,1.382,0.000,3.922,1.241,1.202,4.670,1.897,0.000,3.106,0.000,0.000,0.000,0.000,0.000,0.000,0.000,0.000,0.000,0.000,0.000,3.142,6.283,0.000,1.003,1.569,1.569,4.085,6.281,1.199,4.712,0.000,0.000,-1.971,-4.635,0.990,4.767,1.664,1.477,5.281,4.711,4.712,2.198,6.282,5.083,1.570,0.000,0.000,-1.316,-4.670,0.990,4.766,1.651,1.490,
24.380,33.280,-1.675,-5.241,1.517,0.001,6.268,1.833,1.203,1.013,1.382,0.000,3.922,1.241,1.202,4.670,1.897,0.000,3.106,0.000,0.000,0.000,0.000,0.000,0.000,0.000,0.000,0.000,0.000,0.000,3.142,6.283,0.000,1.003,1.569,1.569,4.085,6.281,1.199,4.712,0.000,0.000,-1.971,-4.635,0.990,4.767,1.664,1.477,5.281,4.711,4.712,2.198,6.282,5.083,1.570,0.000,0.000,-1.316,-4.670,0.990,4.766,1.651,1.490,
24.480,33.380,-1.675,-5.241,1.517,0.001,6.268,1.833,1.203,1.013,1.382,0.000,3.922,1.241,1.202,4.670,1.897,0.000,3.106,0.000,0.000,0.000,0.000,0.000,0.000,0.000,0.000,0.000,0.000,0.000,3.142,6.283,0.000,1.003,1.569,1.569,4.085,6.281,1.199,4.712,0.000,0.000,-1.971,-4.635,0.990,4.767,1.664,1.477,5.281,4.711,4.712,2.198,6.282,5.083,1.570,0.000,0.000,-1.316,-4.670,0.990,4.766,1.651,1.490,
24.580,33.480,-1.675,-5.241,1.517,0.001,6.268,1.833,1.203,1.013,1.382,0.000,3.922,1.241,1.202,4.670,1.897,0.000,3.106,0.000,0.000,0.000,0.000,0.000,0.000,0.000,0.000,0.000,0.000,0.000,3.142,6.283,0.000,1.003,1.569,1.569,4.085,6.281,1.199,4.712,0.000,0.000,-1.971,-4.635,0.990,4.767,1.664,1.477,5.281,4.711,4.712,2.198,6.282,5.083,1.570,0.000,0.000,-1.316,-4.670,0.990,4.766,1.651,1.490,
24.675,33.575,-1.675,-5.241,1.517,0.001,6.268,1.833,1.203,1.013,1.382,0.000,3.922,1.241,1.202,4.670,1.897,0.000,