deveshdatwani/Gopher/Assets/Data/07-21 09-16-17/Obstacle Handling_robot_value.csv
game_time,true_time,x,y,az,vx,vaz,dis_to_obs_0,dis_to_obs_36,dis_to_obs_72,dis_to_obs_108,dis_to_obs_144,dis_to_obs_180,dis_to_obs_-144,dis_to_obs_-108,dis_to_obs_-72,dis_to_obs_-36,dis_to_min_obs,direction_to_min_obs,dis_to_human_0,dis_to_human_36,dis_to_human_72,dis_to_human_108,dis_to_human_144,dis_to_human_180,dis_to_human_-144,dis_to_human_-108,dis_to_human_-72,dis_to_human_-36,dis_to_min_human,direction_to_min_human,main_cam_yaw,main_cam_pitch,left_joint_1,left_joint_2,left_joint_3,left_joint_4,left_joint_5,left_joint_6,left_joint_7,left_joint_gripper,left_is_grasping,left_end_x,left_end_y,left_end_z,left_end_ax,left_end_ay,left_end_az,right_joint_1,right_joint_2,right_joint_3,right_joint_4,right_joint_5,right_joint_6,right_joint_7,right_joint_gripper,right_is_grasping,right_end_x,right_end_y,right_end_z,right_end_ax,right_end_ay,right_end_az,
8.020,13.204,0.996,-9.942,1.579,1.021,0.155,3.443,0.000,2.094,1.257,2.126,4.970,3.357,2.097,1.698,4.189,0.000,3.001,0.000,0.000,0.000,0.000,0.000,0.000,0.000,0.000,0.000,0.000,0.000,3.142,0.000,0.000,1.003,1.570,1.570,4.086,6.281,1.199,4.712,0.000,0.000,0.664,-9.355,0.990,4.721,4.033,5.391,5.281,4.712,4.712,2.199,6.282,5.083,1.570,0.000,0.000,1.320,-9.350,0.990,4.720,4.177,5.247,
8.120,13.304,0.994,-9.824,1.653,0.994,1.290,3.340,0.000,1.999,1.294,2.397,0.000,3.062,2.058,0.000,3.856,0.000,3.142,0.000,0.000,0.000,0.000,0.000,0.000,0.000,0.000,0.000,0.000,0.000,3.142,0.002,0.000,1.003,1.571,1.572,4.086,6.281,1.199,4.712,0.000,0.000,0.620,-9.263,0.990,4.792,4.651,4.773,5.282,4.713,4.714,2.199,6.282,5.083,1.571,0.000,0.000,1.274,-9.209,0.991,4.792,4.676,4.749,
8.220,13.404,0.983,-9.725,1.777,1.013,1.314,3.307,0.000,1.788,1.368,3.065,0.000,2.714,2.027,0.000,3.514,0.000,3.142,0.000,3.298,0.000,0.000,0.000,0.000,0.000,0.000,0.000,0.000,0.000,3.142,0.001,0.000,1.003,1.570,1.569,4.085,6.282,1.199,4.712,0.000,0.000,0.541,-9.216,0.990,4.919,4.691,4.732,5.282,4.712,4.712,2.198,6.283,5.083,1.570,0.000,0.000,1.183,-9.081,0.991,4.918,4.696,4.727,
8.306,13.489,0.960,-9.627,1.870,1.028,0.871,3.291,0.000,1.691,1.428,3.905,4.895,2.543,1.642,4.596,3.289,0.000,3.106,0.000,3.279,0.000,0.000,0.000,0.000,0.000,0.000,0.000,0.000,0.000,3.142,0.001,0.000,1.004,1.570,1.569,4.085,6.282,1.199,4.712,0.000,0.000,0.472,-9.161,0.990,5.013,4.697,4.726,5.282,4.712,4.711,2.198,6.282,5.083,1.570,0.000,0.000,1.099,-8.968,0.991,5.012,4.700,4.723,
8.420,13.604,0.935,-9.550,1.926,1.019,0.832,3.275,0.000,1.654,1.461,0.000,3.650,2.475,1.669,4.851,3.156,0.000,3.071,0.000,0.000,0.000,0.000,0.000,0.000,0.000,0.000,0.000,0.000,0.000,3.142,0.001,0.000,1.003,1.570,1.570,4.086,6.281,1.199,4.712,0.000,0.000,0.422,-9.112,0.990,5.067,4.698,4.725,5.281,4.712,4.712,2.198,6.282,5.083,1.570,0.000,0.000,1.037,-8.884,0.991,5.067,4.702,4.721,
8.504,13.688,0.890,-9.440,2.025,1.004,1.070,3.271,0.000,1.587,1.537,0.000,3.610,2.385,1.730,4.185,2.531,0.000,2.966,0.000,0.000,0.000,0.000,0.000,0.000,0.000,0.000,0.000,0.000,0.000,3.142,0.001,0.000,1.003,1.570,1.570,4.086,6.282,1.199,4.712,0.000,0.000,0.337,-9.054,0.990,5.166,4.702,4.721,5.282,4.712,4.713,2.198,6.282,5.083,1.571,0.000,0.000,0.927,-8.766,0.991,5.165,4.705,4.718,
8.620,13.804,0.854,-9.369,2.100,1.010,1.077,3.010,0.000,1.538,1.615,0.000,3.842,2.339,0.000,3.219,2.879,0.000,2.896,0.000,0.000,0.000,0.000,0.000,0.000,0.000,0.000,0.000,0.000,0.000,3.142,0.001,0.000,1.003,1.570,1.570,4.085,6.282,1.199,4.712,0.000,0.000,0.273,-9.026,0.990,5.242,4.703,4.719,5.282,4.712,4.712,2.198,6.282,5.083,1.570,0.000,0.000,0.840,-8.695,0.991,5.241,4.706,4.717,
8.712,13.896,0.790,-9.267,2.197,1.019,0.568,0.000,1.606,1.489,1.721,0.000,3.770,2.322,0.000,3.400,2.768,0.000,2.826,0.000,0.000,0.000,0.000,0.000,0.000,0.000,0.000,0.000,0.000,0.000,3.142,0.000,0.000,1.004,1.569,1.568,4.085,6.282,1.199,4.712,0.000,0.000,0.178,-8.983,0.990,5.341,4.704,4.717,5.281,4.711,4.710,2.198,6.283,5.083,1.570,0.000,0.000,0.710,-8.599,0.991,5.340,4.706,4.717,
8.820,14.004,0.743,-9.203,2.208,1.014,6.255,0.000,1.671,1.495,1.664,0.000,3.794,2.364,0.000,3.295,2.703,0.000,2.826,0.000,0.000,0.000,0.000,0.000,0.000,0.000,0.000,0.000,0.000,0.000,3.142,6.282,0.000,1.004,1.569,1.568,4.085,6.281,1.199,4.712,0.000,0.000,0.128,-8.925,0.990,5.351,4.704,4.718,5.281,4.711,4.710,2.198,6.282,5.083,1.570,0.000,0.000,0.655,-8.535,0.990,5.351,4.705,4.718,
8.916,14.099,0.672,-9.107,2.208,1.007,6.269,0.000,0.000,1.515,1.537,0.000,3.913,2.438,0.000,3.178,2.608,0.000,2.826,0.000,0.000,0.000,0.000,0.000,0.000,0.000,0.000,0.000,0.000,0.000,3.142,6.282,0.000,1.004,1.569,1.569,4.085,6.281,1.199,4.712,0.000,0.000,0.057,-8.829,0.990,5.350,4.704,4.718,5.281,4.711,4.711,2.198,6.282,5.083,1.570,0.000,0.000,0.584,-8.439,0.990,5.350,4.705,4.718,
9.020,14.204,0.625,-9.043,2.208,1.010,6.269,0.000,0.000,1.527,1.452,0.000,3.992,2.070,0.000,3.100,2.544,0.000,2.861,0.000,0.000,0.000,0.000,0.000,0.000,0.000,0.000,0.000,0.000,0.000,3.142,6.282,0.000,1.004,1.569,1.569,4.085,6.281,1.199,4.712,0.000,0.000,0.010,-8.766,0.990,5.350,4.705,4.718,5.281,4.711,4.711,2.198,6.282,5.083,1.570,0.000,0.000,0.537,-8.375,0.990,5.350,4.705,4.718,
9.120,14.304,0.554,-8.947,2.208,1.014,6.268,0.000,0.000,1.294,1.428,0.000,4.110,2.145,0.000,2.983,2.448,0.000,2.861,0.000,0.000,0.000,0.000,0.000,0.000,0.000,0.000,0.000,0.000,0.000,3.142,6.282,0.000,1.004,1.569,1.569,4.085,6.281,1.199,4.712,0.000,0.000,-0.061,-8.670,0.990,5.350,4.704,4.718,5.281,4.711,4.711,2.198,6.282,5.083,1.570,0.000,0.000,0.466,-8.279,0.990,5.351,4.705,4.718,
9.220,14.404,0.495,-8.867,2.208,1.012,6.268,0.000,0.000,1.152,1.443,0.000,4.209,2.207,0.000,2.885,2.368,0.000,2.861,0.000,0.000,0.000,0.000,0.000,0.000,0.000,0.000,0.000,0.000,0.000,3.142,6.282,0.000,1.004,1.569,1.569,4.085,6.281,1.199,4.712,0.000,0.000,-0.120,-8.590,0.990,5.351,4.704,4.718,5.281,4.711,4.711,2.198,6.282,5.083,1.570,0.000,0.000,0.406,-8.199,0.990,5.351,4.705,4.718,
9.320,14.504,0.435,-8.787,2.209,1.010,6.267,4.904,0.000,1.010,1.458,0.000,4.307,2.269,0.000,2.787,2.288,0.000,2.861,0.000,0.000,0.000,0.000,0.000,0.000,0.000,0.000,0.000,0.000,0.000,3.142,6.282,0.000,1.004,1.569,1.569,4.085,6.281,1.199,4.712,0.000,0.000,-0.180,-8.510,0.990,5.351,4.704,4.718,5.281,4.711,4.711,2.198,6.282,5.083,1.570,0.000,0.000,0.347,-8.119,0.990,5.351,4.705,4.718,
9.420,14.604,0.376,-8.708,2.209,1.012,6.267,4.804,0.000,0.869,1.473,0.000,4.405,2.330,0.000,2.689,2.208,0.000,2.861,0.000,0.000,0.000,0.000,0.000,0.000,0.000,0.000,0.000,0.000,0.000,3.142,6.282,0.000,1.004,1.569,1.569,4.085,6.281,1.199,4.712,0.000,0.000,-0.239,-8.430,0.990,5.351,4.704,4.718,5.281,4.711,4.711,2.198,6.282,5.083,1.570,0.000,0.000,0.288,-8.039,0.990,5.351,4.705,4.718,
9.520,14.704,0.317,-8.628,2.210,1.004,0.014,4.706,0.000,0.888,1.488,0.000,4.499,2.392,0.000,2.591,2.128,0.000,2.861,0.000,0.000,0.000,0.000,0.000,0.000,0.000,0.000,0.000,0.000,0.000,3.142,6.283,0.000,1.003,1.570,1.570,4.086,6.281,1.199,4.712,0.000,0.000,-0.298,-8.351,0.990,5.351,4.704,4.718,5.281,4.711,4.712,2.198,6.282,5.083,1.570,0.000,0.000,0.228,-7.960,0.990,5.351,4.705,4.717,
9.608,14.792,0.259,-8.550,2.244,0.969,0.921,4.735,0.000,0.913,1.513,0.000,4.398,2.428,4.669,1.915,2.054,0.000,2.861,0.000,0.000,0.000,0.000,0.000,0.000,0.000,0.000,0.000,0.000,0.000,3.142,0.001,0.000,1.003,1.571,1.573,4.086,6.281,1.199,4.712,0.000,0.000,-0.364,-8.293,0.990,5.382,4.704,4.719,5.281,4.713,4.714,2.199,6.281,5.083,1.571,0.000,0.000,0.149,-7.884,0.991,5.382,4.707,4.716,
9.720,14.904,0.210,-8.491,2.331,0.968,1.438,0.000,0.000,0.890,1.558,0.000,4.050,2.854,4.553,2.253,2.013,0.000,2.966,2.206,0.000,0.000,0.000,0.000,0.000,0.000,0.000,0.000,0.000,0.000,3.142,0.002,0.000,1.003,1.571,1.571,4.086,6.281,1.199,4.712,0.000,0.000,-0.433,-8.290,0.990,5.471,4.706,4.716,5.282,4.713,4.713,2.198,6.282,5.083,1.571,0.000,0.000,0.043,-7.838,0.991,5.470,4.708,4.715,
9.819,15.003,0.127,-8.411,2.468,0.992,1.051,3.945,3.378,0.855,1.645,0.000,3.675,0.000,3.433,2.033,1.990,0.000,2.826,0.000,0.000,0.000,0.000,0.000,0.000,0.000,0.000,0.000,0.000,0.000,3.142,0.001,0.000,1.004,1.570,1.568,4.085,6.282,1.199,4.712,0.000,0.000,-0.539,-8.301,0.990,5.611,4.707,4.715,5.282,4.712,4.711,2.198,6.283,5.083,1.570,0.000,0.000,-0.130,-7.788,0.991,5.611,4.708,4.714,
9.920,15.104,0.065,-8.363,2.530,0.996,0.812,3.699,3.317,0.844,1.689,0.000,3.584,0.000,3.070,1.942,1.514,0.000,2.791,0.000,0.000,0.000,0.000,0.000,0.000,0.000,0.000,0.000,0.000,0.000,3.142,0.001,0.000,1.003,1.570,1.569,4.085,6.281,1.199,4.712,0.000,0.000,-0.606,-8.294,0.990,5.672,4.706,4.715,5.282,4.712,4.712,2.198,6.282,5.083,1.570,0.000,0.000,-0.229,-7.756,0.991,5.672,4.708,4.714,
10.014,15.198,-0.032,-8.299,2.620,0.978,0.994,3.510,3.244,0.825,1.758,0.000,3.497,0.000,2.662,1.834,1.654,0.000,2.720,0.000,0.000,0.000,0.000,0.000,0.000,0.000,0.000,0.000,0.000,0.000,3.142,0.001,0.000,1.003,1.570,1.570,4.086,6.281,1.199,4.712,0.000,0.000,-0.706,-8.289,0.990,5.760,4.707,4.714,5.282,4.712,4.713,2.198,6.282,5.083,1.570,0.000,0.000,-0.379,-7.720,0.991,5.760,4.709,4.714,
10.120,15.304,-0.099,-8.261,2.693,0.976,1.091,4.219,3.697,0.809,1.831,0.000,2.997,0.000,1.880,1.775,1.675,0.000,2.685,0.000,0.000,0.000,0.000,0.000,0.000,0.000,0.000,0.000,0.000,0.000,3.142,0.001,0.000,1.003,1.570,1.570,4.085,6.282,1.199,4.712,0.000,0.000,-0.773,-8.302,0.990,5.834,4.707,4.714,5.282,4.712,4.713,2.198,6.282,5.083,1.570,0.000,0.000,-0.488,-7.710,0.991,5.834,4.709,4.713,
10.218,15.401,-0.207,-8.213,2.754,1.022,0.020,0.000,3.045,0.787,1.871,0.000,3.034,0.000,2.231,1.717,0.000,0.000,2.650,0.000,0.000,0.000,0.000,0.000,0.000,0.000,0.000,0.000,2.065,0.000,3.142,6.282,0.000,1.004,1.568,1.566,4.085,6.282,1.199,4.711,0.000,0.000,-0.877,-8.296,0.990,5.899,4.707,4.713,5.281,4.710,4.709,2.198,6.283,5.083,1.570,0.000,0.000,-0.629,-7.689,0.990,5.898,4.708,4.713,
10.320,15.504,-0.282,-8.183,2.753,1.029,6.271,0.000,3.166,0.776,1.828,0.000,3.115,0.000,2.191,1.686,0.000,0.000,2.650,0.000,0.000,0.000,0.000,0.000,0.000,0.000,0.000,0.000,2.126,0.000,3.142,6.282,0.000,1.004,1.569,1.569,4.085,6.281,1.199,4.712,0.000,0.000,-0.951,-8.264,0.990,5.895,4.707,4.713,5.281,4.711,4.711,2.197,6.282,5.083,1.570,0.000,0.000,-0.704,-7.657,0.990,5.896,4.707,4.714,
10.420,15.604,-0.393,-8.137,2.753,1.006,6.270,0.000,3.341,0.760,0.845,0.000,3.236,0.000,2.132,1.640,3.841,0.000,2.685,0.000,0.000,0.000,0.000,0.000,0.000,0.000,0.000,0.000,0.000,0.000,3.142,6.282,0.000,1.004,1.569,1.569,4.085,6.281,1.199,4.712,0.000,0.000,-1.063,-8.219,0.990,5.896,4.707,4.713,5.281,4.711,4.711,2.198,6.282,5.083,1.570,0.000,0.000,-0.815,-7.611,0.990,5.896,4.707,4.714,
10.503,15.686,-0.484,-8.100,2.754,1.004,6.268,0.000,2.863,0.746,0.830,0.000,3.334,0.000,2.083,1.603,3.797,0.000,2.720,0.000,0.000,0.000,0.000,0.000,0.000,0.000,0.000,0.000,0.000,0.000,3.142,6.282,0.000,1.004,1.569,1.569,4.085,6.281,1.199,4.712,0.000,0.000,-1.154,-8.182,0.990,5.896,4.707,4.713,5.281,4.711,4.711,2.198,6.282,5.083,1.570,0.000,0.000,-0.906,-7.574,0.990,5.896,4.707,4.714,
10.620,15.804,-0.558,-8.070,2.754,1.013,6.269,0.000,2.787,0.735,0.818,0.000,3.413,0.000,2.044,1.134,3.762,0.000,2.720,0.000,0.000,0.000,0.000,0.000,0.000,0.000,0.000,0.000,0.000,0.000,3.142,6.282,0.000,1.004,1.569,1.569,4.085,6.281,1.199,4.712,0.000,0.000,-1.227,-8.152,0.990,5.896,4.707,4.713,5.281,4.711,4.711,2.198,6.282,5.083,1.570,0.000,0.000,-0.980,-7.544,0.990,5.896,4.707,4.714,
10.716,15.900,-0.669,-8.025,2.754,1.015,6.268,0.000,2.672,0.719,0.800,0.000,3.533,0.000,1.985,2.361,3.709,0.000,2.755,0.000,0.000,0.000,0.000,0.000,0.000,0.000,0.000,0.000,0.000,0.000,3.142,6.282,0.000,1.004,1.569,1.569,4.085,6.281,1.199,4.712,0.000,0.000,-1.338,-8.106,0.990,5.896,4.707,4.713,5.281,4.711,4.711,2.198,6.282,5.083,1.570,0.000,0.000,-1.091,-7.499,0.990,5.896,4.707,4.714,
10.820,16.004,-0.743,-7.994,2.754,1.011,6.267,0.000,2.596,1.492,0.788,0.000,3.612,0.000,1.945,1.199,3.673,0.000,2.791,0.000,0.000,0.000,0.000,0.000,0.000,0.000,0.000,0.000,0.000,0.000,3.142,6.282,0.000,1.004,1.569,1.569,4.085,6.281,1.199,4.712,0.000,0.000,-1.412,-8.076,0.990,5.896,4.707,4.713,5.281,4.711,4.711,2.198,6.282,5.083,1.570,0.000,0.000,-1.165,-7.469,0.990,5.896,4.707,4.714,
10.920,16.104,-0.847,-7.952,2.754,0.703,6.267,0.000,2.488,1.546,0.771,0.000,3.725,0.000,1.889,1.156,3.624,0.000,2.826,0.000,0.000,0.000,0.000,0.000,0.000,0.000,0.000,0.000,0.000,0.000,3.142,0.002,0.001,1.001,1.571,1.571,4.091,6.281,1.200,4.712,0.000,0.000,-1.518,-8.032,0.989,5.893,4.704,4.715,5.281,4.712,4.713,2.198,6.282,5.083,1.570,0.000,0.000,-1.268,-7.425,0.990,5.894,4.707,4.714,
11.020,16.204,-0.887,-7.935,2.755,0.258,6.265,0.000,2.446,1.566,0.764,0.000,3.767,0.000,1.867,1.139,3.605,0.000,2.826,0.000,0.000,0.000,0.000,0.000,0.000,0.000,0.000,0.000,0.000,0.000,3.142,0.001,0.001,1.002,1.570,1.570,4.088,6.281,1.200,4.712,0.000,0.000,-1.558,-8.017,0.989,5.895,4.705,4.714,5.281,4.712,4.712,2.198,6.282,5.083,1.570,0.000,0.000,-1.310,-7.410,0.990,5.896,4.707,4.714,
11.120,16.304,-0.899,-7.931,2.755,0.057,6.268,0.000,2.434,1.572,0.762,0.000,3.780,0.000,1.860,1.135,3.600,0.000,2.826,0.000,0.000,0.000,0.000,0.000,0.000,0.000,0.000,0.000,0.000,0.000,3.142,6.283,0.001,1.003,1.570,1.570,4.086,6.281,1.199,4.712,0.000,0.000,-1.569,-8.013,0.990,5.897,4.706,4.714,5.281,4.711,4.712,2.198,6.282,5.083,1.570,0.000,0.000,-1.322,-7.405,0.990,5.897,4.707,4.714,
11.215,16.399,-0.900,-7.930,2.756,0.000,6.274,0.000,2.434,1.572,0.762,0.000,3.780,0.000,1.859,1.134,3.601,0.000,2.826,0.000,0.000,0.000,0.000,0.000,0.000,0.000,0.000,0.000,0.000,0.000,3.142,6.283,0.000,1.003,1.569,1.569,4.085,6.281,1.199,4.712,0.000,0.000,-1.570,-8.013,0.990,5.897,4.707,4.713,5.281,4.711,4.711,2.198,6.282,5.083,1.570,0.000,0.000,-1.323,-7.405,0.990,5.897,4.708,4.714,
11.320,16.504,-0.900,-7.930,2.756,0.000,6.274,0.000,2.434,1.572,0.762,0.000,3.780,0.000,1.859,1.134,3.601,0.000,2.826,0.000,0.000,0.000,0.000,0.000,0.000,0.000,0.000,0.000,0.000,0.000,3.142,6.283,0.000,1.003,1.569,1.569,4.085,6.281,1.199,4.712,0.000,0.000,-1.570,-8.013,0.990,5.897,4.707,4.713,5.281,4.711,4.711,2.198,6.282,5.083,1.570,0.000,0.000,-1.323,-7.405,0.990,5.897,4.708,4.714,
11.420,16.604,-0.900,-7.930,2.756,0.000,6.274,0.000,2.434,1.572,0.762,0.000,3.780,0.000,1.859,1.134,3.601,0.000,2.826,0.000,0.000,0.000,0.000,0.000,0.000,0.000,0.000,0.000,0.000,0.000,3.142,6.283,0.000,1.003,1.569,1.569,4.085,6.281,1.199,4.712,0.000,0.000,-1.570,-8.013,0.990,5.897,4.707,4.713,5.281,4.711,4.711,2.198,6.282,5.083,1.570,0.000,0.000,-1.323,-7.405,0.990,5.897,4.708,4.714,
11.520,16.704,-0.900,-7.930,2.756,0.000,6.274,0.000,2.434,1.572,0.762,0.000,3.780,0.000,1.859,1.134,3.601,0.000,2.826,0.000,0.000,0.000,0.000,0.000,0.000,0.000,0.000,0.000,0.000,0.000,3.142,6.283,0.000,1.003,1.569,1.569,4.085,6.281,1.199,4.712,0.000,0.000,-1.570,-8.013,0.990,5.897,4.707,4.713,5.281,4.711,4.711,2.198,6.282,5.083,1.570,0.000,0.000,-1.323,-7.405,0.990,5.897,4.708,4.714,
11.620,16.804,-0.900,-7.930,2.756,0.000,6.274,0.000,2.434,1.572,0.762,0.000,3.780,0.000,1.859,1.134,3.601,0.000,2.826,0.000,0.000,0.000,0.000,0.000,0.000,0.000,0.000,0.000,0.000,0.000,3.142,6.283,0.000,1.003,1.569,1.569,4.085,6.281,1.199,4.712,0.000,0.000,-1.570,-8.013,0.990,5.897,4.707,4.713,5.281,4.711,4.711,2.198,6.282,5.083,1.570,0.000,0.000,-1.323,-7.405,0.990,5.897,4.708,4.714,
11.709,16.892,-0.900,-7.930,2.756,0.000,6.274,0.000,2.434,1.572,0.762,0.000,3.780,0.000,1.859,1.134,3.601,0.000,2.826,0.000,0.000,0.000,0.000,0.000,0.000,0.000,0.000,0.000,0.000,0.000,3.142,6.283,0.000,1.003,1.569,1.569,4.085,6.281,1.199,4.712,0.000,0.000,-1.570,-8.013,0.990,5.897,4.707,4.713,5.281,4.711,4.711,2.198,6.282,5.083,1.570,0.000,0.000,-1.323,-7.405,0.990,5.897,4.708,4.714,
11.804,16.988,-0.900,-7.930,2.756,0.000,6.274,0.000,2.434,1.572,0.762,0.000,3.780,0.000,1.859,1.134,3.601,0.000,2.826,0.000,0.000,0.000,0.000,0.000,0.000,0.000,0.000,0.000,0.000,0.000,3.142,6.283,0.000,1.003,1.569,1.569,4.085,6.281,1.199,4.712,0.000,0.000,-1.570,-8.013,0.990,5.897,4.707,4.713,5.281,4.711,4.711,2.198,6.282,5.083,1.570,0.000,0.000,-1.323,-7.405,0.990,5.897,4.708,4.714,
11.920,17.104,-0.900,-7.930,2.756,0.000,6.274,0.000,2.434,1.572,0.762,0.000,3.780,0.000,1.859,1.134,3.601,0.000,2.826,0.000,0.000,0.000,0.000,0.000,0.000,0.000,0.000,0.000,0.000,0.000,3.142,6.283,0.000,1.003,1.569,1.569,4.085,6.281,1.199,4.712,0.000,0.000,-1.570,-8.013,0.990,5.897,4.707,4.713,5.281,4.711,4.711,2.198,6.282,5.083,1.570,0.000,0.000,-1.323,-7.405,0.990,5.897,4.708,4.714,
12.020,17.204,-0.900,-7.930,2.756,0.000,6.274,0.000,2.434,1.572,0.762,0.000,3.780,0.000,1.859,1.134,3.601,0.000,2.826,0.000,0.000,0.000,0.000,0.000,0.000,0.000,0.000,0.000,0.000,0.000,3.142,6.283,0.000,1.003,1.569,1.569,4.085,6.281,1.199,4.712,0.000,0.000,-1.570,-8.013,0.990,5.897,4.707,4.713,5.281,4.711,4.711,2.198,6.282,5.083,1.570,0.000,0.000,-1.323,-7.405,0.990,5.897,4.708,4.714,
12.120,17.304,-0.900,-7.930,2.756,0.000,6.274,0.000,2.434,1.572,0.762,0.000,3.780,0.000,1.859,1.134,3.601,0.000,2.826,0.000,0.000,0.000,0.000,0.000,0.000,0.000,0.000,0.000,0.000,0.000,3.142,6.283,0.000,1.003,1.569,1.569,4.085,6.281,1.199,4.712,0.000,0.000,-1.570,-8.013,0.990,5.897,4.707,4.713,5.281,4.711,4.711,2.198,6.282,5.083,1.570,0.000,0.000,-1.323,-7.405,0.990,5.897,4.708,4.714,
12.217,17.401,-0.900,-7.930,2.756,0.000,6.273,0.000,2.434,1.572,0.762,0.000,3.780,0.000,1.859,1.134,3.601,0.000,2.826,0.000,0.000,0.000,0.000,0.000,0.000,0.000,0.000,0.000,0.000,0.000,3.142,6.283,0.000,1.003,1.569,1.569,4.085,6.281,1.199,4.712,0.000,0.000,-1.570,-8.013,0.990,5.897,4.707,4.713,5.281,4.711,4.711,2.198,6.282,5.083,1.570,0.000,0.000,-1.323,-7.405,0.990,5.897,4.708,4.714,
12.320,17.504,-0.900,-7.930,2.756,0.000,6.274,0.000,2.434,1.572,0.762,0.000,3.780,0.000,1.859,1.134,3.601,0.000,2.826,0.000,0.000,0.000,0.000,0.000,0.000,0.000,0.000,0.000,0.000,0.000,3.142,6.283,0.000,1.003,1.569,1.569,4.085,6.281,1.199,4.712,0.000,0.000,-1.570,-8.013,0.990,5.897,4.707,4.713,5.281,4.711,4.711,2.198,6.282,5.083,1.570,0.000,0.000,-1.323,-7.405,0.990,5.897,4.708,4.714,
12.420,17.604,-0.900,-7.930,2.756,0.000,6.274,0.000,2.434,1.572,0.762,0.000,3.780,0.000,1.859,1.134,3.601,0.000,2.826,0.000,0.000,0.000,0.000,0.000,0.000,0.000,0.000,0.000,0.000,0.000,3.142,6.283,0.000,1.003,1.569,1.569,4.085,6.281,1.199,4.712,0.000,0.000,-1.570,-8.013,0.990,5.897,4.707,4.713,5.281,4.711,4.711,2.198,6.282,5.083,1.570,0.000,0.000,-1.323,-7.405,0.990,5.897,4.708,4.714,
12.520,17.704,-0.900,-7.930,2.756,0.000,6.274,0.000,2.434,1.572,0.762,0.000,3.780,0.000,1.859,1.134,3.601,0.000,2.826,0.000,0.000,0.000,0.000,0.000,0.000,0.000,0.000,0.000,0.000,0.000,3.142,6.283,0.000,1.003,1.569,1.569,4.085,6.281,1.199,4.712,0.000,0.000,-1.570,-8.013,0.990,5.897,4.707,4.713,5.281,4.711,4.711,2.198,6.282,5.083,1.570,0.000,0.000,-1.323,-7.405,0.990,5.897,4.708,4.714,
12.620,17.804,-0.900,-7.930,2.756,0.000,6.274,0.000,2.434,1.572,0.762,0.000,3.780,0.000,1.859,1.134,3.601,0.000,2.826,0.000,0.000,0.000,0.000,0.000,0.000,0.000,0.000,0.000,0.000,0.000,3.142,6.283,0.000,1.003,1.569,1.569,4.085,6.281,1.199,4.712,0.000,0.000,-1.570,-8.013,0.990,5.897,4.707,4.713,5.281,4.711,4.711,2.198,6.282,5.083,1.570,0.000,0.000,-1.323,-7.405,0.990,5.897,4.708,4.714,
12.720,17.904,-0.900,-7.930,2.756,0.000,6.274,0.000,2.434,1.572,0.762,0.000,3.780,0.000,1.859,1.134,3.601,0.000,2.826,0.000,0.000,0.000,0.000,0.000,0.000,0.000,0.000,0.000,0.000,0.000,3.142,6.283,0.000,1.003,1.569,1.569,4.085,6.281,1.199,4.712,0.000,0.000,-1.570,-8.013,0.990,5.897,4.707,4.713,5.281,4.711,4.711,2.198,6.282,5.083,1.570,0.000,0.000,-1.323,-7.405,0.990,5.897,4.708,4.714,
12.819,18.002,-0.900,-7.930,2.756,0.000,6.274,0.000,2.434,1.572,0.762,0.000,3.780,0.000,1.859,1.134,3.601,0.000,2.826,0.000,0.000,0.000,0.000,0.000,0.000,0.000,0.000,0.000,0.000,0.000,3.142,6.283,0.000,1.003,1.569,1.569,4.085,6.281,1.199,4.712,0.000,0.000,-1.570,-8.013,0.990,5.897,4.707,4.713,5.281,4.711,4.711,2.198,6.282,5.083,1.570,0.000,0.000,-1.323,-7.405,0.990,5.897,4.708,4.714,
12.902,18.086,-0.900,-7.930,2.756,0.000,6.274,0.000,2.434,1.572,0.762,0.000,3.780,0.000,1.859,1.134,3.601,0.000,2.826,0.000,0.000,0.000,0.000,0.000,0.000,0.000,0.000,0.000,0.000,0.000,3.142,6.283,0.000,1.003,1.569,1.569,4.085,6.281,1.199,4.712,0.000,0.000,-1.570,-8.013,0.990,5.897,4.707,4.713,5.281,4.711,4.711,2.198,6.282,5.083,1.570,0.000,0.000,-1.323,-7.405,0.990,5.897,4.708,4.714,
13.020,18.204,-0.900,-7.930,2.756,0.000,6.274,0.000,2.434,1.572,0.762,0.000,3.780,0.000,1.859,1.134,3.601,0.000,2.826,0.000,0.000,0.000,0.000,0.000,0.000,0.000,0.000,0.000,0.000,0.000,3.142,6.283,0.000,1.003,1.569,1.569,4.085,6.281,1.199,4.712,0.000,0.000,-1.570,-8.013,0.990,5.897,4.707,4.713,5.281,4.711,4.711,2.198,6.282,5.083,1.570,0.000,0.000,-1.323,-7.405,0.990,5.897,4.708,4.714,
13.120,18.304,-0.900,-7.930,2.756,0.000,6.274,0.000,2.434,1.572,0.762,0.000,3.780,0.000,1.859,1.134,3.601,0.000,2.826,0.000,0.000,0.000,0.000,0.000,0.000,0.000,0.000,0.000,0.000,0.000,3.142,6.283,0.000,1.003,1.569,1.569,4.085,6.281,1.199,4.712,0.000,0.000,-1.570,-8.013,0.990,5.897,4.707,4.713,5.281,4.711,4.711,2.198,6.282,5.083,1.570,0.000,0.000,-1.323,-7.405,0.990,5.897,4.708,4.714,
13.220,18.404,-0.900,-7.930,2.756,0.000,6.274,0.000,2.434,1.572,0.762,0.000,3.780,0.000,1.859,1.134,3.601,0.000,2.826,0.000,0.000,0.000,0.000,0.000,0.000,0.000,0.000,0.000,0.000,0.000,3.142,6.283,0.000,1.003,1.569,1.569,4.085,6.281,1.199,4.712,0.000,0.000,-1.570,-8.013,0.990,5.897,4.707,4.713,5.281,4.711,4.711,2.198,6.282,5.083,1.570,0.000,0.000,-1.323,-7.405,0.990,5.897,4.708,4.714,
13.320,18.504,-0.900,-7.930,2.756,0.000,6.274,0.000,2.434,1.572,0.762,0.000,3.780,0.000,1.859,1.134,3.601,0.000,2.826,0.000,0.000,0.000,0.000,0.000,0.000,0.000,0.000,0.000,0.000,0.000,3.142,6.283,0.000,1.003,1.569,1.569,4.085,6.281,1.199,4.712,0.000,0.000,-1.570,-8.013,0.990,5.897,4.707,4.713,5.281,4.711,4.711,2.198,6.282,5.083,1.570,0.000,0.000,-1.323,-7.405,0.990,5.897,4.708,4.714,
13.420,18.604,-0.900,-7.930,2.756,0.000,6.273,0.000,2.434,1.572,0.762,0.000,3.780,0.000,1.859,1.134,3.601,0.000,2.826,0.000,0.000,0.000,0.000,0.000,0.000,0.000,0.000,0.000,0.000,0.000,3.142,6.283,0.000,1.003,1.569,1.569,4.085,6.281,1.199,4.712,0.000,0.000,-1.570,-8.013,0.990,5.897,4.707,4.713,5.281,4.711,4.711,2.198,6.282,5.083,1.570,0.000,0.000,-1.323,-7.405,0.990,5.897,4.708,4.714,
13.520,18.704,-0.900,-7.930,2.756,0.000,6.274,0.000,2.434,1.572,0.762,0.000,3.780,0.000,1.859,1.134,3.601,0.000,2.826,0.000,0.000,0.000,0.000,0.000,0.000,0.000,0.000,0.000,0.000,0.000,3.142,6.283,0.000,1.003,1.569,1.569,4.085,6.281,1.199,4.712,0.000,0.000,-1.570,-8.013,0.990,5.897,4.707,4.713,5.281,4.711,4.711,2.198,6.282,5.083,1.570,0.000,0.000,-1.323,-7.405,0.990,5.897,4.708,4.714,
13.620,18.804,-0.900,-7.930,2.756,0.000,6.274,0.000,2.434,1.572,0.762,0.000,3.780,0.000,1.859,1.134,3.601,0.000,2.826,0.000,0.000,0.000,0.000,0.000,0.000,0.000,0.000,0.000,0.000,0.000,3.142,6.283,0.000,1.003,1.569,1.569,4.085,6.281,1.199,4.712,0.000,0.000,-1.570,-8.013,0.990,5.897,4.707,4.713,5.281,4.711,4.711,2.198,6.282,5.083,1.570,0.000,0.000,-1.323,-7.405,0.990,5.897,4.708,4.714,
13.720,18.904,-0.900,-7.930,2.756,0.000,6.274,0.000,2.434,1.572,0.762,0.000,3.780,0.000,1.859,1.134,3.601,0.000,2.826,0.000,0.000,0.000,0.000,0.000,0.000,0.000,0.000,0.000,0.000,0.000,3.142,6.283,0.000,1.003,1.569,1.569,4.085,6.281,1.199,4.712,0.000,0.000,-1.570,-8.013,0.990,5.897,4.707,4.713,5.281,4.711,4.711,2.198,6.282,5.083,1.570,0.000,0.000,-1.323,-7.405,0.990,5.897,4.708,4.714,
13.820,19.004,-0.900,-7.930,2.756,0.000,6.274,0.000,2.434,1.572,0.762,0.000,3.780,0.000,1.859,1.134,3.601,0.000,2.826,0.000,0.000,0.000,0.000,0.000,0.000,0.000,0.000,0.000,0.000,0.000,3.142,6.283,0.000,1.003,1.569,1.569,4.085,6.281,1.199,4.712,0.000,0.000,-1.570,-8.013,0.990,5.897,4.707,4.713,5.281,4.711,4.711,2.198,6.282,5.083,1.570,0.000,0.000,-1.323,-7.405,0.990,5.897,4.708,4.714,
13.920,19.104,-0.900,-7.930,2.756,0.000,6.274,0.000,2.434,1.572,0.762,0.000,3.780,0.000,1.859,1.134,3.601,0.000,2.826,0.000,0.000,0.000,0.000,0.000,0.000,0.000,0.000,0.000,0.000,0.000,3.142,6.283,0.000,1.003,1.569,1.569,4.085,6.281,1.199,4.712,0.000,0.000,-1.570,-8.013,0.990,5.897,4.707,4.713,5.281,4.711,4.711,2.198,6.282,5.083,1.570,0.000,0.000,-1.323,-7.405,0.990,5.897,4.708,4.714,
14.020,19.204,-0.900,-7.930,2.756,0.000,6.274,0.000,2.434,1.572,0.762,0.000,3.780,0.000,1.859,1.134,3.601,0.000,2.826,0.000,0.000,0.000,0.000,0.000,0.000,0.000,0.000,0.000,0.000,0.000,3.142,6.283,0.000,1.003,1.569,1.569,4.085,6.281,1.199,4.712,0.000,0.000,-1.570,-8.013,0.990,5.897,4.707,4.713,5.281,4.711,4.711,2.198,6.282,5.083,1.570,0.000,0.000,-1.323,-7.405,0.990,5.897,4.708,4.714,
14.101,19.285,-0.900,-7.930,2.756,0.000,6.274,0.000,2.434,1.572,0.762,0.000,3.780,0.000,1.859,1.134,3.601,0.000,2.826,0.000,0.000,0.000,0.000,0.000,0.000,0.000,0.000,0.000,0.000,0.000,3.142,6.283,0.000,1.003,1.569,1.569,4.085,6.281,1.199,4.712,0.000,0.000,-1.570,-8.013,0.990,5.897,4.707,4.713,5.281,4.711,4.711,2.198,6.282,5.083,1.570,0.000,0.000,-1.323,-7.405,0.990,5.897,4.708,4.714,
14.220,19.404,-0.900,-7.930,2.756,0.000,6.274,0.000,2.434,1.572,0.762,0.000,3.780,0.000,1.859,1.134,3.601,0.000,2.826,0.000,0.000,0.000,0.000,0.000,0.000,0.000,0.000,0.000,0.000,0.000,3.142,6.283,0.000,1.003,1.569,1.569,4.085,6.281,1.199,4.712,0.000,0.000,-1.570,-8.013,0.990,5.897,4.707,4.713,5.281,4.711,4.711,2.198,6.282,5.083,1.570,0.000,0.000,-1.323,-7.405,0.990,5.897,4.708,4.714,
14.320,19.503,-0.900,-7.930,2.756,0.000,6.274,0.000,2.434,1.572,0.762,0.000,3.780,0.000,1.859,1.134,3.601,0.000,2.826,0.000,0.000,0.000,0.000,0.000,0.000,0.000,0.000,0.000,0.000,0.000,3.142,6.283,0.000,1.003,1.569,1.569,4.085,6.281,1.199,4.712,0.000,0.000,-1.570,-8.013,0.990,5.897,4.707,4.713,5.281,4.711,4.711,2.198,6.282,5.083,1.570,0.000,0.000,-1.323,-7.405,0.990,5.897,4.708,4.714,
14.420,19.604,-0.900,-7.930,2.756,0.000,6.274,0.000,2.434,1.572,0.762,0.000,3.780,0.000,1.859,1.134,3.601,0.000,2.826,0.000,0.000,0.000,0.000,0.000,0.000,0.000,0.000,0.000,0.000,0.000,3.142,6.283,0.000,1.003,1.569,1.569,4.085,6.281,1.199,4.712,0.000,0.000,-1.570,-8.013,0.990,5.897,4.707,4.713,5.281,4.711,4.711,2.198,6.282,5.083,1.570,0.000,0.000,-1.323,-7.405,0.990,5.897,4.708,4.714,
14.520,19.704,-0.900,-7.930,2.756,0.000,6.274,0.000,2.434,1.572,0.762,0.000,3.780,0.000,1.859,1.134,3.601,0.000,2.826,0.000,0.000,0.000,0.000,0.000,0.000,0.000,0.000,0.000,0.000,0.000,3.142,6.283,0.000,1.003,1.569,1.569,4.085,6.281,1.199,4.712,0.000,0.000,-1.570,-8.013,0.990,5.897,4.707,4.713,5.281,4.711,4.711,2.198,6.282,5.083,1.570,0.000,0.000,-1.323,-7.405,0.990,5.897,4.708,4.714,
14.602,19.785,-0.900,-7.930,2.756,0.000,6.274,0.000,2.434,1.572,0.762,0.000,3.780,0.000,1.859,1.134,3.601,0.000,2.826,0.000,0.000,0.000,0.000,0.000,0.000,0.000,0.000,0.000,0.000,0.000,3.142,6.283,0.000,1.003,1.569,1.569,4.085,6.281,1.199,4.712,0.000,0.000,-1.570,-8.013,0.990,5.897,4.707,4.713,5.281,4.711,4.711,2.198,6.282,5.083,1.570,0.000,0.000,-1.323,-7.405,0.990,5.897,4.708,4.714,
14.720,19.904,-0.900,-7.930,2.756,0.000,6.274,0.000,2.434,1.572,0.762,0.000,3.780,0.000,1.859,1.134,3.601,0.000,2.826,0.000,0.000,0.000,0.000,0.000,0.000,0.000,0.000,0.000,0.000,0.000,3.142,6.283,0.000,1.003,1.569,1.569,4.085,6.281,1.199,4.712,0.000,0.000,-1.570,-8.013,0.990,5.897,4.707,4.713,5.281,4.711,4.711,2.198,6.282,5.083,1.570,0.000,0.000,-1.323,-7.405,0.990,5.897,4.708,4.714,
14.805,19.989,-0.900,-7.930,2.756,0.000,6.274,0.000,2.434,1.572,0.762,0.000,3.780,0.000,1.859,1.134,3.601,0.000,2.826,0.000,0.000,0.000,0.000,0.000,0.000,0.000,0.000,0.000,0.000,0.000,3.142,6.283,0.000,1.003,1.569,1.569,4.085,6.281,1.199,4.712,0.000,0.000,-1.570,-8.013,0.990,5.897,4.707,4.713,5.281,4.711,4.711,2.198,6.282,5.083,1.570,0.000,0.000,-1.323,-7.405,0.990,5.897,4.708,4.714,
14.920,20.104,-0.900,-7.930,2.756,0.000,6.273,0.000,2.434,1.572,0.762,0.000,3.780,0.000,1.859,1.134,3.601,0.000,2.826,0.000,0.000,0.000,0.000,0.000,0.000,0.000,0.000,0.000,0.000,0.000,3.142,6.283,0.000,1.003,1.569,1.569,4.085,6.281,1.199,4.712,0.000,0.000,-1.570,-8.013,0.990,5.897,4.707,4.713,5.281,4.711,4.711,2.198,6.282,5.083,1.570,0.000,0.000,-1.323,-7.405,0.990,5.897,4.708,4.714,
15.020,20.204,-0.900,-7.930,2.756,0.000,6.273,0.000,2.434,1.572,0.762,0.000,3.780,0.000,1.859,1.134,3.601,0.000,2.826,0.000,0.000,0.000,0.000,0.000,0.000,0.000,0.000,0.000,0.000,0.000,3.142,6.283,0.000,1.003,1.569,1.569,4.085,6.281,1.199,4.712,0.000,0.000,-1.570,-8.013,0.990,5.897,4.707,4.713,5.281,4.711,4.711,2.198,6.282,5.083,1.570,0.000,0.000,-1.323,-7.405,0.990,5.897,4.708,4.714,
15.120,20.542,-0.900,-7.930,2.756,0.000,6.274,0.000,2.434,1.572,0.762,0.000,3.780,0.000,1.859,1.134,3.601,0.000,2.826,0.000,0.000,0.000,0.000,0.000,0.000,0.000,0.000,0.000,0.000,0.000,3.142,6.283,0.000,1.003,1.569,1.569,4.085,6.281,1.199,4.712,0.000,0.000,-1.570,-8.013,0.990,5.897,4.707,4.713,5.281,4.711,4.711,2.198,6.282,5.083,1.570,0.000,0.000,-1.323,-7.405,0.990,5.897,4.708,4.714,
15.220,20.642,-0.900,-7.930,2.756,0.000,6.274,0.000,2.434,1.572,0.762,0.000,3.780,0.000,1.859,1.134,3.601,0.000,2.826,0.000,0.000,0.000,0.000,0.000,0.000,0.000,0.000,0.000,0.000,0.000,3.142,6.283,0.000,1.003,1.569,1.569,4.085,6.281,1.199,4.712,0.000,0.000,-1.570,-8.013,0.990,5.897,4.707,4.713,5.281,4.711,4.711,2.198,6.282,5.083,1.570,0.000,0.000,-1.323,-7.405,0.990,5.897,4.708,4.714,
15.320,20.742,-0.900,-7.930,2.756,0.000,6.274,0.000,2.434,1.572,0.762,0.000,3.780,0.000,1.859,1.134,3.601,0.000,2.826,0.000,0.000,0.000,0.000,0.000,0.000,0.000,0.000,0.000,0.000,0.000,3.142,6.283,0.000,1.003,1.569,1.569,4.085,6.281,1.199,4.712,0.000,0.000,-1.570,-8.013,0.990,5.897,4.707,4.713,5.281,4.711,4.711,2.198,6.282,5.083,1.570,0.000,0.000,-1.323,-7.405,0.990,5.897,4.708,4.714,
15.420,20.842,-0.900,-7.930,2.756,0.000,6.274,0.000,2.434,1.572,0.762,0.000,3.780,0.000,1.859,1.134,3.601,0.000,2.826,0.000,0.000,0.000,0.000,0.000,0.000,0.000,0.000,0.000,0.000,0.000,3.142,6.283,0.000,1.003,1.569,1.569,4.085,6.281,1.199,4.712,0.000,0.000,-1.570,-8.013,0.990,5.897,4.707,4.713,5.281,4.711,4.711,2.198,6.282,5.083,1.570,0.000,0.000,-1.323,-7.405,0.990,5.897,4.708,4.714,
15.520,20.942,-0.900,-7.930,2.756,0.000,6.274,0.000,2.434,1.572,0.762,0.000,3.780,0.000,1.859,1.134,3.601,0.000,2.826,0.000,0.000,0.000,0.000,0.000,0.000,0.000,0.000,0.000,0.000,0.000,3.142,6.283,0.000,1.003,1.569,1.569,4.085,6.281,1.199,4.712,0.000,0.000,-1.570,-8.013,0.990,5.897,4.707,4.713,5.281,4.711,4.711,2.198,6.282,5.083,1.570,0.000,0.000,-1.323,-7.405,0.990,5.897,4.708,4.714,
15.620,21.042,-0.900,-7.930,2.756,0.000,6.274,0.000,2.434,1.572,0.762,0.000,3.780,0.000,1.859,1.134,3.601,0.000,2.826,0.000,0.000,0.000,0.000,0.000,0.000,0.000,0.000,0.000,0.000,0.000,3.142,6.283,0.000,1.003,1.569,1.569,4.085,6.281,1.199,4.712,0.000,0.000,-1.570,-8.013,0.990,5.897,4.707,4.713,5.281,4.711,4.711,2.198,6.282,5.083,1.570,0.000,0.000,-1.323,-7.405,0.990,5.897,4.708,4.714,
15.720,21.142,-0.900,-7.930,2.756,0.000,6.273,0.000,2.434,1.572,0.762,0.000,3.780,0.000,1.859,1.134,3.601,0.000,2.826,0.000,0.000,0.000,0.000,0.000,0.000,0.000,0.000,0.000,0.000,0.000,3.142,6.283,0.000,1.003,1.569,1.569,4.085,6.281,1.199,4.712,0.000,0.000,-1.570,-8.013,0.990,5.897,4.707,4.713,5.281,4.711,4.711,2.198,6.282,5.083,1.570,0.000,0.000,-1.323,-7.405,0.990,5.897,4.708,4.714,
15.804,21.226,-0.900,-7.930,2.756,0.000,6.274,0.000,2.434,1.572,0.762,0.000,3.780,0.000,1.859,1.134,3.601,0.000,2.826,0.000,0.000,0.000,0.000,0.000,0.000,0.000,0.000,0.000,0.000,0.000,3.142,6.283,0.000,1.003,1.569,1.569,4.085,6.281,1.199,4.712,0.000,0.000,-1.570,-8.013,0.990,5.897,4.707,4.713,5.281,4.711,4.711,2.198,6.282,5.083,1.570,0.000,0.000,-1.323,-7.405,0.990,5.897,4.708,4.714,
15.920,21.342,-0.900,-7.930,2.756,0.000,6.274,0.000,2.434,1.572,0.762,0.000,3.780,0.000,1.859,1.134,3.601,0.000,2.826,0.000,0.000,0.000,0.000,0.000,0.000,0.000,0.000,0.000,0.000,0.000,3.142,6.283,0.000,1.003,1.569,1.569,4.085,6.281,1.199,4.712,0.000,0.000,-1.570,-8.013,0.990,5.897,4.707,4.713,5.281,4.711,4.711,2.198,6.282,5.083,1.570,0.000,0.000,-1.323,-7.405,0.990,5.897,4.708,4.714,
16.015,21.437,-0.900,-7.930,2.756,0.000,6.274,0.000,2.434,1.572,0.762,0.000,3.780,0.000,1.859,1.134,3.601,0.000,2.826,0.000,0.000,0.000,0.000,0.000,0.000,0.000,0.000,0.000,0.000,0.000,3.142,6.283,0.000,1.003,1.569,1.569,4.085,6.281,1.199,4.712,0.000,0.000,-1.570,-8.013,0.990,5.897,4.707,4.713,5.281,4.711,4.711,2.198,6.282,5.083,1.570,0.000,0.000,-1.323,-7.405,0.990,5.897,4.708,4.714,
16.120,21.542,-0.900,-7.930,2.756,0.000,6.274,0.000,2.434,1.572,0.762,0.000,3.780,0.000,1.859,1.134,3.601,0.000,2.826,0.000,0.000,0.000,0.000,0.000,0.000,0.000,0.000,0.000,0.000,0.000,3.142,6.283,0.000,1.003,1.569,1.569,4.085,6.281,1.199,4.712,0.000,0.000,-1.570,-8.013,0.990,5.897,4.707,4.713,5.281,4.711,4.711,2.198,6.282,5.083,1.570,0.000,0.000,-1.323,-7.405,0.990,5.897,4.708,4.714,
16.220,21.642,-0.900,-7.930,2.756,0.000,6.274,0.000,2.434,1.572,0.762,0.000,3.780,0.000,1.859,1.134,3.601,0.000,2.826,0.000,0.000,0.000,0.000,0.000,0.000,0.000,0.000,0.000,0.000,0.000,3.142,6.283,0.000,1.003,1.569,1.569,4.085,6.281,1.199,4.712,0.000,0.000,-1.570,-8.013,0.990,5.897,4.707,4.713,5.281,4.711,4.711,2.198,6.282,5.083,1.570,0.000,0.000,-1.323,-7.405,0.990,5.897,4.708,4.714,
16.320,21.742,-0.900,-7.930,2.756,0.000,6.274,0.000,2.434,1.572,0.762,0.000,3.780,0.000,1.859,1.134,3.601,0.000,2.826,0.000,0.000,0.000,0.000,0.000,0.000,0.000,0.000,0.000,0.000,0.000,3.142,6.283,0.000,1.003,1.569,1.569,4.085,6.281,1.199,4.712,0.000,0.000,-1.570,-8.013,0.990,5.897,4.707,4.713,5.281,4.711,4.711,2.198,6.282,5.083,1.570,0.000,0.000,-1.323,-7.405,0.990,5.897,4.708,4.714,
16.420,21.842,-0.900,-7.930,2.756,0.000,6.274,0.000,2.434,1.572,0.762,0.000,3.780,0.000,1.859,1.134,3.601,0.000,2.826,0.000,0.000,0.000,0.000,0.000,0.000,0.000,0.000,0.000,0.000,0.000,3.142,6.283,0.000,1.003,1.569,1.569,4.085,6.281,1.199,4.712,0.000,0.000,-1.570,-8.013,0.990,5.897,4.707,4.713,5.281,4.711,4.711,2.198,6.282,5.083,1.570,0.000,0.000,-1.323,-7.405,0.990,5.897,4.708,4.714,
16.520,21.942,-0.900,-7.930,2.756,0.000,6.274,0.000,2.434,1.572,0.762,0.000,3.780,0.000,1.859,1.134,3.601,0.000,2.826,0.000,0.000,0.000,0.000,0.000,0.000,0.000,0.000,0.000,0.000,0.000,3.142,6.283,0.000,1.003,1.569,1.569,4.085,6.281,1.199,4.712,0.000,0.000,-1.570,-8.013,0.990,5.897,4.707,4.713,5.281,4.711,4.711,2.198,6.282,5.083,1.570,0.000,0.000,-1.323,-7.405,0.990,5.897,4.708,4.714,
16.620,22.042,-0.900,-7.930,2.756,0.000,6.274,0.000,2.434,1.572,0.762,0.000,3.780,0.000,1.859,1.134,3.601,0.000,2.826,0.000,0.000,0.000,0.000,0.000,0.000,0.000,0.000,0.000,0.000,0.000,3.142,6.283,0.000,1.003,1.569,1.569,4.085,6.281,1.199,4.712,0.000,0.000,-1.570,-8.013,0.990,5.897,4.707,4.713,5.281,4.711,4.711,2.198,6.282,5.083,1.570,0.000,0.000,-1.323,-7.405,0.990,5.897,4.708,4.714,
16.708,22.129,-0.900,-7.930,2.756,0.000,6.274,0.000,2.434,1.572,0.762,0.000,3.780,0.000,1.859,1.134,3.601,0.000,2.826,0.000,0.000,0.000,0.000,0.000,0.000,0.000,0.000,0.000,0.000,0.000,3.142,6.283,0.000,1.003,1.569,1.569,4.085,6.281,1.199,4.712,0.000,0.000,-1.570,-8.013,0.990,5.897,4.707,4.713,5.281,4.711,4.711,2.198,6.282,5.083,1.570,0.000,0.000,-1.323,-7.405,0.990,5.897,4.708,4.714,
16.820,22.242,-0.900,-7.930,2.756,0.000,6.274,0.000,2.434,1.572,0.762,0.000,3.780,0.000,1.859,1.134,3.601,0.000,2.826,0.000,0.000,0.000,0.000,0.000,0.000,0.000,0.000,0.000,0.000,0.000,3.142,6.283,0.000,1.003,1.569,1.569,4.085,6.281,1.199,4.712,0.000,0.000,-1.570,-8.013,0.990,5.897,4.707,4.713,5.281,4.711,4.711,2.198,6.282,5.083,1.570,0.000,0.000,-1.323,-7.405,0.990,5.897,4.708,4.714,
16.920,22.342,-0.900,-7.930,2.756,0.000,6.274,0.000,2.434,1.572,0.762,0.000,3.780,0.000,1.859,1.134,3.601,0.000,2.826,0.000,0.000,0.000,0.000,0.000,0.000,0.000,0.000,0.000,0.000,0.000,3.142,6.283,0.000,1.003,1.569,1.569,4.085,6.281,1.199,4.712,0.000,0.000,-1.570,-8.013,0.990,5.897,4.707,4.713,5.281,4.711,4.711,2.198,6.282,5.083,1.570,0.000,0.000,-1.323,-7.405,0.990,5.897,4.708,4.714,
17.020,22.442,-0.900,-7.930,2.756,0.000,6.274,0.000,2.434,1.572,0.762,0.000,3.780,0.000,1.859,1.134,3.601,0.000,2.826,0.000,0.000,0.000,0.000,0.000,0.000,0.000,0.000,0.000,0.000,0.000,3.142,6.283,0.000,1.003,1.569,1.569,4.085,6.281,1.199,4.712,0.000,0.000,-1.570,-8.013,0.990,5.897,4.707,4.713,5.281,4.711,4.711,2.198,6.282,5.083,1.570,0.000,0.000,-1.323,-7.405,0.990,5.897,4.708,4.714,
17.120,22.542,-0.900,-7.930,2.756,0.000,6.274,0.000,2.434,1.572,0.762,0.000,3.780,0.000,1.859,1.134,3.601,0.000,2.826,0.000,0.000,0.000,0.000,0.000,0.000,0.000,0.000,0.000,0.000,0.000,3.142,6.283,0.000,1.003,1.569,1.569,4.085,6.281,1.199,4.712,0.000,0.000,-1.570,-8.013,0.990,5.897,4.707,4.713,5.281,4.711,4.711,2.198,6.282,5.083,1.570,0.000,0.000,-1.323,-7.405,0.990,5.897,4.708,4.714,
17.204,22.626,-0.900,-7.930,2.756,0.000,6.274,0.000,2.434,1.572,0.762,0.000,3.780,0.000,1.859,1.134,3.601,0.000,2.826,0.000,0.000,0.000,0.000,0.000,0.000,0.000,0.000,0.000,0.000,0.000,3.142,6.283,0.000,1.003,1.569,1.569,4.085,6.281,1.199,4.712,0.000,0.000,-1.570,-8.013,0.990,5.897,4.707,4.713,5.281,4.711,4.711,2.198,6.282,5.083,1.570,0.000,0.000,-1.323,-7.405,0.990,5.897,4.708,4.714,
17.320,22.742,-0.900,-7.930,2.756,0.000,6.273,0.000,2.434,1.572,0.762,0.000,3.780,0.000,1.859,1.134,3.601,0.000,2.826,0.000,0.000,0.000,0.000,0.000,0.000,0.000,0.000,0.000,0.000,0.000,3.142,6.283,0.000,1.003,1.569,1.569,4.085,6.281,1.199,4.712,0.000,0.000,-1.570,-8.013,0.990,5.897,4.707,4.713,5.281,4.711,4.711,2.198,6.282,5.083,1.570,0.000,0.000,-1.323,-7.405,0.990,5.897,4.708,4.714,
17.420,22.842,-0.900,-7.930,2.756,0.000,6.274,0.000,2.434,1.572,0.762,0.000,3.780,0.000,1.859,1.134,3.601,0.000,2.826,0.000,0.000,0.000,0.000,0.000,0.000,0.000,0.000,0.000,0.000,0.000,3.142,6.283,0.000,1.003,1.569,1.569,4.085,6.281,1.199,4.712,0.000,0.000,-1.570,-8.013,0.990,5.897,4.707,4.713,5.281,4.711,4.711,2.198,6.282,5.083,1.570,0.000,0.000,-1.323,-7.405,0.990,5.897,4.708,4.714,
17.520,22.942,-0.900,-7.930,2.756,0.000,6.274,0.000,2.434,1.572,0.762,0.000,3.780,0.000,1.859,1.134,3.601,0.000,2.826,0.000,0.000,0.000,0.000,0.000,0.000,0.000,0.000,0.000,0.000,0.000,3.142,6.283,0.000,1.003,1.569,1.569,4.085,6.281,1.199,4.712,0.000,0.000,-1.570,-8.013,0.990,5.897,4.707,4.713,5.281,4.711,4.711,2.198,6.282,5.083,1.570,0.000,0.000,-1.323,-7.405,0.990,5.897,4.708,4.714,
17.617,23.039,-0.900,-7.930,2.756,0.000,6.274,0.000,2.434,1.572,0.762,0.000,3.780,0.000,1.859,1.134,3.601,0.000,2.826,0.000,0.000,0.000,0.000,0.000,0.000,0.000,0.000,0.000,0.000,0.000,3.142,6.283,0.000,1.003,1.569,1.569,4.085,6.281,1.199,4.712,0.000,0.000,-1.570,-8.013,0.990,5.897,4.707,4.713,5.281,4.711,4.711,2.198,6.282,5.083,1.570,0.000,0.000,-1.323,-7.405,0.990,5.897,4.708,4.714,
17.720,23.142,-0.900,-7.930,2.756,0.000,6.274,0.000,2.434,1.572,0.762,0.000,3.780,0.000,1.859,1.134,3.601,0.000,2.826,0.000,0.000,0.000,0.000,0.000,0.000,0.000,0.000,0.000,0.000,0.000,3.142,6.283,0.000,1.003,1.569,1.569,4.085,6.281,1.199,4.712,0.000,0.000,-1.570,-8.013,0.990,5.897,4.707,4.713,5.281,4.711,4.711,2.198,6.282,5.083,1.570,0.000,0.000,-1.323,-7.405,0.990,5.897,4.708,4.714,
17.820,23.242,-0.900,-7.930,2.756,0.000,6.274,0.000,2.434,1.572,0.762,0.000,3.780,0.000,1.859,1.134,3.601,0.000,2.826,0.000,0.000,0.000,0.000,0.000,0.000,0.000,0.000,0.000,0.000,0.000,3.142,6.283,0.000,1.003,1.569,1.569,4.085,6.281,1.199,4.712,0.000,0.000,-1.570,-8.013,0.990,5.897,4.707,4.713,5.281,4.711,4.711,2.198,6.282,5.083,1.570,0.000,0.000,-1.323,-7.405,0.990,5.897,4.708,4.714,
17.920,23.342,-0.900,-7.930,2.756,0.000,6.274,0.000,2.434,1.572,0.762,0.000,3.780,0.000,1.859,1.134,3.601,0.000,2.826,0.000,0.000,0.000,0.000,0.000,0.000,0.000,0.000,0.000,0.000,0.000,3.142,6.283,0.000,1.003,1.569,1.569,4.085,6.281,1.199,4.712,0.000,0.000,-1.570,-8.013,0.990,5.897,4.707,4.713,5.281,4.711,4.711,2.198,6.282,5.083,1.570,0.000,0.000,-1.323,-7.405,0.990,5.897,4.708,4.714,
18.017,23.439,-0.900,-7.930,2.756,0.000,6.274,0.000,2.434,1.572,0.762,0.000,3.780,0.000,1.859,1.134,3.601,0.000,2.826,0.000,0.000,0.000,0.000,0.000,0.000,0.000,0.000,0.000,0.000,0.000,3.142,6.283,0.000,1.003,1.569,1.569,4.085,6.281,1.199,4.712,0.000,0.000,-1.570,-8.013,0.990,5.897,4.707,4.713,5.281,4.711,4.711,2.198,6.282,5.083,1.570,0.000,0.000,-1.323,-7.405,0.990,5.897,4.708,4.714,
18.103,23.524,-0.900,-7.930,2.756,0.000,6.274,0.000,2.434,1.572,0.762,0.000,3.780,0.000,1.859,1.134,3.601,0.000,2.826,0.000,0.000,0.000,0.000,0.000,0.000,0.000,0.000,0.000,0.000,0.000,3.142,6.283,0.000,1.003,1.569,1.569,4.085,6.281,1.199,4.712,0.000,0.000,-1.570,-8.013,0.990,5.897,4.707,4.713,5.281,4.711,4.711,2.198,6.282,5.083,1.570,0.000,0.000,-1.323,-7.405,0.990,5.897,4.708,4.714,
18.220,23.642,-0.900,-7.930,2.756,0.000,6.274,0.000,2.434,1.572,0.762,0.000,3.780,0.000,1.859,1.134,3.601,0.000,2.826,0.000,0.000,0.000,0.000,0.000,0.000,0.000,0.000,0.000,0.000,0.000,3.142,6.283,0.000,1.003,1.569,1.569,4.085,6.281,1.199,4.712,0.000,0.000,-1.570,-8.013,0.990,5.897,4.707,4.713,5.281,4.711,4.711,2.198,6.282,5.083,1.570,0.000,0.000,-1.323,-7.405,0.990,5.897,4.708,4.714,
18.309,23.731,-0.900,-7.930,2.756,0.000,6.274,0.000,2.434,1.572,0.762,0.000,3.780,0.000,1.859,1.134,3.601,0.000,2.826,0.000,0.000,0.000,0.000,0.000,0.000,0.000,0.000,0.000,0.000,0.000,3.142,6.283,0.000,1.003,1.569,1.569,4.085,6.281,1.199,4.712,0.000,0.000,-1.570,-8.013,0.990,5.897,4.707,4.713,5.281,4.711,4.711,2.198,6.282,5.083,1.570,0.000,0.000,-1.323,-7.405,0.990,5.897,4.708,4.714,
18.420,23.842,-0.900,-7.930,2.756,0.000,6.274,0.000,2.434,1.572,0.762,0.000,3.780,0.000,1.859,1.134,3.601,0.000,2.826,0.000,0.000,0.000,0.000,0.000,0.000,0.000,0.000,0.000,0.000,0.000,3.142,6.283,0.000,1.003,1.569,1.569,4.085,6.281,1.199,4.712,0.000,0.000,-1.570,-8.013,0.990,5.897,4.707,4.713,5.281,4.711,4.711,2.198,6.282,5.083,1.570,0.000,0.000,-1.323,-7.405,0.990,5.897,4.708,4.714,
18.514,23.935,-0.900,-7.930,2.756,0.000,6.274,0.000,2.434,1.572,0.762,0.000,3.780,0.000,1.859,1.134,3.601,0.000,2.826,0.000,0.000,0.000,0.000,0.000,0.000,0.000,0.000,0.000,0.000,0.000,3.142,6.283,0.000,1.003,1.569,1.569,4.085,6.281,1.199,4.712,0.000,0.000,-1.570,-8.013,0.990,5.897,4.707,4.713,5.281,4.711,4.711,2.198,6.282,5.083,1.570,0.000,0.000,-1.323,-7.405,0.990,5.897,4.708,4.714,
18.620,24.042,-0.900,-7.930,2.756,0.000,6.274,0.000,2.434,1.572,0.762,0.000,3.780,0.000,1.859,1.134,3.601,0.000,2.826,0.000,0.000,0.000,0.000,0.000,0.000,0.000,0.000,0.000,0.000,0.000,3.142,6.283,0.000,1.003,1.569,1.569,4.085,6.281,1.199,4.712,0.000,0.000,-1.570,-8.013,0.990,5.897,4.707,4.713,5.281,4.711,4.711,2.198,6.282,5.083,1.570,0.000,0.000,-1.323,-7.405,0.990,5.897,4.708,4.714,
18.718,24.140,-0.900,-7.930,2.756,0.000,6.274,0.000,2.434,1.572,0.762,0.000,3.780,0.000,1.859,1.134,3.601,0.000,2.826,0.000,0.000,0.000,0.000,0.000,0.000,0.000,0.000,0.000,0.000,0.000,3.142,6.283,0.000,1.003,1.569,1.569,4.085,6.281,1.199,4.712,0.000,0.000,-1.570,-8.013,0.990,5.897,4.707,4.713,5.281,4.711,4.711,2.198,6.282,5.083,1.570,0.000,0.000,-1.323,-7.405,0.990,5.897,4.708,4.714,
18.820,24.242,-0.900,-7.930,2.756,0.000,6.273,0.000,2.434,1.572,0.762,0.000,3.780,0.000,1.859,1.134,3.601,0.000,2.826,0.000,0.000,0.000,0.000,0.000,0.000,0.000,0.000,0.000,0.000,0.000,3.142,6.283,0.000,1.003,1.569,1.569,4.085,6.281,1.199,4.712,0.000,0.000,-1.570,-8.013,0.990,5.897,4.707,4.713,5.281,4.711,4.711,2.198,6.282,5.083,1.570,0.000,0.000,-1.323,-7.405,0.990,5.897,4.708,4.714,
18.920,24.342,-0.900,-7.930,2.756,0.000,6.274,0.000,2.434,1.572,0.762,0.000,3.780,0.000,1.859,1.134,3.601,0.000,2.826,0.000,0.000,0.000,0.000,0.000,0.000,0.000,0.000,0.000,0.000,0.000,3.142,6.283,0.000,1.003,1.569,1.569,4.085,6.281,1.199,4.712,0.000,0.000,-1.570,-8.013,0.990,5.897,4.707,4.713,5.281,4.711,4.711,2.198,6.282,5.083,1.570,0.000,0.000,-1.323,-7.405,0.990,5.897,4.708,4.714,
19.020,24.442,-0.900,-7.930,2.756,0.000,6.274,0.000,2.434,1.572,0.762,0.000,3.780,0.000,1.859,1.134,3.601,0.000,2.826,0.000,0.000,0.000,0.000,0.000,0.000,0.000,0.000,0.000,0.000,0.000,3.142,6.283,0.000,1.003,1.569,1.569,4.085,6.281,1.199,4.712,0.000,0.000,-1.570,-8.013,0.990,5.897,4.707,4.713,5.281,4.711,4.711,2.198,6.282,5.083,1.570,0.000,0.000,-1.323,-7.405,0.990,5.897,4.708,4.714,
19.120,24.542,-0.900,-7.930,2.756,0.000,6.274,0.000,2.434,1.572,0.762,0.000,3.780,0.000,1.859,1.134,3.601,0.000,2.826,0.000,0.000,0.000,0.000,0.000,0.000,0.000,0.000,0.000,0.000,0.000,3.142,6.283,0.000,1.003,1.569,1.569,4.085,6.281,1.199,4.712,0.000,0.000,-1.570,-8.013,0.990,5.897,4.707,4.713,5.281,4.711,4.711,2.198,6.282,5.083,1.570,0.000,0.000,-1.323,-7.405,0.990,5.897,4.708,4.714,
19.220,24.642,-0.900,-7.930,2.756,0.000,6.274,0.000,2.434,1.572,0.762,0.000,3.780,0.000,1.859,1.134,3.601,0.000,2.826,0.000,0.000,0.000,0.000,0.000,0.000,0.000,0.000,0.000,0.000,0.000,3.142,6.283,0.000,1.003,1.569,1.569,4.085,6.281,1.199,4.712,0.000,0.000,-1.570,-8.013,0.990,5.897,4.707,4.713,5.281,4.711,4.711,2.198,6.282,5.083,1.570,0.000,0.000,-1.323,-7.405,0.990,5.897,4.708,4.714,
19.320,24.742,-0.900,-7.930,2.756,0.000,6.274,0.000,2.434,1.572,0.762,0.000,3.780,0.000,1.859,1.134,3.601,0.000,2.826,0.000,0.000,0.000,0.000,0.000,0.000,0.000,0.000,0.000,0.000,0.000,3.142,6.283,0.000,1.003,1.569,1.569,4.085,6.281,1.199,4.712,0.000,0.000,-1.570,-8.013,0.990,5.897,4.707,4.713,5.281,4.711,4.711,2.198,6.282,5.083,1.570,0.000,0.000,-1.323,-7.405,0.990,5.897,4.708,4.714,
19.404,24.826,-0.900,-7.930,2.756,0.000,6.274,0.000,2.434,1.572,0.762,0.000,3.780,0.000,1.859,1.134,3.601,0.000,2.826,0.000,0.000,0.000,0.000,0.000,0.000,0.000,0.000,0.000,0.000,0.000,3.142,6.283,0.000,1.003,1.569,1.569,4.085,6.281,1.199,4.712,0.000,0.000,-1.570,-8.013,0.990,5.897,4.707,4.713,5.281,4.711,4.711,2.198,6.282,5.083,1.570,0.000,0.000,-1.323,-7.405,0.990,5.897,4.708,4.714,
19.520,24.942,-0.900,-7.930,2.756,0.000,6.274,0.000,2.434,1.572,0.762,0.000,3.780,0.000,1.859,1.134,3.601,0.000,2.826,0.000,0.000,0.000,0.000,0.000,0.000,0.000,0.000,0.000,0.000,0.000,3.142,6.283,0.000,1.003,1.569,1.569,4.085,6.281,1.199,4.712,0.000,0.000,-1.570,-8.013,0.990,5.897,4.707,4.713,5.281,4.711,4.711,2.198,6.282,5.083,1.570,0.000,0.000,-1.323,-7.405,0.990,5.897,4.708,4.714,
19.619,25.040,-0.891,-7.934,2.755,-0.389,6.166,0.000,2.443,1.568,0.764,0.000,3.771,0.000,1.865,1.138,3.604,0.000,2.826,0.000,0.000,0.000,0.000,0.000,0.000,0.000,0.000,0.000,0.000,0.000,3.142,0.004,0.001,0.999,1.571,1.573,4.093,6.280,1.200,4.712,0.000,0.000,-1.562,-8.013,0.989,5.892,4.702,4.715,5.280,4.713,4.715,2.199,6.281,5.083,1.570,0.000,0.000,-1.312,-7.407,0.990,5.893,4.708,4.714,
19.720,25.142,-0.860,-7.947,2.749,-0.299,6.272,3.817,2.471,1.559,0.766,0.000,3.746,0.000,1.891,1.151,3.606,0.000,2.826,0.000,0.000,0.000,0.000,0.000,0.000,0.000,0.000,0.000,0.000,0.000,3.142,6.282,6.283,1.005,1.569,1.568,4.083,6.281,1.199,4.712,0.000,0.000,-1.529,-8.026,0.990,5.892,4.709,4.713,5.281,4.711,4.711,2.199,6.282,5.083,1.570,0.000,0.000,-1.279,-7.420,0.991,5.892,4.708,4.713,
19.817,25.239,-0.845,-7.953,2.749,-0.049,6.271,3.836,2.487,1.550,0.769,0.000,3.729,0.000,1.899,1.158,3.614,0.000,2.826,0.000,0.000,0.000,0.000,0.000,0.000,0.000,0.000,0.000,0.000,0.000,3.142,6.283,0.000,1.004,1.569,1.569,4.084,6.281,1.199,4.712,0.000,0.000,-1.514,-8.032,0.990,5.891,4.708,4.713,5.281,4.711,4.711,2.199,6.282,5.083,1.570,0.000,0.000,-1.264,-7.426,0.990,5.891,4.708,4.713,
19.920,25.342,-0.834,-7.958,2.750,-0.409,6.235,0.000,2.498,1.544,0.770,0.000,3.718,0.000,1.905,1.162,3.619,0.000,2.826,0.000,0.000,0.000,0.000,0.000,0.000,0.000,0.000,0.000,0.000,0.000,3.142,0.004,0.001,0.999,1.571,1.573,4.093,6.280,1.200,4.712,0.000,0.000,-1.505,-8.033,0.989,5.887,4.702,4.715,5.280,4.713,4.715,2.199,6.282,5.083,1.570,0.000,0.000,-1.252,-7.428,0.990,5.887,4.708,4.714,
20.020,25.442,-0.749,-7.993,2.749,-0.718,0.002,0.000,2.586,1.500,0.784,0.000,3.626,0.000,1.951,1.198,3.660,0.000,2.791,0.000,0.000,0.000,0.000,0.000,0.000,0.000,0.000,0.000,0.000,0.000,3.142,6.281,6.283,1.006,1.568,1.568,4.081,6.281,1.199,4.712,0.000,0.000,-1.418,-8.073,0.990,5.893,4.710,4.712,5.281,4.710,4.710,2.198,6.282,5.083,1.570,0.000,0.000,-1.168,-7.466,0.991,5.893,4.708,4.713,
20.120,25.542,-0.707,-8.010,2.749,-0.266,6.277,0.000,2.629,1.477,0.791,0.000,3.581,0.000,1.974,1.215,3.680,0.000,2.791,0.000,0.000,0.000,0.000,0.000,0.000,0.000,0.000,0.000,0.000,0.000,3.142,6.282,6.283,1.005,1.569,1.569,4.083,6.281,1.199,4.712,0.000,0.000,-1.377,-8.089,0.990,5.892,4.709,4.713,5.281,4.711,4.711,2.199,6.282,5.083,1.570,0.000,0.000,-1.127,-7.483,0.991,5.892,4.708,4.713,
20.220,25.642,-0.665,-8.028,2.750,-0.808,6.150,0.000,2.673,0.719,0.797,0.000,3.535,0.000,1.996,2.365,3.702,0.000,2.755,0.000,0.000,0.000,0.000,0.000,0.000,0.000,0.000,0.000,0.000,0.000,3.142,0.004,0.001,0.999,1.572,1.573,4.093,6.280,1.200,4.712,0.000,0.000,-1.336,-8.102,0.989,5.886,4.703,4.715,5.280,4.713,4.715,2.200,6.281,5.083,1.570,0.000,0.000,-1.083,-7.498,0.990,5.887,4.708,4.714,
20.301,25.722,-0.585,-8.060,2.750,-0.625,6.278,0.000,2.756,0.730,0.810,0.000,3.448,0.000,2.039,1.125,3.741,0.000,2.755,0.000,0.000,0.000,0.000,0.000,0.000,0.000,0.000,0.000,0.000,0.000,3.142,6.280,6.283,1.006,1.568,1.566,4.080,6.281,1.199,4.712,0.000,0.000,-1.254,-8.142,0.990,5.895,4.710,4.712,5.281,4.710,4.709,2.199,6.282,5.083,1.570,0.000,0.000,-1.005,-7.534,0.991,5.894,4.708,4.713,
20.420,25.842,-0.554,-8.073,2.750,-0.280,6.277,0.000,2.788,0.735,0.815,0.000,3.415,0.000,2.056,1.138,3.756,0.000,2.720,0.000,0.000,0.000,0.000,0.000,0.000,0.000,0.000,0.000,0.000,0.000,3.142,6.282,6.283,1.005,1.569,1.568,4.083,6.281,1.199,4.712,0.000,0.000,-1.223,-8.153,0.990,5.892,4.709,4.713,5.281,4.711,4.711,2.199,6.282,5.083,1.570,0.000,0.000,-0.974,-7.546,0.991,5.892,4.708,4.713,
20.509,25.931,-0.541,-8.079,2.748,-0.005,6.150,4.160,2.800,0.737,0.817,0.000,3.403,0.000,2.066,1.143,3.758,0.000,2.720,0.000,0.000,0.000,0.000,0.000,0.000,0.000,0.000,0.000,0.000,0.000,3.142,6.281,0.000,1.005,1.568,1.568,4.083,6.281,1.199,4.712,0.000,0.000,-1.211,-8.158,0.990,5.892,4.708,4.713,5.281,4.710,4.710,2.197,6.282,5.083,1.570,0.000,0.000,-0.960,-7.551,0.990,5.891,4.707,4.714,
20.620,26.042,-0.551,-8.074,2.718,0.391,5.958,3.990,2.769,0.739,0.804,0.000,3.458,0.000,2.113,1.142,3.686,0.000,2.755,0.000,0.000,0.000,0.000,0.000,0.000,0.000,0.000,0.000,0.000,0.000,3.142,6.277,6.283,1.008,1.566,1.564,4.077,6.281,1.199,4.711,0.000,0.000,-1.222,-8.137,0.990,5.866,4.712,4.712,5.282,4.708,4.707,2.197,6.281,5.083,1.570,0.000,0.000,-0.956,-7.537,0.991,5.865,4.708,4.714,
20.716,26.138,-0.645,-8.031,2.698,1.261,6.142,3.701,2.661,1.516,0.786,0.000,3.595,0.000,2.095,1.126,3.593,0.000,2.826,0.000,0.000,0.000,0.000,0.000,0.000,0.000,0.000,0.000,0.000,0.000,3.142,6.278,0.000,1.007,1.567,1.566,4.078,6.281,1.199,4.712,0.000,0.000,-1.317,-8.078,0.990,5.844,4.711,4.712,5.282,4.709,4.708,2.196,6.282,5.083,1.570,0.000,0.000,-1.038,-7.484,0.990,5.843,4.707,4.714,
20.820,26.242,-0.741,-7.985,2.657,1.330,5.282,3.301,2.544,1.638,0.763,0.000,4.226,0.000,2.113,1.514,3.538,0.000,2.896,0.000,0.000,0.000,0.000,0.000,0.000,0.000,0.000,0.000,0.000,0.000,3.142,6.281,0.001,1.004,1.568,1.565,4.085,6.281,1.199,4.711,0.000,0.000,-1.416,-8.005,0.990,5.804,4.707,4.713,5.281,4.710,4.708,2.197,6.282,5.083,1.570,0.000,0.000,-1.111,-7.423,0.990,5.803,4.707,4.714,
20.920,26.342,-0.854,-7.922,2.519,0.876,4.939,2.609,0.000,2.715,0.728,1.104,4.742,0.000,2.376,1.487,0.000,0.000,3.071,0.000,0.000,0.000,0.000,0.000,0.000,0.000,0.000,0.000,0.000,0.000,3.142,6.282,0.001,1.003,1.569,1.568,4.088,6.281,1.199,4.712,0.000,0.000,-1.525,-7.845,0.989,5.662,4.705,4.715,5.282,4.711,4.711,2.198,6.281,5.083,1.570,0.000,0.000,-1.142,-7.312,0.991,5.661,4.707,4.714,
21.020,26.442,-0.920,-7.872,2.419,0.893,5.317,2.732,0.000,2.305,1.385,1.004,0.000,0.000,2.664,1.057,0.000,0.000,3.142,0.000,0.000,0.000,0.000,0.000,0.000,0.000,0.000,0.000,0.000,0.000,3.142,6.280,0.000,1.005,1.569,1.568,4.084,6.281,1.199,4.712,0.000,0.000,-1.580,-7.729,0.990,5.562,4.707,4.715,5.282,4.711,4.710,2.197,6.282,5.083,1.570,0.000,0.000,-1.146,-7.236,0.991,5.561,4.707,4.715,
21.120,26.542,-0.993,-7.805,2.342,1.091,5.422,2.829,0.000,2.579,1.507,0.964,0.000,0.000,2.914,1.467,4.407,0.000,3.142,0.000,0.000,0.000,0.000,0.000,0.000,0.000,0.000,0.000,0.000,0.000,3.142,6.280,0.000,1.005,1.568,1.567,4.083,6.281,1.199,4.712,0.000,0.000,-1.640,-7.613,0.990,5.487,4.707,4.715,5.282,4.711,4.710,2.197,6.282,5.083,1.570,0.000,0.000,-1.170,-7.155,0.991,5.486,4.706,4.716,
21.213,26.635,-1.067,-7.726,2.261,1.072,5.282,2.973,0.000,2.371,1.667,0.944,0.000,0.000,3.279,1.443,4.447,0.000,3.142,0.000,0.000,0.000,0.000,0.000,0.000,0.000,0.000,0.000,0.000,0.000,3.142,6.281,0.001,1.004,1.569,1.567,4.085,6.281,1.199,4.712,0.000,0.000,-1.697,-7.482,0.990,5.405,4.704,4.717,5.282,4.711,4.710,2.197,6.282,5.083,1.570,0.000,0.000,-1.191,-7.063,0.990,5.404,4.705,4.717,
21.320,26.742,-1.118,-7.663,2.190,0.983,5.245,3.165,0.000,2.253,3.288,0.935,0.000,4.338,2.425,1.436,0.000,0.000,3.142,0.000,0.000,0.000,0.000,0.000,0.000,0.000,0.000,0.000,0.000,0.000,3.142,6.281,0.001,1.004,1.569,1.568,4.086,6.281,1.199,4.712,0.000,0.000,-1.728,-7.375,0.990,5.333,4.703,4.718,5.282,4.711,4.710,2.197,6.282,5.083,1.570,0.000,0.000,-1.194,-6.993,0.990,5.333,4.705,4.718,
21.420,26.842,-1.182,-7.568,2.085,0.984,5.487,3.096,2.280,2.386,2.776,1.311,0.000,4.152,0.000,1.435,3.670,0.000,3.142,0.000,0.000,0.000,0.000,0.000,0.000,0.000,0.000,0.000,0.000,0.000,3.142,6.281,0.000,1.004,1.569,1.568,4.085,6.281,1.199,4.712,0.000,0.000,-1.758,-7.217,0.990,5.228,4.703,4.720,5.282,4.711,4.711,2.198,6.282,5.083,1.570,0.000,0.000,-1.187,-6.894,0.991,5.227,4.704,4.719,
21.520,26.942,-1.230,-7.481,2.060,1.034,0.004,2.952,2.065,0.000,2.628,1.686,1.702,4.254,0.000,1.349,3.812,0.000,1.316,0.000,0.000,0.000,0.000,0.000,0.000,0.000,0.000,0.000,0.000,0.000,3.142,6.282,0.000,1.004,1.570,1.570,4.085,6.281,1.199,4.712,0.000,0.000,-1.796,-7.115,0.990,5.201,4.702,4.720,5.281,4.711,4.712,2.198,6.282,5.083,1.570,0.000,0.000,-1.218,-6.806,0.990,5.201,4.703,4.720,
21.620,27.042,-1.278,-7.391,2.080,1.023,0.678,2.881,1.995,0.000,2.614,1.773,0.000,4.268,2.518,0.801,3.713,0.000,3.142,0.000,0.000,0.000,0.000,0.000,0.000,0.000,0.000,0.000,0.000,0.000,3.142,0.001,0.000,1.003,1.571,1.572,4.086,6.281,1.199,4.712,0.000,0.000,-1.850,-7.035,0.990,5.218,4.702,4.721,5.281,4.712,4.714,2.199,6.281,5.083,1.571,0.000,0.000,-1.277,-6.716,0.991,5.218,4.705,4.718,
21.709,27.131,-1.328,-7.305,2.177,0.998,1.417,2.861,2.066,0.000,2.870,1.609,0.000,0.000,2.730,0.632,4.076,0.000,3.142,0.000,0.000,0.000,0.000,0.000,0.000,0.000,0.000,0.000,0.000,0.000,3.142,0.002,0.000,1.003,1.571,1.571,4.086,6.282,1.199,4.712,0.000,0.000,-1.933,-7.008,0.990,5.317,4.704,4.718,5.282,4.713,4.714,2.198,6.282,5.083,1.571,0.000,0.000,-1.393,-6.634,0.991,5.317,4.707,4.716,
21.820,27.242,-1.374,-7.241,2.275,1.006,1.257,2.461,4.926,2.132,3.247,1.508,0.000,0.000,0.936,0.731,3.786,0.000,3.142,0.000,0.000,0.000,0.000,0.000,0.000,0.000,0.000,0.000,0.000,0.000,3.142,0.001,0.000,1.003,1.570,1.569,4.085,6.282,1.199,4.712,0.000,0.000,-2.006,-7.005,0.990,5.417,4.706,4.716,5.282,4.712,4.712,2.198,6.283,5.083,1.570,0.000,0.000,-1.506,-6.580,0.991,5.417,4.707,4.715,
21.920,27.342,-1.455,-7.152,2.378,1.026,0.817,2.104,0.000,2.065,3.775,1.500,0.000,0.000,0.739,1.078,0.000,0.000,3.142,0.000,0.000,0.000,0.000,0.000,0.000,0.000,0.000,0.000,0.000,0.000,3.142,0.001,0.000,1.004,1.570,1.569,4.085,6.282,1.199,4.712,0.000,0.000,-2.108,-6.982,0.990,5.520,4.706,4.716,5.282,4.712,4.712,2.198,6.282,5.083,1.570,0.000,0.000,-1.654,-6.508,0.991,5.519,4.707,4.715,
22.020,27.442,-1.529,-7.084,2.451,1.015,0.944,1.881,4.675,2.071,4.060,1.583,0.000,0.000,0.633,2.793,0.000,0.000,3.142,0.000,0.000,0.000,0.000,0.000,0.000,0.000,0.000,0.000,0.000,0.000,3.142,0.001,0.000,1.003,1.570,1.570,4.086,6.281,1.199,4.712,0.000,0.000,-2.192,-6.961,0.990,5.591,4.706,4.716,5.282,4.712,4.713,2.198,6.282,5.083,1.570,0.000,0.000,-1.774,-6.456,0.991,5.591,4.708,4.715,
22.120,27.542,-1.607,-7.022,2.541,1.006,1.089,1.669,0.000,2.113,4.011,1.777,0.000,2.798,0.774,3.455,2.264,0.000,3.142,0.000,0.000,0.000,0.000,0.000,0.000,0.000,0.000,0.000,0.000,0.000,3.142,0.001,0.000,1.003,1.570,1.570,4.086,6.282,1.199,4.712,0.000,0.000,-2.279,-6.960,0.990,5.682,4.707,4.715,5.282,4.712,4.713,2.198,6.282,5.083,1.571,0.000,0.000,-1.908,-6.419,0.991,5.681,4.708,4.714,
22.220,27.642,-1.691,-6.968,2.633,1.012,1.043,1.485,0.000,2.179,4.599,2.029,4.913,3.796,0.953,3.802,2.295,0.000,3.106,0.000,0.000,0.000,0.000,0.000,0.000,0.000,0.000,0.000,0.000,0.000,3.142,0.001,0.000,1.003,1.570,1.569,4.085,6.281,1.199,4.712,0.000,0.000,-2.365,-6.969,0.990,5.775,4.707,4.714,5.282,4.712,4.712,2.198,6.282,5.083,1.570,0.000,0.000,-2.046,-6.395,0.991,5.775,4.709,4.713,
22.309,27.731,-1.779,-6.922,2.720,1.018,0.984,1.328,0.000,2.254,2.242,2.339,0.000,0.800,1.846,3.634,2.395,0.000,3.142,0.000,0.000,0.000,0.000,0.000,0.000,0.000,0.000,0.000,0.000,0.000,3.142,0.001,0.000,1.003,1.570,1.570,4.085,6.282,1.199,4.712,0.000,0.000,-2.451,-6.980,0.990,5.861,4.707,4.714,5.282,4.712,4.712,2.198,6.282,5.083,1.570,0.000,0.000,-2.182,-6.381,0.991,5.861,4.709,4.713,
22.420,27.842,-1.853,-6.890,2.788,1.016,0.996,1.215,4.957,2.331,2.267,0.000,0.000,0.890,0.000,3.483,2.023,0.000,3.142,0.000,0.000,0.000,0.000,0.000,0.000,0.000,0.000,0.000,0.000,0.000,3.142,0.001,0.000,1.003,1.570,1.570,4.086,6.282,1.199,4.712,0.000,0.000,-2.519,-6.994,0.990,5.929,4.707,4.713,5.282,4.712,4.712,2.198,6.282,5.083,1.570,0.000,0.000,-2.292,-6.378,0.991,5.929,4.709,4.713,
22.520,27.942,-1.966,-6.852,2.893,1.012,1.020,1.170,4.587,2.501,2.315,0.000,0.000,1.045,2.796,4.724,1.589,0.000,3.142,0.000,0.000,0.000,0.000,0.000,0.000,0.000,0.000,0.000,0.000,0.000,3.142,0.001,0.000,1.003,1.570,1.570,4.086,6.282,1.199,4.712,0.000,0.000,-2.618,-7.025,0.990,6.034,4.708,4.713,5.282,4.712,4.712,2.198,6.282,5.083,1.570,0.000,0.000,-2.457,-6.389,0.991,6.034,4.709,4.713,
22.620,28.042,-2.064,-6.830,2.981,1.013,1.026,1.156,4.618,2.410,2.366,0.000,0.000,1.197,3.470,1.956,1.310,0.000,3.142,0.000,0.000,0.000,0.000,0.000,0.000,0.000,0.000,0.000,0.000,0.000,3.142,0.001,0.000,1.003,1.570,1.570,4.085,6.281,1.199,4.712,0.000,0.000,-2.698,-7.060,0.990,6.123,4.708,4.712,5.282,4.712,4.712,2.198,6.282,5.083,1.570,0.000,0.000,-2.593,-6.412,0.991,6.122,4.709,4.712,
22.720,28.142,-2.162,-6.816,3.069,1.015,1.009,0.000,4.084,2.364,2.429,0.000,1.656,1.961,3.357,1.979,1.083,0.000,3.106,0.000,0.000,0.000,0.000,0.000,0.000,0.000,0.000,0.000,0.000,0.000,3.142,0.001,0.000,1.003,1.570,1.570,4.085,6.282,1.199,4.712,0.000,0.000,-2.774,-7.101,0.990,6.210,4.708,4.712,5.282,4.712,4.712,2.198,6.282,5.083,1.570,0.000,0.000,-2.726,-6.446,0.991,6.210,4.709,4.712,
22.805,28.227,-2.250,-6.811,3.157,0.559,0.851,3.952,4.580,2.356,2.504,0.000,1.253,2.131,4.193,2.249,0.908,0.000,3.036,0.000,0.000,0.000,0.000,0.000,0.000,0.000,0.000,0.000,0.000,0.000,3.142,0.005,0.001,0.999,1.571,1.572,4.093,6.281,1.200,4.712,0.000,0.000,-2.837,-7.146,0.989,0.011,4.703,4.711,5.280,4.713,4.715,2.199,6.282,5.083,1.570,0.000,0.000,-2.844,-6.491,0.990,0.011,4.708,4.712,
22.920,28.342,-2.260,-6.811,3.205,-0.198,0.553,3.953,0.000,3.295,2.338,0.000,1.266,0.000,3.641,1.956,0.868,0.000,3.071,0.000,0.000,0.000,0.000,0.000,0.000,0.000,0.000,0.000,0.000,0.000,3.142,0.005,0.001,0.998,1.572,1.573,4.093,6.281,1.200,4.712,0.000,0.000,-2.830,-7.174,0.989,0.059,4.704,4.711,5.280,4.714,4.715,2.200,6.282,5.083,1.570,0.000,0.000,-2.869,-6.519,0.990,0.060,4.709,4.711,
23.014,28.436,-2.222,-6.807,3.283,-0.259,1.111,0.000,1.818,4.138,2.177,0.000,1.237,0.000,3.415,1.731,0.874,0.000,3.001,0.000,0.000,0.000,0.000,0.000,0.000,0.000,0.000,0.000,0.000,0.000,3.142,0.001,6.283,1.004,1.569,1.570,4.084,6.281,1.199,4.712,0.000,0.000,-2.758,-7.215,0.990,0.141,4.709,4.711,5.281,4.712,4.713,2.199,6.282,5.083,1.570,0.000,0.000,-2.851,-6.566,0.991,0.141,4.710,4.712,
23.120,28.542,-2.215,-6.806,3.370,0.068,1.299,0.000,1.681,4.101,2.163,0.000,1.251,0.000,3.706,1.493,0.847,0.000,2.896,0.000,0.000,0.000,0.000,0.000,0.000,0.000,0.000,0.000,0.000,0.000,3.142,0.000,6.283,1.004,1.569,1.568,4.083,6.281,1.199,4.712,0.000,0.000,-2.714,-7.261,0.990,0.230,4.709,4.711,5.282,4.711,4.711,2.199,6.282,5.083,1.570,0.000,0.000,-2.863,-6.621,0.991,0.229,4.710,4.711,
23.219,28.641,-2.227,-6.809,3.504,-0.110,1.044,4.397,1.929,0.000,0.000,0.000,1.315,3.166,2.240,1.220,0.907,0.000,2.685,0.000,0.000,0.000,0.000,0.000,0.000,0.000,0.000,0.000,0.000,0.000,3.142,0.005,0.001,1.000,1.571,1.571,4.092,6.281,1.200,4.712,0.000,0.000,-2.664,-7.325,0.989,0.360,4.704,4.708,5.280,4.713,4.714,2.200,6.282,5.083,1.570,0.000,0.000,-2.894,-6.710,0.991,0.359,4.709,4.710,
23.320,28.742,-2.193,-6.797,3.548,-0.746,0.222,4.364,2.144,2.376,0.000,0.000,1.302,3.334,1.906,1.208,0.932,0.000,2.720,0.000,0.000,0.000,0.000,0.000,0.000,0.000,0.000,0.000,0.000,0.000,3.142,0.005,0.001,0.999,1.571,1.570,4.094,6.281,1.200,4.712,0.000,0.000,-2.608,-7.332,0.989,0.405,4.702,4.707,5.280,4.713,4.713,2.200,6.282,5.083,1.570,0.000,0.000,-2.864,-6.728,0.990,0.405,4.708,4.709,
23.420,28.842,-2.066,-6.742,3.556,-1.429,6.278,4.542,2.440,2.435,0.000,0.000,1.168,3.127,2.652,1.387,1.217,0.000,2.650,0.000,0.000,0.000,0.000,0.000,0.000,0.000,0.000,0.000,0.000,0.000,3.142,0.001,0.001,1.002,1.570,1.570,4.088,6.281,1.200,4.712,0.000,0.000,-2.474,-7.279,0.990,0.413,4.706,4.709,5.280,4.712,4.712,2.199,6.282,5.083,1.570,0.000,0.000,-2.737,-6.678,0.990,0.413,4.708,4.710,
23.506,28.927,-1.957,-6.694,3.556,-0.812,6.277,4.663,2.638,2.483,0.000,0.000,1.050,2.911,4.578,1.547,1.064,0.000,2.615,0.000,0.000,0.000,0.000,0.000,0.000,0.000,0.000,0.000,0.000,0.000,3.142,6.279,6.283,1.007,1.567,1.566,4.079,6.282,1.199,4.712,0.000,0.000,-2.361,-7.233,0.990,0.419,4.711,4.711,5.281,4.710,4.709,2.198,6.282,5.083,1.570,0.000,0.000,-2.628,-6.634,0.991,0.418,4.708,4.710,
23.620,29.042,-1.917,-6.676,3.556,-0.379,6.277,4.709,2.658,2.501,0.000,1.430,1.005,2.830,4.560,1.608,1.105,0.000,2.510,0.000,0.000,0.000,0.000,0.000,0.000,0.000,0.000,0.000,0.000,0.000,3.142,6.281,6.283,1.005,1.569,1.568,4.082,6.281,1.199,4.712,0.000,0.000,-2.322,-7.215,0.990,0.416,4.709,4.710,5.281,4.711,4.710,2.199,6.282,5.083,1.570,0.000,0.000,-2.587,-6.614,0.991,0.416,4.708,4.710,
23.715,29.137,-1.896,-6.667,3.556,-0.080,6.275,4.732,2.668,2.510,0.000,1.408,0.982,2.689,4.551,1.638,1.127,0.000,2.510,0.000,0.000,0.000,0.000,0.000,0.000,0.000,0.000,0.000,0.000,0.000,3.142,6.282,0.000,1.004,1.569,1.569,4.084,6.281,1.199,4.712,0.000,0.000,-2.302,-7.205,0.990,0.415,4.708,4.709,5.281,4.711,4.711,2.199,6.282,5.083,1.570,0.000,0.000,-2.567,-6.605,0.990,0.415,4.708,4.710,
23.818,29.343,-1.894,-6.666,3.557,-0.002,6.257,4.735,2.669,2.511,0.000,1.407,0.980,2.687,4.550,1.641,1.128,0.000,2.510,0.000,0.000,0.000,0.000,0.000,0.000,0.000,0.000,0.000,0.000,0.000,3.142,6.283,0.000,1.004,1.569,1.569,4.085,6.281,1.199,4.712,0.000,0.000,-2.301,-7.204,0.990,0.415,4.707,4.709,5.281,4.711,4.712,2.199,6.282,5.083,1.570,0.000,0.000,-2.565,-6.604,0.990,0.415,4.708,4.710,
23.914,29.534,-1.894,-6.666,3.557,0.000,6.261,4.735,2.669,2.511,0.000,1.407,0.980,2.687,4.550,1.640,1.128,0.000,2.510,0.000,0.000,0.000,0.000,0.000,0.000,0.000,0.000,0.000,0.000,0.000,3.142,6.283,0.000,1.003,1.569,1.569,4.085,6.281,1.199,4.712,0.000,0.000,-2.301,-7.204,0.990,0.415,4.707,4.709,5.281,4.711,4.712,2.198,6.282,5.083,1.570,0.000,0.000,-2.565,-6.604,0.990,0.415,4.708,4.710,
24.015,29.737,-1.894,-6.666,3.557,-0.001,6.261,4.735,2.669,2.511,0.000,1.407,0.980,2.687,4.550,1.640,1.128,0.000,2.510,0.000,0.000,0.000,0.000,0.000,0.000,0.000,0.000,0.000,0.000,0.000,3.142,6.283,0.000,1.003,1.569,1.569,4.085,6.281,1.199,4.712,0.000,0.000,-2.301,-7.204,0.990,0.415,4.707,4.709,5.281,4.711,4.712,2.198,6.282,5.083,1.570,0.000,0.000,-2.565,-6.604,0.990,0.415,4.708,4.710,
24.110,29.927,-1.894,-6.666,3.557,-0.001,6.261,4.735,2.669,2.511,0.000,1.407,0.980,2.687,4.550,1.640,1.128,0.000,2.510,0.000,0.000,0.000,0.000,0.000,0.000,0.000,0.000,0.000,0.000,0.000,3.142,6.283,0.000,1.003,1.569,1.569,4.085,6.281,1.199,4.712,0.000,0.000,-2.301,-7.204,0.990,0.415,4.707,4.709,5.281,4.711,4.712,2.198,6.282,5.083,1.570,0.000,0.000,-2.565,-6.604,0.990,0.415,4.708,4.710,
24.214,30.135,-1.894,-6.666,3.557,-0.001,6.261,4.735,2.669,2.511,0.000,1.407,0.980,2.687,4.550,1.640,1.128,0.000,2.510,0.000,0.000,0.000,0.000,0.000,0.000,0.000,0.000,0.000,0.000,0.000,3.142,6.283,0.000,1.003,1.569,1.569,4.085,6.281,1.199,4.712,0.000,0.000,-2.301,-7.204,0.990,0.415,4.707,4.709,5.281,4.711,4.712,2.198,6.282,5.083,1.570,0.000,0.000,-2.565,-6.604,0.990,0.415,4.708,4.710,
24.309,30.324,-1.894,-6.666,3.557,-0.001,6.261,4.735,2.669,2.511,0.000,1.407,0.980,2.687,4.550,1.640,1.128,0.000,2.510,0.000,0.000,0.000,0.000,0.000,0.000,0.000,0.000,0.000,0.000,0.000,3.142,6.283,0.000,1.003,1.569,1.569,4.085,6.281,1.199,4.712,0.000,0.000,-2.301,-7.204,0.990,0.415,4.707,4.709,5.281,4.711,4.712,2.198,6.282,5.083,1.570,0.000,0.000,-2.565,-6.604,0.990,0.415,4.708,4.710,
24.411,30.529,-1.894,-6.666,3.557,-0.001,6.261,4.735,2.669,2.511,0.000,1.407,0.980,2.687,4.550,1.640,1.128,0.000,2.510,0.000,0.000,0.000,0.000,0.000,0.000,0.000,0.000,0.000,0.000,0.000,3.142,6.283,0.000,1.003,1.569,1.569,4.085,6.281,1.199,4.712,0.000,0.000,-2.301,-7.204,0.990,0.415,4.707,4.709,5.281,4.711,4.712,2.198,6.282,5.083,1.570,0.000,0.000,-2.565,-6.604,0.990,0.415,4.708,4.710,
24.520,30.747,-1.894,-6.666,3.557,-0.001,6.261,4.735,2.669,2.511,0.000,1.407,0.980,2.687,4.550,1.640,1.128,0.000,2.510,0.000,0.000,0.000,0.000,0.000,0.000,0.000,0.000,0.000,0.000,0.000,3.142,6.283,0.000,1.003,1.569,1.569,4.085,6.281,1.199,4.712,0.000,0.000,-2.301,-7.204,0.990,0.415,4.707,4.709,5.281,4.711,4.712,2.198,6.282,5.083,1.570,0.000,0.000,-2.565,-6.604,0.990,0.415,4.708,4.710,
24.611,30.929,-1.894,-6.666,3.557,-0.001,6.261,4.735,2.669,2.511,0.000,1.407,0.980,2.687,4.550,1.640,1.128,0.000,2.510,0.000,0.000,0.000,0.000,0.000,0.000,0.000,0.000,0.000,0.000,0.000,3.142,6.283,0.000,1.003,1.569,1.569,4.085,6.281,1.199,4.712,0.000,0.000,-2.301,-7.204,0.990,0.415,4.707,4.709,5.281,4.711,4.712,2.198,6.282,5.083,1.570,0.000,0.000,-2.565,-6.604,0.990,0.415,4.708,4.710,
24.708,31.122,-1.894,-6.666,3.557,-0.001,6.261,4.735,2.669,2.511,0.000,1.407,0.980,2.687,4.550,1.640,1.128,0.000,2.510,0.000,0.000,0.000,0.000,0.000,0.000,0.000,0.000,0.000,0.000,0.000,3.142,6.283,0.000,1.003,1.569,1.569,4.085,6.281,1.199,4.712,0.000,0.000,-2.301,-7.204,0.990,0.415,4.707,4.709,5.281,4.711,4.712,2.198,6.282,5.083,1.570,0.000,0.000,-2.565,-6.604,0.990,0.415,4.708,4.710,
24.808,31.323,-1.894,-6.666,3.557,-0.001,6.261,4.735,2.669,2.511,0.000,1.407,0.980,2.687,4.550,1.640,1.128,0.000,2.510,0.000,0.000,0.000,0.000,0.000,0.000,0.000,0.000,0.000,0.000,0.000,3.142,6.283,0.000,1.003,1.569,1.569,4.085,6.281,1.199,4.712,0.000,0.000,-2.301,-7.204,0.990,0.415,4.707,4.709,5.281,4.711,4.712,2.198,6.282,5.083,1.570,0.000,0.000,-2.565,-6.604,0.990,0.415,4.708,4.710,
24.919,31.544,-1.894,-6.666,3.557,-0.001,6.261,4.735,2.669,2.511,0.000,1.407,0.980,2.687,4.550,1.640,1.128,0.000,2.510,0.000,0.000,0.000,0.000,0.000,0.000,0.000,0.000,0.000,0.000,0.000,3.142,6.283,0.000,1.003,1.569,1.569,4.085,6.281,1.199,4.712,0.000,0.000,-2.301,-7.204,0.990,0.415,4.707,4.709,5.281,4.711,4.712,2.198,6.282,5.083,1.570,0.000,0.000,-2.565,-6.604,0.990,0.415,4.708,4.710,
25.019,31.744,-1.894,-6.666,3.557,0.000,6.261,4.735,2.669,2.511,0.000,1.407,0.980,2.687,4.550,1.640,1.128,0.000,2.510,0.000,0.000,0.000,0.000,0.000,0.000,0.000,0.000,0.000,0.000,0.000,3.142,6.283,0.000,1.003,1.569,1.569,4.085,6.281,1.199,4.712,0.000,0.000,-2.301,-7.204,0.990,0.415,4.707,4.709,5.281,4.711,4.712,2.198,6.282,5.083,1.570,0.000,0.000,-2.565,-6.604,0.990,0.415,4.708,4.710,
25.120,31.905,-1.894,-6.666,3.557,-0.001,6.261,4.735,2.669,2.511,0.000,1.407,0.980,2.687,4.550,1.640,1.128,0.000,2.510,0.000,0.000,0.000,0.000,0.000,0.000,0.000,0.000,0.000,0.000,0.000,3.142,6.283,0.000,1.003,1.569,1.569,4.085,6.281,1.199,4.712,0.000,0.000,-2.301,-7.204,0.990,0.415,4.707,4.709,5.281,4.711,4.712,2.198,6.282,5.083,1.570,0.000,0.000,-2.565,-6.604,0.990,0.415,4.708,4.710,
25.220,32.005,-1.894,-6.666,3.557,-0.001,6.261,4.735,2.669,2.511,0.000,1.407,0.980,2.687,4.550,1.640,1.128,0.000,2.510,0.000,0.000,0.000,0.000,0.000,0.000,0.000,0.000,0.000,0.000,0.000,3.142,6.283,0.000,1.003,1.569,1.569,4.085,6.281,1.199,4.712,0.000,0.000,-2.301,-7.204,0.990,0.415,4.707,4.709,5.281,4.711,4.712,2.198,6.282,5.083,1.570,0.000,0.000,-2.565,-6.604,0.990,0.415,4.708,4.710,
25.315,32.100,-1.894,-6.666,3.557,-0.001,6.261,4.735,2.669,2.511,0.000,1.407,0.980,2.687,4.550,1.640,1.128,0.000,2.510,0.000,0.000,0.000,0.000,0.000,0.000,0.000,0.000,0.000,0.000,0.000,3.142,6.283,0.000,1.003,1.569,1.569,4.085,6.281,1.199,4.712,0.000,0.000,-2.301,-7.204,0.990,0.415,4.707,4.709,5.281,4.711,4.712,2.198,6.282,5.083,1.570,0.000,0.000,-2.565,-6.604,0.990,0.415,4.708,4.710,
25.420,32.205,-1.894,-6.666,3.557,-0.001,6.261,4.735,2.669,2.511,0.000,1.407,0.980,2.687,4.550,1.640,1.128,0.000,2.510,0.000,0.000,0.000,0.000,0.000,0.000,0.000,0.000,0.000,0.000,0.000,3.142,6.283,0.000,1.003,1.569,1.569,4.085,6.281,1.199,4.712,0.000,0.000,-2.301,-7.204,0.990,0.415,4.707,4.709,5.281,4.711,4.712,2.198,6.282,5.083,1.570,0.000,0.000,-2.565,-6.604,0.990,0.415,4.708,4.710,
25.520,32.305,-1.894,-6.666,3.557,-0.001,6.261,4.735,2.669,2.511,0.000,1.407,0.980,2.687,4.550,1.640,1.128,0.000,2.510,0.000,0.000,0.000,0.000,0.000,0.000,0.000,0.000,0.000,0.000,0.000,3.142,6.283,0.000,1.003,1.569,1.569,4.085,6.281,1.199,4.712,0.000,0.000,-2.301,-7.204,0.990,0.415,4.707,4.709,5.281,4.711,4.712,2.198,6.282,5.083,1.570,0.000,0.000,-2.565,-6.604,0.990,0.415,4.708,4.710,
25.620,32.405,-1.894,-6.666,3.557,-0.001,6.261,4.735,2.669,2.511,0.000,1.407,0.980,2.687,4.550,1.640,1.128,0.000,2.510,0.000,0.000,0.000,0.000,0.000,0.000,0.000,0.000,0.000,0.000,0.000,3.142,6.283,0.000,1.003,1.569,1.569,4.085,6.281,1.199,4.712,0.000,0.000,-2.301,-7.204,0.990,0.415,4.707,4.709,5.281,4.711,4.712,2.198,6.282,5.083,1.570,0.000,0.000,-2.565,-6.604,0.990,0.415,4.708,4.710,
25.720,32.505,-1.894,-6.666,3.557,-0.001,6.261,4.735,2.669,2.511,0.000,1.407,0.980,2.687,4.550,1.640,1.128,0.000,2.510,0.000,0.000,0.000,0.000,0.000,0.000,0.000,0.000,0.000,0.000,0.000,3.142,6.283,0.000,1.003,1.569,1.569,4.085,6.281,1.199,4.712,0.000,0.000,-2.301,-7.204,0.990,0.415,4.707,4.709,5.281,4.711,4.712,2.198,6.282,5.083,1.570,0.000,0.000,-2.565,-6.604,0.990,0.415,4.708,4.710,
25.820,32.605,-1.894,-6.666,3.557,-0.001,6.261,4.735,2.669,2.511,0.000,1.407,0.980,2.687,4.550,1.640,1.128,0.000,2.510,0.000,0.000,0.000,0.000,0.000,0.000,0.000,0.000,0.000,0.000,0.000,3.142,6.283,0.000,1.003,1.569,1.569,4.085,6.281,1.199,4.712,0.000,0.000,-2.301,-7.204,0.990,0.415,4.707,4.709,5.281,4.711,4.712,2.198,6.282,5.083,1.570,0.000,0.000,-2.565,-6.604,0.990,0.415,4.708,4.710,
25.920,32.705,-1.894,-6.666,3.557,-0.001,6.261,4.735,2.669,2.511,0.000,1.407,0.980,2.687,4.550,1.640,1.128,0.000,2.510,0.000,0.000,0.000,0.000,0.000,0.000,0.000,0.000,0.000,0.000,0.000,3.142,6.283,0.000,1.003,1.569,1.569,4.085,6.281,1.199,4.712,0.000,0.000,-2.301,-7.204,0.990,0.415,4.707,4.709,5.281,4.711,4.712,2.198,6.282,5.083,1.570,0.000,0.000,-2.565,-6.604,0.990,0.415,4.708,4.710,
26.005,32.790,-1.894,-6.666,3.557,-0.001,6.261,4.735,2.669,2.511,0.000,1.407,0.980,2.687,4.550,1.640,1.128,0.000,2.510,0.000,0.000,0.000,0.000,0.000,0.000,0.000,0.000,0.000,0.000,0.000,3.142,6.283,0.000,1.003,1.569,1.569,4.085,6.281,1.199,4.712,0.000,0.000,-2.301,-7.204,0.990,0.415,4.707,4.709,5.281,4.711,4.712,2.198,6.282,5.083,1.570,0.000,0.000,-2.565,-6.604,0.990,0.415,4.708,4.710,
26.120,32.905,-1.894,-6.666,3.557,-0.001,6.261,4.735,2.669,2.511,0.000,1.407,0.980,2.687,4.550,1.640,1.128,0.000,2.510,0.000,0.000,0.000,0.000,0.000,0.000,0.000,0.000,0.000,0.000,0.000,3.142,6.283,0.000,1.003,1.569,1.569,4.085,6.281,1.199,4.712,0.000,0.000,-2.301,-7.204,0.990,0.415,4.707,4.709,5.281,4.711,4.712,2.198,6.282,5.083,1.570,0.000,0.000,-2.565,-6.604,0.990,0.415,4.708,4.710,
26.213,32.998,-1.894,-6.666,3.557,-0.001,6.261,4.735,2.669,2.511,0.000,1.407,0.980,2.687,4.550,1.640,1.128,0.000,2.510,0.000,0.000,0.000,0.000,0.000,0.000,0.000,0.000,0.000,0.000,0.000,3.142,6.283,0.000,1.003,1.569,1.569,4.085,6.281,1.199,4.712,0.000,0.000,-2.301,-7.204,0.990,0.415,4.707,4.709,5.281,4.711,4.712,2.198,6.282,5.083,1.570,0.000,0.000,-2.565,-6.604,0.990,0.415,4.708,4.710,
26.320,33.105,-1.894,-6.666,3.557,-0.001,6.261,4.735,2.669,2.511,0.000,1.407,0.980,2.687,4.550,1.640,1.128,0.000,2.510,0.000,0.000,0.000,0.000,0.000,0.000,0.000,0.000,0.000,0.000,0.000,3.142,6.283,0.000,1.003,1.569,1.569,4.085,6.281,1.199,4.712,0.000,0.000,-2.301,-7.204,0.990,0.415,4.707,4.709,5.281,4.711,4.712,2.198,6.282,5.083,1.570,0.000,0.000,-2.565,-6.604,0.990,0.415,4.708,4.710,
26.420,33.205,-1.894,-6.666,3.572,0.001,0.647,4.809,2.647,2.516,0.000,1.403,0.987,2.863,4.558,1.614,1.125,0.000,2.510,0.000,0.000,0.000,0.000,0.000,0.000,0.000,0.000,0.000,0.000,0.000,3.142,0.002,0.000,1.002,1.571,1.573,4.087,6.280,1.200,4.712,0.000,0.000,-2.294,-7.209,0.990,0.426,4.707,4.710,5.281,4.712,4.715,2.200,6.281,5.083,1.571,0.000,0.000,-2.567,-6.612,0.991,0.427,4.709,4.711,
26.520,33.305,-1.895,-6.666,3.674,0.007,1.604,4.368,2.607,2.347,0.000,0.900,1.619,3.231,2.036,1.462,1.215,0.000,2.404,0.000,0.000,0.000,0.000,0.000,0.000,0.000,0.000,0.000,0.000,0.000,3.142,0.003,0.000,1.002,1.571,1.571,4.086,6.281,1.199,4.712,0.000,0.000,-2.237,-7.247,0.990,0.530,4.707,4.709,5.282,4.713,4.714,2.199,6.282,5.083,1.571,0.000,0.000,-2.569,-6.682,0.991,0.530,4.710,4.711,
26.619,33.404,-1.895,-6.667,3.812,0.007,1.450,2.257,4.451,2.071,0.000,0.901,1.717,3.388,1.890,1.317,4.312,0.000,2.264,0.000,0.000,0.000,0.000,0.000,0.000,0.000,0.000,0.000,0.000,0.000,3.142,0.002,0.000,1.003,1.569,1.568,4.086,6.281,1.199,4.712,0.000,0.000,-2.152,-7.291,0.990,0.672,4.706,4.707,5.281,4.712,4.711,2.199,6.282,5.083,1.570,0.000,0.000,-2.560,-6.776,0.991,0.671,4.709,4.709,
26.720,33.505,-1.896,-6.667,3.899,0.005,1.099,2.049,4.291,2.323,0.000,0.910,0.000,4.201,1.962,1.251,0.000,0.000,3.142,0.000,0.000,0.000,0.000,0.000,0.000,0.000,0.000,0.000,0.000,0.000,3.142,0.002,0.000,1.003,1.569,1.568,4.086,6.281,1.199,4.712,0.000,0.000,-2.098,-7.311,0.990,0.758,4.706,4.707,5.281,4.712,4.711,2.199,6.282,5.083,1.570,0.000,0.000,-2.549,-6.834,0.991,0.757,4.708,4.708,
26.817,33.602,-1.896,-6.667,3.995,-0.002,0.939,2.103,0.000,2.738,0.000,0.929,0.000,3.265,2.125,1.195,0.000,0.000,3.142,0.000,0.000,0.000,0.000,0.000,0.000,0.000,0.000,0.000,0.000,0.000,3.142,0.002,0.000,1.003,1.570,1.570,4.086,6.281,1.199,4.712,0.000,0.000,-2.036,-7.327,0.990,0.853,4.705,4.706,5.281,4.712,4.712,2.199,6.282,5.083,1.570,0.000,0.000,-2.530,-6.895,0.991,0.853,4.708,4.708,
26.920,33.705,-1.896,-6.667,4.062,-0.001,1.101,2.291,2.490,0.000,0.000,0.948,4.795,3.399,1.918,1.166,0.000,0.000,3.071,0.000,0.000,0.000,0.000,0.000,0.000,0.000,0.000,0.000,0.000,0.000,3.142,0.002,0.000,1.003,1.570,1.570,4.086,6.281,1.199,4.712,0.000,0.000,-1.991,-7.335,0.990,0.920,4.704,4.705,5.281,4.712,4.713,2.199,6.282,5.083,1.570,0.000,0.000,-2.513,-6.937,0.991,0.919,4.707,4.708,
27.020,33.805,-1.896,-6.667,4.181,0.005,1.129,2.679,2.507,0.000,1.410,0.995,2.655,4.548,1.652,1.128,4.698,0.000,2.966,0.000,0.000,0.000,0.000,0.000,0.000,0.000,0.000,0.000,0.000,0.000,3.142,0.002,0.000,1.002,1.569,1.569,4.086,6.281,1.199,4.712,0.000,0.000,-1.911,-7.342,0.990,1.040,4.703,4.703,5.281,4.712,4.712,2.199,6.282,5.083,1.570,0.000,0.000,-2.477,-7.009,0.991,1.039,4.707,4.707,
27.117,33.902,-1.896,-6.668,4.276,0.002,1.135,2.714,2.547,0.000,0.903,1.625,3.302,2.339,1.500,1.502,4.694,0.000,2.861,0.000,0.000,0.000,0.000,0.000,0.000,0.000,0.000,0.000,0.000,0.000,3.142,0.002,0.000,1.003,1.570,1.570,4.086,6.281,1.199,4.712,0.000,0.000,-1.848,-7.341,0.990,1.134,4.701,4.701,5.281,4.712,4.712,2.199,6.282,5.083,1.570,0.000,0.000,-2.442,-7.063,0.991,1.133,4.705,4.705,
27.220,34.005,-1.896,-6.668,4.345,0.002,0.592,3.218,2.259,0.000,0.899,1.699,3.182,1.831,1.414,1.210,4.437,0.000,2.791,0.000,0.000,0.000,0.000,0.000,0.000,0.000,0.000,0.000,0.000,0.000,3.142,0.001,0.000,1.003,1.568,1.566,4.085,6.282,1.199,4.711,0.000,0.000,-1.799,-7.336,0.990,1.207,4.699,4.698,5.281,4.711,4.709,2.198,6.282,5.083,1.570,0.000,0.000,-2.412,-7.100,0.991,1.206,4.702,4.701,
27.320,34.105,-1.896,-6.668,4.354,0.001,6.265,3.299,2.240,0.000,0.899,1.710,3.172,1.836,1.404,1.210,4.477,0.000,2.791,0.000,0.000,0.000,0.000,0.000,0.000,0.000,0.000,0.000,0.000,0.000,3.142,6.283,0.000,1.003,1.570,1.570,4.085,6.281,1.199,4.712,0.000,0.000,-1.796,-7.335,0.990,1.211,4.698,4.698,5.281,4.712,4.712,2.198,6.282,5.083,1.570,0.000,0.000,-2.410,-7.104,0.990,1.212,4.700,4.700,
27.413,34.198,-1.896,-6.668,4.354,0.001,6.264,3.299,2.240,0.000,0.899,1.710,3.172,1.836,1.404,1.210,4.477,0.000,2.791,0.000,0.000,0.000,0.000,0.000,0.000,0.000,0.000,0.000,0.000,0.000,3.142,6.283,0.000,1.003,1.569,1.569,4.085,6.281,1.199,4.712,0.000,0.000,-1.795,-7.335,0.990,1.212,4.698,4.698,5.281,4.711,4.712,2.198,6.282,5.083,1.570,0.000,0.000,-2.410,-7.105,0.990,1.212,4.700,4.700,
27.508,34.293,-1.896,-6.668,4.354,0.001,6.264,3.299,2.240,0.000,0.899,1.710,3.172,1.836,1.404,1.210,4.477,0.000,2.791,0.000,0.000,0.000,0.000,0.000,0.000,0.000,0.000,0.000,0.000,0.000,3.142,6.283,0.000,1.003,1.569,1.569,4.085,6.281,1.199,4.712,0.000,0.000,-1.795,-7.335,0.990,1.212,4.698,4.698,5.281,4.711,4.712,2.198,6.282,5.083,1.570,0.000,0.000,-2.410,-7.105,0.990,1.212,4.700,4.700,
27.620,34.405,-1.896,-6.668,4.354,0.001,6.264,3.299,2.240,0.000,0.899,1.710,3.172,1.836,1.404,1.210,4.477,0.000,2.791,0.000,0.000,0.000,0.000,0.000,0.000,0.000,0.000,0.000,0.000,0.000,3.142,6.283,0.000,1.003,1.569,1.569,4.085,6.281,1.199,4.712,0.000,0.000,-1.795,-7.335,0.990,1.212,4.698,4.698,5.281,4.711,4.712,2.198,6.282,5.083,1.570,0.000,0.000,-2.410,-7.105,0.990,1.212,4.700,4.700,
27.716,34.589,-1.896,-6.668,4.354,0.001,6.264,3.299,2.240,0.000,0.899,1.710,3.172,1.836,1.404,1.210,4.477,0.000,2.791,0.000,0.000,0.000,0.000,0.000,0.000,0.000,0.000,0.000,0.000,0.000,3.142,6.283,0.000,1.003,1.569,1.569,4.085,6.281,1.199,4.712,0.000,0.000,-1.795,-7.335,0.990,1.212,4.698,4.698,5.281,4.711,4.712,2.198,6.282,5.083,1.570,0.000,0.000,-2.410,-7.105,0.990,1.212,4.700,4.700,
27.819,34.796,-1.896,-6.668,4.354,0.001,6.264,3.299,2.240,0.000,0.899,1.710,3.172,1.836,1.404,1.210,4.477,0.000,2.791,0.000,0.000,0.000,0.000,0.000,0.000,0.000,0.000,0.000,0.000,0.000,3.142,6.283,0.000,1.003,1.569,1.569,4.085,6.281,1.199,4.712,0.000,0.000,-1.795,-7.335,0.990,1.212,4.698,4.698,5.281,4.711,4.712,2.198,6.282,5.083,1.570,0.000,0.000,-2.410,-7.105,0.990,1.212,4.700,4.700,
27.910,34.978,-1.896,-6.668,4.354,0.001,6.264,3.299,2.240,0.000,0.899,1.710,3.172,1.836,1.404,1.210,4.477,0.000,2.791,0.000,0.000,0.000,0.000,0.000,0.000,0.000,0.000,0.000,0.000,0.000,3.142,6.283,0.000,1.003,1.569,1.569,4.085,6.281,1.199,4.712,0.000,0.000,-1.795,-7.335,0.990,1.212,4.698,4.698,5.281,4.711,4.712,2.198,6.282,5.083,1.570,0.000,0.000,-2.410,-7.105,0.990,1.212,4.700,4.700,
28.006,35.171,-1.896,-6.668,4.354,0.001,6.264,3.299,2.240,0.000,0.899,1.710,3.172,1.836,1.404,1.210,4.477,0.000,2.791,0.000,0.000,0.000,0.000,0.000,0.000,0.000,0.000,0.000,0.000,0.000,3.142,6.283,0.000,1.003,1.569,1.569,4.085,6.281,1.199,4.712,0.000,0.000,-1.795,-7.335,0.990,1.212,4.698,4.698,5.281,4.711,4.712,2.198,6.282,5.083,1.570,0.000,0.000,-2.410,-7.105,0.990,1.212,4.700,4.700,
28.112,35.381,-1.896,-6.668,4.354,0.001,6.264,3.299,2.240,0.000,0.899,1.710,3.172,1.836,1.404,1.210,4.477,0.000,2.791,0.000,0.000,0.000,0.000,0.000,0.000,0.000,0.000,0.000,0.000,0.000,3.142,6.283,0.000,1.003,1.569,1.569,4.085,6.281,1.199,4.712,0.000,0.000,-1.795,-7.335,0.990,1.212,4.698,4.698,5.281,4.711,4.712,2.198,6.282,5.083,1.570,0.000,0.000,-2.410,-7.105,0.990,1.212,4.700,4.700,
28.209,35.536,-1.896,-6.668,4.354,0.001,6.264,3.299,2.240,0.000,0.899,1.710,3.172,1.836,1.404,1.210,4.477,0.000,2.791,0.000,0.000,0.000,0.000,0.000,0.000,0.000,0.000,0.000,0.000,0.000,3.142,6.283,0.000,1.003,1.569,1.569,4.085,6.281,1.199,4.712,0.000,0.000,-1.795,-7.335,0.990,1.212,4.698,4.698,5.281,4.711,4.712,2.198,6.282,5.083,1.570,0.000,0.000,-2.410,-7.105,0.990,1.212,4.700,4.700,
28.315,35.642,-1.896,-6.668,4.354,0.001,6.264,3.299,2.240,0.000,0.899,1.710,3.172,1.836,1.404,1.210,4.477,0.000,2.791,0.000,0.000,0.000,0.000,0.000,0.000,0.000,0.000,0.000,0.000,0.000,3.142,6.283,0.000,1.003,1.569,1.569,4.085,6.281,1.199,4.712,0.000,0.000,-1.795,-7.335,0.990,1.212,4.698,4.698,5.281,4.711,4.712,2.198,6.282,5.083,1.570,0.000,0.000,-2.410,-7.105,0.990,1.212,4.700,4.700,
28.420,35.747,-1.896,-6.668,4.354,0.001,6.264,3.299,2.240,0.000,0.899,1.710,3.172,1.836,1.404,1.210,4.477,0.000,2.791,0.000,0.000,0.000,0.000,0.000,0.000,0.000,0.000,0.000,0.000,0.000,3.142,6.283,0.000,1.003,1.569,1.569,4.085,6.281,1.199,4.712,0.000,0.000,-1.795,-7.335,0.990,1.212,4.698,4.698,5.281,4.711,4.712,2.198,6.282,5.083,1.570,0.000,0.000,-2.410,-7.105,0.990,1.212,4.700,4.700,
28.520,35.847,-1.896,-6.668,4.354,0.001,6.264,3.299,2.240,0.000,0.899,1.710,3.172,1.836,1.404,1.210,4.477,0.000,2.791,0.000,0.000,0.000,0.000,0.000,0.000,0.000,0.000,0.000,0.000,0.000,3.142,6.283,0.000,1.003,1.569,1.569,4.085,6.281,1.199,4.712,0.000,0.000,-1.795,-7.335,0.990,1.212,4.698,4.698,5.281,4.711,4.712,2.198,6.282,5.083,1.570,0.000,0.000,-2.410,-7.105,0.990,1.212,4.700,4.700,
28.620,35.947,-1.896,-6.668,4.354,0.001,6.264,3.299,2.240,0.000,0.899,1.710,3.172,1.836,1.404,1.210,4.477,0.000,2.791,0.000,0.000,0.000,0.000,0.000,0.000,0.000,0.000,0.000,0.000,0.000,3.142,6.283,0.000,1.003,1.569,1.569,4.085,6.281,1.199,4.712,0.000,0.000,-1.795,-7.335,0.990,1.212,4.698,4.698,5.281,4.711,4.712,2.198,6.282,5.083,1.570,0.000,0.000,-2.410,-7.105,0.990,1.212,4.700,4.700,
28.703,36.030,-1.896,-6.668,4.354,0.001,6.264,3.299,2.240,0.000,0.899,1.710,3.172,1.836,1.404,1.210,4.477,0.000,2.791,0.000,0.000,0.000,0.000,0.000,0.000,0.000,0.000,0.000,0.000,0.000,3.142,6.283,0.000,1.003,1.569,1.569,4.085,6.281,1.199,4.712,0.000,0.000,-1.795,-7.335,0.990,1.212,4.698,4.698,5.281,4.711,4.712,2.198,6.282,5.083,1.570,0.000,0.000,-2.410,-7.105,0.990,1.212,4.700,4.700,
28.820,36.147,-1.896,-6.668,4.354,0.001,6.264,3.299,2.240,0.000,0.899,1.710,3.172,1.836,1.404,1.210,4.477,0.000,2.791,0.000,0.000,0.000,0.000,0.000,0.000,0.000,0.000,0.000,0.000,0.000,3.142,6.283,0.000,1.003,1.569,1.569,4.085,6.281,1.199,4.712,0.000,0.000,-1.795,-7.335,0.990,1.212,4.698,4.698,5.281,4.711,4.712,2.198,6.282,5.083,1.570,0.000,0.000,-2.410,-7.105,0.990,1.212,4.700,4.700,
28.920,36.247,-1.896,-6.668,4.354,0.001,6.264,3.299,2.240,0.000,0.899,1.710,3.172,1.836,1.404,1.210,4.477,0.000,2.791,0.000,0.000,0.000,0.000,0.000,0.000,0.000,0.000,0.000,0.000,0.000,3.142,6.283,0.000,1.003,1.569,1.569,4.085,6.281,1.199,4.712,0.000,0.000,-1.795,-7.335,0.990,1.212,4.698,4.698,5.281,4.711,4.712,2.198,6.282,5.083,1.570,0.000,0.000,-2.410,-7.105,0.990,1.212,4.700,4.700,
29.020,36.347,-1.896,-6.668,4.361,-0.001,0.425,3.370,2.224,0.000,0.899,1.713,3.163,1.840,1.396,1.210,4.547,0.000,2.791,0.000,0.000,0.000,0.000,0.000,0.000,0.000,0.000,0.000,0.000,0.000,3.142,0.001,0.000,1.002,1.571,1.572,4.087,6.281,1.200,4.712,0.000,0.000,-1.792,-7.334,0.990,1.216,4.697,4.697,5.280,4.712,4.714,2.200,6.281,5.083,1.570,0.000,0.000,-2.408,-7.107,0.991,1.217,4.703,4.704,
29.101,36.427,-1.896,-6.668,4.444,0.001,1.464,4.439,2.073,0.000,0.902,1.768,3.386,1.891,1.316,4.311,2.256,0.000,2.685,0.000,0.000,0.000,0.000,0.000,0.000,0.000,0.000,0.000,0.000,0.000,3.142,0.002,0.000,1.002,1.571,1.572,4.087,6.281,1.199,4.712,0.000,0.000,-1.738,-7.323,0.990,1.299,4.694,4.694,5.281,4.713,4.714,2.199,6.281,5.083,1.571,0.000,0.000,-2.370,-7.148,0.991,1.298,4.703,4.703,
29.220,36.547,-1.896,-6.668,4.555,0.006,1.608,4.274,2.411,0.000,0.915,0.000,3.448,1.987,1.235,0.000,1.998,0.000,2.580,0.000,0.000,0.000,0.000,0.000,0.000,0.000,0.000,0.000,0.000,0.000,3.142,0.002,0.000,1.003,1.570,1.569,4.086,6.281,1.199,4.712,0.000,0.000,-1.664,-7.302,0.990,1.413,4.682,4.681,5.282,4.712,4.712,2.199,6.282,5.083,1.570,0.000,0.000,-2.313,-7.198,0.991,1.412,4.695,4.694,
29.320,36.647,-1.896,-6.670,4.698,0.020,1.148,2.487,0.000,0.000,0.950,2.679,3.424,1.907,1.163,0.000,2.301,0.000,2.440,0.000,0.000,0.000,0.000,0.000,0.000,0.000,0.000,0.000,0.000,0.000,3.142,0.002,0.000,1.003,1.569,1.569,4.086,6.281,1.199,4.712,0.000,0.000,-1.576,-7.264,0.990,1.556,4.383,4.382,5.281,4.712,4.711,2.199,6.282,5.083,1.570,0.000,0.000,-2.232,-7.254,0.991,1.556,4.509,4.508,
29.420,36.747,-1.896,-6.671,4.778,-0.008,0.907,2.495,0.000,0.000,0.980,2.656,0.000,1.719,1.137,4.709,2.594,0.000,3.142,0.000,0.000,0.000,0.000,0.000,0.000,0.000,0.000,0.000,0.000,0.000,3.142,0.002,0.000,1.003,1.570,1.570,4.086,6.281,1.199,4.712,0.000,0.000,-1.530,-7.238,0.990,1.506,1.653,1.652,5.281,4.712,4.712,2.199,6.282,5.083,1.570,0.000,0.000,-2.185,-7.280,0.991,1.506,1.620,1.619,
29.520,36.847,-1.897,-6.669,4.858,-0.016,1.073,2.521,0.000,1.400,1.019,3.206,4.576,1.572,1.118,4.923,2.612,0.000,3.071,0.000,0.000,0.000,0.000,0.000,0.000,0.000,0.000,0.000,0.000,0.000,3.142,0.002,0.000,1.003,1.570,1.570,4.086,6.281,1.199,4.712,0.000,0.000,-1.486,-7.205,0.990,1.426,1.606,1.605,5.281,4.712,4.713,2.199,6.282,5.083,1.570,0.000,0.000,-2.136,-7.300,0.991,1.426,1.592,1.591,
29.620,36.947,-1.897,-6.669,4.957,0.009,1.224,2.301,0.000,0.901,1.678,3.165,1.870,1.435,1.211,4.381,3.057,0.000,2.966,0.000,0.000,0.000,0.000,0.000,0.000,0.000,0.000,0.000,0.000,0.000,3.142,0.002,0.000,1.003,1.570,1.570,4.086,6.281,1.199,4.712,0.000,0.000,-1.435,-7.161,0.990,1.326,1.590,1.589,5.281,4.712,4.712,2.199,6.282,5.083,1.570,0.000,0.000,-2.072,-7.320,0.991,1.327,1.583,1.582,
29.719,37.046,-1.896,-6.671,5.065,0.023,1.231,2.088,0.000,0.901,1.751,3.712,1.887,1.326,4.308,2.281,4.260,0.000,2.861,0.000,0.000,0.000,0.000,0.000,0.000,0.000,0.000,0.000,0.000,0.000,3.142,0.002,0.000,1.003,1.570,1.570,4.086,6.281,1.199,4.712,0.000,0.000,-1.384,-7.111,0.990,1.219,1.584,1.582,5.281,4.712,4.712,2.199,6.282,5.083,1.570,0.000,0.000,-2.001,-7.337,0.991,1.219,1.579,1.577,
29.820,37.147,-1.896,-6.672,5.146,-0.002,1.136,2.260,0.000,0.908,0.000,3.468,1.953,1.262,0.000,2.075,4.297,0.000,1.983,0.000,0.000,0.000,0.000,0.000,0.000,0.000,0.000,0.000,0.000,0.000,3.142,0.002,0.000,1.003,1.569,1.569,4.086,6.281,1.199,4.712,0.000,0.000,-1.349,-7.069,0.990,1.137,1.583,1.580,5.281,4.712,4.712,2.199,6.282,5.083,1.570,0.000,0.000,-1.945,-7.345,0.991,1.137,1.578,1.576,
29.916,37.243,-1.897,-6.671,5.252,-0.020,1.002,2.694,0.000,0.928,4.951,3.207,2.149,1.198,0.000,2.084,0.000,0.000,1.878,0.000,0.000,0.000,0.000,0.000,0.000,0.000,0.000,0.000,0.000,0.000,3.142,0.002,0.000,1.003,1.569,1.569,4.086,6.281,1.199,4.712,0.000,0.000,-1.312,-7.008,0.990,1.032,1.580,1.578,5.281,4.712,4.712,2.199,6.282,5.083,1.570,0.000,0.000,-1.875,-7.344,0.991,1.032,1.577,1.575,
30.020,37.347,-1.897,-6.670,5.322,0.003,1.074,0.000,0.000,0.948,4.990,3.589,1.928,1.166,0.000,2.275,2.487,0.000,1.808,0.000,0.000,0.000,0.000,0.000,0.000,0.000,0.000,0.000,0.000,0.000,3.142,0.002,0.000,1.003,1.570,1.570,4.086,6.281,1.199,4.712,0.000,0.000,-1.290,-6.966,0.990,0.962,1.579,1.577,5.281,4.712,4.712,2.199,6.282,5.083,1.570,0.000,0.000,-1.829,-7.341,0.991,0.962,1.576,1.575,
30.116,37.443,-1.897,-6.671,5.435,0.016,1.147,0.000,0.000,0.991,2.879,4.564,1.669,1.130,4.654,2.690,2.501,0.000,1.702,0.000,0.000,0.000,0.000,0.000,0.000,0.000,0.000,0.000,0.000,0.000,3.142,0.002,0.000,1.003,1.570,1.570,4.086,6.281,1.199,4.712,0.000,0.000,-1.260,-6.896,0.990,0.849,1.578,1.575,5.281,4.712,4.712,2.199,6.282,5.083,1.570,0.000,0.000,-1.753,-7.329,0.991,0.849,1.575,1.573,
30.217,37.544,-1.896,-6.672,5.515,0.025,1.200,0.000,0.905,1.031,3.375,2.227,1.536,1.259,4.900,2.578,2.530,0.000,2.404,0.000,0.000,0.000,0.000,0.000,0.000,0.000,0.000,0.000,0.000,0.000,3.142,0.002,0.000,1.003,1.570,1.570,4.086,6.281,1.199,4.712,0.000,0.000,-1.244,-6.845,0.990,0.769,1.577,1.574,5.281,4.712,4.712,2.199,6.282,5.083,1.570,0.000,0.000,-1.700,-7.317,0.991,0.770,1.574,1.573,
30.320,37.647,-1.870,-6.695,5.598,0.721,0.548,0.000,0.874,1.656,3.182,1.873,1.459,1.237,4.438,3.205,2.231,0.000,2.334,0.000,0.000,0.000,0.000,0.000,0.000,0.000,0.000,0.000,0.000,0.000,3.142,6.279,6.283,1.008,1.566,1.563,4.077,6.283,1.198,4.711,0.000,0.000,-1.205,-6.808,0.991,0.677,1.571,1.569,5.283,4.709,4.706,2.198,0.000,5.083,1.570,0.000,0.000,-1.618,-7.318,0.991,0.678,1.575,1.572,
30.420,37.747,-1.765,-6.779,5.631,1.397,0.578,0.000,0.768,0.950,3.236,1.981,1.554,4.436,2.300,3.838,1.982,0.000,1.667,0.000,0.000,0.000,0.000,0.000,0.000,0.000,0.000,0.000,0.000,0.000,3.142,6.283,6.283,1.005,1.570,1.570,4.083,6.281,1.199,4.712,0.000,0.000,-1.098,-6.876,0.990,0.653,1.576,1.573,5.282,4.712,4.712,2.199,6.282,5.083,1.571,0.000,0.000,-1.496,-7.398,0.991,0.653,1.575,1.573,
30.520,37.847,-1.663,-6.855,5.713,1.091,1.063,0.000,0.722,0.879,3.241,2.126,1.588,4.545,2.063,4.170,1.997,0.000,2.369,0.000,0.000,0.000,0.000,0.000,0.000,0.000,0.000,0.000,0.000,0.000,3.142,0.003,0.001,1.001,1.572,1.572,4.089,6.281,1.199,4.712,0.000,0.000,-0.990,-6.899,0.990,0.573,1.579,1.574,5.281,4.714,4.714,2.199,6.282,5.083,1.571,0.000,0.000,-1.345,-7.451,0.991,0.573,1.575,1.572,
30.620,37.947,-1.587,-6.903,5.762,0.815,0.082,4.782,0.817,0.813,3.311,2.227,1.630,0.000,2.257,4.421,2.129,0.000,2.334,0.000,0.000,0.000,0.000,0.000,0.000,0.000,0.000,0.000,0.000,0.000,3.142,0.000,0.001,1.003,1.569,1.567,4.086,6.282,1.199,4.711,0.000,0.000,-0.911,-6.910,0.990,0.518,1.577,1.572,5.281,4.711,4.710,2.198,6.282,5.083,1.570,0.000,0.000,-1.238,-7.479,0.990,0.519,1.576,1.572,
30.720,38.047,-1.512,-6.945,5.762,0.976,6.272,4.697,3.482,0.711,3.300,2.275,1.716,0.000,2.359,2.255,2.130,0.000,2.369,0.000,0.000,0.000,0.000,0.000,0.000,0.000,0.000,0.000,0.000,0.000,3.142,6.281,0.000,1.005,1.569,1.568,4.083,6.281,1.199,4.712,0.000,0.000,-0.838,-6.952,0.990,0.519,1.575,1.572,5.281,4.711,4.710,2.197,6.282,5.083,1.570,0.000,0.000,-1.163,-7.522,0.990,0.519,1.576,1.573,
30.820,38.147,-1.421,-6.997,5.761,1.111,6.154,4.597,0.918,0.585,3.354,2.331,1.822,0.000,2.479,2.203,2.126,0.000,2.369,0.000,0.000,0.000,0.000,0.000,0.000,0.000,0.000,0.000,0.000,0.000,3.142,6.281,0.000,1.005,1.569,1.568,4.083,0.000,1.199,4.711,0.000,0.000,-0.747,-7.005,0.990,0.519,1.576,1.572,5.281,4.711,4.710,2.197,6.282,5.083,1.570,0.000,0.000,-1.073,-7.574,0.990,0.521,1.577,1.573,
30.920,38.247,-1.329,-7.051,5.710,1.030,5.233,4.627,0.000,0.438,3.626,2.614,1.988,0.000,2.492,2.173,1.986,0.000,2.475,0.000,0.000,0.000,0.000,0.000,0.000,0.000,0.000,0.000,0.000,0.000,3.142,6.281,0.001,1.004,1.568,1.566,4.085,6.281,1.199,4.711,0.000,0.000,-0.655,-7.092,0.990,0.569,1.577,1.572,5.281,4.710,4.709,2.197,6.282,5.083,1.570,0.000,0.000,-1.010,-7.644,0.990,0.569,1.577,1.573,
31.020,38.347,-1.249,-7.105,5.595,0.960,4.907,0.000,0.000,0.550,0.743,0.000,2.267,4.959,2.385,4.060,1.731,0.000,2.580,0.000,0.000,0.000,0.000,0.000,0.000,0.000,0.000,0.000,0.000,0.000,3.142,6.280,0.001,1.004,1.568,1.567,4.085,6.281,1.199,4.712,0.000,0.000,-0.584,-7.224,0.990,0.686,1.577,1.573,5.282,4.711,4.710,2.197,6.282,5.083,1.570,0.000,0.000,-1.001,-7.732,0.991,0.687,1.576,1.573,
31.106,38.432,-1.176,-7.168,5.521,1.004,6.064,0.000,0.000,1.348,0.439,0.000,2.522,0.000,2.364,4.121,1.590,0.000,2.685,0.000,0.000,0.000,0.000,0.000,0.000,0.000,0.000,0.000,0.000,0.000,3.142,6.282,0.000,1.004,1.570,1.571,4.085,6.280,1.199,4.712,0.000,0.000,-0.524,-7.338,0.990,0.765,1.577,1.575,5.282,4.712,4.713,2.198,6.281,5.083,1.571,0.000,0.000,-0.977,-7.813,0.991,0.765,1.576,1.574,
31.205,38.531,-1.118,-7.224,5.521,1.037,6.279,0.000,0.000,0.700,0.466,4.424,2.603,0.000,2.431,4.059,1.565,0.000,2.685,0.000,3.592,0.000,0.000,0.000,0.000,0.000,0.000,0.000,0.000,0.000,3.142,6.283,0.000,1.003,1.569,1.569,4.085,6.281,1.199,4.712,0.000,0.000,-0.465,-7.393,0.990,0.762,1.577,1.574,5.281,4.711,4.711,2.198,6.282,5.083,1.570,0.000,0.000,-0.918,-7.867,0.990,0.762,1.577,1.574,
31.320,38.647,-1.044,-7.294,5.522,1.021,6.271,0.000,0.000,1.598,0.543,4.349,2.701,0.000,2.517,2.056,1.535,0.000,2.685,0.000,3.331,0.000,0.000,0.000,0.000,0.000,0.000,0.000,0.000,0.000,3.142,6.283,0.000,1.003,1.570,1.569,4.086,6.281,1.199,4.712,0.000,0.000,-0.391,-7.463,0.990,0.761,1.578,1.575,5.281,4.711,4.712,2.198,6.282,5.083,1.570,0.000,0.000,-0.844,-7.938,0.990,0.761,1.577,1.574,
31.420,38.747,-0.958,-7.376,5.523,0.998,6.265,0.000,0.000,1.759,0.632,4.255,2.816,0.000,2.617,1.964,1.500,0.000,2.720,0.000,3.054,0.000,0.000,0.000,0.000,0.000,0.000,0.000,0.000,0.000,3.142,6.283,0.000,1.003,1.569,1.569,4.085,6.281,1.199,4.712,0.000,0.000,-0.305,-7.544,0.990,0.760,1.578,1.574,5.281,4.711,4.711,2.198,6.282,5.083,1.570,0.000,0.000,-0.757,-8.019,0.990,0.760,1.577,1.574,
31.514,38.840,-0.887,-7.444,5.543,1.009,0.698,0.000,0.000,1.831,0.700,4.443,2.861,0.000,2.729,1.872,1.496,0.000,2.720,0.000,2.903,0.000,0.000,0.000,0.000,0.000,0.000,0.000,0.000,0.000,3.142,0.001,0.000,1.003,1.571,1.572,4.086,6.281,1.199,4.712,0.000,0.000,-0.231,-7.600,0.990,0.743,1.578,1.575,5.281,4.712,4.714,2.199,6.281,5.083,1.571,0.000,0.000,-0.674,-8.084,0.991,0.743,1.575,1.574,
31.620,38.947,-0.827,-7.497,5.618,1.018,1.365,4.798,0.000,1.725,1.051,0.000,2.761,0.000,2.667,1.581,0.000,0.000,2.650,0.000,0.000,0.000,0.000,0.000,0.000,0.000,0.000,0.000,0.000,0.000,3.142,0.002,0.000,1.003,1.571,1.572,4.086,6.281,1.199,4.712,0.000,0.000,-0.162,-7.603,0.990,0.667,1.577,1.574,5.282,4.713,4.714,2.198,6.282,5.083,1.571,0.000,0.000,-0.567,-8.120,0.991,0.668,1.574,1.573,
31.705,39.031,-0.729,-7.567,5.751,1.017,0.717,3.826,0.000,1.567,1.216,3.787,2.635,0.000,3.052,1.132,0.000,0.000,2.510,0.000,0.000,0.000,0.000,0.000,0.000,0.000,0.000,0.000,0.000,0.000,3.142,0.000,0.000,1.004,1.569,1.567,4.085,6.282,1.199,4.712,0.000,0.000,-0.054,-7.581,0.990,0.528,1.576,1.572,5.282,4.711,4.710,2.198,6.283,5.083,1.570,0.000,0.000,-0.387,-8.147,0.991,0.529,1.575,1.572,
31.820,39.147,-0.660,-7.607,5.764,1.015,6.262,3.720,0.000,1.604,1.125,3.846,2.695,0.000,3.182,1.137,0.000,0.000,2.510,0.000,0.000,0.000,0.000,0.000,0.000,0.000,0.000,0.000,0.000,0.000,3.142,6.282,0.000,1.004,1.569,1.568,4.084,6.281,1.199,4.712,0.000,0.000,0.015,-7.613,0.990,0.517,1.576,1.572,5.281,4.711,4.710,2.197,6.282,5.083,1.570,0.000,0.000,-0.310,-8.183,0.990,0.517,1.576,1.573,
31.920,39.247,-0.556,-7.667,5.763,1.008,6.276,3.603,0.000,1.691,1.185,0.967,2.815,0.000,3.321,1.137,0.000,0.000,0.755,0.000,0.000,0.000,0.000,0.000,0.000,0.000,0.000,0.000,0.000,0.000,3.142,6.282,0.000,1.004,1.569,1.568,4.084,6.281,1.199,4.712,0.000,0.000,0.118,-7.673,0.990,0.519,1.576,1.572,5.281,4.711,4.711,2.197,6.282,5.083,1.570,0.000,0.000,-0.207,-8.243,0.990,0.519,1.576,1.573,
32.010,39.336,-0.470,-7.716,5.763,1.010,6.275,3.505,0.000,1.763,1.235,1.021,2.915,0.000,3.437,1.138,0.000,0.000,0.720,0.000,0.000,0.000,0.000,0.000,0.000,0.000,0.000,0.000,0.000,0.000,3.142,6.282,0.000,1.004,1.569,1.569,4.084,6.281,1.199,4.712,0.000,0.000,0.204,-7.723,0.990,0.519,1.576,1.572,5.281,4.711,4.711,2.197,6.282,5.083,1.570,0.000,0.000,-0.121,-8.293,0.990,0.519,1.576,1.573,
32.116,39.443,-0.401,-7.756,5.763,1.013,6.273,3.427,0.000,1.821,1.276,1.065,2.995,3.093,2.071,1.138,0.000,0.000,0.720,0.000,0.000,0.000,0.000,0.000,0.000,0.000,0.000,0.000,0.000,0.000,3.142,6.282,0.000,1.004,1.569,1.569,4.084,6.281,1.199,4.712,0.000,0.000,0.273,-7.763,0.990,0.519,1.576,1.572,5.281,4.711,4.711,2.197,6.282,5.083,1.570,0.000,0.000,-0.052,-8.332,0.990,0.519,1.576,1.573,
32.220,39.547,-0.315,-7.805,5.763,1.013,6.272,3.328,0.000,1.893,1.326,1.120,3.095,2.954,1.998,1.138,0.000,0.000,0.755,0.000,0.000,0.000,0.000,0.000,0.000,0.000,0.000,0.000,0.000,0.000,3.142,6.282,0.000,1.004,1.569,1.569,4.085,6.281,1.199,4.712,0.000,0.000,0.360,-7.812,0.990,0.520,1.576,1.572,5.281,4.711,4.711,2.197,6.282,5.083,1.570,0.000,0.000,0.034,-8.382,0.990,0.519,1.576,1.573,
32.320,39.647,-0.211,-7.864,5.763,1.010,6.271,3.210,0.000,1.979,1.386,1.186,3.214,3.058,1.130,1.139,0.000,0.000,0.790,0.000,0.000,0.000,0.000,0.000,0.000,0.000,0.000,0.000,0.000,0.000,3.142,6.282,0.000,1.004,1.569,1.569,4.085,6.281,1.199,4.712,0.000,0.000,0.464,-7.872,0.990,0.520,1.576,1.572,5.281,4.711,4.711,2.198,6.282,5.083,1.570,0.000,0.000,0.138,-8.441,0.990,0.520,1.576,1.573,
32.411,39.738,-0.125,-7.914,5.763,1.011,6.270,3.112,0.000,2.051,1.437,1.241,3.314,3.145,1.130,1.988,0.000,0.000,0.790,0.000,0.000,0.000,0.000,0.000,0.000,0.000,0.000,0.000,0.000,0.000,3.142,6.282,0.000,1.004,1.569,1.569,4.085,6.281,1.199,4.712,0.000,0.000,0.550,-7.921,0.990,0.520,1.576,1.572,5.281,4.711,4.711,2.198,6.282,5.083,1.570,0.000,0.000,0.224,-8.491,0.990,0.520,1.576,1.573,
32.510,39.836,-0.056,-7.954,5.763,1.012,6.270,3.033,0.000,2.108,1.477,1.285,3.393,3.214,1.130,2.013,0.000,0.000,0.790,0.000,1.727,0.000,0.000,0.000,0.000,0.000,0.000,0.000,0.000,0.000,3.142,6.282,0.000,1.004,1.569,1.569,4.085,6.281,1.199,4.712,0.000,0.000,0.619,-7.961,0.990,0.520,1.576,1.572,5.281,4.711,4.711,2.198,6.282,5.083,1.570,0.000,0.000,0.293,-8.530,0.990,0.520,1.576,1.573,
32.620,39.947,0.031,-8.003,5.763,1.012,6.269,2.934,0.000,1.600,1.527,1.185,3.493,3.301,1.131,2.044,0.000,0.000,0.825,0.000,1.521,0.000,0.000,0.000,0.000,0.000,0.000,0.000,0.000,0.000,3.142,6.282,0.000,1.004,1.569,1.569,4.085,6.281,1.199,4.712,0.000,0.000,0.705,-8.010,0.990,0.520,1.576,1.573,5.281,4.711,4.711,2.198,6.282,5.083,1.570,0.000,0.000,0.380,-8.580,0.990,0.519,1.576,1.573,
32.701,40.027,0.134,-8.062,5.763,1.011,6.269,2.815,0.000,1.625,1.587,1.287,3.612,3.406,1.131,2.082,0.000,0.000,0.825,0.000,1.335,0.000,0.000,0.000,0.000,0.000,0.000,0.000,0.000,0.000,3.142,6.282,0.000,1.004,1.569,1.569,4.085,6.281,1.199,4.712,0.000,0.000,0.809,-8.070,0.990,0.519,1.576,1.573,5.281,4.711,4.711,2.198,6.282,5.083,1.570,0.000,0.000,0.483,-8.639,0.990,0.519,1.576,1.573,
32.812,40.138,0.203,-8.102,5.763,1.011,6.268,2.736,0.000,2.322,1.627,1.822,3.691,3.475,1.131,2.108,0.000,0.000,0.825,0.000,1.220,0.000,0.000,0.000,0.000,0.000,0.000,0.000,0.000,0.000,3.142,6.282,0.000,1.004,1.569,1.569,4.085,6.281,1.199,4.712,0.000,0.000,0.878,-8.109,0.990,0.519,1.576,1.573,5.281,4.711,4.711,2.198,6.282,5.083,1.570,0.000,0.000,0.552,-8.679,0.990,0.519,1.576,1.573,
32.911,40.238,0.290,-8.151,5.764,1.012,6.268,2.637,0.000,2.393,1.678,2.018,3.790,3.562,1.131,2.450,0.000,0.000,0.825,0.000,1.071,0.000,0.000,0.000,0.000,0.000,0.000,0.000,0.000,0.000,3.142,6.282,0.000,1.004,1.569,1.569,4.085,6.281,1.199,4.712,0.000,0.000,0.964,-8.158,0.990,0.519,1.576,1.573,5.281,4.711,4.711,2.198,6.282,5.083,1.570,0.000,0.000,0.639,-8.728,0.990,0.519,1.576,1.573,
33.020,40.347,0.376,-8.201,5.764,1.012,6.267,2.538,0.000,2.463,1.728,1.893,3.889,3.649,1.132,2.902,4.949,0.000,0.860,0.000,0.919,0.000,0.000,0.000,0.000,0.000,0.000,0.000,0.000,0.000,3.142,6.283,0.000,1.004,1.569,1.569,4.085,6.281,1.199,4.712,0.000,0.000,1.051,-8.208,0.990,0.519,1.576,1.573,5.281,4.711,4.711,2.198,6.282,5.083,1.570,0.000,0.000,0.725,-8.777,0.990,0.519,1.576,1.573,
33.120,40.447,0.480,-8.260,5.799,1.010,0.923,2.376,0.000,2.460,1.778,1.994,3.932,3.771,1.605,4.181,4.968,0.000,0.825,0.000,0.749,0.000,0.000,0.000,0.000,0.000,0.000,0.000,0.000,0.000,3.142,0.001,0.000,1.003,1.571,1.572,4.086,6.281,1.199,4.712,0.000,0.000,1.154,-8.245,0.990,0.488,1.577,1.573,5.281,4.713,4.714,2.199,6.281,5.083,1.571,0.000,0.000,0.848,-8.825,0.991,0.488,1.574,1.572,
33.210,40.537,0.569,-8.304,5.911,1.011,1.436,2.382,0.000,2.286,1.805,2.057,4.964,1.541,1.878,0.000,4.404,0.000,0.720,0.000,0.712,0.000,0.000,0.000,0.000,0.000,0.000,0.000,0.000,0.000,3.142,0.002,0.000,1.003,1.571,1.571,4.085,6.282,1.199,4.712,0.000,0.000,1.237,-8.213,0.990,0.373,1.576,1.572,5.282,4.713,4.713,2.198,6.282,5.083,1.571,0.000,0.000,0.999,-8.824,0.991,0.374,1.574,1.572,
33.320,40.647,0.635,-8.329,6.073,0.799,2.488,0.000,4.297,2.083,1.845,2.121,0.000,1.355,1.966,0.000,3.481,0.000,3.142,0.647,0.000,0.000,0.000,0.000,0.000,0.000,0.000,0.000,0.000,0.000,3.142,6.282,6.282,1.020,1.574,1.597,3.927,6.140,1.328,4.860,0.000,0.000,1.218,-8.172,1.004,0.373,1.561,1.692,5.281,4.716,4.719,2.200,6.282,5.083,1.571,0.000,0.000,1.142,-8.777,0.991,0.219,1.573,1.572,
33.416,40.743,0.754,-8.348,6.167,1.191,6.240,0.000,3.634,2.011,1.896,4.962,0.000,1.394,2.286,0.000,3.015,0.000,3.142,0.518,0.000,0.000,0.000,0.000,0.000,0.000,0.000,0.000,0.000,0.000,3.142,6.281,0.000,1.005,1.568,1.565,4.083,6.282,1.199,4.712,0.000,0.000,1.377,-8.087,0.990,0.111,1.575,1.570,5.281,4.710,4.709,2.198,6.282,5.083,1.570,0.000,0.000,1.302,-8.739,0.990,0.113,1.575,1.570,
33.520,40.847,0.846,-8.359,6.169,1.119,0.183,0.000,3.641,2.021,1.908,2.393,0.000,1.568,2.523,0.000,2.885,0.000,3.142,0.402,0.000,0.000,0.000,0.000,0.000,0.000,0.000,0.000,0.000,0.000,3.142,0.001,0.000,1.002,1.570,1.571,4.087,6.281,1.200,4.712,0.000,0.000,1.469,-8.100,0.990,0.116,1.577,1.571,5.280,4.713,4.715,2.199,6.278,5.081,1.571,0.007,0.000,1.394,-8.754,0.990,0.122,1.577,1.571,
