deveshdatwani/Gopher/Assets/Data/07-21 07-10-12/Obstacle Handling_robot_value.csv
game_time,true_time,x,y,az,vx,vaz,dis_to_obs_0,dis_to_obs_36,dis_to_obs_72,dis_to_obs_108,dis_to_obs_144,dis_to_obs_180,dis_to_obs_-144,dis_to_obs_-108,dis_to_obs_-72,dis_to_obs_-36,dis_to_min_obs,direction_to_min_obs,dis_to_human_0,dis_to_human_36,dis_to_human_72,dis_to_human_108,dis_to_human_144,dis_to_human_180,dis_to_human_-144,dis_to_human_-108,dis_to_human_-72,dis_to_human_-36,dis_to_min_human,direction_to_min_human,main_cam_yaw,main_cam_pitch,left_joint_1,left_joint_2,left_joint_3,left_joint_4,left_joint_5,left_joint_6,left_joint_7,left_joint_gripper,left_is_grasping,left_end_x,left_end_y,left_end_z,left_end_ax,left_end_ay,left_end_az,right_joint_1,right_joint_2,right_joint_3,right_joint_4,right_joint_5,right_joint_6,right_joint_7,right_joint_gripper,right_is_grasping,right_end_x,right_end_y,right_end_z,right_end_ax,right_end_ay,right_end_az,
8.096,14.371,0.997,-9.903,1.581,1.007,0.331,3.404,0.000,2.141,1.259,2.136,0.000,3.343,2.095,1.700,4.133,0.000,3.142,0.000,0.000,0.000,0.000,0.000,0.000,0.000,0.000,0.000,0.000,0.000,3.142,0.001,0.000,1.003,1.570,1.571,4.086,6.281,1.199,4.712,0.000,0.000,0.663,-9.317,0.990,4.722,4.159,5.265,5.281,4.712,4.713,2.199,6.282,5.083,1.570,0.000,0.000,1.319,-9.310,0.991,4.722,4.308,5.117,
8.200,14.475,0.994,-9.804,1.653,0.996,1.288,3.321,0.000,2.025,1.294,2.396,0.000,3.063,2.057,0.000,3.835,0.000,3.142,0.000,0.000,0.000,0.000,0.000,0.000,0.000,0.000,0.000,0.000,0.000,3.142,0.002,0.000,1.003,1.571,1.572,4.086,6.281,1.199,4.712,0.000,0.000,0.620,-9.244,0.990,4.792,4.651,4.773,5.282,4.713,4.714,2.199,6.282,5.083,1.571,0.000,0.000,1.274,-9.190,0.991,4.792,4.676,4.749,
8.300,14.575,0.987,-9.726,1.752,1.011,1.391,3.290,0.000,1.846,1.352,2.903,0.000,2.771,2.029,0.000,3.553,0.000,3.142,0.000,3.368,0.000,0.000,0.000,0.000,0.000,0.000,0.000,0.000,0.000,3.142,0.001,0.000,1.003,1.570,1.570,4.085,6.282,1.199,4.712,0.000,0.000,0.557,-9.205,0.990,4.894,4.688,4.735,5.282,4.713,4.712,2.198,6.282,5.083,1.571,0.000,0.000,1.203,-9.087,0.991,4.893,4.695,4.729,
8.391,14.666,0.960,-9.608,1.859,1.028,0.444,3.259,0.000,1.729,1.417,3.773,0.000,2.563,1.642,0.000,3.280,0.000,3.142,0.000,3.339,0.000,0.000,0.000,0.000,0.000,0.000,0.000,0.000,0.000,3.142,6.283,0.000,1.004,1.569,1.567,4.085,6.282,1.199,4.712,0.000,0.000,0.476,-9.137,0.990,5.004,4.696,4.726,5.281,4.711,4.709,2.198,6.283,5.083,1.570,0.000,0.000,1.105,-8.950,0.991,5.004,4.698,4.725,
8.500,14.775,0.931,-9.511,1.864,1.010,6.272,3.163,0.000,1.788,1.387,3.735,0.000,2.590,1.671,4.524,3.174,0.000,3.142,0.000,3.338,0.000,0.000,0.000,0.000,0.000,0.000,0.000,0.000,0.000,3.142,6.282,0.000,1.004,1.569,1.569,4.085,6.281,1.199,4.712,0.000,0.000,0.446,-9.043,0.990,5.006,4.696,4.727,5.281,4.711,4.711,2.197,6.282,5.083,1.570,0.000,0.000,1.074,-8.853,0.990,5.006,4.696,4.728,
8.600,14.875,0.909,-9.436,1.864,1.002,6.271,3.083,0.000,1.841,1.358,3.657,0.000,2.619,1.693,0.000,3.094,0.000,3.142,0.000,3.285,0.000,0.000,0.000,0.000,0.000,0.000,0.000,0.000,0.000,3.142,6.282,0.000,1.004,1.569,1.569,4.085,6.281,1.199,4.712,0.000,0.000,0.423,-8.967,0.990,5.006,4.696,4.727,5.281,4.711,4.711,2.197,6.282,5.083,1.570,0.000,0.000,1.051,-8.777,0.990,5.006,4.696,4.728,
8.700,14.975,0.874,-9.322,1.864,1.012,6.271,2.964,4.801,1.501,1.378,3.542,0.000,2.662,1.728,4.872,2.974,0.000,3.142,0.000,0.000,0.000,0.000,0.000,0.000,0.000,0.000,0.000,0.000,0.000,3.142,6.282,0.000,1.004,1.569,1.569,4.085,6.281,1.199,4.712,0.000,0.000,0.389,-8.853,0.990,5.006,4.696,4.727,5.281,4.711,4.711,2.197,6.282,5.083,1.570,0.000,0.000,1.017,-8.663,0.990,5.006,4.696,4.727,
8.800,15.075,0.851,-9.246,1.864,1.016,6.270,2.884,4.760,1.434,1.416,3.464,0.000,2.691,1.751,4.740,2.894,0.000,3.142,0.000,0.000,0.000,0.000,0.000,0.000,0.000,0.000,0.000,0.000,0.000,3.142,6.282,0.000,1.004,1.569,1.569,4.085,6.281,1.199,4.712,0.000,0.000,0.366,-8.777,0.990,5.006,4.696,4.727,5.281,4.711,4.711,2.198,6.282,5.083,1.570,0.000,0.000,0.994,-8.587,0.990,5.006,4.696,4.727,
8.900,15.175,0.816,-9.131,1.864,1.011,6.269,2.763,4.717,1.333,1.473,3.350,0.000,2.734,1.786,4.542,2.773,0.000,3.142,0.000,0.000,0.000,0.000,0.000,0.000,0.000,0.000,0.000,0.000,0.000,3.142,6.282,0.000,1.004,1.569,1.569,4.085,6.281,1.199,4.712,0.000,0.000,0.331,-8.662,0.990,5.006,4.696,4.727,5.281,4.711,4.711,2.198,6.282,5.083,1.570,0.000,0.000,0.959,-8.472,0.990,5.006,4.696,4.727,
9.000,15.275,0.793,-9.055,1.864,1.009,6.268,2.684,4.688,1.266,1.511,3.274,0.000,2.763,2.207,4.410,2.693,0.000,3.142,0.000,0.000,0.000,0.000,0.000,0.000,0.000,0.000,0.000,0.000,0.000,3.142,6.282,0.000,1.004,1.569,1.569,4.085,6.281,1.199,4.712,0.000,0.000,0.308,-8.586,0.990,5.006,4.696,4.727,5.281,4.711,4.711,2.198,6.282,5.083,1.570,0.000,0.000,0.936,-8.396,0.990,5.006,4.696,4.727,
9.083,15.358,0.759,-8.941,1.866,1.012,0.102,2.565,4.640,1.250,1.568,3.175,0.000,2.802,3.470,4.203,2.571,0.000,3.142,0.000,0.000,0.000,0.000,0.000,0.000,0.000,0.000,0.000,0.000,0.000,3.142,6.283,0.000,1.003,1.570,1.570,4.086,6.281,1.199,4.712,0.000,0.000,0.274,-8.473,0.990,5.007,4.695,4.728,5.281,4.712,4.712,2.199,6.282,5.083,1.570,0.000,0.000,0.901,-8.282,0.990,5.007,4.699,4.725,
9.197,15.472,0.729,-8.846,1.913,1.012,1.082,2.507,4.455,1.280,1.605,3.637,4.391,2.744,0.000,3.790,1.977,0.000,3.106,0.000,0.000,0.000,0.000,0.000,0.000,0.000,0.000,0.000,0.000,0.000,3.142,0.001,0.000,1.003,1.571,1.572,4.086,6.281,1.199,4.712,0.000,0.000,0.224,-8.400,0.990,5.052,4.697,4.726,5.282,4.713,4.714,2.199,6.282,5.083,1.571,0.000,0.000,0.842,-8.180,0.991,5.052,4.703,4.721,
9.300,15.575,0.693,-8.753,2.032,1.012,1.415,2.539,0.000,1.187,1.637,0.000,4.391,2.597,0.000,3.183,2.279,0.000,3.001,0.000,0.000,0.000,0.000,0.000,0.000,0.000,0.000,0.000,0.000,0.000,3.142,0.001,0.000,1.003,1.570,1.570,4.085,6.282,1.199,4.712,0.000,0.000,0.137,-8.372,0.990,5.174,4.702,4.720,5.282,4.713,4.713,2.198,6.282,5.083,1.571,0.000,0.000,0.725,-8.079,0.991,5.173,4.705,4.718,
9.400,15.675,0.646,-8.665,2.138,1.020,0.959,2.070,0.000,1.133,1.679,0.000,4.384,2.099,0.000,2.782,2.167,0.000,2.896,0.000,0.000,0.000,0.000,0.000,0.000,0.000,0.000,0.000,0.000,0.000,3.142,0.001,0.000,1.003,1.570,1.569,4.085,6.282,1.199,4.712,0.000,0.000,0.052,-8.344,0.990,5.280,4.704,4.718,5.282,4.712,4.711,2.198,6.283,5.083,1.570,0.000,0.000,0.606,-7.992,0.991,5.280,4.706,4.717,
9.500,15.775,0.602,-8.597,2.195,1.019,0.806,2.247,0.000,1.123,1.711,0.000,4.100,2.103,0.000,2.580,2.097,0.000,2.826,0.000,0.000,0.000,0.000,0.000,0.000,0.000,0.000,0.000,0.000,0.000,3.142,0.001,0.000,1.003,1.570,1.569,4.085,6.281,1.199,4.712,0.000,0.000,-0.009,-8.312,0.990,5.337,4.704,4.718,5.282,4.712,4.712,2.198,6.282,5.083,1.570,0.000,0.000,0.523,-7.928,0.991,5.337,4.706,4.717,
9.600,15.875,0.529,-8.502,2.289,1.009,1.035,0.000,0.000,1.100,1.765,0.000,3.756,2.532,0.000,2.318,2.013,0.000,2.755,3.019,0.000,0.000,0.000,0.000,0.000,0.000,0.000,0.000,0.000,0.000,3.142,0.001,0.000,1.003,1.570,1.570,4.086,6.281,1.199,4.712,0.000,0.000,-0.105,-8.274,0.990,5.429,4.705,4.717,5.282,4.712,4.713,2.198,6.282,5.083,1.570,0.000,0.000,0.389,-7.842,0.991,5.429,4.707,4.716,
9.690,15.965,0.476,-8.443,2.364,1.010,1.103,4.798,0.000,1.076,1.812,0.000,3.543,3.793,4.163,1.674,1.974,0.000,2.685,0.000,0.000,0.000,0.000,0.000,0.000,0.000,0.000,0.000,0.000,0.000,3.142,0.001,0.000,1.003,1.570,1.570,4.085,6.281,1.199,4.712,0.000,0.000,-0.174,-8.263,0.990,5.505,4.706,4.716,5.282,4.712,4.712,2.198,6.282,5.083,1.570,0.000,0.000,0.287,-7.796,0.991,5.504,4.708,4.715,
9.800,16.075,0.388,-8.362,2.473,1.015,1.014,4.260,3.639,1.044,1.894,0.000,3.328,0.000,3.322,1.978,1.942,0.000,2.580,0.000,0.000,0.000,0.000,0.000,0.000,0.000,0.000,0.000,0.000,0.000,3.142,0.001,0.000,1.003,1.570,1.569,4.085,6.281,1.199,4.712,0.000,0.000,-0.278,-8.254,0.990,5.615,4.706,4.715,5.282,4.712,4.712,2.198,6.282,5.083,1.570,0.000,0.000,0.129,-7.739,0.991,5.614,4.708,4.714,
9.900,16.175,0.308,-8.302,2.558,1.016,0.983,3.919,3.566,1.021,2.064,4.980,3.225,0.000,2.865,1.864,1.935,0.000,2.720,0.000,0.000,0.000,0.000,0.000,0.000,0.000,0.000,0.000,0.000,0.000,3.142,0.001,0.000,1.003,1.570,1.570,4.085,6.282,1.199,4.712,0.000,0.000,-0.364,-8.251,0.990,5.699,4.707,4.715,5.282,4.712,4.712,2.198,6.282,5.083,1.570,0.000,0.000,-0.003,-7.703,0.991,5.699,4.708,4.714,
10.000,16.275,0.241,-8.259,2.627,1.014,1.005,3.687,3.523,1.002,2.479,4.950,2.712,0.000,2.583,1.791,1.958,0.000,2.650,0.000,0.000,0.000,0.000,0.000,0.000,0.000,0.000,0.000,0.000,0.000,3.142,0.001,0.000,1.003,1.570,1.570,4.086,6.281,1.199,4.712,0.000,0.000,-0.434,-8.254,0.990,5.768,4.707,4.714,5.282,4.712,4.712,2.198,6.282,5.083,1.570,0.000,0.000,-0.110,-7.683,0.991,5.768,4.709,4.714,
10.093,16.368,0.135,-8.203,2.732,1.013,1.022,4.462,3.349,0.972,4.780,0.000,2.689,0.000,1.673,1.709,1.645,0.000,2.580,0.000,0.000,0.000,0.000,0.000,0.000,0.000,0.000,0.000,0.000,0.000,3.142,0.001,0.000,1.003,1.570,1.570,4.085,6.282,1.199,4.712,0.000,0.000,-0.536,-8.270,0.990,5.874,4.707,4.713,5.282,4.712,4.712,2.198,6.282,5.083,1.570,0.000,0.000,-0.275,-7.668,0.991,5.873,4.709,4.713,
10.200,16.475,0.042,-8.166,2.821,1.014,1.023,0.000,3.214,0.947,0.000,4.867,3.057,0.000,2.059,1.666,1.699,0.000,2.510,0.000,0.000,0.000,0.000,0.000,0.000,0.000,0.000,0.000,0.000,0.000,3.142,0.001,0.000,1.003,1.570,1.570,4.085,6.281,1.199,4.712,0.000,0.000,-0.620,-8.291,0.990,5.962,4.707,4.713,5.282,4.712,4.712,2.198,6.282,5.083,1.570,0.000,0.000,-0.413,-7.668,0.991,5.962,4.709,4.713,
10.282,16.557,-0.034,-8.141,2.880,1.015,0.586,0.000,1.172,0.927,0.000,4.640,3.322,4.535,1.948,1.645,4.221,0.000,2.475,0.000,0.000,0.000,0.000,0.000,0.000,0.000,0.000,0.000,0.000,0.000,3.142,0.000,0.000,1.004,1.569,1.568,4.085,6.282,1.199,4.712,0.000,0.000,-0.688,-8.308,0.990,6.024,4.708,4.712,5.281,4.711,4.710,2.198,6.283,5.083,1.570,0.000,0.000,-0.519,-7.674,0.991,6.023,4.708,4.712,
10.400,16.675,-0.150,-8.111,2.892,1.010,6.269,0.000,3.095,0.895,0.000,4.750,3.604,3.276,1.898,1.616,4.386,0.000,2.475,0.000,0.000,0.000,0.000,0.000,0.000,0.000,0.000,0.000,0.000,0.000,3.142,6.282,0.000,1.004,1.569,1.569,4.085,6.281,1.199,4.712,0.000,0.000,-0.801,-8.285,0.990,6.034,4.708,4.713,5.281,4.711,4.711,2.198,6.282,5.083,1.570,0.000,0.000,-0.640,-7.649,0.990,6.035,4.708,4.713,
10.489,16.764,-0.246,-8.087,2.893,1.009,6.269,0.000,2.991,0.868,0.000,4.894,3.705,4.249,1.869,1.592,4.238,0.000,2.510,0.000,0.000,0.000,0.000,0.000,0.000,0.000,0.000,0.000,0.000,0.000,3.142,6.282,0.000,1.004,1.569,1.569,4.085,6.281,1.199,4.712,0.000,0.000,-0.898,-8.261,0.990,6.035,4.708,4.713,5.281,4.711,4.711,2.198,6.282,5.083,1.570,0.000,0.000,-0.736,-7.625,0.990,6.035,4.708,4.713,
10.600,16.875,-0.342,-8.063,2.893,1.012,6.269,0.000,2.886,0.841,0.000,0.000,3.806,4.181,1.840,1.161,4.089,0.000,2.545,0.000,0.000,0.000,0.000,0.000,0.000,0.000,0.000,0.000,0.000,0.000,3.142,6.282,0.000,1.004,1.569,1.569,4.085,6.281,1.199,4.712,0.000,0.000,-0.994,-8.236,0.990,6.035,4.708,4.713,5.281,4.711,4.711,2.198,6.282,5.083,1.570,0.000,0.000,-0.833,-7.600,0.990,6.035,4.708,4.713,
10.700,16.975,-0.439,-8.038,2.893,1.013,6.267,0.000,2.668,0.814,2.104,0.000,3.909,4.114,1.811,0.000,3.939,0.000,2.545,0.000,0.000,0.000,0.000,0.000,0.000,0.000,0.000,2.787,0.000,0.000,3.142,6.282,0.000,1.004,1.569,1.569,4.085,6.281,1.199,4.712,0.000,0.000,-1.091,-8.212,0.990,6.035,4.708,4.713,5.281,4.711,4.711,2.198,6.282,5.083,1.570,0.000,0.000,-0.929,-7.576,0.990,6.035,4.708,4.713,
10.800,17.075,-0.516,-8.018,2.890,1.012,6.054,0.000,2.694,0.792,2.032,0.000,3.940,4.093,1.791,1.224,3.834,0.000,2.580,0.000,0.000,0.000,0.000,0.000,0.000,0.000,0.000,0.000,0.000,0.000,3.142,6.281,0.001,1.004,1.568,1.567,4.084,6.281,1.199,4.712,0.000,0.000,-1.168,-8.191,0.990,6.034,4.708,4.712,5.281,4.710,4.710,2.197,6.282,5.083,1.570,0.000,0.000,-1.006,-7.556,0.990,6.034,4.707,4.713,
10.900,17.175,-0.631,-7.987,2.805,1.012,4.985,0.000,2.753,0.766,0.882,0.000,3.465,3.680,1.859,1.189,3.794,0.000,2.685,0.000,0.000,0.000,0.000,0.000,0.000,0.000,0.000,0.000,0.000,0.000,3.142,6.280,0.001,1.005,1.568,1.565,4.084,6.281,1.199,4.711,0.000,0.000,-1.296,-8.106,0.990,5.951,4.707,4.712,5.282,4.710,4.708,2.197,6.282,5.083,1.570,0.000,0.000,-1.081,-7.485,0.990,5.950,4.708,4.713,
11.000,17.275,-0.724,-7.952,2.705,1.009,5.621,3.564,2.584,1.613,0.820,0.000,3.671,0.000,1.974,2.001,3.516,0.000,2.826,0.000,0.000,0.000,0.000,0.000,0.000,0.000,0.000,0.000,0.000,0.000,3.142,6.281,0.000,1.004,1.570,1.570,4.085,6.280,1.199,4.712,0.000,0.000,-1.397,-8.000,0.990,5.845,4.707,4.714,5.282,4.712,4.712,2.198,6.281,5.083,1.571,0.000,0.000,-1.119,-7.405,0.991,5.844,4.708,4.714,
11.100,17.375,-0.796,-7.918,2.692,1.012,6.263,3.387,2.504,1.677,0.808,0.000,3.773,0.000,1.950,1.128,3.452,0.000,2.861,0.000,0.000,0.000,0.000,0.000,0.000,0.000,0.000,0.000,0.000,0.000,3.142,6.283,0.000,1.003,1.570,1.570,4.085,6.281,1.199,4.712,0.000,0.000,-1.470,-7.957,0.990,5.833,4.707,4.714,5.281,4.712,4.712,2.198,6.282,5.083,1.570,0.000,0.000,-1.185,-7.367,0.990,5.833,4.708,4.714,
11.189,17.464,-0.904,-7.866,2.694,1.012,6.270,3.275,2.395,3.117,0.799,0.000,3.889,0.000,1.876,1.076,3.396,0.000,2.896,0.000,0.000,0.000,0.000,0.000,0.000,0.000,0.000,0.000,0.000,0.000,3.142,6.283,0.000,1.003,1.569,1.569,4.085,6.281,1.199,4.712,0.000,0.000,-1.577,-7.907,0.990,5.835,4.707,4.714,5.281,4.711,4.712,2.198,6.282,5.083,1.570,0.000,0.000,-1.293,-7.316,0.990,5.835,4.708,4.714,
11.300,17.575,-0.994,-7.823,2.687,1.012,5.907,3.123,2.300,2.961,0.788,0.000,4.003,0.000,1.829,1.034,3.334,0.000,2.931,0.000,0.000,0.000,0.000,0.000,0.000,0.000,0.000,0.000,0.000,0.000,3.142,6.281,0.001,1.004,1.568,1.567,4.084,6.281,1.199,4.712,0.000,0.000,-1.668,-7.861,0.990,5.832,4.707,4.713,5.281,4.710,4.709,2.197,6.282,5.083,1.570,0.000,0.000,-1.380,-7.272,0.990,5.832,4.707,4.714,
11.394,17.669,-1.083,-7.778,2.610,1.012,5.000,2.322,0.000,2.620,1.124,1.261,4.735,0.000,1.912,1.001,3.160,0.000,3.036,0.000,0.000,0.000,0.000,0.000,0.000,0.000,0.000,0.000,0.000,0.000,3.142,6.280,0.001,1.005,1.568,1.565,4.084,6.281,1.199,4.711,0.000,0.000,-1.758,-7.766,0.990,5.757,4.707,4.713,5.282,4.710,4.708,2.197,6.282,5.083,1.570,0.000,0.000,-1.426,-7.199,0.990,5.756,4.707,4.714,
11.500,17.775,-1.167,-7.726,2.489,1.009,4.975,2.276,0.000,2.266,1.503,1.085,0.000,0.000,2.136,0.980,0.000,0.000,3.142,0.000,0.000,0.000,0.000,0.000,0.000,0.000,0.000,0.000,0.000,0.000,3.142,6.280,0.001,1.004,1.569,1.567,4.085,6.281,1.199,4.712,0.000,0.000,-1.836,-7.630,0.990,5.633,4.706,4.715,5.282,4.711,4.710,2.197,6.282,5.083,1.570,0.000,0.000,-1.437,-7.108,0.991,5.632,4.708,4.714,
11.600,17.875,-1.245,-7.664,2.391,1.010,5.333,2.363,0.000,2.324,1.628,1.001,0.000,0.000,2.372,0.950,0.000,0.000,3.142,0.000,0.000,0.000,0.000,0.000,0.000,0.000,0.000,0.000,0.000,0.000,3.142,6.281,0.001,1.004,1.569,1.568,4.085,6.281,1.199,4.712,0.000,0.000,-1.900,-7.502,0.990,5.533,4.706,4.716,5.282,4.711,4.711,2.197,6.282,5.083,1.570,0.000,0.000,-1.453,-7.022,0.991,5.533,4.707,4.715,
11.689,17.964,-1.317,-7.594,2.314,1.018,5.409,2.442,4.962,2.151,3.608,1.069,0.000,0.000,2.591,0.908,4.459,0.000,3.142,0.000,0.000,0.000,0.000,0.000,0.000,0.000,0.000,0.000,0.000,0.000,3.142,6.281,0.001,1.004,1.569,1.567,4.085,6.281,1.199,4.712,0.000,0.000,-1.958,-7.384,0.990,5.458,4.705,4.716,5.282,4.711,4.710,2.197,6.282,5.083,1.570,0.000,0.000,-1.475,-6.939,0.990,5.457,4.706,4.716,
11.800,18.075,-1.383,-7.519,2.231,1.014,5.267,2.578,4.369,2.003,3.005,1.369,0.000,0.000,2.946,0.865,4.134,0.000,3.142,0.000,0.000,0.000,0.000,0.000,0.000,0.000,0.000,0.000,0.000,0.000,3.142,6.281,0.001,1.004,1.568,1.567,4.085,6.281,1.199,4.712,0.000,0.000,-2.005,-7.257,0.990,5.375,4.705,4.717,5.282,4.711,4.710,2.197,6.282,5.083,1.570,0.000,0.000,-1.487,-6.853,0.991,5.375,4.705,4.717,
11.900,18.175,-1.443,-7.439,2.140,1.009,5.237,2.813,2.722,2.395,2.542,1.718,1.804,4.677,3.627,0.823,0.000,0.000,1.176,0.000,0.000,0.000,0.000,0.000,0.000,0.000,0.000,0.000,0.000,0.000,3.142,6.280,0.001,1.004,1.568,1.567,4.085,6.281,1.199,4.712,0.000,0.000,-2.038,-7.121,0.990,5.284,4.703,4.718,5.282,4.711,4.710,2.197,6.282,5.083,1.570,0.000,0.000,-1.485,-6.767,0.991,5.283,4.704,4.718,
12.000,18.275,-1.485,-7.372,2.068,1.012,5.278,3.079,1.778,0.000,2.268,1.794,1.659,4.521,4.620,0.783,4.169,0.000,1.281,0.000,0.000,0.000,0.000,0.000,0.000,0.000,0.000,0.000,0.000,0.000,3.142,6.280,0.001,1.004,1.568,1.567,4.085,6.281,1.199,4.712,0.000,0.000,-2.056,-7.011,0.990,5.211,4.702,4.720,5.282,4.711,4.710,2.197,6.282,5.083,1.570,0.000,0.000,-1.479,-6.698,0.991,5.211,4.703,4.719,
12.100,18.375,-1.539,-7.265,1.964,1.016,5.305,2.579,1.692,0.000,2.307,1.932,1.534,0.000,4.445,0.720,3.432,0.000,1.527,0.000,0.000,0.000,0.000,0.000,0.000,0.000,0.000,0.000,0.000,0.000,3.142,6.281,0.001,1.004,1.568,1.567,4.085,6.281,1.199,4.712,0.000,0.000,-2.069,-6.847,0.990,5.108,4.700,4.723,5.282,4.711,4.710,2.197,6.282,5.083,1.570,0.000,0.000,-1.463,-6.595,0.991,5.107,4.701,4.722,
12.191,18.466,-1.569,-7.191,1.895,1.013,5.289,2.431,1.731,0.000,2.138,3.852,1.484,0.000,0.000,0.718,3.733,0.000,1.597,0.000,0.000,0.000,0.000,0.000,0.000,0.000,0.000,0.000,0.000,0.000,3.142,6.281,0.001,1.004,1.568,1.567,4.085,6.281,1.199,4.712,0.000,0.000,-2.069,-6.737,0.990,5.038,4.697,4.725,5.282,4.711,4.710,2.197,6.282,5.083,1.570,0.000,0.000,-1.447,-6.528,0.991,5.038,4.699,4.724,
12.300,18.575,-1.604,-7.076,1.793,1.011,5.531,0.000,1.824,4.607,1.949,3.820,1.726,0.000,0.000,0.711,2.813,0.000,1.738,0.000,0.000,0.000,0.000,0.000,0.000,0.000,0.000,0.000,0.000,0.000,3.142,6.281,0.000,1.004,1.569,1.569,4.085,6.281,1.199,4.712,0.000,0.000,-2.055,-6.574,0.990,4.935,4.690,4.733,5.282,4.711,4.711,2.198,6.281,5.083,1.570,0.000,0.000,-1.414,-6.429,0.991,4.935,4.693,4.730,
12.384,18.659,-1.621,-6.998,1.769,1.012,0.007,4.972,1.839,0.000,2.140,3.556,1.853,0.000,0.000,0.720,2.757,0.000,1.773,0.000,0.000,0.000,0.000,0.000,0.000,0.000,0.000,0.000,0.000,0.000,3.142,6.282,0.000,1.004,1.570,1.571,4.085,6.281,1.199,4.712,0.000,0.000,-2.058,-6.485,0.990,4.909,4.688,4.736,5.282,4.712,4.713,2.198,6.281,5.083,1.571,0.000,0.000,-1.415,-6.356,0.991,4.909,4.690,4.734,
12.500,18.775,-1.644,-6.882,1.770,1.010,6.262,4.853,1.807,3.976,2.364,3.503,1.971,0.000,0.000,0.748,2.714,0.000,1.808,0.000,0.000,0.000,0.000,0.000,0.000,0.000,0.000,0.000,0.000,0.000,3.142,6.283,0.000,1.004,1.569,1.569,4.085,6.281,1.199,4.712,0.000,0.000,-2.083,-6.369,0.990,4.912,4.688,4.735,5.281,4.711,4.711,2.198,6.282,5.083,1.570,0.000,0.000,-1.440,-6.239,0.990,4.912,4.690,4.734,
12.600,18.875,-1.660,-6.804,1.769,1.012,6.157,4.772,1.787,1.511,4.577,3.452,2.053,0.000,1.156,0.765,2.870,0.000,2.791,0.000,0.000,0.000,0.000,0.000,0.000,0.000,0.000,0.000,0.000,0.000,3.142,6.281,0.001,1.004,1.569,1.568,4.084,6.281,1.199,4.712,0.000,0.000,-2.099,-6.291,0.990,4.912,4.690,4.733,5.281,4.711,4.710,2.197,6.282,5.083,1.570,0.000,0.000,-1.456,-6.161,0.990,4.912,4.687,4.737,
12.700,18.975,-1.682,-6.686,1.698,1.014,5.059,4.592,1.880,1.335,0.000,2.683,2.491,0.000,1.191,0.762,2.500,0.000,2.861,0.000,0.000,0.000,0.000,0.000,0.000,0.000,0.000,0.000,0.000,0.000,3.142,6.280,0.001,1.005,1.568,1.565,4.084,6.281,1.199,4.711,0.000,0.000,-2.086,-6.144,0.990,4.845,4.677,4.746,5.282,4.710,4.708,2.197,6.282,5.083,1.570,0.000,0.000,-1.435,-6.060,0.990,4.844,4.676,4.747,
12.800,19.075,-1.692,-6.607,1.612,1.010,5.323,3.450,2.054,1.350,4.936,2.816,2.552,0.000,0.720,0.744,4.965,0.000,2.966,0.000,0.000,0.000,0.000,0.000,0.000,0.000,0.000,0.000,0.000,0.000,3.142,6.281,0.000,1.004,1.569,1.569,4.085,6.281,1.199,4.712,0.000,0.000,-2.044,-6.032,0.990,4.754,4.591,4.833,5.282,4.711,4.711,2.198,6.281,5.083,1.570,0.000,0.000,-1.389,-6.004,0.991,4.753,4.626,4.799,
12.900,19.175,-1.695,-6.488,1.584,1.011,6.275,3.148,2.122,1.357,0.000,2.823,2.670,0.000,0.729,0.740,4.765,0.000,3.001,0.000,0.000,0.000,0.000,0.000,0.000,0.000,0.000,0.000,0.000,0.000,3.142,6.283,0.000,1.003,1.569,1.570,4.085,6.281,1.199,4.712,0.000,0.000,-2.031,-5.903,0.990,4.726,4.352,5.072,5.281,4.711,4.712,2.198,6.282,5.083,1.570,0.000,0.000,-1.375,-5.894,0.990,4.726,4.401,5.024,
12.983,19.258,-1.696,-6.408,1.585,1.012,6.269,3.072,2.117,1.355,0.000,2.826,2.749,0.000,0.730,0.741,2.340,0.000,3.001,0.000,0.000,0.000,0.000,0.000,0.000,0.000,0.000,0.000,0.000,0.000,3.142,6.283,0.000,1.003,1.569,1.569,4.085,6.281,1.199,4.712,0.000,0.000,-2.033,-5.824,0.990,4.727,4.381,5.042,5.281,4.711,4.711,2.198,6.282,5.083,1.570,0.000,0.000,-1.377,-5.814,0.990,4.727,4.423,5.001,
13.100,19.375,-1.698,-6.289,1.586,1.012,6.263,2.955,1.764,1.353,0.000,2.828,2.869,0.000,0.732,1.270,2.194,0.000,3.001,0.000,0.000,0.000,0.000,0.000,0.000,0.000,0.000,0.000,0.000,0.000,3.142,6.283,0.000,1.003,1.569,1.569,4.085,6.281,1.199,4.712,0.000,0.000,-2.035,-5.705,0.990,4.729,4.408,5.016,5.281,4.711,4.711,2.198,6.282,5.083,1.570,0.000,0.000,-1.379,-5.694,0.990,4.729,4.443,4.981,
13.191,19.466,-1.699,-6.209,1.587,1.011,6.260,2.877,1.664,1.351,0.000,2.828,2.949,0.000,0.733,1.272,2.096,0.000,3.001,0.000,0.000,0.000,0.000,0.000,0.000,0.000,0.000,0.000,0.000,0.000,3.142,6.283,0.000,1.003,1.569,1.569,4.085,6.281,1.199,4.712,0.000,0.000,-2.037,-5.625,0.990,4.729,4.422,5.002,5.281,4.711,4.711,2.198,6.282,5.083,1.570,0.000,0.000,-1.381,-5.614,0.990,4.729,4.452,4.973,
13.300,19.575,-1.701,-6.090,1.588,1.012,6.261,2.759,1.514,1.349,1.500,2.829,3.068,0.000,0.735,1.256,2.047,0.000,3.001,0.000,0.000,0.000,0.000,0.000,0.000,0.000,0.000,0.000,0.000,0.000,3.142,6.283,0.000,1.004,1.569,1.569,4.085,6.281,1.199,4.712,0.000,0.000,-2.040,-5.506,0.990,4.730,4.439,4.984,5.281,4.711,4.711,2.198,6.282,5.083,1.570,0.000,0.000,-1.384,-5.495,0.990,4.730,4.464,4.960,
13.387,19.662,-1.702,-6.010,1.589,1.012,6.262,2.679,1.413,1.347,1.387,2.829,3.148,0.000,0.736,1.223,2.140,0.000,3.001,0.000,0.000,0.000,0.000,0.000,0.000,0.000,0.000,0.000,0.000,0.000,3.142,6.283,0.000,1.004,1.569,1.569,4.085,6.281,1.199,4.712,0.000,0.000,-2.041,-5.427,0.990,4.731,4.449,4.975,5.281,4.711,4.711,2.198,6.282,5.083,1.570,0.000,0.000,-1.386,-5.415,0.990,4.731,4.471,4.953,
13.500,19.775,-1.704,-5.891,1.589,1.012,6.262,2.560,1.262,1.345,1.385,2.828,3.267,0.000,0.939,4.577,2.147,0.000,3.001,0.000,0.000,0.000,0.000,0.000,0.000,0.000,0.000,0.000,0.000,0.000,3.142,6.282,0.000,1.004,1.569,1.569,4.085,6.281,1.199,4.712,0.000,0.000,-2.044,-5.308,0.990,4.732,4.461,4.963,5.281,4.711,4.711,2.198,6.282,5.083,1.570,0.000,0.000,-1.388,-5.295,0.990,4.732,4.480,4.944,
13.600,19.875,-1.706,-5.791,1.590,1.012,6.263,2.460,1.136,1.342,1.383,2.827,3.367,1.171,1.258,4.544,2.152,0.000,3.001,0.000,0.000,0.000,0.000,0.000,0.000,0.000,0.000,0.000,0.000,0.000,3.142,6.282,0.000,1.004,1.569,1.569,4.085,6.281,1.199,4.712,0.000,0.000,-2.046,-5.208,0.990,4.732,4.470,4.954,5.281,4.711,4.711,2.198,6.282,5.083,1.570,0.000,0.000,-1.391,-5.196,0.990,4.732,4.487,4.937,
13.700,19.975,-1.708,-5.712,1.590,1.012,6.263,2.380,1.035,1.341,1.382,2.850,3.446,1.173,1.260,0.000,2.156,0.000,3.001,0.000,0.000,0.000,0.000,0.000,0.000,0.000,0.000,0.000,0.000,0.000,3.142,6.282,0.000,1.004,1.569,1.569,4.085,6.281,1.199,4.712,0.000,0.000,-2.048,-5.129,0.990,4.733,4.476,4.948,5.281,4.711,4.711,2.198,6.282,5.083,1.570,0.000,0.000,-1.392,-5.116,0.990,4.733,4.492,4.932,
13.794,20.069,-1.710,-5.592,1.591,1.012,6.264,2.260,1.030,1.338,1.379,2.991,3.566,1.176,1.262,4.732,2.163,0.000,3.001,0.000,0.000,0.000,0.000,0.000,0.000,0.000,0.000,0.000,0.000,0.000,3.142,6.282,0.000,1.004,1.569,1.569,4.085,6.281,1.199,4.712,0.000,0.000,-2.051,-5.010,0.990,4.734,4.484,4.940,5.281,4.711,4.711,2.198,6.282,5.083,1.570,0.000,0.000,-1.395,-4.996,0.990,4.734,4.498,4.926,
13.900,20.175,-1.712,-5.493,1.592,1.012,6.264,2.159,1.026,1.335,1.377,3.109,3.665,1.178,1.264,4.432,2.168,0.000,3.036,0.000,0.000,0.000,0.000,0.000,0.000,0.000,0.000,0.000,0.000,0.000,3.142,6.282,0.000,1.004,1.569,1.569,4.085,6.281,1.199,4.712,0.000,0.000,-2.053,-4.911,0.990,4.734,4.490,4.934,5.281,4.711,4.711,2.198,6.282,5.083,1.570,0.000,0.000,-1.398,-4.897,0.990,4.734,4.503,4.921,
13.987,20.263,-1.715,-5.393,1.592,1.012,6.264,2.059,1.022,1.333,1.375,3.226,3.765,1.181,1.266,4.137,2.174,0.000,3.036,0.000,0.000,0.000,0.000,0.000,0.000,0.000,0.000,0.000,0.000,0.000,3.142,6.282,0.000,1.004,1.569,1.569,4.085,6.281,1.199,4.712,0.000,0.000,-2.056,-4.811,0.990,4.735,4.495,4.928,5.281,4.711,4.711,2.198,6.282,5.083,1.570,0.000,0.000,-1.400,-4.797,0.990,4.735,4.508,4.916,
14.100,20.375,-1.717,-5.294,1.593,1.012,6.264,1.958,1.018,1.331,1.373,3.344,3.864,1.184,1.216,4.140,1.660,0.000,3.036,0.000,0.000,0.000,0.000,0.000,0.000,0.000,0.000,0.000,0.000,0.000,3.142,6.282,0.000,1.004,1.569,1.569,4.085,6.281,1.199,4.712,0.000,0.000,-2.058,-4.712,0.990,4.735,4.500,4.924,5.281,4.711,4.711,2.198,6.282,5.083,1.570,0.000,0.000,-1.402,-4.697,0.990,4.735,4.512,4.912,
14.192,20.468,-1.718,-5.217,1.593,0.484,6.265,1.881,1.015,1.329,1.372,3.434,3.941,1.186,1.217,4.143,1.831,0.000,3.036,0.000,0.000,0.000,0.000,0.000,0.000,0.000,0.000,0.000,0.000,0.000,3.142,0.002,0.001,1.001,1.571,1.572,4.090,6.281,1.200,4.712,0.000,0.000,-2.058,-4.634,0.989,4.733,4.348,5.076,5.281,4.712,4.713,2.198,6.282,5.083,1.570,0.000,0.000,-1.403,-4.621,0.990,4.733,4.481,4.943,
14.300,20.575,-1.719,-5.189,1.594,0.159,6.265,1.853,1.013,1.097,1.371,3.466,3.969,1.221,1.218,4.144,1.796,0.000,3.036,0.000,0.000,0.000,0.000,0.000,0.000,0.000,0.000,0.000,0.000,0.000,3.142,0.000,0.001,1.002,1.570,1.570,4.087,6.281,1.200,4.712,0.000,0.000,-2.061,-4.607,0.990,4.735,4.445,4.978,5.281,4.712,4.712,2.198,6.282,5.083,1.570,0.000,0.000,-1.405,-4.592,0.990,4.735,4.506,4.918,
14.392,20.667,-1.719,-5.183,1.594,0.011,6.269,1.849,1.012,1.075,1.371,3.472,3.975,1.230,1.218,4.145,1.788,0.000,3.036,0.000,0.000,0.000,0.000,0.000,0.000,0.000,0.000,0.000,0.000,0.000,3.142,6.283,0.001,1.003,1.569,1.569,4.086,6.281,1.199,4.712,0.000,0.000,-2.061,-4.601,0.990,4.736,4.483,4.940,5.281,4.711,4.712,2.198,6.282,5.083,1.570,0.000,0.000,-1.406,-4.586,0.990,4.736,4.516,4.909,
14.500,20.775,-1.719,-5.183,1.594,0.000,6.272,1.849,1.012,1.075,1.371,3.472,3.975,1.230,1.218,4.145,1.788,0.000,3.036,0.000,0.000,0.000,0.000,0.000,0.000,0.000,0.000,0.000,0.000,0.000,3.142,6.283,0.000,1.003,1.569,1.569,4.085,6.281,1.199,4.712,0.000,0.000,-2.062,-4.601,0.990,4.736,4.502,4.922,5.281,4.711,4.712,2.198,6.282,5.083,1.570,0.000,0.000,-1.406,-4.586,0.990,4.736,4.530,4.894,
14.596,20.871,-1.719,-5.183,1.594,0.000,6.272,1.849,1.012,1.075,1.371,3.472,3.975,1.230,1.218,4.145,1.788,0.000,3.036,0.000,0.000,0.000,0.000,0.000,0.000,0.000,0.000,0.000,0.000,0.000,3.142,6.283,0.000,1.003,1.569,1.569,4.085,6.281,1.199,4.712,0.000,0.000,-2.062,-4.601,0.990,4.736,4.502,4.922,5.281,4.711,4.712,2.198,6.282,5.083,1.570,0.000,0.000,-1.406,-4.586,0.990,4.736,4.530,4.894,
14.700,20.975,-1.719,-5.183,1.594,0.000,6.272,1.849,1.012,1.075,1.371,3.472,3.975,1.230,1.218,4.145,1.788,0.000,3.036,0.000,0.000,0.000,0.000,0.000,0.000,0.000,0.000,0.000,0.000,0.000,3.142,6.283,0.000,1.003,1.569,1.569,4.085,6.281,1.199,4.712,0.000,0.000,-2.062,-4.601,0.990,4.736,4.502,4.922,5.281,4.711,4.712,2.198,6.282,5.083,1.570,0.000,0.000,-1.406,-4.586,0.990,4.736,4.530,4.894,
14.800,21.075,-1.719,-5.183,1.594,0.000,6.272,1.849,1.012,1.075,1.371,3.472,3.975,1.230,1.218,4.145,1.788,0.000,3.036,0.000,0.000,0.000,0.000,0.000,0.000,0.000,0.000,0.000,0.000,0.000,3.142,6.283,0.000,1.003,1.569,1.569,4.085,6.281,1.199,4.712,0.000,0.000,-2.062,-4.601,0.990,4.736,4.502,4.922,5.281,4.711,4.712,2.198,6.282,5.083,1.570,0.000,0.000,-1.406,-4.586,0.990,4.736,4.530,4.894,
14.900,21.175,-1.719,-5.183,1.594,0.000,6.272,1.849,1.012,1.075,1.371,3.472,3.975,1.230,1.218,4.145,1.788,0.000,3.036,0.000,0.000,0.000,0.000,0.000,0.000,0.000,0.000,0.000,0.000,0.000,3.142,6.283,0.000,1.003,1.569,1.569,4.085,6.281,1.199,4.712,0.000,0.000,-2.062,-4.601,0.990,4.736,4.502,4.922,5.281,4.711,4.712,2.198,6.282,5.083,1.570,0.000,0.000,-1.406,-4.586,0.990,4.736,4.530,4.894,
15.000,21.275,-1.719,-5.183,1.594,0.000,6.272,1.849,1.012,1.075,1.371,3.472,3.975,1.230,1.218,4.145,1.788,0.000,3.036,0.000,0.000,0.000,0.000,0.000,0.000,0.000,0.000,0.000,0.000,0.000,3.142,6.283,0.000,1.003,1.569,1.569,4.085,6.281,1.199,4.712,0.000,0.000,-2.062,-4.601,0.990,4.736,4.502,4.922,5.281,4.711,4.712,2.198,6.282,5.083,1.570,0.000,0.000,-1.406,-4.586,0.990,4.736,4.530,4.894,
15.100,21.375,-1.719,-5.183,1.594,0.000,6.272,1.849,1.012,1.075,1.371,3.472,3.975,1.230,1.218,4.145,1.788,0.000,3.036,0.000,0.000,0.000,0.000,0.000,0.000,0.000,0.000,0.000,0.000,0.000,3.142,6.283,0.000,1.003,1.569,1.569,4.085,6.281,1.199,4.712,0.000,0.000,-2.062,-4.601,0.990,4.736,4.502,4.922,5.281,4.711,4.712,2.198,6.282,5.083,1.570,0.000,0.000,-1.406,-4.586,0.990,4.736,4.530,4.894,
15.200,21.475,-1.719,-5.183,1.594,0.000,6.272,1.849,1.012,1.075,1.371,3.472,3.975,1.230,1.218,4.145,1.788,0.000,3.036,0.000,0.000,0.000,0.000,0.000,0.000,0.000,0.000,0.000,0.000,0.000,3.142,6.283,0.000,1.003,1.569,1.569,4.085,6.281,1.199,4.712,0.000,0.000,-2.062,-4.601,0.990,4.736,4.502,4.922,5.281,4.711,4.712,2.198,6.282,5.083,1.570,0.000,0.000,-1.406,-4.586,0.990,4.736,4.530,4.894,
15.300,21.575,-1.719,-5.183,1.594,0.000,6.272,1.849,1.012,1.075,1.371,3.472,3.975,1.230,1.218,4.145,1.788,0.000,3.036,0.000,0.000,0.000,0.000,0.000,0.000,0.000,0.000,0.000,0.000,0.000,3.142,6.283,0.000,1.003,1.569,1.569,4.085,6.281,1.199,4.712,0.000,0.000,-2.062,-4.601,0.990,4.736,4.502,4.922,5.281,4.711,4.712,2.198,6.282,5.083,1.570,0.000,0.000,-1.406,-4.586,0.990,4.736,4.530,4.894,
15.400,21.675,-1.719,-5.193,1.594,-0.391,6.216,1.859,1.013,1.113,1.372,3.461,3.965,1.217,1.218,4.144,1.800,0.000,3.036,0.000,0.000,0.000,0.000,0.000,0.000,0.000,0.000,0.000,0.000,0.000,3.142,0.004,0.001,0.999,1.572,1.573,4.093,6.281,1.200,4.712,0.000,0.000,-2.059,-4.609,0.989,4.733,4.255,5.168,5.280,4.713,4.715,2.199,6.282,5.083,1.570,0.000,0.000,-1.403,-4.597,0.990,4.732,4.498,4.926,
15.500,21.775,-1.718,-5.251,1.588,-1.057,6.123,1.898,1.023,1.331,1.370,3.404,3.906,1.192,1.218,4.134,1.614,0.000,3.036,0.000,0.000,0.000,0.000,0.000,0.000,0.000,0.000,0.000,0.000,0.000,3.142,0.005,0.001,0.999,1.572,1.573,4.094,6.281,1.200,4.712,0.000,0.000,-2.054,-4.665,0.989,4.729,4.079,5.344,5.280,4.713,4.715,2.200,6.282,5.083,1.570,0.000,0.000,-1.398,-4.657,0.990,4.727,4.422,5.002,
15.600,21.875,-1.715,-5.410,1.585,-1.367,6.274,2.051,1.030,1.335,1.371,3.220,3.747,1.192,1.269,4.262,2.153,0.000,3.036,0.000,0.000,0.000,0.000,0.000,0.000,0.000,0.000,0.000,0.000,0.000,3.142,6.283,0.000,1.004,1.569,1.569,4.084,6.281,1.199,4.712,0.000,0.000,-2.052,-4.826,0.990,4.728,4.429,4.995,5.281,4.711,4.711,2.199,6.282,5.083,1.570,0.000,0.000,-1.396,-4.816,0.990,4.728,4.448,4.976,
15.700,21.975,-1.714,-5.503,1.586,-0.981,6.276,2.148,1.032,1.337,1.373,3.109,3.654,1.190,1.267,4.540,2.151,0.000,3.036,0.000,0.000,0.000,0.000,0.000,0.000,0.000,0.000,0.000,0.000,0.000,3.142,6.281,6.283,1.005,1.568,1.568,4.082,6.281,1.199,4.712,0.000,0.000,-2.052,-4.920,0.990,4.729,4.542,4.882,5.281,4.711,4.710,2.199,6.282,5.083,1.570,0.000,0.000,-1.396,-4.909,0.991,4.729,4.477,4.947,
15.800,22.075,-1.712,-5.602,1.586,-0.832,6.274,2.251,1.035,1.338,1.375,2.990,3.556,1.187,1.266,0.000,2.149,0.000,3.036,0.000,0.000,0.000,0.000,0.000,0.000,0.000,0.000,0.000,0.000,0.000,3.142,0.001,0.000,1.003,1.570,1.570,4.087,6.281,1.200,4.712,0.000,0.000,-2.049,-5.017,0.990,4.727,4.320,5.104,5.280,4.712,4.712,2.199,6.282,5.083,1.570,0.000,0.000,-1.393,-5.008,0.990,4.727,4.429,4.995,
15.882,22.157,-1.711,-5.696,1.586,-1.074,6.274,2.349,1.036,1.339,1.376,2.877,3.462,1.184,1.264,4.516,2.148,0.000,3.036,0.000,0.000,0.000,0.000,0.000,0.000,0.000,0.000,0.000,0.000,0.000,3.142,0.001,0.000,1.002,1.570,1.571,4.088,6.281,1.200,4.712,0.000,0.000,-2.047,-5.111,0.990,4.727,4.279,5.144,5.280,4.712,4.713,2.199,6.282,5.083,1.570,0.000,0.000,-1.392,-5.102,0.990,4.727,4.424,5.000,
16.000,22.275,-1.709,-5.805,1.587,-1.103,6.275,2.464,1.150,1.341,1.378,2.808,3.353,1.180,1.262,4.552,2.146,0.000,3.001,0.000,0.000,0.000,0.000,0.000,0.000,0.000,0.000,0.000,0.000,0.000,3.142,6.283,0.000,1.003,1.570,1.570,4.085,6.281,1.199,4.712,0.000,0.000,-2.047,-5.221,0.990,4.729,4.403,5.021,5.281,4.711,4.712,2.199,6.282,5.083,1.570,0.000,0.000,-1.391,-5.211,0.990,4.728,4.456,4.968,
16.080,22.355,-1.708,-5.888,1.587,-0.999,6.276,2.550,1.256,1.342,1.380,2.811,3.270,0.000,0.941,4.579,2.144,0.000,3.001,0.000,0.000,0.000,0.000,0.000,0.000,0.000,0.000,0.000,0.000,0.000,3.142,6.283,0.000,1.004,1.569,1.569,4.085,6.281,1.199,4.712,0.000,0.000,-2.046,-5.304,0.990,4.729,4.433,4.991,5.281,4.711,4.711,2.199,6.282,5.083,1.570,0.000,0.000,-1.390,-5.294,0.990,4.729,4.466,4.958,
16.200,22.475,-1.706,-6.001,1.587,-0.966,6.275,2.669,1.400,1.344,1.382,2.816,3.156,0.000,0.740,1.227,2.142,0.000,3.001,0.000,0.000,0.000,0.000,0.000,0.000,0.000,0.000,0.000,0.000,0.000,3.142,0.000,0.000,1.003,1.570,1.570,4.086,6.281,1.199,4.712,0.000,0.000,-2.044,-5.417,0.990,4.729,4.379,5.045,5.280,4.712,4.712,2.199,6.282,5.083,1.570,0.000,0.000,-1.388,-5.407,0.990,4.729,4.457,4.967,
16.281,22.556,-1.705,-6.080,1.587,-1.020,6.275,2.752,1.500,1.345,1.496,2.819,3.078,0.000,0.739,1.228,2.052,0.000,3.001,0.000,0.000,0.000,0.000,0.000,0.000,0.000,0.000,0.000,0.000,0.000,3.142,0.000,0.000,1.003,1.570,1.570,4.086,6.281,1.199,4.712,0.000,0.000,-2.042,-5.495,0.990,4.729,4.372,5.052,5.280,4.712,4.712,2.199,6.282,5.083,1.570,0.000,0.000,-1.387,-5.485,0.990,4.729,4.458,4.966,
16.400,22.675,-1.703,-6.202,1.588,-1.035,6.275,2.880,1.656,1.347,0.000,2.825,2.956,0.000,0.736,1.276,2.087,0.000,3.001,0.000,0.000,0.000,0.000,0.000,0.000,0.000,0.000,0.000,0.000,0.000,3.142,0.000,0.000,1.003,1.570,1.570,4.086,6.281,1.199,4.712,0.000,0.000,-2.041,-5.618,0.990,4.730,4.411,5.012,5.281,4.712,4.712,2.199,6.282,5.083,1.570,0.000,0.000,-1.385,-5.607,0.990,4.730,4.471,4.953,
16.482,22.757,-1.701,-6.282,1.588,-1.007,6.275,2.965,1.759,1.348,0.000,2.829,2.875,0.000,0.735,1.275,2.183,0.000,3.001,0.000,0.000,0.000,0.000,0.000,0.000,0.000,0.000,0.000,0.000,0.000,3.142,6.283,0.000,1.003,1.570,1.570,4.086,6.281,1.199,4.712,0.000,0.000,-2.040,-5.699,0.990,4.730,4.422,5.001,5.281,4.712,4.712,2.199,6.282,5.083,1.570,0.000,0.000,-1.384,-5.688,0.990,4.730,4.477,4.947,
16.600,22.875,-1.699,-6.400,1.589,-1.000,6.275,3.089,2.102,1.350,0.000,2.834,2.758,0.000,0.733,1.273,2.325,0.000,3.001,0.000,0.000,0.000,0.000,0.000,0.000,0.000,0.000,0.000,0.000,0.000,3.142,0.000,0.000,1.003,1.570,1.570,4.086,6.281,1.199,4.712,0.000,0.000,-2.038,-5.817,0.990,4.730,4.415,5.009,5.280,4.712,4.712,2.199,6.282,5.083,1.570,0.000,0.000,-1.382,-5.805,0.990,4.730,4.479,4.945,
16.691,22.966,-1.698,-6.479,1.589,-1.014,6.275,3.173,2.104,1.352,0.000,2.838,2.678,0.000,0.731,0.744,4.804,0.000,3.001,0.000,0.000,0.000,0.000,0.000,0.000,0.000,0.000,0.000,0.000,0.000,3.142,0.000,0.000,1.003,1.570,1.570,4.086,6.281,1.199,4.712,0.000,0.000,-2.037,-5.896,0.990,4.731,4.417,5.007,5.280,4.712,4.712,2.199,6.282,5.083,1.570,0.000,0.000,-1.381,-5.884,0.990,4.730,4.482,4.942,
16.800,23.075,-1.696,-6.599,1.589,-1.018,6.275,3.300,2.106,1.354,0.000,2.867,2.558,0.000,0.000,0.742,4.803,0.000,2.018,0.000,0.000,0.000,0.000,0.000,0.000,0.000,0.000,0.000,0.000,0.000,3.142,0.000,0.000,1.003,1.570,1.570,4.086,6.281,1.199,4.712,0.000,0.000,-2.035,-6.016,0.990,4.731,4.431,4.993,5.281,4.712,4.712,2.199,6.282,5.083,1.570,0.000,0.000,-1.379,-6.004,0.990,4.731,4.489,4.935,
16.897,23.172,-1.694,-6.679,1.590,-1.010,6.275,3.384,2.108,1.355,4.959,2.771,2.478,0.000,0.000,0.740,4.803,0.000,2.018,0.000,0.000,0.000,0.000,0.000,0.000,0.000,0.000,0.000,0.000,0.000,3.142,0.000,0.000,1.003,1.570,1.570,4.086,6.281,1.199,4.712,0.000,0.000,-2.033,-6.096,0.990,4.731,4.436,4.987,5.281,4.712,4.712,2.199,6.282,5.083,1.570,0.000,0.000,-1.377,-6.084,0.990,4.731,4.493,4.931,
17.000,23.275,-1.693,-6.751,1.590,-0.323,6.277,3.459,2.110,1.357,4.856,2.685,2.407,0.000,0.000,0.739,4.801,0.000,2.018,0.000,0.000,0.000,0.000,0.000,0.000,0.000,0.000,0.000,0.000,0.000,3.142,6.281,6.283,1.005,1.569,1.568,4.082,6.281,1.199,4.712,0.000,0.000,-2.033,-6.169,0.990,4.733,4.554,4.870,5.281,4.711,4.711,2.199,6.282,5.083,1.570,0.000,0.000,-1.377,-6.156,0.991,4.733,4.519,4.905,
17.097,23.372,-1.692,-6.768,1.590,-0.086,6.276,3.477,2.110,1.357,4.831,2.664,2.389,0.000,0.000,0.739,4.801,0.000,1.983,0.000,0.000,0.000,0.000,0.000,0.000,0.000,0.000,0.000,0.000,0.000,3.142,6.282,0.000,1.004,1.569,1.569,4.084,6.281,1.199,4.712,0.000,0.000,-2.032,-6.186,0.990,4.732,4.496,4.928,5.281,4.711,4.711,2.199,6.282,5.083,1.570,0.000,0.000,-1.376,-6.173,0.990,4.732,4.510,4.914,
17.200,23.475,-1.692,-6.770,1.590,-0.001,6.268,3.480,2.110,1.357,4.827,2.661,2.387,0.000,0.000,0.739,4.802,0.000,1.983,0.000,0.000,0.000,0.000,0.000,0.000,0.000,0.000,0.000,0.000,0.000,3.142,6.283,0.000,1.003,1.569,1.569,4.085,6.281,1.199,4.712,0.000,0.000,-2.032,-6.187,0.990,4.732,4.459,4.964,5.281,4.711,4.712,2.198,6.282,5.083,1.570,0.000,0.000,-1.376,-6.175,0.990,4.732,4.495,4.929,
17.300,23.575,-1.692,-6.770,1.590,-0.001,6.268,3.480,2.110,1.357,4.827,2.661,2.387,0.000,0.000,0.739,4.802,0.000,1.983,0.000,0.000,0.000,0.000,0.000,0.000,0.000,0.000,0.000,0.000,0.000,3.142,6.283,0.000,1.003,1.569,1.569,4.085,6.281,1.199,4.712,0.000,0.000,-2.032,-6.187,0.990,4.732,4.456,4.968,5.281,4.711,4.711,2.198,6.282,5.083,1.570,0.000,0.000,-1.376,-6.175,0.990,4.732,4.493,4.932,
17.400,23.675,-1.692,-6.770,1.590,-0.001,6.268,3.480,2.110,1.357,4.827,2.661,2.387,0.000,0.000,0.739,4.802,0.000,1.983,0.000,0.000,0.000,0.000,0.000,0.000,0.000,0.000,0.000,0.000,0.000,3.142,6.283,0.000,1.003,1.569,1.569,4.085,6.281,1.199,4.712,0.000,0.000,-2.032,-6.187,0.990,4.732,4.456,4.968,5.281,4.711,4.712,2.198,6.282,5.083,1.570,0.000,0.000,-1.376,-6.175,0.990,4.732,4.493,4.932,
17.500,23.775,-1.692,-6.770,1.590,-0.001,6.268,3.480,2.110,1.357,4.827,2.661,2.387,0.000,0.000,0.739,4.802,0.000,1.983,0.000,0.000,0.000,0.000,0.000,0.000,0.000,0.000,0.000,0.000,0.000,3.142,6.283,0.000,1.003,1.569,1.569,4.085,6.281,1.199,4.712,0.000,0.000,-2.032,-6.187,0.990,4.732,4.456,4.968,5.281,4.711,4.712,2.198,6.282,5.083,1.570,0.000,0.000,-1.376,-6.175,0.990,4.732,4.493,4.932,
17.600,23.875,-1.692,-6.770,1.590,-0.001,6.268,3.480,2.110,1.357,4.827,2.661,2.387,0.000,0.000,0.739,4.802,0.000,1.983,0.000,0.000,0.000,0.000,0.000,0.000,0.000,0.000,0.000,0.000,0.000,3.142,6.283,0.000,1.003,1.569,1.569,4.085,6.281,1.199,4.712,0.000,0.000,-2.032,-6.187,0.990,4.732,4.456,4.968,5.281,4.711,4.712