deveshdatwani/Gopher/Assets/Data/07-21 10-42-33/Obstacle Handling_robot_value.csv
game_time,true_time,x,y,az,vx,vaz,dis_to_obs_0,dis_to_obs_36,dis_to_obs_72,dis_to_obs_108,dis_to_obs_144,dis_to_obs_180,dis_to_obs_-144,dis_to_obs_-108,dis_to_obs_-72,dis_to_obs_-36,dis_to_min_obs,direction_to_min_obs,dis_to_human_0,dis_to_human_36,dis_to_human_72,dis_to_human_108,dis_to_human_144,dis_to_human_180,dis_to_human_-144,dis_to_human_-108,dis_to_human_-72,dis_to_human_-36,dis_to_min_human,direction_to_min_human,main_cam_yaw,main_cam_pitch,left_joint_1,left_joint_2,left_joint_3,left_joint_4,left_joint_5,left_joint_6,left_joint_7,left_joint_gripper,left_is_grasping,left_end_x,left_end_y,left_end_z,left_end_ax,left_end_ay,left_end_az,right_joint_1,right_joint_2,right_joint_3,right_joint_4,right_joint_5,right_joint_6,right_joint_7,right_joint_gripper,right_is_grasping,right_end_x,right_end_y,right_end_z,right_end_ax,right_end_ay,right_end_az,
8.595,19.312,0.990,-9.902,1.727,1.007,1.426,3.454,0.000,1.704,1.337,2.754,0.000,2.836,2.033,0.000,3.793,0.000,3.142,0.000,3.512,0.000,0.000,0.000,0.000,0.000,0.000,0.000,0.000,0.000,3.142,0.002,0.000,1.003,1.571,1.571,4.086,6.282,1.199,4.712,0.000,0.000,0.575,-9.371,0.990,4.868,4.682,4.742,5.282,4.713,4.713,2.198,6.282,5.083,1.571,0.000,0.000,1.223,-9.269,0.991,4.867,4.692,4.732,
8.700,19.418,0.972,-9.805,1.803,1.005,0.206,3.411,0.000,1.638,1.378,3.243,0.000,2.667,2.034,0.000,3.562,0.000,3.142,0.000,0.000,0.000,0.000,0.000,0.000,0.000,0.000,0.000,0.000,0.000,3.142,6.283,0.000,1.004,1.568,1.566,4.085,6.282,1.199,4.711,0.000,0.000,0.514,-9.308,0.990,4.949,4.693,4.730,5.281,4.711,4.709,2.198,6.283,5.083,1.570,0.000,0.000,1.153,-9.157,0.990,4.948,4.694,4.729,
8.800,19.518,0.954,-9.728,1.803,1.014,6.268,3.331,0.000,1.702,1.356,3.190,0.000,2.692,2.052,0.000,3.479,0.000,3.142,0.000,0.000,0.000,0.000,0.000,0.000,0.000,0.000,0.000,0.000,0.000,3.142,6.282,0.000,1.004,1.569,1.569,4.084,6.281,1.199,4.712,0.000,0.000,0.498,-9.230,0.990,4.945,4.693,4.731,5.281,4.711,4.711,2.197,6.282,5.083,1.570,0.000,0.000,1.136,-9.079,0.990,4.945,4.691,4.733,
8.900,19.618,0.926,-9.611,1.802,1.014,6.274,3.210,0.000,1.797,1.322,3.109,0.000,2.729,2.080,0.000,3.354,0.000,3.142,0.000,0.000,0.000,0.000,0.000,0.000,0.000,0.000,0.000,0.000,0.000,3.142,6.282,0.000,1.004,1.569,1.569,4.084,6.281,1.199,4.712,0.000,0.000,0.471,-9.114,0.990,4.945,4.692,4.731,5.281,4.711,4.711,2.197,6.282,5.083,1.570,0.000,0.000,1.109,-8.962,0.990,4.945,4.691,4.732,
9.000,19.718,0.903,-9.514,1.802,1.009,6.273,3.110,0.000,1.876,1.296,3.044,0.000,2.760,1.703,0.000,3.250,0.000,3.142,0.000,0.000,0.000,0.000,0.000,0.000,0.000,0.000,0.000,0.000,0.000,3.142,6.282,0.000,1.004,1.569,1.569,4.085,6.281,1.199,4.712,0.000,0.000,0.448,-9.017,0.990,4.944,4.692,4.731,5.281,4.711,4.711,2.197,6.282,5.083,1.570,0.000,0.000,1.086,-8.866,0.990,4.945,4.691,4.732,
9.100,19.818,0.885,-9.437,1.802,1.010,6.272,3.030,0.000,1.527,1.318,2.992,0.000,2.784,1.722,0.000,3.167,0.000,3.142,0.000,0.000,0.000,0.000,0.000,0.000,0.000,0.000,0.000,0.000,0.000,3.142,6.282,0.000,1.004,1.569,1.569,4.085,6.281,1.199,4.712,0.000,0.000,0.430,-8.939,0.990,4.944,4.692,4.731,5.281,4.711,4.711,2.197,6.282,5.083,1.570,0.000,0.000,1.068,-8.788,0.990,4.944,4.692,4.732,
9.200,19.918,0.862,-9.340,1.802,1.012,6.271,2.930,0.000,1.450,1.372,2.927,0.000,2.814,1.745,0.000,3.063,0.000,3.142,0.000,0.000,0.000,0.000,0.000,0.000,0.000,0.000,0.000,0.000,0.000,3.142,6.282,0.000,1.004,1.569,1.569,4.085,6.281,1.199,4.712,0.000,0.000,0.407,-8.842,0.990,4.944,4.692,4.731,5.281,4.711,4.711,2.197,6.282,5.083,1.570,0.000,0.000,1.046,-8.692,0.990,4.944,4.692,4.732,
9.290,20.008,0.835,-9.224,1.818,1.011,0.616,2.822,4.910,1.370,1.431,2.975,0.000,2.812,1.770,0.000,2.919,0.000,3.142,0.000,0.000,0.000,0.000,0.000,0.000,0.000,0.000,0.000,0.000,0.000,3.142,0.001,0.000,1.003,1.571,1.572,4.086,6.281,1.199,4.712,0.000,0.000,0.374,-8.732,0.990,4.956,4.691,4.732,5.281,4.712,4.714,2.199,6.281,5.083,1.571,0.000,0.000,1.010,-8.572,0.991,4.957,4.698,4.726,
9.400,20.118,0.809,-9.128,1.912,1.009,1.417,2.807,4.680,1.363,1.461,3.930,4.172,2.651,2.193,4.254,2.729,0.000,3.106,0.000,0.000,0.000,0.000,0.000,0.000,0.000,0.000,0.000,0.000,0.000,3.142,0.002,0.000,1.003,1.571,1.571,4.086,6.281,1.199,4.712,0.000,0.000,0.303,-8.682,0.990,5.052,4.698,4.725,5.282,4.713,4.714,2.198,6.282,5.083,1.571,0.000,0.000,0.922,-8.463,0.991,5.051,4.704,4.720,
9.482,20.199,0.781,-9.053,2.011,1.014,1.285,2.846,0.000,1.385,1.486,0.000,4.014,2.527,0.000,3.050,2.592,0.000,3.001,0.000,0.000,0.000,0.000,0.000,0.000,0.000,0.000,0.000,0.000,0.000,3.142,0.001,0.000,1.003,1.570,1.569,4.085,6.282,1.199,4.712,0.000,0.000,0.232,-8.660,0.990,5.153,4.702,4.721,5.282,4.712,4.712,2.198,6.283,5.083,1.570,0.000,0.000,0.826,-8.380,0.991,5.152,4.705,4.719,
9.600,20.318,0.725,-8.946,2.115,1.021,0.813,2.539,0.000,1.378,1.531,0.000,4.390,2.464,0.000,3.202,2.452,0.000,2.896,0.000,0.000,0.000,0.000,0.000,0.000,0.000,0.000,0.000,0.000,0.000,3.142,0.001,0.000,1.003,1.570,1.569,4.085,6.282,1.199,4.712,0.000,0.000,0.139,-8.613,0.990,5.258,4.703,4.719,5.282,4.712,4.712,2.198,6.282,5.083,1.570,0.000,0.000,0.700,-8.272,0.991,5.257,4.705,4.718,
9.700,20.418,0.672,-8.861,2.187,1.012,0.933,2.561,0.000,1.353,1.569,0.000,4.026,2.035,0.000,2.921,2.361,0.000,2.861,0.000,0.000,0.000,0.000,0.000,0.000,0.000,0.000,0.000,0.000,0.000,3.142,0.001,0.000,1.003,1.570,1.570,4.086,6.281,1.199,4.712,0.000,0.000,0.064,-8.570,0.990,5.328,4.704,4.719,5.282,4.712,4.713,2.198,6.282,5.083,1.570,0.000,0.000,0.599,-8.191,0.991,5.328,4.707,4.717,
9.794,20.511,0.625,-8.797,2.258,1.007,1.084,0.000,0.000,1.354,1.605,0.000,3.745,2.041,0.000,2.710,2.303,0.000,2.791,0.000,0.000,0.000,0.000,0.000,0.000,0.000,0.000,0.000,0.000,0.000,3.142,0.001,0.000,1.003,1.570,1.570,4.086,6.282,1.199,4.712,0.000,0.000,-0.002,-8.550,0.990,5.399,4.705,4.717,5.282,4.713,4.713,2.198,6.282,5.083,1.570,0.000,0.000,0.505,-8.133,0.991,5.398,4.707,4.716,
9.900,20.618,0.546,-8.708,2.370,1.014,1.049,4.865,3.825,1.379,1.755,0.000,3.424,2.478,4.674,2.448,2.246,0.000,2.685,0.000,0.000,0.000,0.000,0.000,0.000,0.000,0.000,0.000,0.000,0.000,3.142,0.001,0.000,1.003,1.570,1.569,4.085,6.281,1.199,4.712,0.000,0.000,-0.105,-8.532,0.990,5.511,4.706,4.716,5.282,4.712,4.712,2.198,6.282,5.083,1.570,0.000,0.000,0.352,-8.062,0.991,5.511,4.708,4.715,
10.000,20.718,0.473,-8.640,2.457,1.017,0.984,4.421,3.725,1.590,1.957,0.000,3.263,0.000,3.911,2.286,2.221,0.000,2.615,0.000,0.000,0.000,0.000,0.000,0.000,0.000,0.000,0.000,0.000,0.000,3.142,0.001,0.000,1.003,1.570,1.570,4.085,6.282,1.199,4.712,0.000,0.000,-0.191,-8.521,0.990,5.598,4.706,4.715,5.282,4.712,4.712,2.198,6.282,5.083,1.570,0.000,0.000,0.224,-8.013,0.991,5.598,4.708,4.715,
10.098,20.816,0.410,-8.590,2.525,1.015,0.994,4.130,1.440,1.564,2.194,0.000,3.175,0.000,3.467,2.182,2.217,0.000,2.545,0.000,0.000,0.000,0.000,0.000,0.000,0.000,0.000,0.000,0.000,0.000,3.142,0.001,0.000,1.003,1.570,1.570,4.086,6.282,1.199,4.712,0.000,0.000,-0.260,-8.517,0.990,5.666,4.707,4.715,5.282,4.712,4.712,2.198,6.282,5.083,1.570,0.000,0.000,0.119,-7.981,0.991,5.666,4.708,4.714,
10.200,20.918,0.310,-8.524,2.630,1.013,1.025,3.916,1.250,1.529,2.931,4.738,3.085,0.000,2.963,2.060,1.756,0.000,2.440,0.000,0.000,0.000,0.000,0.000,0.000,0.000,0.000,0.000,0.000,0.000,3.142,0.001,0.000,1.003,1.570,1.570,4.085,6.282,1.199,4.712,0.000,0.000,-0.364,-8.521,0.990,5.771,4.707,4.714,5.282,4.712,4.712,2.198,6.282,5.083,1.570,0.000,0.000,-0.043,-7.949,0.991,5.771,4.709,4.714,
10.291,21.009,0.222,-8.477,2.718,1.013,1.025,4.880,1.122,1.503,0.000,4.937,2.610,0.000,2.654,1.987,1.949,0.000,2.580,0.000,0.000,0.000,0.000,0.000,0.000,0.000,0.000,0.000,0.000,0.000,3.142,0.001,0.000,1.003,1.570,1.570,4.085,6.281,1.199,4.712,0.000,0.000,-0.450,-8.534,0.990,5.859,4.707,4.713,5.282,4.712,4.712,2.198,6.282,5.083,1.570,0.000,0.000,-0.180,-7.936,0.991,5.859,4.709,4.713,
10.400,21.118,0.130,-8.438,2.772,1.015,0.187,0.000,1.045,1.474,0.000,0.000,2.651,0.000,2.486,1.940,1.969,0.000,2.545,0.000,0.000,0.000,0.000,0.000,0.000,0.000,0.000,0.000,0.000,0.000,3.142,6.283,0.000,1.004,1.568,1.567,4.085,6.282,1.199,4.712,0.000,0.000,-0.538,-8.533,0.990,5.917,4.707,4.713,5.281,4.711,4.709,2.198,6.283,5.083,1.570,0.000,0.000,-0.301,-7.921,0.990,5.916,4.708,4.713,
10.500,21.218,0.056,-8.409,2.773,1.011,6.269,0.000,1.028,0.983,0.000,0.000,2.730,0.000,1.881,1.911,4.341,0.000,2.545,0.000,0.000,0.000,0.000,0.000,0.000,0.000,0.000,0.000,0.000,0.000,3.142,6.282,0.000,1.004,1.569,1.569,4.085,6.281,1.199,4.712,0.000,0.000,-0.612,-8.503,0.990,5.914,4.707,4.713,5.281,4.711,4.711,2.198,6.282,5.083,1.570,0.000,0.000,-0.376,-7.891,0.990,5.915,4.707,4.714,
10.600,21.318,-0.055,-8.366,2.773,1.010,6.269,0.000,1.002,0.728,4.853,0.000,2.849,0.000,2.392,1.868,4.164,0.000,2.580,0.000,0.000,0.000,0.000,0.000,0.000,0.000,0.000,0.000,0.000,0.000,3.142,6.282,0.000,1.004,1.569,1.569,4.085,6.281,1.199,4.712,0.000,0.000,-0.723,-8.460,0.990,5.915,4.707,4.713,5.281,4.711,4.711,2.198,6.282,5.083,1.570,0.000,0.000,-0.487,-7.848,0.990,5.915,4.707,4.714,
10.700,21.418,-0.129,-8.337,2.763,1.012,5.848,0.000,0.994,0.717,1.843,0.000,2.939,0.000,2.374,1.840,4.104,0.000,2.615,0.000,0.000,0.000,0.000,0.000,0.000,0.000,0.000,0.000,0.000,0.000,3.142,6.281,0.001,1.004,1.568,1.566,4.084,6.281,1.199,4.712,0.000,0.000,-0.799,-8.427,0.990,5.908,4.708,4.713,5.281,4.710,4.709,2.197,6.282,5.083,1.570,0.000,0.000,-0.557,-7.817,0.990,5.908,4.707,4.713,
10.800,21.518,-0.240,-8.291,2.658,1.012,4.909,3.988,3.052,0.716,1.631,0.000,3.659,0.000,2.011,1.814,4.630,0.000,2.755,0.000,0.000,0.000,0.000,0.000,0.000,0.000,0.000,0.000,0.000,0.000,3.142,6.280,0.001,1.005,1.568,1.566,4.085,6.281,1.199,4.712,0.000,0.000,-0.915,-8.310,0.990,5.804,4.707,4.713,5.282,4.710,4.709,2.197,6.282,5.083,1.570,0.000,0.000,-0.611,-7.728,0.991,5.803,4.708,4.713,
10.888,21.606,-0.310,-8.253,2.562,1.009,5.004,3.288,2.947,0.736,0.721,0.000,3.956,0.000,2.076,1.811,1.564,0.000,2.861,0.000,0.000,0.000,0.000,0.000,0.000,0.000,0.000,0.000,0.000,0.000,3.142,6.280,0.001,1.004,1.569,1.567,4.085,6.281,1.199,4.712,0.000,0.000,-0.983,-8.206,0.990,5.705,4.706,4.714,5.282,4.711,4.710,2.197,6.282,5.083,1.570,0.000,0.000,-0.624,-7.657,0.991,5.705,4.708,4.714,
11.000,21.718,-0.407,-8.184,2.454,1.012,5.629,3.307,0.000,0.782,0.714,0.000,4.408,0.000,3.091,1.802,1.438,0.000,3.001,0.000,0.000,0.000,0.000,0.000,0.000,0.000,0.000,0.000,0.000,0.000,3.142,6.281,0.000,1.004,1.569,1.569,4.085,6.281,1.199,4.712,0.000,0.000,-1.071,-8.065,0.990,5.596,4.706,4.715,5.282,4.711,4.712,2.198,6.281,5.083,1.570,0.000,0.000,-0.655,-7.557,0.991,5.595,4.707,4.715,
11.089,21.806,-0.469,-8.133,2.438,1.016,0.009,3.271,0.000,3.021,0.726,0.000,4.549,0.000,3.074,1.758,1.379,0.000,3.036,0.000,0.000,0.000,0.000,0.000,0.000,0.000,0.000,0.000,0.000,0.000,3.142,6.282,0.000,1.004,1.570,1.570,4.085,6.281,1.199,4.712,0.000,0.000,-1.130,-8.002,0.990,5.578,4.706,4.716,5.281,4.712,4.712,2.198,6.281,5.083,1.570,0.000,0.000,-0.706,-7.502,0.990,5.579,4.707,4.716,
11.200,21.918,-0.560,-8.056,2.439,1.010,6.261,3.151,0.000,2.914,0.747,0.000,4.665,0.000,2.101,1.674,1.300,0.000,3.036,0.000,0.000,0.000,0.000,0.000,0.000,0.000,0.000,0.000,0.000,0.000,3.142,6.283,0.000,1.003,1.569,1.569,4.085,6.281,1.199,4.712,0.000,0.000,-1.222,-7.926,0.990,5.581,4.706,4.716,5.281,4.711,4.711,2.198,6.282,5.083,1.570,0.000,0.000,-0.798,-7.425,0.990,5.581,4.707,4.716,
11.285,22.003,-0.621,-8.005,2.440,1.010,6.261,3.071,0.000,2.843,0.762,0.000,4.742,0.000,2.825,1.619,1.247,0.000,3.071,0.000,0.000,0.000,0.000,0.000,0.000,0.000,0.000,0.000,0.000,0.000,3.142,6.283,0.000,1.004,1.569,1.569,4.085,6.281,1.199,4.712,0.000,0.000,-1.283,-7.875,0.990,5.581,4.706,4.715,5.281,4.711,4.711,2.198,6.282,5.083,1.570,0.000,0.000,-0.859,-7.374,0.990,5.582,4.707,4.716,
11.400,22.118,-0.712,-7.928,2.440,1.013,6.262,2.951,0.000,2.736,0.783,0.000,4.858,0.000,2.677,1.535,0.000,0.000,3.106,0.000,0.000,0.000,0.000,0.000,0.000,0.000,0.000,0.000,0.000,0.000,3.142,6.282,0.000,1.004,1.569,1.569,4.085,6.281,1.199,4.712,0.000,0.000,-1.374,-7.799,0.990,5.582,4.706,4.715,5.281,4.711,4.711,2.198,6.282,5.083,1.570,0.000,0.000,-0.951,-7.298,0.990,5.582,4.707,4.716,
11.498,22.216,-0.788,-7.864,2.441,1.012,6.263,2.851,0.000,2.646,0.801,1.131,4.955,0.000,2.554,1.466,0.000,0.000,3.106,0.000,0.000,0.000,0.000,0.000,0.000,0.000,0.000,0.000,0.000,0.000,3.142,6.282,0.000,1.004,1.569,1.569,4.085,6.281,1.199,4.712,0.000,0.000,-1.450,-7.735,0.990,5.583,4.706,4.715,5.281,4.711,4.711,2.198,6.282,5.083,1.570,0.000,0.000,-1.028,-7.234,0.990,5.583,4.707,4.716,
11.600,22.318,-0.864,-7.800,2.442,1.011,6.263,2.752,0.000,2.556,1.024,1.156,0.000,0.000,2.432,0.965,0.000,0.000,3.142,0.000,0.000,0.000,0.000,0.000,0.000,0.000,0.000,0.000,0.000,0.000,3.142,6.282,0.000,1.004,1.569,1.569,4.085,6.281,1.199,4.712,0.000,0.000,-1.527,-7.672,0.990,5.584,4.706,4.715,5.281,4.711,4.711,2.198,6.282,5.083,1.570,0.000,0.000,-1.104,-7.170,0.990,5.584,4.707,4.716,
11.700,22.418,-0.940,-7.736,2.442,1.011,6.264,2.653,0.000,2.465,1.517,1.182,0.000,0.000,2.310,1.328,0.000,0.000,3.142,0.000,0.000,0.000,0.000,0.000,0.000,0.000,0.000,0.000,0.000,0.000,3.142,6.282,0.000,1.004,1.569,1.569,4.085,6.281,1.199,4.712,0.000,0.000,-1.603,-7.608,0.990,5.584,4.706,4.715,5.281,4.711,4.711,2.198,6.282,5.083,1.570,0.000,0.000,-1.181,-7.106,0.990,5.584,4.707,4.716,
11.782,22.499,-1.001,-7.684,2.443,1.012,6.264,2.573,0.000,2.393,1.572,1.202,0.000,0.000,2.213,0.952,0.000,0.000,3.142,0.000,0.000,0.000,0.000,0.000,0.000,0.000,0.000,0.000,0.000,0.000,3.142,6.282,0.000,1.004,1.569,1.569,4.085,6.281,1.199,4.712,0.000,0.000,-1.664,-7.557,0.990,5.585,4.706,4.715,5.281,4.711,4.711,2.198,6.282,5.083,1.570,0.000,0.000,-1.242,-7.055,0.990,5.585,4.706,4.716,
11.900,22.618,-1.093,-7.608,2.443,1.012,6.264,2.454,0.000,2.529,1.653,1.233,0.000,0.000,2.067,0.869,0.000,0.000,3.142,0.000,0.000,0.000,0.000,0.000,0.000,0.000,0.000,0.000,0.000,0.000,3.142,6.282,0.000,1.004,1.569,1.569,4.085,6.281,1.199,4.712,0.000,0.000,-1.755,-7.481,0.990,5.585,4.706,4.715,5.281,4.711,4.711,2.198,6.282,5.083,1.570,0.000,0.000,-1.334,-6.978,0.990,5.585,4.706,4.716,
12.000,22.718,-1.169,-7.544,2.444,1.011,6.264,2.355,0.000,2.644,1.721,1.258,0.000,0.000,1.946,0.800,0.000,0.000,3.142,0.000,0.000,0.000,0.000,0.000,0.000,0.000,0.000,0.000,0.000,0.000,3.142,6.282,0.000,1.004,1.569,1.569,4.085,6.281,1.199,4.712,0.000,0.000,-1.832,-7.417,0.990,5.586,4.706,4.715,5.281,4.711,4.711,2.198,6.282,5.083,1.570,0.000,0.000,-1.410,-6.914,0.990,5.586,4.706,4.716,
12.084,22.801,-1.230,-7.493,2.444,1.012,6.264,2.276,0.000,2.421,1.775,1.279,0.000,0.000,1.850,0.745,0.000,0.000,3.142,0.000,0.000,0.000,0.000,0.000,0.000,0.000,0.000,0.000,0.000,0.000,3.142,6.282,0.000,1.004,1.569,1.569,4.085,6.281,1.199,4.712,0.000,0.000,-1.893,-7.366,0.990,5.586,4.706,4.715,5.281,4.711,4.711,2.198,6.282,5.083,1.570,0.000,0.000,-1.472,-6.863,0.990,5.586,4.706,4.716,
12.200,22.918,-1.320,-7.417,2.419,0.967,5.535,2.206,4.893,2.276,1.874,1.275,0.000,0.000,0.944,0.833,0.000,0.000,3.142,0.000,0.000,0.000,0.000,0.000,0.000,0.000,0.000,0.000,0.000,0.000,3.142,6.281,0.001,1.004,1.568,1.566,4.084,6.281,1.199,4.711,0.000,0.000,-1.980,-7.276,0.990,5.565,4.706,4.715,5.281,4.710,4.708,2.197,6.282,5.083,1.570,0.000,0.000,-1.547,-6.783,0.990,5.565,4.705,4.716,
12.300,23.018,-1.389,-7.354,2.317,0.956,4.892,2.329,4.893,2.073,3.472,1.359,0.000,0.000,0.978,0.818,4.341,0.000,3.142,0.000,0.000,0.000,0.000,0.000,0.000,0.000,0.000,0.000,0.000,0.000,3.142,6.280,0.001,1.004,1.568,1.566,4.085,6.281,1.199,4.712,0.000,0.000,-2.032,-7.146,0.990,5.462,4.705,4.716,5.282,4.711,4.709,2.197,6.282,5.083,1.570,0.000,0.000,-1.550,-6.699,0.991,5.461,4.706,4.715,
12.384,23.102,-1.440,-7.297,2.221,0.972,5.046,2.518,2.894,2.273,2.856,1.683,0.000,0.000,1.067,0.790,3.906,0.000,3.142,0.000,0.000,0.000,0.000,0.000,0.000,0.000,0.000,0.000,0.000,0.000,3.142,6.280,0.001,1.004,1.569,1.568,4.085,6.281,1.199,4.712,0.000,0.000,-2.059,-7.028,0.990,5.365,4.704,4.717,5.282,4.711,4.710,2.197,6.282,5.083,1.570,0.000,0.000,-1.537,-6.630,0.991,5.364,4.706,4.716,
12.500,23.218,-1.507,-7.203,2.115,0.986,5.419,2.804,1.719,4.943,2.360,1.957,2.079,4.883,2.997,0.790,4.650,0.000,1.387,0.000,0.000,0.000,0.000,0.000,0.000,0.000,0.000,0.000,0.000,0.000,3.142,6.281,0.001,1.004,1.569,1.568,4.085,6.281,1.199,4.712,0.000,0.000,-2.094,-6.869,0.990,5.258,4.703,4.719,5.282,4.711,4.710,2.197,6.282,5.083,1.570,0.000,0.000,-1.533,-6.529,0.991,5.257,4.704,4.719,
12.597,23.315,-1.556,-7.119,2.038,0.976,5.353,2.509,1.607,0.000,2.456,2.055,1.918,4.667,1.136,0.796,3.820,0.000,1.457,0.000,0.000,0.000,0.000,0.000,0.000,0.000,0.000,0.000,0.000,0.000,3.142,6.281,0.001,1.004,1.569,1.567,4.085,6.281,1.199,4.712,0.000,0.000,-2.116,-6.742,0.990,5.182,4.702,4.720,5.282,4.711,4.710,2.197,6.282,5.083,1.570,0.000,0.000,-1.530,-6.446,0.990,5.182,4.702,4.720,
12.700,23.418,-1.597,-7.033,1.951,0.967,5.232,2.313,1.637,0.000,2.202,3.961,1.785,4.954,0.000,0.788,3.429,0.000,1.562,0.000,0.000,0.000,0.000,0.000,0.000,0.000,0.000,0.000,0.000,0.000,3.142,6.280,0.001,1.004,1.568,1.567,4.085,6.281,1.199,4.712,0.000,0.000,-2.122,-6.609,0.990,5.095,4.699,4.723,5.282,4.711,4.710,2.197,6.282,5.083,1.570,0.000,0.000,-1.513,-6.365,0.991,5.094,4.701,4.722,
12.800,23.518,-1.631,-6.944,1.859,0.974,5.259,2.390,1.699,4.569,2.004,4.152,1.738,0.000,0.000,0.775,3.529,0.000,1.702,0.000,0.000,0.000,0.000,0.000,0.000,0.000,0.000,0.000,0.000,0.000,3.142,6.280,0.001,1.004,1.568,1.567,4.085,6.281,1.199,4.712,0.000,0.000,-2.114,-6.473,0.990,5.003,4.696,4.727,5.282,4.711,4.710,2.197,6.282,5.083,1.570,0.000,0.000,-1.485,-6.286,0.991,5.002,4.697,4.726,
12.900,23.618,-1.652,-6.870,1.789,0.979,5.300,0.000,1.768,0.000,2.316,3.644,1.949,0.000,0.000,0.765,2.982,0.000,1.773,0.000,0.000,0.000,0.000,0.000,0.000,0.000,0.000,0.000,0.000,0.000,3.142,6.281,0.001,1.004,1.568,1.567,4.085,6.281,1.199,4.712,0.000,0.000,-2.101,-6.366,0.990,4.932,4.690,4.733,5.282,4.711,4.710,2.197,6.282,5.083,1.570,0.000,0.000,-1.460,-6.224,0.991,4.932,4.692,4.731,
13.000,23.718,-1.675,-6.754,1.735,1.020,0.003,4.689,1.823,1.442,4.525,3.164,2.195,0.000,1.176,0.768,2.587,0.000,2.826,0.000,0.000,0.000,0.000,0.000,0.000,0.000,0.000,0.000,0.000,0.000,3.142,6.282,0.000,1.004,1.570,1.571,4.085,6.281,1.199,4.712,0.000,0.000,-2.094,-6.227,0.990,4.875,4.684,4.740,5.282,4.712,4.713,2.198,6.281,5.083,1.571,0.000,0.000,-1.447,-6.119,0.991,4.876,4.686,4.738,
13.082,23.800,-1.688,-6.675,1.736,1.026,6.261,4.609,1.804,1.405,4.787,3.136,2.274,0.000,0.698,0.783,2.736,0.000,2.826,0.000,0.000,0.000,0.000,0.000,0.000,0.000,0.000,0.000,0.000,0.000,3.142,6.283,0.000,1.004,1.569,1.569,4.085,6.281,1.199,4.712,0.000,0.000,-2.109,-6.147,0.990,4.878,4.683,4.740,5.281,4.711,4.711,2.198,6.282,5.083,1.570,0.000,0.000,-1.462,-6.040,0.990,4.878,4.686,4.738,
13.200,23.918,-1.708,-6.556,1.737,1.007,6.262,4.489,1.775,1.302,0.000,2.795,2.392,0.000,0.718,0.806,2.786,0.000,1.913,0.000,0.000,0.000,0.000,0.000,0.000,0.000,0.000,0.000,0.000,0.000,3.142,6.283,0.000,1.003,1.569,1.569,4.085,6.281,1.199,4.712,0.000,0.000,-2.129,-6.029,0.990,4.878,4.683,4.741,5.281,4.711,4.711,2.198,6.282,5.083,1.570,0.000,0.000,-1.482,-5.921,0.990,4.879,4.685,4.738,
13.289,24.007,-1.721,-6.478,1.737,1.004,6.263,4.410,1.756,1.289,0.000,2.861,2.469,0.000,0.731,1.385,2.819,0.000,2.861,0.000,0.000,0.000,0.000,0.000,0.000,0.000,0.000,0.000,0.000,0.000,3.142,6.282,0.000,1.004,1.569,1.569,4.085,6.281,1.199,4.712,0.000,0.000,-2.143,-5.952,0.990,4.879,4.683,4.740,5.281,4.711,4.711,2.198,6.282,5.083,1.570,0.000,0.000,-1.496,-5.843,0.990,4.879,4.686,4.738,
13.400,24.118,-1.741,-6.361,1.738,1.014,6.263,4.292,1.728,1.269,0.000,3.024,2.586,0.000,0.751,1.408,2.870,0.000,2.861,0.000,0.000,0.000,0.000,0.000,0.000,0.000,0.000,0.000,0.000,0.000,3.142,6.282,0.000,1.004,1.569,1.569,4.085,6.281,1.199,4.712,0.000,0.000,-2.163,-5.835,0.990,4.880,4.684,4.740,5.281,4.711,4.711,2.198,6.282,5.083,1.570,0.000,0.000,-1.516,-5.725,0.990,4.880,4.686,4.738,
13.498,24.216,-1.757,-6.262,1.733,1.015,5.969,4.187,1.714,1.253,0.000,3.019,2.703,0.000,0.768,1.366,2.876,0.000,2.861,0.000,0.000,0.000,0.000,0.000,0.000,0.000,0.000,0.000,0.000,0.000,3.142,6.281,0.001,1.004,1.568,1.567,4.084,6.281,1.199,4.712,0.000,0.000,-2.178,-5.735,0.990,4.877,4.685,4.738,5.281,4.710,4.709,2.197,6.282,5.083,1.570,0.000,0.000,-1.531,-5.628,0.990,4.877,4.681,4.743,
13.600,24.318,-1.772,-6.164,1.662,1.012,5.039,0.000,1.819,1.252,0.000,3.052,3.006,0.000,0.794,1.336,2.548,0.000,2.966,0.000,0.000,0.000,0.000,0.000,0.000,0.000,0.000,0.000,0.000,0.000,3.142,6.280,0.001,1.005,1.568,1.565,4.084,6.281,1.199,4.711,0.000,0.000,-2.156,-5.608,0.990,4.809,4.663,4.759,5.282,4.710,4.708,2.197,6.282,5.083,1.570,0.000,0.000,-1.502,-5.547,0.990,4.808,4.663,4.760,
13.700,24.418,-1.779,-6.064,1.552,1.008,5.378,2.695,1.442,1.282,1.288,2.547,3.093,0.000,0.826,1.316,2.077,0.000,3.071,0.000,0.000,0.000,0.000,0.000,0.000,0.000,0.000,0.000,0.000,0.000,3.142,6.281,0.000,1.004,1.569,1.569,4.085,6.281,1.199,4.712,0.000,0.000,-2.096,-5.469,0.990,4.732,1.827,1.314,5.282,4.712,4.712,2.198,6.281,5.083,1.571,0.000,0.000,-1.440,-5.481,0.991,4.733,1.744,1.397,
13.780,24.498,-1.777,-5.985,1.528,1.011,0.020,2.516,1.321,1.294,1.280,2.636,3.175,0.000,0.830,1.277,2.009,0.000,3.106,0.000,0.000,0.000,0.000,0.000,0.000,0.000,0.000,0.000,0.000,0.000,3.142,6.282,0.000,1.003,1.570,1.571,4.085,6.281,1.199,4.712,0.000,0.000,-2.079,-5.382,0.990,4.758,1.677,1.464,5.281,4.712,4.713,2.198,6.281,5.083,1.571,0.000,0.000,-1.423,-5.410,0.991,4.757,1.662,1.479,
13.900,24.618,-1.772,-5.866,1.530,1.013,6.270,2.395,1.177,1.298,1.286,2.781,3.294,0.000,0.857,1.273,2.087,0.000,3.106,0.000,0.000,0.000,0.000,0.000,0.000,0.000,0.000,0.000,0.000,0.000,3.142,6.283,0.000,1.003,1.569,1.569,4.085,6.281,1.199,4.712,0.000,0.000,-2.076,-5.263,0.990,4.754,1.690,1.451,5.281,4.711,4.712,2.198,6.282,5.083,1.570,0.000,0.000,-1.421,-5.290,0.990,4.754,1.674,1.467,
14.000,24.718,-1.768,-5.766,1.531,1.011,6.265,2.295,1.056,1.302,1.291,2.902,3.394,0.000,1.152,4.603,2.084,0.000,3.106,0.000,0.000,0.000,0.000,0.000,0.000,0.000,0.000,0.000,0.000,0.000,3.142,6.283,0.000,1.003,1.569,1.569,4.085,6.281,1.199,4.712,0.000,0.000,-2.073,-5.164,0.990,4.753,1.693,1.448,5.281,4.711,4.711,2.198,6.282,5.083,1.570,0.000,0.000,-1.417,-5.190,0.990,4.752,1.679,1.462,
14.091,24.809,-1.765,-5.687,1.531,1.011,6.205,2.217,1.023,1.306,1.294,3.002,3.473,0.000,1.345,4.573,2.077,0.000,3.106,0.000,0.000,0.000,0.000,0.000,0.000,0.000,0.000,0.000,0.000,0.000,3.142,6.282,0.000,1.004,1.569,1.568,4.084,6.281,1.199,4.712,0.000,0.000,-2.070,-5.085,0.990,4.752,1.686,1.455,5.281,4.711,4.710,2.197,6.282,5.083,1.570,0.000,0.000,-1.415,-5.111,0.990,4.752,1.699,1.442,
14.200,24.918,-1.759,-5.567,1.471,1.014,5.344,2.183,1.133,1.342,1.278,0.000,0.000,0.000,1.371,4.552,1.921,0.000,3.142,0.000,0.000,0.000,0.000,0.000,0.000,0.000,0.000,0.000,0.000,0.000,3.142,6.281,0.001,1.004,1.568,1.566,4.085,6.281,1.199,4.712,0.000,0.000,-2.029,-4.948,0.990,4.809,1.620,1.521,5.281,4.711,4.709,2.197,6.282,5.083,1.570,0.000,0.000,-1.376,-5.013,0.990,4.810,1.619,1.522,
14.300,25.018,-1.747,-5.468,1.417,1.013,6.086,2.169,1.267,1.387,1.275,0.000,0.000,0.000,1.392,4.544,1.796,0.000,3.142,0.000,0.000,0.000,0.000,0.000,0.000,0.000,0.000,0.000,0.000,0.000,3.142,6.282,0.000,1.004,1.570,1.571,4.085,6.281,1.199,4.712,0.000,0.000,-1.981,-4.836,0.990,4.868,1.602,1.539,5.282,4.712,4.713,2.198,6.281,5.083,1.571,0.000,0.000,-1.333,-4.936,0.991,4.867,1.598,1.544,
14.385,25.103,-1.735,-5.390,1.416,1.009,6.262,2.092,1.294,1.140,1.288,0.000,0.000,0.000,1.379,4.506,1.777,0.000,3.142,0.000,0.000,0.000,0.000,0.000,0.000,0.000,0.000,0.000,0.000,0.000,3.142,6.283,0.000,1.004,1.569,1.569,4.085,6.281,1.199,4.712,0.000,0.000,-1.969,-4.757,0.990,4.866,1.602,1.538,5.281,4.711,4.711,2.198,6.282,5.083,1.570,0.000,0.000,-1.321,-4.858,0.990,4.866,1.600,1.542,
14.500,25.218,-1.717,-5.272,1.417,1.011,6.263,1.973,1.331,0.867,1.306,0.000,0.000,1.564,1.358,4.447,1.752,0.000,3.142,0.000,0.000,0.000,0.000,0.000,0.000,0.000,0.000,0.000,0.000,0.000,3.142,6.282,0.000,1.004,1.569,1.569,4.085,6.281,1.199,4.712,0.000,0.000,-1.952,-4.639,0.990,4.866,1.602,1.539,5.281,4.711,4.711,2.198,6.282,5.083,1.570,0.000,0.000,-1.303,-4.740,0.990,4.866,1.600,1.541,
14.600,25.318,-1.702,-5.173,1.418,1.013,6.263,1.874,2.726,0.717,1.322,0.000,0.000,1.529,1.341,4.397,1.731,0.000,3.142,0.000,0.000,0.000,0.000,0.000,0.000,0.000,0.000,0.000,0.000,0.000,3.142,6.282,0.000,1.004,1.569,1.569,4.085,6.281,1.199,4.712,0.000,0.000,-1.937,-4.541,0.990,4.865,1.602,1.539,5.281,4.711,4.711,2.198,6.282,5.083,1.570,0.000,0.000,-1.288,-4.641,0.990,4.865,1.600,1.541,
14.700,25.418,-1.690,-5.095,1.418,1.013,6.263,1.794,2.749,0.731,1.334,2.079,0.000,1.502,1.271,4.358,1.715,0.000,3.142,0.000,0.000,0.000,0.000,0.000,0.000,0.000,0.000,0.000,0.000,0.000,3.142,6.282,0.000,1.004,1.569,1.569,4.085,6.281,1.199,4.712,0.000,0.000,-1.925,-4.462,0.990,4.865,1.602,1.539,5.281,4.711,4.711,2.198,6.282,5.083,1.570,0.000,0.000,-1.277,-4.562,0.990,4.865,1.600,1.541,
14.792,25.510,-1.674,-4.996,1.419,1.011,6.263,1.696,2.778,0.747,1.350,1.948,0.000,1.467,1.254,4.309,1.694,0.000,3.142,0.000,0.000,0.000,0.000,0.000,0.000,0.000,0.000,0.000,0.000,0.000,3.142,6.282,0.000,1.004,1.569,1.569,4.085,6.281,1.199,4.712,0.000,0.000,-1.910,-4.364,0.990,4.864,1.603,1.538,5.281,4.711,4.711,2.198,6.282,5.083,1.570,0.000,0.000,-1.262,-4.463,0.990,4.864,1.601,1.541,
14.900,25.618,-1.657,-4.879,1.441,0.953,0.567,1.553,2.706,0.759,1.374,2.022,0.000,1.458,3.593,0.000,1.708,0.000,3.142,0.000,0.000,0.000,0.000,0.000,0.000,0.000,0.000,0.000,0.000,0.000,3.142,0.001,0.000,1.002,1.570,1.572,4.087,6.281,1.199,4.712,0.000,0.000,-1.905,-4.252,0.990,4.845,1.614,1.527,5.281,4.712,4.713,2.199,6.282,5.083,1.570,0.000,0.000,-1.254,-4.338,0.991,4.845,1.598,1.544,
15.000,25.718,-1.647,-4.798,1.480,0.727,0.295,1.431,2.552,0.757,1.397,2.132,0.000,1.586,4.136,3.932,1.444,0.000,3.142,0.000,0.000,0.000,0.000,0.000,0.000,0.000,0.000,0.000,0.000,0.000,3.142,0.001,0.001,1.003,1.569,1.569,4.087,6.281,1.199,4.712,0.000,0.000,-1.921,-4.181,0.990,4.802,1.636,1.505,5.281,4.711,4.711,2.198,6.282,5.083,1.570,0.000,0.000,-1.268,-4.241,0.991,4.802,1.616,1.525,
15.100,25.818,-1.642,-4.744,1.485,0.705,6.266,1.372,2.541,0.761,1.404,2.153,0.000,1.655,4.327,1.128,1.367,0.000,3.142,0.000,0.000,0.000,0.000,0.000,0.000,0.000,0.000,0.000,0.000,0.000,3.142,6.282,0.000,1.004,1.569,1.569,4.085,6.281,1.199,4.712,0.000,0.000,-1.920,-4.129,0.990,4.797,1.627,1.514,5.281,4.711,4.711,2.198,6.282,5.083,1.570,0.000,0.000,-1.266,-4.184,0.990,4.797,1.623,1.518,
15.200,25.918,-1.635,-4.653,1.486,0.841,6.264,1.282,2.553,0.769,0.740,2.167,0.000,1.762,4.571,1.116,1.248,0.000,3.142,0.000,0.000,0.000,0.000,0.000,0.000,0.000,0.000,0.000,0.000,0.000,3.142,6.282,0.000,1.004,1.569,1.569,4.084,6.281,1.199,4.712,0.000,0.000,-1.912,-4.038,0.990,4.797,1.622,1.518,5.281,4.711,4.711,2.198,6.282,5.083,1.570,0.000,0.000,-1.259,-4.093,0.990,4.797,1.624,1.517,
15.300,26.018,-1.627,-4.570,1.486,0.839,6.264,1.199,2.564,0.776,0.747,2.179,0.000,1.860,4.795,1.161,1.138,0.000,3.142,0.000,0.000,0.000,0.000,0.000,0.000,0.000,0.000,0.000,0.000,0.000,3.142,6.283,0.000,1.003,1.569,1.569,4.085,6.281,1.199,4.712,0.000,0.000,-1.905,-3.955,0.990,4.797,1.630,1.511,5.281,4.711,4.711,2.198,6.282,5.083,1.570,0.000,0.000,-1.252,-4.010,0.990,4.797,1.625,1.517,
15.400,26.118,-1.621,-4.491,1.487,0.780,6.264,1.120,2.574,0.783,0.754,2.191,4.683,1.953,0.000,1.154,1.035,0.000,3.106,0.000,0.000,0.000,0.000,0.000,0.000,0.000,0.000,0.000,0.000,0.000,3.142,6.283,0.000,1.003,1.569,1.569,4.085,6.281,1.199,4.712,0.000,0.000,-1.899,-3.876,0.990,4.796,1.631,1.510,5.281,4.711,4.711,2.198,6.282,5.083,1.570,0.000,0.000,-1.245,-3.931,0.990,4.796,1.625,1.516,
15.500,26.218,-1.616,-4.431,1.487,0.776,6.265,1.060,2.582,0.788,0.759,2.201,4.743,2.141,0.000,1.149,0.963,0.000,3.106,0.000,0.000,0.000,0.000,0.000,0.000,0.000,0.000,0.000,0.000,0.000,3.142,6.282,0.000,1.004,1.569,1.569,4.085,6.281,1.199,4.712,0.000,0.000,-1.894,-3.816,0.990,4.796,1.628,1.513,5.281,4.711,4.711,2.198,6.282,5.083,1.570,0.000,0.000,-1.241,-3.871,0.990,4.796,1.626,1.516,
15.600,26.318,-1.609,-4.353,1.488,0.808,6.265,0.983,2.592,1.023,0.766,2.212,4.821,2.127,0.000,1.143,0.954,0.000,3.106,0.000,0.000,0.000,0.000,0.000,0.000,0.000,0.000,0.000,0.000,0.000,3.142,6.282,0.000,1.004,1.569,1.569,4.085,6.281,1.199,4.712,0.000,0.000,-1.888,-3.739,0.990,4.795,1.627,1.514,5.281,4.711,4.711,2.198,6.282,5.083,1.570,0.000,0.000,-1.234,-3.793,0.990,4.795,1.626,1.515,
15.700,26.418,-1.603,-4.276,1.513,0.469,0.792,0.891,2.503,1.485,0.778,2.296,4.889,2.030,0.000,1.144,0.974,0.000,3.106,0.000,0.000,0.000,0.000,0.000,0.000,0.000,0.000,0.000,0.000,0.000,3.142,0.003,0.000,1.001,1.572,1.574,4.089,6.280,1.200,4.712,0.000,0.000,-1.894,-3.668,0.990,4.775,1.677,1.464,5.281,4.713,4.715,2.199,6.281,5.083,1.571,0.000,0.000,-1.240,-3.707,0.991,4.774,1.627,1.515,
15.800,26.518,-1.602,-4.236,1.608,0.496,1.022,0.806,2.204,0.991,0.805,2.635,4.925,1.695,0.000,1.178,1.110,0.000,3.001,0.000,0.000,0.000,0.000,0.000,0.000,0.000,0.000,0.000,0.000,0.000,3.142,6.283,0.000,1.004,1.569,1.567,4.083,6.282,1.199,4.712,0.000,0.000,-1.954,-3.660,0.990,4.753,4.633,4.790,5.282,4.711,4.710,2.198,6.282,5.083,1.570,0.000,0.000,-1.298,-3.634,0.991,4.752,4.629,4.795,
15.891,26.609,-1.605,-4.184,1.645,0.819,0.099,0.741,2.106,0.980,0.815,0.000,4.650,1.740,1.084,1.199,1.183,0.000,2.966,0.000,0.000,0.000,0.000,0.000,0.000,0.000,0.000,0.000,0.000,0.000,3.142,6.281,0.000,1.006,1.567,1.564,4.082,6.282,1.199,4.711,0.000,0.000,-1.980,-3.622,0.990,4.793,4.673,4.750,5.282,4.710,4.707,2.198,6.283,5.083,1.570,0.000,0.000,-1.325,-3.572,0.991,4.792,4.662,4.762,
16.000,26.718,-1.613,-4.080,1.645,0.852,6.273,0.637,2.095,1.420,0.806,2.781,4.755,1.877,1.095,0.981,1.497,0.000,3.106,0.000,0.000,0.000,0.000,0.000,0.000,0.000,0.000,0.000,0.000,0.000,3.142,6.283,0.001,1.003,1.569,1.569,4.086,6.281,1.199,4.712,0.000,0.000,-1.984,-3.516,0.990,4.787,4.641,4.783,5.281,4.711,4.711,2.197,6.282,5.083,1.570,0.000,0.000,-1.330,-3.467,0.990,4.787,4.647,4.777,
16.100,26.818,-1.618,-4.007,1.645,0.660,6.272,0.564,2.086,1.414,0.800,2.770,4.828,1.982,1.149,0.794,1.412,0.000,3.106,0.000,0.000,0.000,0.000,0.000,0.000,0.000,0.000,0.000,0.000,0.000,3.142,6.283,0.001,1.003,1.569,1.569,4.086,6.281,1.199,4.712,0.000,0.000,-1.990,-3.443,0.990,4.787,4.640,4.784,5.281,4.711,4.711,2.197,6.282,5.083,1.570,0.000,0.000,-1.336,-3.394,0.990,4.787,4.647,4.777,
16.200,26.918,-1.621,-3.971,1.646,0.298,6.265,0.529,2.082,1.412,0.798,2.767,4.861,2.060,1.152,0.702,1.370,0.000,3.106,0.000,0.000,0.000,0.000,0.000,0.000,0.000,0.000,0.000,0.000,0.000,3.142,0.001,0.001,1.002,1.570,1.571,4.088,6.281,1.200,4.712,0.000,0.000,-1.992,-3.407,0.989,4.786,4.622,4.802,5.281,4.712,4.713,2.198,6.282,5.083,1.570,0.000,0.000,-1.338,-3.359,0.990,4.786,4.648,4.776,
16.300,27.018,-1.622,-3.955,1.646,0.048,6.267,0.512,2.078,1.410,0.796,2.767,4.873,2.105,1.153,0.679,1.351,0.000,3.106,0.000,0.000,0.000,0.000,0.000,0.000,0.000,0.000,0.000,0.000,0.000,3.142,6.283,0.001,1.003,1.570,1.570,4.086,6.281,1.199,4.712,0.000,0.000,-1.994,-3.392,0.990,4.788,4.639,4.785,5.281,4.711,4.712,2.198,6.282,5.083,1.570,0.000,0.000,-1.340,-3.342,0.990,4.788,4.651,4.773,
16.395,27.113,-1.622,-3.954,1.647,0.000,6.274,0.512,2.077,1.410,0.796,2.769,4.872,2.108,1.153,0.679,1.350,0.000,3.106,0.000,0.000,0.000,0.000,0.000,0.000,0.000,0.000,0.000,0.000,0.000,3.142,6.283,0.000,1.003,1.569,1.569,4.085,6.281,1.199,4.712,0.000,0.000,-1.994,-3.391,0.990,4.788,4.646,4.777,5.281,4.711,4.712,2.198,6.282,5.083,1.570,0.000,0.000,-1.340,-3.342,0.990,4.788,4.655,4.769,
16.481,27.199,-1.622,-3.954,1.647,0.000,6.274,0.512,2.077,1.410,0.796,2.769,4.872,2.108,1.153,0.679,1.350,0.000,3.106,0.000,0.000,0.000,0.000,0.000,0.000,0.000,0.000,0.000,0.000,0.000,3.142,6.283,0.000,1.003,1.569,1.569,4.085,6.281,1.199,4.712,0.000,0.000,-1.994,-3.391,0.990,4.788,4.646,4.777,5.281,4.711,4.711,2.198,6.282,5.083,1.570,0.000,0.000,-1.340,-3.342,0.990,4.788,4.655,4.769,
16.600,27.318,-1.622,-3.954,1.647,0.010,0.011,0.512,2.077,1.410,0.796,2.768,4.872,2.108,1.153,0.679,1.350,0.000,3.106,0.000,0.000,0.000,0.000,0.000,0.000,0.000,0.000,0.000,0.000,0.000,3.142,6.282,0.000,1.004,1.569,1.569,4.085,6.281,1.199,4.712,0.000,0.000,-1.995,-3.392,0.990,4.789,4.650,4.774,5.281,4.711,4.711,2.198,6.282,5.083,1.570,0.000,0.000,-1.341,-3.341,0.990,4.789,4.652,4.772,
16.698,27.416,-1.622,-3.949,1.647,0.143,6.264,0.507,2.076,1.409,0.796,2.769,4.874,2.122,1.153,0.679,1.344,0.000,3.106,0.000,0.000,0.000,0.000,0.000,0.000,0.000,0.000,0.000,0.000,0.000,3.142,6.281,0.000,1.005,1.569,1.568,4.083,6.281,1.199,4.712,0.000,0.000,-1.996,-3.387,0.990,4.790,4.661,4.762,5.281,4.711,4.710,2.198,6.282,5.083,1.570,0.000,0.000,-1.342,-3.337,0.990,4.790,4.653,4.771,
16.800,27.518,-1.624,-3.926,1.647,0.229,6.265,0.484,2.072,1.408,0.794,2.768,4.894,2.183,1.155,0.682,1.316,0.000,3.106,0.000,0.000,0.000,0.000,0.000,0.000,0.000,0.000,0.000,0.000,0.000,3.142,6.282,0.000,1.004,1.569,1.569,4.085,6.281,1.199,4.712,0.000,0.000,-1.997,-3.364,0.990,4.789,4.648,4.775,5.281,4.711,4.711,2.198,6.282,5.083,1.570,0.000,0.000,-1.343,-3.313,0.990,4.790,4.652,4.772,
16.900,27.618,-1.626,-3.909,1.648,0.137,6.266,0.467,2.069,1.406,0.793,2.768,4.908,2.227,1.156,0.683,1.296,0.000,3.106,0.000,0.000,0.000,0.000,0.000,0.000,0.000,0.000,0.000,0.000,0.000,3.142,6.283,0.001,1.003,1.569,1.569,4.086,6.281,1.199,4.712,0.000,0.000,-1.999,-3.347,0.990,4.790,4.644,4.780,5.281,4.711,4.711,2.198,6.282,5.083,1.570,0.000,0.000,-1.345,-3.296,0.990,4.790,4.652,4.772,
17.000,27.718,-1.626,-3.901,1.648,0.114,6.266,0.459,2.068,1.405,0.793,2.768,4.914,2.250,1.157,0.684,1.287,0.000,3.106,0.000,0.000,0.000,0.000,0.000,0.000,0.000,0.000,0.000,0.000,0.000,3.142,6.282,0.000,1.004,1.569,1.569,4.085,6.281,1.199,4.712,0.000,0.000,-2.000,-3.339,0.990,4.790,4.650,4.774,5.281,4.711,4.711,2.198,6.282,5.083,1.570,0.000,0.000,-1.346,-3.288,0.990,4.790,4.653,4.771,
17.100,27.818,-1.627,-3.889,1.649,0.160,6.265,0.447,2.065,1.404,0.792,2.768,4.923,2.282,1.157,0.685,1.272,0.000,3.106,0.000,0.000,0.000,0.000,0.000,0.000,0.000,0.000,0.000,0.000,0.000,3.142,6.282,0.000,1.004,1.569,1.569,4.085,6.281,1.199,4.712,0.000,0.000,-2.001,-3.328,0.990,4.791,4.654,4.770,5.281,4.711,4.711,2.198,6.282,5.083,1.570,0.000,0.000,-1.347,-3.276,0.990,4.791,4.654,4.770,
17.200,27.918,-1.629,-3.870,1.649,0.172,6.266,0.428,2.062,1.403,0.790,2.767,4.938,2.332,1.159,0.687,1.250,0.000,3.106,0.000,0.000,0.000,0.000,0.000,0.000,0.000,0.000,0.000,0.000,0.000,3.142,6.282,0.000,1.004,1.569,1.569,4.085,6.281,1.199,4.712,0.000,0.000,-2.002,-3.309,0.990,4.791,4.650,4.774,5.281,4.711,4.711,2.198,6.282,5.083,1.570,0.000,0.000,-1.348,-3.257,0.990,4.791,4.653,4.771,
17.288,28.006,-1.630,-3.859,1.649,0.151,6.266,0.416,2.060,1.402,0.789,2.767,4.948,2.363,1.160,0.688,1.237,0.000,3.106,0.000,0.000,0.000,0.000,0.000,0.000,0.000,0.000,0.000,0.000,0.000,3.142,6.282,0.000,1.004,1.569,1.569,4.085,6.281,1.199,4.712,0.000,0.000,-2.004,-3.297,0.990,4.791,4.649,4.774,5.281,4.711,4.711,2.198,6.282,5.083,1.570,0.000,0.000,-1.350,-3.246,0.990,4.791,4.654,4.770,
17.400,28.118,-1.631,-3.843,1.650,0.147,6.266,0.401,2.057,1.400,0.788,2.767,4.960,2.405,1.161,0.689,1.218,0.000,3.106,0.000,0.000,0.000,0.000,0.000,0.000,0.000,0.000,0.000,0.000,0.000,3.142,6.282,0.000,1.004,1.569,1.569,4.085,6.281,1.199,4.712,0.000,0.000,-2.005,-3.282,0.990,4.792,4.652,4.772,5.281,4.711,4.711,2.198,6.282,5.083,1.570,0.000,0.000,-1.351,-3.230,0.990,4.792,4.654,4.770,
17.500,28.218,-1.632,-3.830,1.650,0.160,6.266,0.387,2.054,1.399,0.787,2.766,4.971,2.442,1.162,0.691,1.202,0.000,3.106,0.000,0.000,0.000,0.000,0.000,0.000,0.000,0.000,0.000,0.000,0.000,3.142,6.282,0.000,1.004,1.569,1.569,4.085,6.281,1.199,4.712,0.000,0.000,-2.006,-3.268,0.990,4.792,4.652,4.771,5.281,4.711,4.711,2.198,6.282,5.083,1.570,0.000,0.000,-1.352,-3.216,0.990,4.792,4.654,4.770,
17.600,28.318,-1.633,-3.818,1.650,0.159,6.266,0.376,2.052,1.398,0.786,2.766,4.980,2.473,1.163,0.692,1.189,0.000,3.106,0.000,0.000,0.000,0.000,0.000,0.000,0.000,0.000,0.000,0.000,0.000,3.142,6.282,0.000,1.004,1.569,1.569,4.085,6.281,1.199,4.712,0.000,0.000,-2.007,-3.257,0.990,4.793,4.652,4.772,5.281,4.711,4.711,2.198,6.282,5.083,1.570,0.000,0.000,-1.354,-3.205,0.990,4.793,4.654,4.770,
17.700,28.418,-1.634,-3.802,1.651,0.151,6.266,0.359,2.049,1.396,0.785,2.765,4.994,2.517,1.164,0.693,0.666,0.000,3.106,0.000,0.000,0.000,0.000,0.000,0.000,0.000,0.000,0.000,0.000,0.000,3.142,6.282,0.000,1.004,1.569,1.569,4.085,6.281,1.199,4.712,0.000,0.000,-2.009,-3.241,0.990,4.793,4.652,4.772,5.281,4.711,4.711,2.198,6.282,5.083,1.570,0.000,0.000,-1.355,-3.188,0.990,4.793,4.655,4.769,
17.793,28.511,-1.635,-3.788,1.651,0.152,6.266,0.346,2.047,1.395,0.784,2.765,0.000,2.554,1.165,0.695,0.641,0.000,3.142,0.000,0.000,0.000,0.000,0.000,0.000,0.000,0.000,0.000,0.000,0.000,3.142,6.282,0.000,1.004,1.569,1.569,4.085,6.281,1.199,4.712,0.000,0.000,-2.010,-3.227,0.990,4.793,4.653,4.771,5.281,4.711,4.711,2.198,6.282,5.083,1.570,0.000,0.000,-1.357,-3.174,0.990,4.794,4.655,4.769,
17.885,28.603,-1.636,-3.776,1.652,0.083,6.265,0.334,2.044,1.394,0.789,2.765,0.000,2.587,1.166,0.696,0.618,0.000,3.142,0.000,0.000,0.000,0.000,0.000,0.000,0.000,0.000,0.000,0.000,0.000,3.142,6.283,0.001,1.003,1.570,1.570,4.086,6.281,1.199,4.712,0.000,0.000,-2.011,-3.215,0.990,4.793,4.643,4.781,5.281,4.711,4.712,2.198,6.282,5.083,1.570,0.000,0.000,-1.357,-3.162,0.990,4.793,4.655,4.769,
18.000,28.718,-1.636,-3.774,1.652,0.000,6.274,0.332,2.043,1.394,0.793,2.767,0.000,2.595,1.166,0.696,0.614,0.000,3.142,0.000,0.000,0.000,0.000,0.000,0.000,0.000,0.000,0.000,0.000,0.000,3.142,6.283,0.000,1.003,1.569,1.569,4.085,6.281,1.199,4.712,0.000,0.000,-2.012,-3.213,0.990,4.794,4.650,4.773,5.281,4.711,4.711,2.198,6.282,5.083,1.570,0.000,0.000,-1.358,-3.160,0.990,4.794,4.659,4.765,
18.095,28.813,-1.636,-3.784,1.652,-0.397,6.190,0.342,2.045,1.395,0.783,2.766,0.000,2.566,1.165,0.695,0.633,0.000,3.142,0.000,0.000,0.000,0.000,0.000,0.000,0.000,0.000,0.000,0.000,0.000,3.142,0.004,0.001,0.999,1.572,1.573,4.093,6.281,1.200,4.712,0.000,0.000,-2.008,-3.221,0.989,4.789,4.591,4.832,5.280,4.714,4.715,2.199,6.282,5.083,1.570,0.000,0.000,-1.354,-3.171,0.990,4.789,4.658,4.766,
18.200,28.918,-1.627,-3.893,1.642,-1.360,6.276,0.452,2.081,1.406,0.789,2.736,4.969,2.229,1.159,0.683,1.282,0.000,3.106,0.000,0.000,0.000,0.000,0.000,0.000,0.000,0.000,0.000,0.000,0.000,3.142,0.003,0.001,1.000,1.571,1.573,4.092,6.280,1.200,4.712,0.000,0.000,-1.994,-3.326,0.989,4.779,4.588,4.836,5.280,4.713,4.715,2.199,6.281,5.083,1.570,0.000,0.000,-1.340,-3.282,0.990,4.780,4.648,4.776,
18.300,29.018,-1.617,-4.030,1.642,-1.271,6.275,0.589,2.096,1.416,0.800,2.756,4.829,1.936,1.149,0.862,1.443,0.000,3.106,0.000,0.000,0.000,0.000,0.000,0.000,0.000,0.000,0.000,0.000,0.000,3.142,6.282,0.000,1.005,1.569,1.568,4.083,6.281,1.199,4.712,0.000,0.000,-1.988,-3.467,0.990,4.785,4.665,4.759,5.281,4.711,4.711,2.199,6.282,5.083,1.570,0.000,0.000,-1.333,-3.420,0.990,4.785,4.657,4.767,
18.381,29.099,-1.611,-4.114,1.642,-0.885,6.276,0.672,2.105,1.423,0.807,0.000,4.744,1.826,1.091,1.079,1.189,0.000,3.106,0.000,0.000,0.000,0.000,0.000,0.000,0.000,0.000,0.000,0.000,0.000,3.142,6.281,6.283,1.005,1.569,1.568,4.082,6.281,1.199,4.712,0.000,0.000,-1.982,-3.551,0.990,4.785,4.669,4.755,5.281,4.711,4.710,2.199,6.282,5.083,1.570,0.000,0.000,-1.327,-3.504,0.991,4.785,4.658,4.766,
18.500,29.218,-1.604,-4.211,1.642,-0.883,6.274,0.768,2.114,0.981,0.814,0.000,4.646,1.700,1.084,1.197,1.176,0.000,2.966,0.000,0.000,0.000,0.000,0.000,0.000,0.000,0.000,0.000,0.000,0.000,3.142,0.001,0.000,1.002,1.570,1.571,4.088,6.281,1.200,4.712,0.000,0.000,-1.973,-3.646,0.990,4.783,4.624,4.799,5.280,4.712,4.713,2.199,6.282,5.083,1.570,0.000,0.000,-1.319,-3.600,0.990,4.783,4.654,4.770,
18.598,29.316,-1.597,-4.310,1.643,-1.110,6.274,0.866,2.124,0.771,0.822,0.000,4.544,1.618,0.000,1.190,1.163,0.000,2.966,0.000,0.000,0.000,0.000,0.000,0.000,0.000,0.000,0.000,0.000,0.000,3.142,0.001,0.000,1.002,1.570,1.570,4.087,6.281,1.200,4.712,0.000,0.000,-1.967,-3.745,0.990,4.783,4.627,4.797,5.280,4.712,4.713,2.199,6.282,5.083,1.570,0.000,0.000,-1.312,-3.699,0.990,4.783,4.654,4.770,
18.681,29.399,-1.589,-4.419,1.643,-1.076,6.275,0.974,2.135,0.779,0.831,4.252,4.431,1.605,0.000,1.181,1.149,0.000,2.966,0.000,0.000,0.000,0.000,0.000,0.000,0.000,0.000,0.000,0.000,0.000,3.142,6.283,0.000,1.004,1.569,1.569,4.085,6.281,1.199,4.712,0.000,0.000,-1.960,-3.855,0.990,4.785,4.647,4.777,5.281,4.711,4.712,2.199,6.282,5.083,1.570,0.000,0.000,-1.305,-3.808,0.990,4.785,4.656,4.768,
18.800,29.518,-1.582,-4.518,1.644,-0.960,6.275,1.073,2.145,0.786,0.839,4.137,4.330,1.671,0.000,1.174,1.135,0.000,2.966,0.000,0.000,0.000,0.000,0.000,0.000,0.000,0.000,0.000,0.000,0.000,3.142,6.283,0.000,1.003,1.569,1.569,4.085,6.281,1.199,4.712,0.000,0.000,-1.953,-3.954,0.990,4.785,4.646,4.778,5.281,4.711,4.712,2.199,6.282,5.083,1.570,0.000,0.000,-1.298,-3.907,0.990,4.785,4.656,4.768,
18.896,29.614,-1.577,-4.593,1.644,-0.967,6.275,1.147,2.153,0.792,1.556,4.050,4.253,1.662,0.000,1.168,1.125,0.000,2.966,0.000,0.000,0.000,0.000,0.000,0.000,0.000,0.000,0.000,0.000,0.000,3.142,0.000,0.000,1.003,1.570,1.570,4.086,6.281,1.199,4.712,0.000,0.000,-1.947,-4.029,0.990,4.785,4.638,4.786,5.280,4.712,4.712,2.199,6.282,5.083,1.570,0.000,0.000,-1.293,-3.982,0.990,4.785,4.656,4.768,
19.000,29.718,-1.568,-4.712,1.644,-1.039,6.275,1.265,2.165,0.801,1.565,3.912,4.131,1.647,0.000,1.159,1.182,0.000,2.966,0.000,0.000,0.000,0.000,0.000,0.000,0.000,0.000,0.000,0.000,0.000,3.142,0.000,0.000,1.003,1.570,1.570,4.086,6.281,1.199,4.712,0.000,0.000,-1.939,-4.148,0.990,4.785,4.638,4.786,5.280,4.712,4.712,2.199,6.282,5.083,1.570,0.000,0.000,-1.284,-4.100,0.990,4.785,4.656,4.768,
19.100,29.818,-1.560,-4.813,1.645,-1.027,6.275,1.366,2.175,0.808,1.574,3.793,4.027,1.635,0.000,1.096,1.301,0.000,2.931,0.000,0.000,0.000,0.000,0.000,0.000,0.000,0.000,0.000,0.000,0.000,3.142,6.283,0.000,1.003,1.570,1.570,4.086,6.281,1.199,4.712,0.000,0.000,-1.931,-4.250,0.990,4.786,4.643,4.780,5.281,4.712,4.712,2.199,6.282,5.083,1.570,0.000,0.000,-1.277,-4.202,0.990,4.786,4.657,4.767,
19.181,29.899,-1.555,-4.893,1.645,-1.001,6.275,1.445,2.183,0.814,1.581,3.701,3.945,1.625,0.000,1.090,1.393,0.000,2.931,0.000,0.000,0.000,0.000,0.000,0.000,0.000,0.000,0.000,0.000,0.000,3.142,6.283,0.000,1.003,1.570,1.570,4.086,6.281,1.199,4.712,0.000,0.000,-1.926,-4.330,0.990,4.786,4.643,4.780,5.281,4.712,4.712,2.199,6.282,5.083,1.570,0.000,0.000,-1.271,-4.281,0.990,4.786,4.657,4.767,
19.300,30.018,-1.546,-5.010,1.645,-1.004,6.275,1.561,1.214,0.823,1.590,3.565,3.825,1.611,0.000,4.041,1.529,0.000,2.931,0.000,0.000,0.000,0.000,0.000,0.000,0.000,0.000,0.000,0.000,0.000,3.142,0.000,0.000,1.003,1.570,1.570,4.086,6.281,1.199,4.712,0.000,0.000,-1.917,-4.447,0.990,4.787,4.641,4.783,5.280,4.712,4.712,2.199,6.282,5.083,1.570,0.000,0.000,-1.263,-4.398,0.990,4.787,4.657,4.767,
19.390,30.108,-1.538,-5.110,1.646,-1.019,6.275,1.660,1.225,0.984,1.599,3.449,3.723,1.378,0.000,4.033,1.406,0.000,2.931,0.000,0.000,0.000,0.000,0.000,0.000,0.000,0.000,0.000,0.000,0.000,3.142,0.000,0.000,1.003,1.570,1.570,4.086,6.281,1.199,4.712,0.000,0.000,-1.910,-4.546,0.990,4.787,4.642,4.782,5.280,4.712,4.712,2.199,6.282,5.083,1.570,0.000,0.000,-1.256,-4.498,0.990,4.787,4.657,4.767,
19.500,30.218,-1.531,-5.210,1.646,-1.016,6.275,1.759,1.236,1.504,1.607,3.452,3.621,1.247,0.000,4.026,1.761,0.000,2.931,0.000,0.000,0.000,0.000,0.000,0.000,0.000,0.000,0.000,0.000,0.000,3.142,0.000,0.000,1.003,1.570,1.570,4.086,6.281,1.199,4.712,0.000,0.000,-1.903,-4.647,0.990,4.787,4.643,4.780,5.281,4.712,4.712,2.199,6.282,5.083,1.570,0.000,0.000,-1.248,-4.597,0.990,4.787,4.658,4.766,
19.600,30.318,-1.523,-5.309,1.646,-1.008,6.275,1.857,1.247,1.511,1.616,3.469,3.520,1.117,1.000,4.018,1.995,0.000,2.931,0.000,0.000,0.000,0.000,0.000,0.000,0.000,0.000,0.000,0.000,0.000,3.142,0.000,0.000,1.003,1.570,1.570,4.086,6.281,1.199,4.712,0.000,0.000,-1.895,-4.746,0.990,4.788,4.643,4.780,5.281,4.712,4.712,2.199,6.282,5.083,1.570,0.000,0.000,-1.241,-4.697,0.990,4.788,4.658,4.766,
19.681,30.399,-1.517,-5.388,1.647,-1.009,6.275,1.935,1.255,1.517,1.623,3.483,3.439,1.014,0.994,4.012,1.984,0.000,2.931,0.000,0.000,0.000,0.000,0.000,0.000,0.000,0.000,0.000,0.000,0.000,3.142,0.000,0.000,1.003,1.570,1.570,4.086,6.281,1.199,4.712,0.000,0.000,-1.889,-4.825,0.990,4.788,4.643,4.781,5.281,4.712,4.712,2.199,6.282,5.083,1.570,0.000,0.000,-1.235,-4.775,0.990,4.788,4.658,4.766,
19.800,30.518,-1.508,-5.507,1.647,-1.014,6.275,2.053,1.268,1.526,1.633,3.503,3.318,0.857,1.036,4.003,1.968,0.000,2.896,0.000,0.000,0.000,0.000,0.000,0.000,0.000,0.000,0.000,0.000,0.000,3.142,0.000,0.000,1.003,1.570,1.570,4.086,6.281,1.199,4.712,0.000,0.000,-1.881,-4.944,0.990,4.788,4.643,4.780,5.281,4.712,4.712,2.199,6.282,5.083,1.570,0.000,0.000,-1.226,-4.894,0.990,4.788,4.658,4.766,
19.894,30.612,-1.502,-5.586,1.647,-1.013,6.275,2.132,1.277,1.532,1.640,3.517,3.237,0.776,1.029,4.081,1.957,0.000,2.896,0.000,0.000,0.000,0.000,0.000,0.000,0.000,0.000,0.000,0.000,0.000,3.142,0.000,0.000,1.003,1.570,1.570,4.086,6.281,1.199,4.712,0.000,0.000,-1.875,-5.024,0.990,4.789,4.644,4.780,5.281,4.712,4.712,2.199,6.282,5.083,1.570,0.000,0.000,-1.221,-4.974,0.990,4.789,4.659,4.765,
20.000,30.718,-1.493,-5.705,1.648,-1.011,6.275,2.250,1.290,1.542,1.650,3.538,3.115,0.762,1.020,4.382,1.941,0.000,2.896,0.000,0.000,0.000,0.000,0.000,0.000,0.000,0.000,0.000,0.000,0.000,3.142,0.000,0.000,1.003,1.570,1.570,4.086,6.281,1.199,4.712,0.000,0.000,-1.866,-5.143,0.990,4.789,4.644,4.779,5.281,4.712,4.712,2.199,6.282,5.083,1.570,0.000,0.000,-1.212,-5.093,0.990,4.789,4.659,4.765,
20.100,30.818,-1.485,-5.804,1.648,-1.011,6.275,2.348,1.301,1.549,1.659,3.556,3.014,0.750,1.012,4.631,1.927,0.000,2.896,0.000,0.000,0.000,0.000,0.000,0.000,0.000,0.000,0.000,0.000,0.000,3.142,0.000,0.000,1.003,1.570,1.570,4.086,6.281,1.199,4.712,0.000,0.000,-1.858,-5.242,0.990,4.789,4.644,4.779,5.281,4.712,4.712,2.199,6.282,5.083,1.570,0.000,0.000,-1.204,-5.192,0.990,4.790,4.659,4.765,
20.200,30.918,-1.479,-5.884,1.649,-1.012,6.275,2.427,1.317,1.556,1.781,3.589,2.934,0.740,1.005,0.000,1.915,0.000,2.896,0.000,0.000,0.000,0.000,0.000,0.000,0.000,0.000,0.000,0.000,0.000,3.142,0.000,0.000,1.003,1.570,1.570,4.086,6.281,1.199,4.712,0.000,0.000,-1.852,-5.322,0.990,4.790,4.645,4.779,5.281,4.712,4.712,2.199,6.282,5.083,1.570,0.000,0.000,-1.198,-5.271,0.990,4.790,4.659,4.765,
20.300,31.018,-1.470,-6.003,1.649,-1.012,6.275,2.545,1.477,1.565,0.000,3.451,2.812,0.726,0.683,1.000,1.801,0.000,2.826,0.000,0.000,0.000,0.000,0.000,0.000,0.000,0.000,0.000,0.000,0.000,3.142,0.000,0.000,1.003,1.570,1.570,4.086,6.281,1.199,4.712,0.000,0.000,-1.843,-5.441,0.990,4.790,4.645,4.778,5.281,4.712,4.712,2.199,6.282,5.083,1.570,0.000,0.000,-1.189,-5.390,0.990,4.790,4.660,4.764,
20.400,31.118,-1.464,-6.082,1.649,-1.012,6.275,2.624,1.583,1.571,0.000,3.359,2.732,0.716,0.479,1.048,1.867,0.000,2.791,0.000,0.000,0.000,0.000,0.000,0.000,0.000,0.000,0.000,0.000,0.000,3.142,0.000,0.000,1.003,1.570,1.570,4.086,6.281,1.199,4.712,0.000,0.000,-1.837,-5.520,0.990,4.790,4.645,4.778,5.281,4.712,4.712,2.199,6.282,5.083,1.570,0.000,0.000,-1.183,-5.469,0.990,4.791,4.660,4.764,
20.500,31.218,-1.454,-6.201,1.650,-1.012,6.275,2.746,1.743,1.581,0.000,3.221,2.611,0.701,0.469,1.038,2.005,0.000,2.159,0.000,0.000,0.000,0.000,0.000,0.000,0.000,0.000,0.000,0.000,0.000,3.142,0.000,0.000,1.003,1.570,1.570,4.086,6.281,1.199,4.712,0.000,0.000,-1.828,-5.639,0.990,4.791,4.646,4.778,5.281,4.712,4.712,2.199,6.282,5.083,1.570,0.000,0.000,-1.174,-5.588,0.990,4.791,4.660,4.764,
20.600,31.318,-1.448,-6.280,1.650,-1.012,6.275,2.830,1.850,1.587,0.000,3.137,2.530,0.000,0.463,1.031,2.097,0.000,2.861,0.000,0.000,0.000,0.000,0.000,0.000,0.000,0.000,0.000,0.000,0.000,3.142,0.000,0.000,1.003,1.570,1.570,4.086,6.281,1.199,4.712,0.000,0.000,-1.822,-5.719,0.990,4.791,4.646,4.778,5.281,4.712,4.712,2.199,6.282,5.083,1.570,0.000,0.000,-1.168,-5.667,0.990,4.791,4.660,4.764,
20.700,31.418,-1.443,-6.343,1.651,-0.024,6.174,2.905,1.937,1.592,0.000,3.155,2.462,0.000,0.458,1.026,4.929,0.000,2.124,0.000,0.000,0.000,0.000,0.000,0.000,0.000,0.000,0.000,0.000,0.000,3.142,6.279,6.283,1.007,1.568,1.567,4.078,6.281,1.199,4.712,0.000,0.000,-1.820,-5.785,0.991,4.796,4.704,4.720,5.281,4.710,4.709,2.199,6.282,5.083,1.570,0.000,0.000,-1.166,-5.730,0.991,4.796,4.671,4.753,
20.800,31.518,-1.444,-6.330,1.667,0.314,0.660,2.997,1.947,1.585,0.000,3.244,2.420,0.000,0.457,1.035,2.133,0.000,2.124,0.000,0.000,0.000,0.000,0.000,0.000,0.000,0.000,0.000,0.000,0.000,3.142,6.283,6.283,1.004,1.570,1.571,4.084,6.281,1.199,4.712,0.000,0.000,-1.827,-5.776,0.990,4.807,4.671,4.753,5.281,4.712,4.713,2.199,6.281,5.083,1.571,0.000,0.000,-1.174,-5.712,0.991,4.807,4.677,4.747,
20.900,31.618,-1.447,-6.305,1.800,0.045,1.588,4.293,2.017,1.556,4.920,4.323,2.481,0.593,0.452,1.114,2.522,0.000,1.983,0.000,0.000,0.000,0.000,0.000,0.000,0.000,0.000,0.000,0.000,0.000,3.142,0.004,0.000,1.001,1.571,1.572,4.089,6.281,1.199,4.712,0.000,0.000,-1.900,-5.804,0.990,4.939,4.684,4.739,5.281,4.713,4.714,2.199,6.282,5.083,1.570,0.000,0.000,-1.260,-5.657,0.991,4.938,4.699,4.725,
21.000,31.718,-1.446,-6.309,1.906,-0.127,1.381,4.504,1.866,1.556,2.858,4.753,2.765,0.545,0.449,1.133,2.717,0.000,1.878,0.000,0.000,0.000,0.000,0.000,0.000,0.000,0.000,0.000,0.000,0.000,3.142,0.003,0.000,1.002,1.570,1.569,4.087,6.281,1.199,4.712,0.000,0.000,-1.950,-5.860,0.990,5.048,4.697,4.726,5.281,4.712,4.712,2.199,6.282,5.083,1.570,0.000,0.000,-1.329,-5.645,0.991,5.046,4.703,4.720,
21.100,31.818,-1.442,-6.318,2.025,-0.034,0.943,1.998,1.745,1.686,2.585,2.868,0.000,0.503,0.450,0.000,2.793,0.000,3.142,0.000,0.000,0.000,0.000,0.000,0.000,0.000,0.000,0.000,0.000,0.000,3.142,0.001,0.000,1.003,1.569,1.568,4.085,6.281,1.199,4.712,0.000,0.000,-1.997,-5.933,0.990,5.168,4.703,4.720,5.281,4.711,4.711,2.199,6.282,5.083,1.570,0.000,0.000,-1.407,-5.645,0.991,5.167,4.705,4.718,
21.189,31.907,-1.443,-6.317,2.100,0.043,0.933,1.744,1.685,0.000,2.808,2.846,0.000,0.486,0.457,4.598,3.630,0.000,3.142,0.000,0.000,0.000,0.000,0.000,0.000,0.000,0.000,0.000,0.000,0.000,3.142,0.001,0.000,1.003,1.569,1.570,4.086,6.281,1.199,4.712,0.000,0.000,-2.024,-5.974,0.990,5.242,4.703,4.720,5.281,4.712,4.712,2.199,6.282,5.083,1.570,0.000,0.000,-1.457,-5.643,0.991,5.241,4.706,4.717,
21.300,32.018,-1.445,-6.314,2.188,0.013,1.194,1.756,1.630,0.000,3.145,2.843,0.000,0.472,0.470,4.284,2.995,0.000,3.142,0.000,0.000,0.000,0.000,0.000,0.000,0.000,0.000,0.000,0.000,0.000,3.142,0.002,0.000,1.002,1.570,1.571,4.087,6.281,1.199,4.712,0.000,0.000,-2.053,-6.023,0.990,5.328,4.703,4.719,5.281,4.712,4.713,2.199,6.282,5.083,1.570,0.000,0.000,-1.517,-5.644,0.991,5.328,4.707,4.716,
21.390,32.108,-1.445,-6.314,2.295,-0.020,1.242,1.918,1.586,0.000,3.218,2.335,0.000,0.458,1.033,2.120,2.949,0.000,3.142,0.000,0.000,0.000,0.000,0.000,0.000,0.000,0.000,0.000,0.000,0.000,3.142,0.002,0.000,1.002,1.570,1.569,4.087,6.281,1.199,4.712,0.000,0.000,-2.081,-6.090,0.990,5.436,4.705,4.717,5.281,4.712,4.712,2.199,6.282,5.083,1.570,0.000,0.000,-1.589,-5.655,0.991,5.436,4.708,4.715,
21.500,32.218,-1.443,-6.315,2.394,-0.013,1.102,2.089,1.564,0.000,3.949,2.465,0.609,0.449,1.085,2.299,4.266,0.000,3.036,0.000,0.000,0.000,0.000,0.000,0.000,0.000,0.000,0.000,0.000,0.000,3.142,0.002,0.000,1.003,1.569,1.569,4.086,6.281,1.199,4.712,0.000,0.000,-2.099,-6.156,0.990,5.536,4.706,4.716,5.281,4.712,4.712,2.199,6.282,5.083,1.570,0.000,0.000,-1.653,-5.675,0.991,5.536,4.708,4.714,
21.600,32.318,-1.443,-6.315,2.485,0.013,1.058,1.939,1.557,0.000,4.821,2.705,0.564,0.447,1.134,2.894,0.000,0.000,2.966,0.000,0.000,0.000,0.000,0.000,0.000,0.000,0.000,0.000,0.000,0.000,3.142,0.002,0.000,1.003,1.569,1.569,4.086,6.281,1.199,4.712,0.000,0.000,-2.111,-6.216,0.990,5.627,4.706,4.715,5.281,4.712,4.712,2.199,6.282,5.083,1.570,0.000,0.000,-1.710,-5.696,0.991,5.626,4.709,4.714,
21.681,32.399,-1.445,-6.314,2.560,0.015,1.150,1.840,1.559,2.773,4.720,0.000,0.536,0.448,1.153,2.479,4.246,0.000,2.896,0.000,0.000,0.000,0.000,0.000,0.000,0.000,0.000,0.000,0.000,0.000,3.142,0.002,0.000,1.003,1.570,1.570,4.086,6.281,1.199,4.712,0.000,0.000,-2.118,-6.265,0.990,5.701,4.706,4.715,5.281,4.712,4.713,2.199,6.282,5.083,1.570,0.000,0.000,-1.757,-5.717,0.991,5.701,4.709,4.714,
21.800,32.518,-1.445,-6.314,2.676,-0.012,1.097,1.725,1.689,2.633,2.865,0.000,0.502,0.454,0.000,3.185,1.920,0.000,2.755,0.000,0.000,0.000,0.000,0.000,0.000,0.000,0.000,0.000,0.000,0.000,3.142,0.002,0.000,1.003,1.570,1.569,4.086,6.281,1.199,4.712,0.000,0.000,-2.119,-6.343,0.990,5.817,4.707,4.714,5.281,4.712,4.712,2.199,6.282,5.083,1.570,0.000,0.000,-1.824,-5.757,0.991,5.817,4.709,4.713,
21.889,32.607,-1.444,-6.315,2.748,-0.010,1.084,1.672,0.000,2.862,2.846,0.000,0.484,0.460,4.531,3.759,1.696,0.000,2.685,0.000,0.000,0.000,0.000,0.000,0.000,0.000,0.000,0.000,0.000,0.000,3.142,0.002,0.000,1.003,1.570,1.570,4.086,6.281,1.199,4.712,0.000,0.000,-2.114,-6.392,0.990,5.890,4.707,4.713,5.281,4.712,4.712,2.199,6.282,5.083,1.570,0.000,0.000,-1.863,-5.786,0.991,5.889,4.709,4.713,
22.000,32.718,-1.444,-6.315,2.867,0.010,1.166,1.609,0.000,3.179,2.538,0.000,0.465,1.008,4.446,2.920,1.822,0.000,2.580,0.000,0.000,0.000,0.000,0.000,0.000,0.000,0.000,0.000,0.000,0.000,3.142,0.002,0.000,1.003,1.569,1.569,4.086,6.281,1.199,4.712,0.000,0.000,-2.101,-6.471,0.990,6.008,4.707,4.713,5.281,4.712,4.712,2.199,6.282,5.083,1.570,0.000,0.000,-1.922,-5.839,0.991,6.008,4.709,4.712,
22.097,32.815,-1.446,-6.314,2.966,0.021,1.159,1.573,0.000,3.465,2.338,0.627,0.456,1.054,2.074,3.247,1.991,0.000,2.475,0.000,0.000,0.000,0.000,0.000,0.000,0.000,0.000,0.000,0.000,0.000,3.142,0.002,0.000,1.003,1.570,1.570,4.086,6.281,1.199,4.712,0.000,0.000,-2.084,-6.535,0.990,6.107,4.708,4.712,5.281,4.712,4.712,2.199,6.282,5.083,1.570,0.000,0.000,-1.969,-5.888,0.991,6.107,4.710,4.712,
22.200,32.918,-1.447,-6.314,3.063,-0.015,1.064,1.556,4.917,4.310,2.553,0.577,0.452,1.113,2.515,4.301,2.019,0.000,2.369,0.000,0.000,0.000,0.000,0.000,0.000,0.000,0.000,0.000,0.000,0.000,3.142,0.002,0.000,1.003,1.569,1.569,4.087,6.281,1.199,4.712,0.000,0.000,-2.061,-6.595,0.990,6.204,4.707,4.712,5.281,4.712,4.712,2.199,6.282,5.083,1.570,0.000,0.000,-2.008,-5.941,0.991,6.204,4.709,4.712,
22.300,33.018,-1.453,-6.314,3.149,0.275,1.007,1.548,0.000,4.775,2.802,0.548,0.456,1.125,2.738,4.748,1.884,0.000,2.299,0.000,0.000,0.000,0.000,0.000,0.000,0.000,0.000,0.000,0.000,0.000,3.142,6.282,6.283,1.006,1.568,1.568,4.080,6.281,1.199,4.712,0.000,0.000,-2.038,-6.648,0.991,0.010,4.711,4.712,5.282,4.710,4.710,2.198,6.282,5.083,1.570,0.000,0.000,-2.044,-5.992,0.991,0.009,4.709,4.712,
22.400,33.118,-1.495,-6.314,3.210,0.775,0.785,1.511,2.716,4.701,0.000,0.576,0.499,1.235,2.692,2.234,1.761,0.000,2.299,0.000,0.000,0.000,0.000,0.000,0.000,0.000,0.000,0.000,0.000,0.000,3.142,6.281,6.283,1.007,1.568,1.566,4.080,6.282,1.199,4.712,0.000,0.000,-2.058,-6.684,0.990,0.072,4.710,4.711,5.282,4.710,4.709,2.198,6.282,5.083,1.570,0.000,0.000,-2.105,-6.029,0.991,0.071,4.709,4.711,
22.500,33.218,-1.603,-6.324,3.306,0.890,1.082,1.528,2.442,2.855,0.000,0.667,0.614,4.860,3.565,1.614,1.551,0.000,2.299,0.000,0.000,0.000,0.000,0.000,0.000,0.000,0.000,0.000,0.000,0.000,3.142,0.002,0.000,1.002,1.571,1.571,4.087,6.281,1.199,4.712,0.000,0.000,-2.131,-6.744,0.990,0.163,4.706,4.711,5.282,4.713,4.713,2.198,6.282,5.083,1.571,0.000,0.000,-2.238,-6.097,0.991,0.163,4.709,4.711,
22.600,33.318,-1.661,-6.335,3.384,0.616,1.107,0.000,2.530,2.825,0.000,0.708,0.684,4.543,3.014,1.701,1.437,0.000,2.264,0.000,0.000,0.000,0.000,0.000,0.000,0.000,0.000,0.000,0.000,0.000,3.142,0.003,0.001,1.002,1.571,1.571,4.088,6.281,1.199,4.712,0.000,0.000,-2.155,-6.794,0.990,0.241,4.706,4.710,5.281,4.713,4.713,2.198,6.282,5.083,1.570,0.000,0.000,-2.312,-6.157,0.991,0.240,4.709,4.711,
22.700,33.418,-1.722,-6.353,3.494,0.572,0.998,0.000,2.835,2.810,0.000,0.748,1.302,2.253,3.140,2.040,1.323,0.000,2.229,0.000,0.000,0.000,0.000,0.000,0.000,0.000,0.000,0.000,0.000,0.000,3.142,0.000,0.000,1.004,1.569,1.569,4.085,6.282,1.199,4.712,0.000,0.000,-2.162,-6.865,0.990,0.353,4.708,4.710,5.282,4.712,4.711,2.198,6.282,5.083,1.570,0.000,0.000,-2.388,-6.249,0.991,0.353,4.709,4.710,
22.780,33.498,-1.769,-6.371,3.562,0.712,0.968,4.939,2.998,2.810,0.000,0.784,1.390,2.559,4.741,1.816,1.254,0.000,2.194,0.000,0.000,0.000,0.000,0.000,0.000,0.000,0.000,0.000,0.000,0.000,3.142,0.000,0.000,1.004,1.569,1.569,4.084,6.281,1.199,4.712,0.000,0.000,-2.173,-6.912,0.990,0.421,4.708,4.709,5.282,4.712,4.711,2.198,6.282,5.083,1.570,0.000,0.000,-2.441,-6.313,0.991,0.420,4.709,4.710,
22.900,33.618,-1.849,-6.410,3.660,0.818,0.764,0.000,2.932,2.513,0.000,0.855,1.498,2.971,0.000,1.542,1.157,0.000,2.194,0.000,0.000,0.000,0.000,0.000,0.000,0.000,0.000,0.000,0.000,0.000,3.142,6.283,0.000,1.004,1.569,1.568,4.084,6.282,1.199,4.712,0.000,0.000,-2.197,-6.988,0.990,0.520,4.708,4.709,5.282,4.711,4.711,2.198,6.282,5.083,1.570,0.000,0.000,-2.523,-6.418,0.991,0.519,4.708,4.709,
22.988,33.706,-1.931,-6.458,3.684,1.102,6.280,4.784,2.891,2.516,0.000,0.935,1.612,2.992,1.797,1.402,1.072,0.000,2.229,0.000,0.000,0.000,0.000,0.000,0.000,0.000,0.000,0.000,0.000,0.000,3.142,6.281,0.000,1.005,1.568,1.567,4.083,6.281,1.199,4.712,0.000,0.000,-2.264,-7.045,0.990,0.546,4.708,4.709,5.281,4.710,4.709,2.198,6.282,5.083,1.570,0.000,0.000,-2.604,-6.484,0.990,0.546,4.707,4.709,
23.100,33.818,-2.026,-6.516,3.684,1.107,6.269,4.674,2.673,2.728,0.000,1.031,1.724,3.054,1.662,1.277,0.976,0.000,2.299,0.000,0.000,0.000,0.000,0.000,0.000,0.000,0.000,0.000,0.000,0.000,3.142,6.283,0.000,1.003,1.569,1.569,4.085,6.281,1.199,4.712,0.000,0.000,-2.361,-7.102,0.990,0.543,4.706,4.708,5.281,4.711,4.711,2.198,6.282,5.083,1.570,0.000,0.000,-2.700,-6.540,0.990,0.543,4.707,4.709,
23.183,33.900,-2.113,-6.568,3.685,0.963,6.268,4.574,2.617,2.674,0.000,1.118,1.826,3.111,1.716,1.163,0.960,0.000,2.369,0.000,0.000,0.000,0.000,0.000,0.000,0.000,0.000,0.000,0.000,0.000,3.142,6.283,0.001,1.003,1.569,1.569,4.086,6.281,1.199,4.712,0.000,0.000,-2.448,-7.154,0.990,0.543,4.706,4.708,5.281,4.711,4.711,2.198,6.282,5.083,1.570,0.000,0.000,-2.787,-6.593,0.990,0.543,4.707,4.709,
23.300,34.018,-2.193,-6.617,3.685,0.964,6.268,4.482,2.565,2.624,0.000,1.198,1.919,3.163,1.766,1.058,0.915,0.000,2.404,0.000,0.000,0.000,0.000,0.000,0.000,0.000,0.000,0.000,0.000,0.000,3.142,6.282,0.000,1.004,1.569,1.569,4.084,6.281,1.199,4.712,0.000,0.000,-2.527,-7.203,0.990,0.544,4.707,4.709,5.281,4.711,4.711,2.198,6.282,5.083,1.570,0.000,0.000,-2.867,-6.641,0.990,0.544,4.707,4.709,
23.400,34.118,-2.260,-6.657,3.685,1.027,6.268,4.404,2.521,2.583,0.000,1.265,1.998,3.278,1.807,0.970,0.847,0.000,2.404,0.000,0.000,0.000,0.000,0.000,0.000,0.000,0.000,0.000,0.000,0.000,3.142,6.282,0.000,1.004,1.569,1.569,4.084,6.281,1.199,4.712,0.000,0.000,-2.594,-7.243,0.990,0.544,4.707,4.709,5.281,4.711,4.711,2.198,6.282,5.083,1.570,0.000,0.000,-2.934,-6.682,0.990,0.544,4.707,4.709,
23.494,34.212,-2.365,-6.721,3.685,1.035,6.267,4.283,2.452,2.517,0.000,1.370,2.121,3.554,1.873,0.831,0.783,0.000,2.475,0.000,0.000,0.000,0.000,0.000,0.000,0.000,0.000,0.000,0.000,0.000,3.142,6.282,0.000,1.004,1.569,1.569,4.085,6.281,1.199,4.712,0.000,0.000,-2.700,-7.307,0.990,0.544,4.707,4.708,5.281,4.711,4.711,2.198,6.282,5.083,1.570,0.000,0.000,-3.039,-6.746,0.990,0.544,4.707,4.709,
23.600,34.318,-2.451,-6.773,3.685,0.997,6.267,4.184,2.168,2.464,0.000,1.943,2.221,3.778,2.341,0.719,3.165,0.000,2.580,0.000,0.000,0.000,0.000,0.000,0.000,0.000,0.000,0.000,0.000,0.000,3.142,6.282,0.000,1.004,1.569,1.569,4.085,6.281,1.199,4.712,0.000,0.000,-2.785,-7.359,0.990,0.544,4.707,4.708,5.281,4.711,4.711,2.198,6.282,5.083,1.570,0.000,0.000,-3.125,-6.798,0.990,0.544,4.707,4.709,
23.700,34.418,-2.518,-6.813,3.686,0.996,6.267,4.106,1.987,2.422,0.000,2.010,2.300,3.954,2.054,0.631,4.467,0.000,2.510,0.000,0.000,0.000,0.000,0.000,0.000,0.000,0.000,0.000,0.000,0.000,3.142,6.282,0.000,1.004,1.569,1.569,4.085,6.281,1.199,4.712,0.000,0.000,-2.851,-7.399,0.990,0.545,4.707,4.709,5.281,4.711,4.711,2.198,6.282,5.083,1.570,0.000,0.000,-3.191,-6.838,0.990,0.545,4.707,4.709,
23.793,34.511,-2.620,-6.875,3.686,1.019,6.267,3.988,1.713,2.396,0.000,0.000,2.420,4.419,1.618,0.581,0.000,0.000,2.615,0.000,0.000,0.000,0.000,0.000,0.000,0.000,0.000,0.000,0.000,0.000,3.142,6.282,0.000,1.004,1.569,1.569,4.085,6.281,1.199,4.712,0.000,0.000,-2.953,-7.461,0.990,0.545,4.707,4.709,5.281,4.711,4.711,2.198,6.282,5.083,1.570,0.000,0.000,-3.293,-6.900,0.990,0.545,4.707,4.709,
23.900,34.618,-2.705,-6.927,3.686,1.018,6.267,3.888,1.481,2.734,0.000,0.000,2.520,4.475,1.251,0.523,3.503,0.000,2.650,0.000,0.000,0.000,0.000,0.000,0.000,0.000,0.000,0.000,0.000,0.000,3.142,6.282,0.000,1.004,1.569,1.569,4.085,6.281,1.199,4.712,0.000,0.000,-3.039,-7.513,0.990,0.545,4.707,4.709,5.281,4.711,4.711,2.198,6.282,5.083,1.570,0.000,0.000,-3.379,-6.952,0.990,0.545,4.707,4.709,
24.000,34.718,-2.774,-6.968,3.687,1.009,6.267,3.809,1.296,0.000,0.000,0.000,2.600,4.519,0.960,0.469,3.435,0.000,2.650,0.000,0.000,0.000,0.000,0.000,0.000,0.000,0.000,0.000,0.000,0.000,3.142,6.282,0.000,1.004,1.569,1.569,4.085,6.281,1.199,4.712,0.000,0.000,-3.107,-7.555,0.990,0.545,4.707,4.708,5.281,4.711,4.711,2.198,6.282,5.083,1.570,0.000,0.000,-3.447,-6.994,0.990,0.546,4.707,4.709,
24.094,34.812,-2.875,-7.030,3.687,1.009,6.266,3.691,1.150,0.000,2.950,0.000,2.720,4.115,0.545,0.565,3.333,0.000,2.685,0.000,0.000,0.000,0.000,0.000,0.000,0.000,0.000,0.000,0.000,0.000,3.142,6.282,0.000,1.004,1.569,1.569,4.085,6.281,1.199,4.712,0.000,0.000,-3.208,-7.617,0.990,0.546,4.707,4.709,5.281,4.711,4.711,2.198,6.282,5.083,1.570,0.000,0.000,-3.549,-7.056,0.990,0.546,4.707,4.709,
24.200,34.918,-2.931,-7.063,3.688,0.396,6.265,3.625,1.114,0.000,2.601,0.000,2.786,4.115,0.580,0.875,3.277,0.000,2.685,0.000,0.000,0.000,0.000,0.000,0.000,0.000,0.000,0.000,0.000,0.000,3.142,0.001,0.001,1.001,1.570,1.571,4.089,6.281,1.200,4.712,0.000,0.000,-3.265,-7.650,0.989,0.544,4.704,4.707,5.281,4.712,4.713,2.198,6.282,5.083,1.570,0.000,0.000,-3.605,-7.089,0.990,0.544,4.707,4.709,
24.300,35.018,-2.937,-7.068,3.687,-0.198,6.199,3.616,1.109,0.000,2.553,0.000,2.793,4.117,0.585,0.882,3.271,0.000,2.685,0.000,0.000,0.000,0.000,0.000,0.000,0.000,0.000,0.000,0.000,0.000,3.142,0.005,0.001,0.998,1.573,1.574,4.094,6.282,1.200,4.712,0.000,0.000,-3.275,-7.654,0.989,0.540,4.701,4.706,5.280,4.715,4.716,2.199,6.283,5.083,1.571,0.000,0.000,-3.612,-7.091,0.990,0.541,4.707,4.709,
24.400,35.118,-2.858,-7.022,3.679,-1.257,6.173,3.754,1.162,0.000,2.899,0.000,2.686,4.593,0.625,0.548,3.352,0.000,2.685,0.000,0.000,0.000,0.000,0.000,0.000,0.000,0.000,0.000,0.000,0.000,3.142,0.004,0.001,0.999,1.571,1.572,4.093,6.280,1.200,4.712,0.000,0.000,-3.199,-7.605,0.989,0.533,4.702,4.706,5.280,4.713,4.714,2.199,6.281,5.083,1.570,0.000,0.000,-3.532,-7.041,0.990,0.534,4.708,4.709,
24.500,35.218,-2.762,-6.966,3.679,-1.426,6.274,3.863,1.301,0.000,0.000,0.000,2.575,4.531,1.042,0.461,3.448,0.000,2.650,0.000,0.000,0.000,0.000,0.000,0.000,0.000,0.000,0.000,0.000,0.000,3.142,0.000,0.000,1.003,1.570,1.570,4.086,6.281,1.199,4.712,0.000,0.000,-3.101,-7.549,0.990,0.537,4.706,4.708,5.281,4.712,4.712,2.199,6.282,5.083,1.570,0.000,0.000,-3.436,-6.985,0.990,0.537,4.708,4.709,
24.581,35.298,-2.660,-6.905,3.679,-0.958,6.276,3.977,1.574,2.629,0.000,0.000,2.456,4.465,1.490,0.622,0.000,0.000,2.650,0.000,0.000,0.000,0.000,0.000,0.000,0.000,0.000,0.000,0.000,0.000,3.142,6.281,6.283,1.005,1.568,1.568,4.082,6.281,1.199,4.712,0.000,0.000,-2.996,-7.489,0.990,0.539,4.709,4.710,5.281,4.711,4.710,2.199,6.282,5.083,1.570,0.000,0.000,-3.333,-6.926,0.991,0.539,4.708,4.709,
24.700,35.418,-2.621,-6.882,3.680,0.111,6.233,4.016,1.681,2.464,0.000,0.000,2.412,4.438,1.655,0.587,0.000,0.000,2.615,0.000,0.000,0.000,0.000,0.000,0.000,0.000,0.000,0.000,0.000,0.000,3.142,6.279,6.283,1.007,1.568,1.567,4.079,6.281,1.199,4.712,0.000,0.000,-2.956,-7.466,0.991,0.541,4.711,4.711,5.281,4.710,4.710,2.198,6.282,5.083,1.570,0.000,0.000,-3.294,-6.904,0.991,0.540,4.708,4.710,
24.800,35.518,-2.639,-6.892,3.699,0.356,0.739,3.878,1.714,2.361,0.000,0.000,2.461,4.415,1.459,0.617,3.567,0.000,2.615,0.000,0.000,0.000,0.000,0.000,0.000,0.000,0.000,0.000,0.000,0.000,3.142,0.000,0.000,1.003,1.570,1.572,4.085,6.281,1.199,4.712,0.000,0.000,-2.967,-7.481,0.990,0.554,4.707,4.709,5.281,4.712,4.714,2.199,6.281,5.083,1.571,0.000,0.000,-3.313,-6.924,0.991,0.554,4.708,4.710,
24.882,35.600,-2.656,-6.903,3.837,-0.038,1.595,4.279,2.151,2.453,0.000,1.668,0.000,3.644,0.908,0.527,0.000,0.000,3.142,0.000,0.000,0.000,0.000,0.000,0.000,0.000,0.000,0.000,0.000,0.000,3.142,0.004,0.001,1.001,1.571,1.571,4.089,6.281,1.199,4.712,0.000,0.000,-2.900,-7.533,0.990,0.693,4.704,4.706,5.281,4.713,4.714,2.199,6.282,5.083,1.570,0.000,0.000,-3.320,-7.028,0.991,0.692,4.708,4.709,
24.999,35.716,-2.649,-6.897,3.965,-0.103,1.310,1.615,3.568,2.625,0.000,1.695,3.301,2.010,0.711,0.563,0.000,0.000,3.106,0.000,0.000,0.000,0.000,0.000,0.000,0.000,0.000,0.000,0.000,0.000,3.142,0.002,0.000,1.003,1.569,1.568,4.086,6.281,1.199,4.712,0.000,0.000,-2.809,-7.553,0.990,0.824,4.706,4.707,5.281,4.712,4.711,2.199,6.282,5.083,1.570,0.000,0.000,-3.290,-7.106,0.991,0.823,4.708,4.709,
25.100,35.818,-2.646,-6.893,4.058,-0.003,0.931,1.501,4.007,2.372,0.000,1.737,3.524,1.994,0.619,1.213,0.000,0.000,3.036,0.000,0.000,0.000,0.000,0.000,0.000,0.000,0.000,0.000,0.000,0.000,3.142,0.001,0.000,1.003,1.569,1.568,4.085,6.281,1.199,4.712,0.000,0.000,-2.743,-7.561,0.990,0.917,4.705,4.706,5.281,4.711,4.711,2.199,6.282,5.083,1.570,0.000,0.000,-3.264,-7.161,0.991,0.917,4.707,4.707,
25.191,35.909,-2.648,-6.895,4.132,0.042,0.944,1.424,0.000,2.302,0.000,1.788,3.919,1.998,0.558,1.566,4.074,0.000,2.931,0.000,0.000,0.000,0.000,0.000,0.000,0.000,0.000,0.000,0.000,0.000,3.142,0.002,0.000,1.003,1.569,1.570,4.086,6.281,1.199,4.712,0.000,0.000,-2.696,-7.568,0.990,0.990,4.703,4.704,5.281,4.712,4.712,2.199,6.282,5.083,1.570,0.000,0.000,-3.245,-7.208,0.991,0.990,4.706,4.707,
25.300,36.018,-2.649,-6.897,4.226,-0.001,1.209,1.348,0.000,2.788,0.000,2.433,3.619,2.423,0.557,2.994,3.998,0.000,2.861,0.000,0.000,0.000,0.000,0.000,0.000,0.000,0.000,0.000,0.000,0.000,3.142,0.002,0.000,1.002,1.570,1.570,4.087,6.281,1.199,4.712,0.000,0.000,-2.635,-7.572,0.990,1.083,4.701,4.702,5.281,4.712,4.713,2.199,6.282,5.083,1.570,0.000,0.000,-3.215,-7.264,0.991,1.083,4.706,4.706,
25.400,36.118,-2.649,-6.896,4.308,-0.020,1.207,1.593,2.613,0.000,0.000,2.492,4.461,1.560,0.607,4.962,4.012,0.000,2.755,0.000,0.000,0.000,0.000,0.000,0.000,0.000,0.000,0.000,0.000,0.000,3.142,0.002,0.000,1.003,1.570,1.570,4.086,6.281,1.199,4.712,0.000,0.000,-2.579,-7.568,0.990,1.166,4.700,4.700,5.281,4.712,4.712,2.199,6.282,5.083,1.570,0.000,0.000,-3.182,-7.309,0.991,1.165,4.705,4.705,
25.490,36.208,-2.648,-6.895,4.425,0.005,1.107,2.183,2.419,0.000,1.764,0.000,3.628,1.041,0.552,3.554,3.815,0.000,2.650,0.000,0.000,0.000,0.000,0.000,0.000,0.000,0.000,0.000,0.000,0.000,3.142,0.002,0.000,1.003,1.569,1.569,4.086,6.281,1.199,4.712,0.000,0.000,-2.500,-7.554,0.990,1.284,4.695,4.695,5.281,4.712,4.712,2.199,6.282,5.083,1.570,0.000,0.000,-3.129,-7.367,0.991,1.283,4.702,4.701,
25.586,36.304,-2.649,-6.897,4.521,0.015,1.157,2.135,2.520,0.000,1.671,0.000,3.845,0.824,0.520,0.000,0.000,0.000,2.545,0.000,0.000,0.000,0.000,0.000,0.000,0.000,0.000,0.000,0.000,0.000,3.142,0.002,0.000,1.003,1.570,1.570,4.086,6.281,1.199,4.712,0.000,0.000,-2.438,-7.538,0.990,1.379,4.686,4.686,5.281,4.712,4.712,2.199,6.282,5.083,1.570,0.000,0.000,-3.083,-7.413,0.991,1.379,4.697,4.697,
25.685,36.402,-2.649,-6.899,4.622,0.007,1.156,4.012,2.452,0.000,1.706,3.308,2.007,0.682,0.602,0.000,1.577,0.000,2.440,0.000,0.000,0.000,0.000,0.000,0.000,0.000,0.000,0.000,0.000,0.000,3.142,0.002,0.000,1.003,1.570,1.570,4.086,6.281,1.199,4.712,0.000,0.000,-2.375,-7.516,0.990,1.480,4.658,4.657,5.281,4.712,4.712,2.199,6.282,5.083,1.570,0.000,0.000,-3.029,-7.456,0.991,1.479,4.681,4.681,
25.795,36.512,-2.649,-6.898,4.713,-0.024,1.049,4.003,2.349,0.000,1.754,3.828,1.998,0.594,1.318,4.326,1.471,0.000,2.369,0.000,0.000,0.000,0.000,0.000,0.000,0.000,0.000,0.000,0.000,0.000,3.142,0.002,0.000,1.003,1.569,1.569,4.086,6.281,1.199,4.712,0.000,0.000,-2.320,-7.487,0.990,1.566,3.028,3.027,5.281,4.712,4.712,2.199,6.282,5.083,1.570,0.000,0.000,-2.976,-7.487,0.991,1.568,3.116,3.115,
25.900,36.618,-2.649,-6.896,4.804,-0.001,1.123,0.000,2.311,0.000,2.368,3.655,2.005,0.530,1.617,3.902,1.389,0.000,2.264,0.000,0.000,0.000,0.000,0.000,0.000,0.000,0.000,0.000,0.000,0.000,3.142,0.002,0.000,1.003,1.570,1.570,4.086,6.281,1.199,4.712,0.000,0.000,-2.268,-7.453,0.990,1.480,1.623,1.622,5.281,4.712,4.712,2.199,6.282,5.083,1.570,0.000,0.000,-2.922,-7.513,0.991,1.480,1.604,1.603,
26.000,36.718,-2.649,-6.897,4.881,0.030,1.162,0.000,0.000,0.000,2.463,3.980,2.092,0.570,2.984,4.102,1.395,0.000,2.194,0.000,0.000,0.000,0.000,0.000,0.000,0.000,0.000,0.000,0.000,0.000,3.142,0.002,0.000,1.003,1.570,1.570,4.086,6.281,1.199,4.712,0.000,0.000,-2.226,-7.423,0.990,1.402,1.599,1.597,5.281,4.712,4.712,2.199,6.282,5.083,1.570,0.000,0.000,-2.873,-7.533,0.991,1.403,1.587,1.586,
26.100,36.818,-2.648,-6.899,4.978,0.012,1.159,2.352,0.000,0.000,0.000,3.810,1.337,0.584,3.555,3.682,1.763,0.000,2.089,0.000,0.000,0.000,0.000,0.000,0.000,0.000,0.000,0.000,0.000,0.000,3.142,0.002,0.000,1.003,1.570,1.570,4.086,6.281,1.199,4.712,0.000,0.000,-2.177,-7.382,0.990,1.305,1.589,1.588,5.281,4.712,4.712,2.199,6.282,5.083,1.570,0.000,0.000,-2.810,-7.554,0.991,1.306,1.582,1.581,
26.200,36.918,-2.648,-6.901,5.078,0.017,1.156,2.433,0.000,1.656,0.000,3.681,0.984,0.544,3.558,4.039,2.166,0.000,1.983,0.000,0.000,0.000,0.000,0.000,0.000,0.000,0.000,0.000,0.000,0.000,3.142,0.002,0.000,1.003,1.570,1.570,4.086,6.281,1.199,4.712,0.000,0.000,-2.131,-7.334,0.990,1.205,1.584,1.582,5.281,4.712,4.712,2.199,6.282,5.083,1.570,0.000,0.000,-2.744,-7.568,0.991,1.206,1.578,1.577,
26.300,37.018,-2.648,-6.900,5.174,-0.028,1.070,2.543,0.000,1.676,0.000,2.019,0.790,0.514,0.000,0.000,2.314,0.000,1.913,0.000,0.000,0.000,0.000,0.000,0.000,0.000,0.000,0.000,0.000,0.000,3.142,0.002,0.000,1.003,1.569,1.569,4.086,6.281,1.199,4.712,0.000,0.000,-2.091,-7.282,0.990,1.109,1.582,1.580,5.281,4.712,4.712,2.199,6.282,5.083,1.570,0.000,0.000,-2.679,-7.574,0.991,1.110,1.578,1.576,
26.400,37.118,-2.649,-6.898,5.263,-0.014,1.072,2.441,0.000,1.711,3.427,2.000,0.670,0.614,0.000,1.566,4.010,0.000,1.808,0.000,0.000,0.000,0.000,0.000,0.000,0.000,0.000,0.000,0.000,0.000,3.142,0.002,0.000,1.003,1.570,1.570,4.086,6.281,1.199,4.712,0.000,0.000,-2.061,-7.228,0.990,1.020,1.580,1.578,5.281,4.712,4.712,2.199,6.282,5.083,1.570,0.000,0.000,-2.621,-7.572,0.991,1.021,1.577,1.575,
26.500,37.218,-2.649,-6.899,5.356,0.030,1.151,2.337,0.000,1.762,3.893,2.001,0.585,1.370,4.264,1.458,4.003,0.000,1.738,0.000,0.000,0.000,0.000,0.000,0.000,0.000,0.000,0.000,0.000,0.000,3.142,0.002,0.000,1.003,1.570,1.570,4.086,6.281,1.199,4.712,0.000,0.000,-2.033,-7.173,0.990,0.927,1.579,1.576,5.281,4.712,4.712,2.199,6.282,5.083,1.570,0.000,0.000,-2.558,-7.567,0.991,0.928,1.575,1.574,
26.589,37.307,-2.647,-6.901,5.475,0.011,1.198,2.629,0.000,2.412,3.672,2.138,0.554,3.004,3.940,1.355,0.000,0.000,1.597,0.000,0.000,0.000,0.000,0.000,0.000,0.000,0.000,0.000,0.000,0.000,3.142,0.002,0.000,1.003,1.570,1.570,4.086,6.281,1.199,4.712,0.000,0.000,-2.003,-7.100,0.990,0.809,1.578,1.575,5.281,4.712,4.712,2.199,6.282,5.083,1.570,0.000,0.000,-2.478,-7.553,0.991,0.810,1.575,1.573,
26.700,37.418,-2.648,-6.901,5.573,-0.021,1.086,0.000,0.000,2.493,4.399,1.350,0.615,0.000,3.992,1.603,2.590,0.000,1.492,0.000,0.000,0.000,0.000,0.000,0.000,0.000,0.000,0.000,0.000,0.000,3.142,0.002,0.000,1.003,1.569,1.569,4.086,6.281,1.199,4.712,0.000,0.000,-1.986,-7.036,0.990,0.710,1.578,1.574,5.281,4.712,4.712,2.199,6.282,5.083,1.570,0.000,0.000,-2.414,-7.533,0.991,0.710,1.575,1.573,
26.800,37.518,-2.649,-6.900,5.645,-0.017,1.065,0.000,2.138,0.000,3.667,1.066,0.568,3.551,3.622,1.949,2.377,0.000,1.422,0.000,0.000,0.000,0.000,0.000,0.000,0.000,0.000,0.000,0.000,0.000,3.142,0.002,0.000,1.003,1.570,1.570,4.086,6.281,1.199,4.712,0.000,0.000,-1.980,-6.987,0.990,0.638,1.577,1.573,5.281,4.712,4.712,2.199,6.282,5.083,1.570,0.000,0.000,-2.371,-7.514,0.991,0.639,1.575,1.572,
26.900,37.618,-2.649,-6.900,5.735,0.010,1.095,0.000,1.661,0.000,3.783,0.850,0.535,0.000,4.324,2.154,2.460,0.000,1.351,0.000,0.000,0.000,0.000,0.000,0.000,0.000,0.000,0.000,0.000,0.000,3.142,0.002,0.000,1.003,1.570,1.570,4.086,6.281,1.199,4.712,0.000,0.000,-1.975,-6.927,0.990,0.549,1.577,1.573,5.281,4.712,4.712,2.199,6.282,5.083,1.570,0.000,0.000,-2.317,-7.486,0.991,0.549,1.574,1.572,
26.982,37.700,-2.647,-6.900,5.832,0.014,1.134,0.000,1.683,3.286,2.013,0.706,0.538,0.000,0.000,2.786,2.578,0.000,1.246,0.000,0.000,0.000,0.000,0.000,0.000,0.000,0.000,0.000,0.000,0.000,3.142,0.002,0.000,1.002,1.570,1.569,4.086,6.281,1.199,4.712,0.000,0.000,-1.974,-6.862,0.990,0.452,1.576,1.572,5.281,4.712,4.712,2.199,6.282,5.083,1.570,0.000,0.000,-2.261,-7.453,0.991,0.452,1.574,1.571,
27.089,37.807,-2.647,-6.901,5.947,-0.012,1.114,0.000,1.734,3.665,2.001,0.593,1.215,0.000,1.499,3.999,2.376,0.000,1.141,0.000,0.000,0.000,0.000,0.000,0.000,0.000,0.000,0.000,0.000,0.000,3.142,0.002,0.000,1.003,1.570,1.570,4.086,6.281,1.199,4.712,0.000,0.000,-1.982,-6.785,0.990,0.336,1.576,1.571,5.281,4.712,4.712,2.199,6.282,5.083,1.570,0.000,0.000,-2.199,-7.405,0.991,0.337,1.574,1.571,
27.197,37.915,-2.644,-6.902,6.040,0.219,1.023,0.000,1.793,3.718,2.012,0.540,1.632,4.011,1.406,0.000,2.285,0.000,1.035,0.000,0.000,0.000,0.000,0.000,0.000,0.000,0.000,0.000,0.000,0.000,3.142,6.282,6.283,1.006,1.568,1.568,4.080,6.281,1.199,4.712,0.000,0.000,-1.994,-6.723,0.991,0.240,1.573,1.570,5.282,4.710,4.710,2.198,6.282,5.083,1.570,0.000,0.000,-2.150,-7.360,0.991,0.241,1.574,1.571,
27.300,38.018,-2.583,-6.916,6.089,1.003,0.196,0.000,2.319,3.636,2.834,0.593,3.670,3.961,1.386,0.000,2.534,0.000,1.000,0.000,0.000,0.000,0.000,0.000,0.000,0.000,0.000,0.000,0.000,0.000,3.142,6.279,6.283,1.008,1.567,1.565,4.078,6.282,1.199,4.712,0.000,0.000,-1.943,-6.704,0.990,0.189,1.572,1.570,5.282,4.709,4.707,2.198,6.282,5.083,1.570,0.000,0.000,-2.068,-7.348,0.991,0.190,1.574,1.571,
27.400,38.118,-2.487,-6.935,6.103,1.381,0.505,0.000,1.671,3.629,2.062,0.719,3.168,4.159,1.629,0.000,2.785,0.000,1.667,0.000,0.000,0.000,0.000,0.000,0.000,0.000,0.000,0.000,0.000,0.000,3.142,6.282,6.283,1.005,1.570,1.570,4.083,6.281,1.199,4.712,0.000,0.000,-1.850,-6.717,0.990,0.181,1.575,1.571,5.281,4.712,4.712,2.199,6.282,5.083,1.571,0.000,0.000,-1.967,-7.363,0.991,0.181,1.574,1.571,
27.500,38.218,-2.362,-6.956,6.186,1.105,1.317,0.000,2.187,3.619,2.630,0.830,4.697,3.914,2.223,2.259,0.000,0.000,1.632,0.000,0.000,0.000,0.000,0.000,0.000,0.000,0.000,0.000,0.000,0.000,3.142,0.004,0.001,1.001,1.572,1.573,4.090,6.281,1.199,4.712,0.000,0.000,-1.743,-6.689,0.990,0.102,1.578,1.571,5.281,4.714,4.715,2.199,6.282,5.083,1.571,0.000,0.000,-1.808,-7.342,0.991,0.102,1.574,1.571,
27.600,38.318,-2.271,-6.962,0.022,0.821,1.248,1.762,2.198,4.321,2.046,0.869,3.930,4.614,2.205,2.334,0.000,0.000,3.036,0.000,0.000,0.000,0.000,0.000,0.000,0.000,0.000,0.000,0.000,0.000,3.142,0.002,0.000,1.002,1.570,1.570,4.087,6.282,1.199,4.712,0.000,0.000,-1.689,-6.621,0.990,6.261,1.576,1.569,5.282,4.713,4.712,2.198,6.283,5.083,1.570,0.000,0.000,-1.674,-7.278,0.991,6.262,1.574,1.570,
27.685,38.403,-2.165,-6.956,0.127,1.022,0.846,1.181,0.000,3.610,1.845,1.008,0.000,1.662,4.009,2.074,0.000,0.000,3.142,0.000,0.000,0.000,0.000,0.000,0.000,0.000,0.000,0.000,0.000,0.000,3.142,6.283,0.000,1.005,1.569,1.568,4.083,6.282,1.199,4.712,0.000,0.000,-1.623,-6.554,0.990,6.154,1.575,1.569,5.282,4.711,4.711,2.198,6.282,5.083,1.570,0.000,0.000,-1.539,-7.205,0.991,6.155,1.574,1.570,
27.800,38.518,-2.059,-6.940,0.202,1.110,0.937,1.088,0.000,3.538,1.818,1.144,0.000,1.772,3.982,1.918,0.000,0.000,3.142,0.000,0.000,0.000,0.000,0.000,0.000,0.000,0.000,0.000,0.000,0.000,3.142,0.001,0.000,1.004,1.570,1.570,4.085,6.281,1.199,4.712,0.000,0.000,-1.547,-6.501,0.990,6.082,1.576,1.569,5.282,4.712,4.712,2.198,6.282,5.083,1.570,0.000,0.000,-1.416,-7.144,0.991,6.083,1.574,1.570,
27.900,38.618,-1.976,-6.922,0.272,1.027,1.071,1.022,0.000,3.784,1.777,1.191,4.999,2.059,0.000,2.321,0.000,0.000,3.106,0.000,0.000,0.000,0.000,0.000,0.000,0.000,0.000,0.000,0.000,0.000,3.142,0.002,0.000,1.003,1.571,1.571,4.087,6.281,1.199,4.712,0.000,0.000,-1.496,-6.448,0.990,6.013,1.576,1.568,5.282,4.713,4.713,2.198,6.282,5.083,1.571,0.000,0.000,-1.320,-7.081,0.991,6.013,1.574,1.569,
27.987,38.705,-1.883,-6.894,0.365,0.962,1.043,0.956,2.846,0.000,1.718,1.255,4.564,2.507,2.267,0.000,0.000,0.000,3.036,0.000,0.000,0.000,0.000,0.000,0.000,0.000,0.000,0.000,0.000,0.000,3.142,0.001,0.000,1.003,1.570,1.570,4.086,6.282,1.199,4.712,0.000,0.000,-1.450,-6.377,0.990,5.918,1.576,1.568,5.282,4.712,4.712,2.198,6.282,5.083,1.570,0.000,0.000,-1.216,-6.990,0.991,5.919,1.574,1.569,
28.100,38.818,-1.776,-6.849,0.469,1.020,0.976,0.881,2.918,4.642,1.688,1.436,4.762,2.501,2.339,0.000,0.000,0.000,2.966,0.000,0.000,0.000,0.000,0.000,0.000,0.000,0.000,0.000,0.000,0.000,3.142,0.001,0.000,1.004,1.570,1.569,4.085,6.282,1.199,4.712,0.000,0.000,-1.399,-6.290,0.990,5.814,1.576,1.568,5.282,4.712,4.712,2.198,6.282,5.083,1.570,0.000,0.000,-1.102,-6.875,0.991,5.815,1.575,1.568,
28.180,38.898,-1.704,-6.811,0.537,1.041,0.995,0.832,3.208,2.641,1.683,0.000,4.516,3.310,2.033,0.000,1.197,0.000,3.036,0.000,0.000,0.000,0.000,0.000,0.000,0.000,0.000,0.000,0.000,0.000,3.142,0.001,0.000,1.003,1.570,1.570,4.085,6.282,1.199,4.712,0.000,0.000,-1.365,-6.228,0.990,5.747,1.576,1.567,5.282,4.712,4.712,2.198,6.282,5.083,1.570,0.000,0.000,-1.030,-6.792,0.991,5.747,1.575,1.568,
28.287,39.005,-1.609,-6.751,0.585,0.882,0.341,0.743,3.358,2.547,1.739,4.591,2.443,4.011,1.930,0.000,0.612,0.000,3.001,0.000,0.000,0.000,0.000,0.000,0.000,0.000,0.000,0.000,0.000,0.000,3.142,0.000,6.282,1.004,1.570,1.570,4.082,6.281,1.199,4.712,0.000,0.000,-1.300,-6.153,0.991,5.699,1.574,1.568,5.289,4.709,4.703,2.244,6.280,5.115,1.511,0.000,0.000,-0.951,-6.703,1.023,5.694,1.473,1.562,
28.400,39.118,-1.537,-6.702,0.620,0.801,6.205,0.671,3.146,2.511,1.784,4.665,2.407,4.421,2.120,0.000,0.540,0.000,2.966,0.000,0.000,0.000,0.000,0.000,0.000,0.000,0.000,0.000,0.000,0.000,3.142,0.001,6.280,1.005,1.568,1.566,4.078,6.281,1.198,4.711,0.000,0.000,-1.251,-6.092,0.992,5.660,1.569,1.569,5.298,4.702,4.679,2.353,6.269,5.015,1.592,0.000,0.000,-0.914,-6.642,1.040,5.646,1.447,1.654,
28.500,39.218,-1.486,-6.666,0.622,0.822,0.183,0.609,3.344,2.647,1.843,4.716,2.460,4.456,2.212,0.000,0.489,0.000,3.001,0.000,0.000,0.000,0.000,0.000,0.000,0.000,0.000,0.000,0.000,0.000,3.142,6.283,6.281,1.005,1.569,1.570,4.080,6.280,1.199,4.711,0.000,0.000,-1.200,-6.057,0.991,5.662,1.571,1.569,5.299,4.702,4.669,2.341,0.014,5.073,1.603,0.000,0.000,-0.869,-6.593,1.052,5.612,1.384,1.708,
28.600,39.318,-1.420,-6.619,0.633,0.801,6.246,0.532,3.235,4.692,1.908,4.783,2.504,4.490,2.350,4.918,0.423,0.000,3.071,0.000,0.000,0.000,0.000,0.000,0.000,0.000,0.000,0.000,0.000,0.000,3.142,6.283,6.280,1.007,1.568,1.567,4.077,6.280,1.198,4.711,0.000,0.000,-1.143,-6.005,0.991,5.648,1.569,1.569,5.301,4.695,4.619,2.473,6.199,4.924,1.570,0.000,0.000,-0.834,-6.565,1.055,5.647,1.405,1.625,
28.696,39.414,-1.363,-6.577,0.516,0.416,4.977,0.425,2.285,4.551,2.163,1.642,4.855,3.988,2.175,0.000,0.368,0.000,3.106,0.000,0.000,0.000,0.000,0.000,0.000,0.000,0.000,0.000,0.000,0.000,3.142,6.279,6.279,1.009,1.562,1.564,4.074,6.274,1.197,4.709,0.000,0.000,-1.018,-5.999,0.991,5.765,1.568,1.570,5.282,4.639,4.504,2.534,6.031,4.971,1.566,0.000,0.000,-0.808,-6.590,1.082,5.806,1.305,1.630,
28.800,39.518,-1.352,-6.568,0.469,-0.103,0.487,0.402,4.969,3.648,2.273,1.661,0.000,3.634,2.104,0.000,0.359,0.000,3.142,0.000,0.000,0.000,0.000,0.000,0.000,0.000,0.000,0.000,0.000,0.000,3.142,0.001,6.280,1.006,1.568,1.572,4.079,6.275,1.198,4.711,0.000,0.000,-0.976,-6.012,0.991,5.823,1.571,1.569,5.286,4.618,4.484,2.521,5.995,4.955,1.566,0.000,0.000,-0.797,-6.601,1.077,5.859,1.335,1.608,
28.882,39.600,-1.365,-6.575,0.514,-0.228,0.957,0.427,2.286,4.548,2.164,1.641,4.848,3.968,2.172,0.000,0.370,0.000,3.106,0.000,0.000,0.000,0.000,0.000,0.000,0.000,0.000,0.000,0.000,0.000,3.142,0.001,6.279,1.007,1.566,1.568,4.076,6.276,1.198,4.710,0.000,0.000,-1.016,-6.000,0.992,5.770,1.568,1.570,5.301,4.624,4.563,2.513,6.022,4.945,1.567,0.000,0.000,-0.790,-6.606,1.077,5.862,1.349,1.639,
28.995,39.713,-1.418,-6.606,0.629,-0.789,1.250,0.527,3.181,4.756,1.917,1.688,2.541,4.509,2.357,4.930,0.421,0.000,3.001,0.000,0.000,0.000,0.000,0.000,0.000,0.000,0.000,0.000,0.000,0.000,3.142,0.005,6.282,1.001,1.569,1.569,4.088,6.280,1.199,4.711,0.000,0.000,-1.134,-5.993,0.990,5.656,1.577,1.565,5.311,4.706,4.673,2.444,6.163,5.013,1.569,0.000,0.000,-0.806,-6.582,1.077,5.744,1.332,1.663,
29.100,39.818,-1.499,-6.667,0.698,-1.179,0.579,0.665,3.045,2.144,1.741,4.726,2.286,4.359,2.410,4.804,0.503,0.000,2.896,0.000,0.000,0.000,0.000,0.000,0.000,0.000,0.000,0.000,0.000,0.000,3.142,0.003,0.000,1.001,1.570,1.570,4.088,6.281,1.200,4.712,0.000,0.000,-1.257,-6.037,0.990,5.586,1.578,1.564,5.360,4.727,4.731,2.219,6.254,5.100,1.570,0.000,0.000,-0.825,-6.560,1.052,5.640,1.430,1.647,
29.200,39.918,-1.566,-6.725,0.747,-1.108,0.542,0.789,3.283,2.035,1.618,0.000,2.295,4.636,2.431,0.000,0.574,0.000,2.861,0.000,0.000,0.000,0.000,0.000,0.000,0.000,0.000,0.000,0.000,0.000,3.142,0.000,0.001,1.004,1.568,1.567,4.086,6.280,1.199,4.711,0.000,0.000,-1.358,-6.083,0.989,5.534,1.578,1.564,5.318,4.710,4.702,2.197,0.011,5.216,1.537,0.000,0.000,-0.918,-6.559,1.051,5.529,1.345,1.693,
29.291,40.009,-1.656,-6.810,0.766,-0.993,6.251,1.617,4.063,2.149,1.502,0.000,2.213,4.620,2.287,0.000,0.666,0.000,2.826,0.000,0.000,0.000,0.000,0.000,0.000,0.000,0.000,0.000,0.000,0.000,3.142,6.282,0.000,1.004,1.569,1.569,4.085,6.281,1.199,4.712,0.000,0.000,-1.459,-6.164,0.990,5.516,1.577,1.565,5.284,4.710,4.704,2.198,0.015,5.110,1.493,0.003,0.000,-1.010,-6.631,1.000,5.494,1.535,1.522,
29.400,40.118,-1.722,-6.873,0.768,-0.728,0.095,1.703,4.126,2.223,1.427,0.000,2.125,4.287,2.135,4.907,0.733,0.000,2.650,0.000,0.000,0.000,0.000,0.000,0.000,0.000,0.000,0.000,0.000,0.000,3.142,6.281,6.283,1.005,1.569,1.569,4.081,6.281,1.199,4.712,0.000,0.000,-1.527,-6.228,0.990,5.514,1.574,1.568,5.281,4.711,4.710,2.199,6.283,5.086,1.565,0.000,0.000,-1.071,-6.699,0.992,5.512,1.571,1.565,
29.500,40.218,-1.742,-6.893,0.774,-0.044,0.031,1.721,4.142,2.252,1.400,0.000,2.109,4.314,2.105,4.920,0.754,0.000,2.650,0.000,0.000,0.000,0.000,0.000,0.000,0.000,0.000,0.000,0.000,0.000,3.142,6.280,6.283,1.007,1.568,1.567,4.079,6.281,1.199,4.712,0.000,0.000,-1.553,-6.246,0.991,5.506,1.572,1.569,5.281,4.710,4.709,2.199,6.282,5.083,1.570,0.000,0.000,-1.093,-6.714,0.991,5.507,1.575,1.567,
29.600,40.318,-1.724,-6.875,0.837,0.303,1.262,1.790,3.586,2.449,1.380,0.000,2.279,2.294,2.383,0.000,0.746,0.000,2.580,0.000,0.000,0.000,0.000,0.000,0.000,0.000,0.000,0.000,0.000,0.000,3.142,0.002,0.000,1.003,1.571,1.572,4.086,6.281,1.199,4.712,0.000,0.000,-1.572,-6.219,0.990,5.449,1.579,1.565,5.282,4.713,4.714,2.199,6.281,5.083,1.571,0.000,0.000,-1.085,-6.658,0.991,5.449,1.575,1.567,
29.700,40.418,-1.713,-6.862,0.944,0.217,1.579,4.893,3.520,2.116,1.341,4.765,2.640,2.295,0.000,0.000,0.756,0.000,2.475,0.000,0.000,0.000,0.000,0.000,0.000,0.000,0.000,0.000,0.000,0.000,3.142,0.002,0.000,1.003,1.570,1.570,4.086,6.281,1.199,4.712,0.000,0.000,-1.633,-6.192,0.990,5.340,1.579,1.563,5.282,4.712,4.713,2.198,6.282,5.083,1.570,0.000,0.000,-1.101,-6.578,0.991,5.341,1.576,1.566,
29.800,40.518,-1.694,-6.832,1.090,0.420,1.082,2.634,4.757,1.821,1.425,4.474,2.553,2.196,0.000,0.000,0.784,0.000,2.475,0.000,0.000,0.000,0.000,0.000,0.000,0.000,0.000,0.000,0.000,0.000,3.142,6.283,0.000,1.004,1.568,1.567,4.084,6.282,1.199,4.712,0.000,0.000,-1.714,-6.158,0.990,5.190,1.579,1.562,5.282,4.711,4.710,2.198,6.282,5.083,1.570,0.000,0.000,-1.132,-6.461,0.991,5.191,1.578,1.563,
29.883,40.601,-1.678,-6.801,1.154,0.470,0.836,3.027,0.000,1.739,3.937,4.672,3.263,2.041,0.000,1.172,0.794,0.000,2.440,0.000,0.000,0.000,0.000,0.000,0.000,0.000,0.000,0.000,0.000,0.000,3.142,0.001,0.000,1.004,1.569,1.569,4.085,6.281,1.199,4.712,0.000,0.000,-1.740,-6.129,0.990,5.129,1.583,1.559,5.282,4.712,4.711,2.198,6.282,5.083,1.570,0.000,0.000,-1.140,-6.394,0.991,5.129,1.580,1.562,
30.000,40.718,-1.660,-6.756,1.246,0.357,1.018,3.208,2.167,1.641,4.541,2.224,4.195,1.947,0.000,0.663,0.821,0.000,2.334,0.000,0.000,0.000,0.000,0.000,0.000,0.000,0.000,0.000,0.000,0.000,3.142,0.001,0.000,1.003,1.570,1.570,4.087,6.281,1.199,4.712,0.000,0.000,-1.782,-6.092,0.990,5.039,1.587,1.554,5.282,4.712,4.713,2.198,6.282,5.083,1.570,0.000,0.000,-1.160,-6.302,0.991,5.039,1.582,1.560,
30.100,40.818,-1.652,-6.731,1.321,0.333,1.138,3.117,1.988,1.571,0.000,2.134,4.302,2.170,0.000,0.657,0.862,0.000,2.264,0.000,0.000,0.000,0.000,0.000,0.000,0.000,0.000,0.000,0.000,0.000,3.142,0.001,0.000,1.003,1.570,1.570,4.086,6.281,1.199,4.712,0.000,0.000,-1.825,-6.079,0.990,4.962,1.590,1.552,5.282,4.712,4.712,2.198,6.282,5.083,1.570,0.000,0.000,-1.189,-6.241,0.991,4.963,1.584,1.557,
30.200,40.918,-1.644,-6.691,1.440,0.387,1.113,4.153,2.063,1.485,0.000,2.416,2.487,0.000,0.000,0.659,0.000,0.000,2.159,0.000,0.000,0.000,0.000,0.000,0.000,0.000,0.000,0.000,0.000,0.000,3.142,0.001,0.000,1.003,1.569,1.569,4.085,6.281,1.199,4.712,0.000,0.000,-1.893,-6.064,0.990,4.842,1.605,1.536,5.282,4.712,4.712,2.198,6.282,5.083,1.570,0.000,0.000,-1.242,-6.149,0.991,4.843,1.596,1.545,
30.291,41.008,-1.641,-6.660,1.515,0.410,1.042,3.308,2.124,1.445,0.000,2.651,2.501,0.000,0.000,0.668,4.861,0.000,3.036,0.000,0.000,0.000,0.000,0.000,0.000,0.000,0.000,0.000,0.000,0.000,3.142,0.001,0.000,1.003,1.569,1.569,4.085,6.281,1.199,4.712,0.000,0.000,-1.936,-6.054,0.990,4.768,1.654,1.487,5.282,4.712,4.712,2.198,6.282,5.083,1.570,0.000,0.000,-1.281,-6.090,0.991,4.768,1.631,1.510,
30.400,41.118,-1.640,-6.612,1.616,0.553,0.756,3.379,2.126,1.402,4.937,2.805,2.548,0.000,0.666,0.689,4.896,0.000,2.018,0.000,0.000,0.000,0.000,0.000,0.000,0.000,0.000,0.000,0.000,0.000,3.142,6.282,0.000,1.005,1.568,1.567,4.082,6.282,1.199,4.712,0.000,0.000,-1.996,-6.039,0.990,4.761,4.655,4.768,5.282,4.711,4.710,2.198,6.282,5.083,1.570,0.000,0.000,-1.341,-6.008,0.991,4.760,4.638,4.786,
30.500,41.218,-1.645,-6.523,1.641,1.219,0.014,3.466,2.056,1.388,4.923,2.865,2.640,0.000,0.667,0.702,2.392,0.000,2.931,0.000,0.000,0.000,0.000,0.000,0.000,0.000,0.000,0.000,0.000,0.000,3.142,6.280,6.283,1.007,1.567,1.565,4.080,6.282,1.199,4.712,0.000,0.000,-2.017,-5.961,0.990,4.788,4.685,4.738,5.282,4.710,4.708,2.197,6.282,5.083,1.570,0.000,0.000,-1.362,-5.912,0.991,4.787,4.656,4.768,
30.600,41.318,-1.652,-6.421,1.641,1.298,6.269,3.359,2.045,1.381,0.000,2.984,2.743,0.000,0.674,1.248,2.273,0.000,2.931,0.000,0.000,0.000,0.000,0.000,0.000,0.000,0.000,0.000,0.000,0.000,3.142,6.282,0.000,1.004,1.569,1.569,4.085,6.281,1.199,4.712,0.000,0.000,-2.021,-5.856,0.990,4.783,4.641,4.783,5.281,4.711,4.711,2.198,6.282,5.083,1.570,0.000,0.000,-1.367,-5.810,0.990,4.783,4.646,4.778,
30.700,41.418,-1.661,-6.291,1.638,0.899,6.066,3.206,2.038,1.372,0.000,3.139,2.872,0.000,0.684,1.257,2.137,0.000,2.931,0.000,0.000,0.000,0.000,0.000,0.000,0.000,0.000,0.000,0.000,0.000,3.142,6.283,0.001,1.003,1.569,1.569,4.086,6.281,1.199,4.712,0.000,0.000,-2.029,-5.725,0.990,4.781,4.627,4.797,5.281,4.711,4.711,2.197,6.282,5.083,1.570,0.000,0.000,-1.375,-5.681,0.990,4.781,4.635,4.789,
30.800,41.518,-1.666,-6.224,1.596,0.868,5.264,2.881,1.695,1.382,0.000,2.929,2.934,0.000,0.696,1.241,2.101,0.000,2.966,0.000,0.000,0.000,0.000,0.000,0.000,0.000,0.000,0.000,0.000,0.000,3.142,6.280,0.001,1.005,1.567,1.565,4.084,6.282,1.199,4.711,0.000,0.000,-2.012,-5.644,0.990,4.743,4.577,4.845,5.281,4.710,4.708,2.197,6.283,5.083,1.570,0.000,0.000,-1.356,-5.626,0.990,4.743,4.540,4.883,
30.900,41.618,-1.664,-6.109,1.453,1.070,4.887,2.846,1.403,1.455,1.370,2.635,0.000,0.000,0.733,1.190,4.381,0.000,3.142,0.000,0.000,0.000,0.000,0.000,0.000,0.000,0.000,0.000,0.000,0.000,3.142,6.279,0.000,1.005,1.568,1.566,4.084,6.281,1.199,4.712,0.000,0.000,-1.924,-5.486,0.990,4.827,1.608,1.532,5.282,4.711,4.709,2.197,6.282,5.083,1.570,0.000,0.000,-1.271,-5.562,0.991,4.828,1.602,1.538,
30.992,41.710,-1.649,-6.003,1.347,1.063,5.277,3.278,1.698,1.551,1.360,0.000,0.000,0.000,0.757,1.155,0.000,0.000,3.142,0.000,0.000,0.000,0.000,0.000,0.000,0.000,0.000,0.000,0.000,0.000,3.142,6.281,0.001,1.004,1.569,1.568,4.085,6.281,1.199,4.712,0.000,0.000,-1.839,-5.356,0.990,4.936,1.594,1.546,5.282,4.711,4.711,2.198,6.281,5.083,1.570,0.000,0.000,-1.199,-5.501,0.991,4.936,1.589,1.552,
31.100,41.818,-1.625,-5.906,1.274,0.984,5.679,2.296,3.978,1.650,1.376,0.000,4.705,3.164,0.763,1.126,0.000,0.000,2.650,0.000,0.000,0.000,0.000,0.000,0.000,0.000,0.000,0.000,0.000,0.000,3.142,6.281,0.001,1.004,1.569,1.569,4.086,6.281,1.199,4.712,0.000,0.000,-1.767,-5.246,0.990,5.009,1.589,1.553,5.281,4.712,4.712,2.198,6.282,5.083,1.570,0.000,0.000,-1.140,-5.438,0.991,5.009,1.586,1.556,
31.200,41.918,-1.596,-5.814,1.257,0.985,6.259,2.212,4.264,1.705,1.404,0.000,4.544,3.243,0.737,1.097,0.000,0.000,2.685,0.000,0.000,0.000,0.000,0.000,0.000,0.000,0.000,0.000,0.000,0.000,3.142,6.282,0.000,1.004,1.569,1.570,4.085,6.281,1.199,4.712,0.000,0.000,-1.727,-5.153,0.990,5.027,1.586,1.556,5.281,4.711,4.712,2.198,6.282,5.083,1.570,0.000,0.000,-1.103,-5.355,0.990,5.027,1.585,1.557,
31.300,42.018,-1.572,-5.739,1.257,1.019,6.264,2.134,4.332,1.479,1.428,0.000,4.630,3.360,0.720,1.072,0.000,0.000,2.685,0.000,0.000,0.000,0.000,0.000,0.000,0.000,0.000,0.000,0.000,0.000,3.142,6.282,0.000,1.004,1.569,1.569,4.085,6.281,1.199,4.712,0.000,0.000,-1.703,-5.077,0.990,5.025,1.586,1.556,5.281,4.711,4.711,2.198,6.282,5.083,1.570,0.000,0.000,-1.079,-5.279,0.990,5.025,1.585,1.556,
31.398,42.115,-1.535,-5.624,1.258,1.025,6.264,2.013,4.437,1.277,1.466,0.000,4.761,0.000,0.919,0.985,0.000,0.000,2.720,0.000,0.000,0.000,0.000,0.000,0.000,0.000,0.000,0.000,0.000,0.000,3.142,6.282,0.000,1.004,1.569,1.569,4.085,6.281,1.199,4.712,0.000,0.000,-1.666,-4.962,0.990,5.025,1.587,1.555,5.281,4.711,4.711,2.198,6.282,5.083,1.570,0.000,0.000,-1.042,-5.164,0.990,5.025,1.585,1.556,
31.500,42.218,-1.504,-5.529,1.258,1.004,6.265,1.913,3.589,1.111,1.497,0.000,4.868,0.000,1.083,0.954,0.000,0.000,2.720,0.000,0.000,0.000,0.000,0.000,0.000,0.000,0.000,0.000,0.000,0.000,3.142,6.282,0.000,1.004,1.569,1.569,4.085,6.281,1.199,4.712,0.000,0.000,-1.636,-4.867,0.990,5.025,1.587,1.555,5.281,4.711,4.711,2.198,6.282,5.083,1.570,0.000,0.000,-1.012,-5.069,0.990,5.024,1.586,1.556,
31.591,42.309,-1.475,-5.438,1.261,0.888,0.199,1.816,3.348,1.060,1.526,0.000,0.000,0.000,1.195,0.000,0.000,0.000,3.142,0.000,0.000,0.000,0.000,0.000,0.000,0.000,0.000,0.000,0.000,0.000,3.142,0.001,0.000,1.002,1.570,1.571,4.088,6.281,1.200,4.712,0.000,0.000,-1.607,-4.776,0.990,5.024,1.591,1.551,5.281,4.712,4.713,2.199,6.282,5.083,1.570,0.000,0.000,-0.982,-4.977,0.990,5.024,1.584,1.558,
31.700,42.418,-1.453,-5.366,1.320,0.672,1.184,1.969,3.990,1.047,1.554,0.000,0.000,1.227,1.123,0.000,1.372,0.000,3.142,0.000,0.000,0.000,0.000,0.000,0.000,0.000,0.000,0.000,0.000,0.000,3.142,0.002,0.000,1.002,1.571,1.573,4.087,6.281,1.199,4.712,0.000,0.000,-1.622,-4.714,0.990,4.968,1.593,1.549,5.282,4.713,4.715,2.199,6.282,5.083,1.571,0.000,0.000,-0.987,-4.878,0.991,4.967,1.583,1.559,
31.800,42.518,-1.438,-5.301,1.441,0.736,1.347,2.700,3.147,0.998,1.598,0.000,3.889,0.977,1.036,4.174,1.311,0.000,3.106,0.000,0.000,0.000,0.000,0.000,0.000,0.000,0.000,0.000,0.000,0.000,3.142,0.001,0.000,1.004,1.570,1.569,4.084,6.282,1.199,4.712,0.000,0.000,-1.688,-4.674,0.990,4.841,1.601,1.540,5.282,4.712,4.712,2.198,6.283,5.083,1.570,0.000,0.000,-1.037,-4.759,0.991,4.842,1.595,1.546,
31.900,42.618,-1.431,-5.239,1.524,0.834,1.015,1.967,2.770,1.027,1.640,3.577,3.922,1.101,0.940,0.000,1.516,0.000,3.036,0.000,0.000,0.000,0.000,0.000,0.000,0.000,0.000,0.000,0.000,0.000,3.142,0.000,0.000,1.004,1.569,1.568,4.084,6.282,1.199,4.712,0.000,0.000,-1.733,-4.636,0.990,4.758,1.661,1.479,5.282,4.712,4.711,2.198,6.282,5.083,1.570,0.000,0.000,-1.077,-4.666,0.991,4.759,1.643,1.498,
32.000,42.718,-1.429,-5.144,1.565,0.748,6.259,1.826,2.618,0.963,1.665,3.587,4.013,1.251,4.082,3.798,1.599,0.000,3.001,0.000,0.000,0.000,0.000,0.000,0.000,0.000,0.000,0.000,0.000,0.000,3.142,6.283,0.001,1.003,1.569,1.568,4.086,6.281,1.199,4.712,0.000,0.000,-1.755,-4.553,0.990,4.719,2.498,0.642,5.281,4.711,4.710,2.198,6.282,5.083,1.570,0.000,0.000,-1.099,-4.557,0.990,4.719,2.419,0.722,
32.100,42.818,-1.429,-5.076,1.565,0.676,6.270,1.758,2.618,0.963,1.665,3.670,4.082,1.336,4.305,3.797,1.598,0.000,3.001,0.000,0.000,0.000,0.000,0.000,0.000,0.000,0.000,0.000,0.000,0.000,3.142,6.282,0.000,1.004,1.569,1.569,4.085,6.281,1.199,4.712,0.000,0.000,-1.754,-4.485,0.990,4.719,2.333,0.808,5.281,4.711,4.711,2.197,6.282,5.083,1.570,0.000,0.000,-1.098,-4.488,0.990,4.719,2.340,0.801,
32.200,42.918,-1.428,-5.022,1.565,0.712,6.270,1.705,2.618,0.963,1.665,3.736,4.135,1.402,4.480,3.797,1.598,0.000,3.001,0.000,0.000,0.000,0.000,0.000,0.000,0.000,0.000,0.000,0.000,0.000,3.142,6.282,0.000,1.004,1.569,1.569,4.084,6.281,1.199,4.712,0.000,0.000,-1.754,-4.431,0.990,4.719,2.335,0.805,5.281,4.711,4.711,2.197,6.282,5.083,1.570,0.000,0.000,-1.098,-4.434,0.990,4.719,2.376,0.765,
32.300,43.018,-1.428,-4.934,1.565,0.762,6.269,1.618,2.619,0.964,1.666,3.841,4.223,1.583,4.766,3.797,1.597,0.000,3.001,0.000,0.000,0.000,0.000,0.000,0.000,0.000,0.000,0.000,0.000,0.000,3.142,6.282,0.000,1.004,1.569,1.569,4.085,6.281,1.199,4.712,0.000,0.000,-1.754,-4.344,0.990,4.719,2.344,0.797,5.281,4.711,4.711,2.198,6.282,5.083,1.570,0.000,0.000,-1.098,-4.347,0.990,4.719,2.358,0.783,
32.381,43.099,-1.427,-4.875,1.565,0.742,6.268,1.560,2.619,0.964,1.666,3.913,4.282,1.582,4.960,3.797,1.597,0.000,3.001,0.000,0.000,0.000,0.000,0.000,0.000,0.000,0.000,0.000,0.000,0.000,3.142,6.282,0.000,1.004,1.569,1.569,4.085,6.281,1.199,4.712,0.000,0.000,-1.753,-4.285,0.990,4.719,2.352,0.789,5.281,4.711,4.711,2.198,6.282,5.083,1.570,0.000,0.000,-1.097,-4.288,0.990,4.719,2.346,0.795,
32.500,43.218,-1.427,-4.790,1.566,0.718,6.269,1.475,2.619,0.965,1.667,4.015,4.367,1.581,0.000,0.998,1.073,0.000,3.001,0.000,0.000,0.000,0.000,0.000,0.000,0.000,0.000,0.000,0.000,0.000,3.142,6.282,0.000,1.004,1.569,1.569,4.085,6.281,1.199,4.712,0.000,0.000,-1.753,-4.200,0.990,4.719,2.379,0.761,5.281,4.711,4.711,2.198,6.282,5.083,1.570,0.000,0.000,-1.097,-4.202,0.990,4.719,2.384,0.757,
32.594,43.311,-1.427,-4.720,1.566,0.732,6.268,1.405,2.618,0.965,1.667,4.100,4.438,1.579,0.000,0.924,1.254,0.000,3.001,0.000,0.000,0.000,0.000,0.000,0.000,0.000,0.000,0.000,0.000,0.000,3.142,6.282,0.000,1.004,1.569,1.569,4.085,6.281,1.199,4.712,0.000,0.000,-1.753,-4.129,0.990,4.719,2.405,0.736,5.281,4.711,4.711,2.198,6.282,5.083,1.570,0.000,0.000,-1.097,-4.132,0.990,4.719,2.416,0.725,
32.700,43.418,-1.426,-4.651,1.577,0.653,0.500,1.329,2.582,0.962,1.674,4.153,4.506,1.556,0.000,0.927,1.161,0.000,3.001,0.000,0.000,0.000,0.000,0.000,0.000,0.000,0.000,0.000,0.000,0.000,3.142,0.001,0.000,1.002,1.571,1.572,4.087,6.281,1.200,4.712,0.000,0.000,-1.757,-4.063,0.990,4.719,3.571,5.854,5.281,4.712,4.714,2.199,6.281,5.083,1.571,0.000,0.000,-1.101,-4.060,0.991,4.717,3.839,5.586,
32.800,43.518,-1.428,-4.591,1.652,0.585,0.949,1.223,2.355,0.942,1.725,4.032,4.018,1.342,0.000,1.010,1.037,0.000,2.931,0.000,0.000,0.000,0.000,0.000,0.000,0.000,0.000,0.000,0.000,0.000,3.142,0.001,0.000,1.003,1.570,1.569,4.086,6.282,1.199,4.712,0.000,0.000,-1.803,-4.031,0.990,4.794,4.653,4.771,5.282,4.712,4.712,2.198,6.282,5.083,1.570,0.000,0.000,-1.149,-3.977,0.991,4.794,4.670,4.754,
32.885,43.603,-1.432,-4.546,1.691,0.590,0.197,1.158,2.252,0.931,1.752,3.999,4.178,1.316,0.000,1.033,0.963,0.000,2.861,0.000,0.000,0.000,0.000,0.000,0.000,0.000,0.000,0.000,0.000,0.000,3.142,6.283,0.000,1.004,1.568,1.566,4.085,6.282,1.199,4.711,0.000,0.000,-1.832,-4.001,0.990,4.837,4.673,4.749,5.281,4.711,4.709,2.198,6.283,5.083,1.570,0.000,0.000,-1.180,-3.922,0.990,4.836,4.678,4.745,
33.000,43.718,-1.441,-4.476,1.692,0.620,6.270,1.087,2.238,0.922,1.743,4.077,4.251,1.413,0.000,1.043,0.938,0.000,2.896,0.000,0.000,0.000,0.000,0.000,0.000,0.000,0.000,0.000,0.000,0.000,3.142,6.282,0.000,1.004,1.569,1.569,4.085,6.281,1.199,4.712,0.000,0.000,-1.839,-3.931,0.990,4.834,4.674,4.749,5.281,4.711,4.711,2.197,6.282,5.083,1.570,0.000,0.000,-1.188,-3.851,0.990,4.834,4.673,4.751,
33.100,43.818,-1.448,-4.416,1.692,0.616,6.269,1.027,2.228,0.915,1.008,4.144,4.311,1.495,0.000,1.051,0.954,0.000,2.896,0.000,0.000,0.000,0.000,0.000,0.000,0.000,0.000,0.000,0.000,0.000,3.142,6.282,0.000,1.004,1.569,1.569,4.085,6.281,1.199,4.712,0.000,0.000,-1.846,-3.871,0.990,4.834,4.673,4.751,5.281,4.711,4.711,2.198,6.282,5.083,1.570,0.000,0.000,-1.195,-3.791,0.990,4.834,4.673,4.750,
33.200,43.918,-1.454,-4.369,1.692,0.605,6.269,0.980,2.219,0.909,1.002,4.197,4.359,1.560,0.000,1.057,0.966,0.000,2.896,0.000,0.000,0.000,0.000,0.000,0.000,0.000,0.000,0.000,0.000,0.000,3.142,6.282,0.000,1.004,1.569,1.569,4.085,6.281,1.199,4.712,0.000,0.000,-1.852,-3.824,0.990,4.834,4.673,4.751,5.281,4.711,4.711,2.198,6.282,5.083,1.570,0.000,0.000,-1.201,-3.744,0.990,4.834,4.674,4.750,
33.300,44.018,-1.463,-4.299,1.692,0.606,6.268,0.910,2.207,0.900,0.992,4.275,4.430,1.668,0.929,1.067,0.984,0.000,2.896,0.000,0.000,0.000,0.000,0.000,0.000,0.000,0.000,0.000,0.000,0.000,3.142,6.282,0.000,1.004,1.569,1.569,4.085,6.281,1.199,4.712,0.000,0.000,-1.860,-3.754,0.990,4.834,4.674,4.750,5.281,4.711,4.711,2.198,6.282,5.083,1.570,0.000,0.000,-1.209,-3.674,0.990,4.835,4.674,4.750,
33.384,44.102,-1.468,-4.252,1.692,0.612,6.268,0.863,2.198,0.894,0.986,4.328,4.478,1.799,0.934,1.073,0.997,0.000,2.896,0.000,0.000,0.000,0.000,0.000,0.000,0.000,0.000,0.000,0.000,0.000,3.142,6.282,0.000,1.004,1.569,1.569,4.085,6.281,1.199,4.712,0.000,0.000,-1.866,-3.707,0.990,4.835,4.674,4.750,5.281,4.711,4.711,2.198,6.282,5.083,1.570,0.000,0.000,-1.215,-3.627,0.990,4.835,4.674,4.750,
33.500,44.218,-1.477,-4.181,1.693,0.611,6.267,0.792,2.185,1.100,0.976,4.407,0.000,1.998,0.943,1.083,1.016,0.000,3.142,0.000,0.000,0.000,0.000,0.000,3.431,0.000,0.000,0.000,0.000,0.000,3.106,6.282,0.000,1.004,1.569,1.569,4.085,6.281,1.199,4.712,0.000,0.000,-1.875,-3.636,0.990,4.835,4.673,4.750,5.281,4.711,4.711,2.198,6.282,5.083,1.570,0.000,0.000,-1.224,-3.556,0.990,4.835,4.674,4.750,
33.600,44.318,-1.484,-4.122,1.693,0.607,6.267,0.733,2.174,1.093,0.968,4.472,0.000,2.164,1.001,0.981,1.031,0.000,3.142,0.000,0.000,0.000,0.000,0.000,3.306,0.000,0.000,0.000,0.000,0.000,3.106,6.282,0.000,1.004,1.569,1.569,4.085,6.281,1.199,4.712,0.000,0.000,-1.882,-3.578,0.990,4.835,4.673,4.750,5.281,4.711,4.711,2.198,6.282,5.083,1.570,0.000,0.000,-1.231,-3.497,0.990,4.835,4.674,4.750,
33.683,44.401,-1.490,-4.075,1.693,0.608,6.267,0.686,2.165,1.531,0.962,4.524,0.000,2.296,1.007,0.872,1.044,0.000,3.142,0.000,0.000,0.000,0.000,0.000,3.295,0.000,0.000,0.000,0.000,0.000,3.071,6.282,0.000,1.004,1.569,1.569,4.085,6.281,1.199,4.712,0.000,0.000,-1.888,-3.531,0.990,4.835,4.673,4.750,5.281,4.711,4.711,2.198,6.282,5.083,1.570,0.000,0.000,-1.237,-3.450,0.990,4.835,4.674,4.749,
33.800,44.518,-1.495,-4.035,1.694,0.168,6.265,0.646,2.157,1.526,0.957,4.568,0.000,2.413,1.012,0.778,1.056,0.000,3.142,0.000,0.000,0.000,0.000,0.000,3.333,0.000,0.000,0.000,0.000,0.000,3.001,0.000,0.001,1.002,1.570,1.570,4.087,6.281,1.200,4.712,0.000,0.000,-1.893,-3.490,0.990,4.835,4.663,4.761,5.281,4.712,4.712,2.198,6.282,5.083,1.570,0.000,0.000,-1.242,-3.410,0.990,4.835,4.674,4.750,
33.900,44.618,-1.493,-4.048,1.693,-0.534,6.162,0.659,2.162,1.529,0.959,4.556,0.000,2.371,1.010,0.810,1.049,0.000,3.142,0.000,0.000,0.000,0.000,0.000,3.403,0.000,0.000,0.000,0.000,0.000,3.001,0.005,0.001,0.998,1.573,1.573,4.095,6.281,1.200,4.712,0.000,0.000,-1.888,-3.499,0.989,4.830,4.624,4.799,5.280,4.714,4.715,2.200,6.282,5.083,1.570,0.000,0.000,-1.236,-3.423,0.990,4.830,4.677,4.747,
34.000,44.718,-1.484,-4.115,1.689,-1.156,6.166,0.728,2.184,1.538,0.966,4.489,4.604,2.155,1.002,0.974,1.023,0.000,3.106,0.000,0.000,0.000,0.000,0.000,0.000,0.000,0.000,0.000,0.000,0.000,3.142,0.004,0.001,0.999,1.571,1.572,4.093,6.281,1.200,4.712,0.000,0.000,-1.878,-3.566,0.989,4.827,4.631,4.792,5.280,4.713,4.714,2.199,6.282,5.083,1.570,0.000,0.000,-1.226,-3.492,0.990,4.827,4.676,4.748,
34.100,44.818,-1.465,-4.274,1.688,-1.301,6.275,0.887,2.212,0.898,0.987,4.312,4.442,1.714,0.932,1.068,0.983,0.000,3.036,0.000,0.000,0.000,0.000,0.000,0.000,0.000,0.000,0.000,0.000,0.000,3.142,6.282,0.000,1.004,1.569,1.569,4.084,6.281,1.199,4.712,0.000,0.000,-1.861,-3.728,0.990,4.831,4.679,4.744,5.281,4.711,4.711,2.199,6.282,5.083,1.570,0.000,0.000,-1.210,-3.651,0.990,4.831,4.678,4.746,
