deveshdatwani/Gopher/Assets/Data/07-21 10-47-07/Obstacle Handling_robot_value.csv
game_time,true_time,x,y,az,vx,vaz,dis_to_obs_0,dis_to_obs_36,dis_to_obs_72,dis_to_obs_108,dis_to_obs_144,dis_to_obs_180,dis_to_obs_-144,dis_to_obs_-108,dis_to_obs_-72,dis_to_obs_-36,dis_to_min_obs,direction_to_min_obs,dis_to_human_0,dis_to_human_36,dis_to_human_72,dis_to_human_108,dis_to_human_144,dis_to_human_180,dis_to_human_-144,dis_to_human_-108,dis_to_human_-72,dis_to_human_-36,dis_to_min_human,direction_to_min_human,main_cam_yaw,main_cam_pitch,left_joint_1,left_joint_2,left_joint_3,left_joint_4,left_joint_5,left_joint_6,left_joint_7,left_joint_gripper,left_is_grasping,left_end_x,left_end_y,left_end_z,left_end_ax,left_end_ay,left_end_az,right_joint_1,right_joint_2,right_joint_3,right_joint_4,right_joint_5,right_joint_6,right_joint_7,right_joint_gripper,right_is_grasping,right_end_x,right_end_y,right_end_z,right_end_ax,right_end_ay,right_end_az,
21.980,27.960,0.976,-9.884,1.818,1.008,1.112,3.506,0.000,1.534,1.397,3.393,0.000,2.627,2.027,0.000,3.625,0.000,3.142,0.000,0.000,0.000,0.000,0.000,0.000,0.000,0.000,0.000,0.000,0.000,3.142,0.001,0.000,1.003,1.570,1.569,4.085,6.282,1.199,4.712,0.000,0.000,0.513,-9.393,0.990,4.961,4.694,4.729,5.282,4.712,4.712,2.198,6.283,5.083,1.570,0.000,0.000,1.150,-9.232,0.991,4.960,4.698,4.725,
22.080,28.060,0.950,-9.788,1.864,1.007,6.272,3.453,0.000,1.532,1.410,3.793,0.000,2.567,2.050,0.000,3.466,0.000,3.142,0.000,0.000,0.000,0.000,0.000,0.000,0.000,0.000,0.000,0.000,0.000,3.142,6.283,0.000,1.004,1.568,1.566,4.085,6.282,1.199,4.711,0.000,0.000,0.464,-9.320,0.990,5.009,4.696,4.727,5.281,4.710,4.709,2.198,6.283,5.083,1.570,0.000,0.000,1.092,-9.130,0.990,5.009,4.697,4.725,
22.180,28.160,0.922,-9.693,1.863,1.013,6.272,3.353,0.000,1.599,1.374,3.693,0.000,2.604,2.079,0.000,3.366,0.000,3.142,0.000,0.000,0.000,0.000,0.000,0.000,0.000,0.000,0.000,0.000,0.000,3.142,6.282,0.000,1.004,1.569,1.569,4.084,6.281,1.199,4.712,0.000,0.000,0.437,-9.224,0.990,5.006,4.696,4.727,5.281,4.711,4.711,2.197,6.282,5.083,1.570,0.000,0.000,1.065,-9.034,0.990,5.006,4.696,4.728,
22.279,28.259,0.899,-9.617,1.863,1.014,6.271,3.272,0.000,1.652,1.345,3.615,0.000,2.633,1.703,4.623,3.285,0.000,3.142,0.000,0.000,0.000,0.000,0.000,0.000,0.000,0.000,0.000,0.000,0.000,3.142,6.282,0.000,1.004,1.569,1.569,4.085,6.281,1.199,4.712,0.000,0.000,0.414,-9.147,0.990,5.006,4.696,4.727,5.281,4.711,4.711,2.197,6.282,5.083,1.570,0.000,0.000,1.042,-8.958,0.990,5.006,4.696,4.728,
22.380,28.360,0.864,-9.502,1.879,1.010,0.607,3.169,4.927,1.706,1.318,3.682,0.000,2.645,1.738,0.000,3.149,0.000,3.142,0.000,0.000,0.000,0.000,0.000,0.000,0.000,0.000,0.000,0.000,0.000,3.142,0.001,0.000,1.003,1.571,1.572,4.086,6.281,1.199,4.712,0.000,0.000,0.374,-9.039,0.990,5.017,4.695,4.728,5.281,4.712,4.714,2.199,6.281,5.083,1.571,0.000,0.000,0.999,-8.841,0.991,5.017,4.701,4.723,
22.480,28.460,0.839,-9.427,1.948,1.009,1.329,3.171,0.000,1.649,1.361,0.000,3.706,2.553,1.767,4.532,3.011,0.000,3.071,0.000,0.000,0.000,0.000,0.000,0.000,0.000,0.000,0.000,0.000,0.000,3.142,0.002,0.000,1.003,1.571,1.572,4.086,6.281,1.199,4.712,0.000,0.000,0.318,-8.999,0.990,5.087,4.699,4.724,5.282,4.713,4.714,2.198,6.282,5.083,1.571,0.000,0.000,0.928,-8.758,0.991,5.087,4.704,4.720,
22.580,28.560,0.790,-9.317,2.093,1.017,1.184,2.937,0.000,1.535,1.503,0.000,3.885,2.416,0.000,3.175,2.829,0.000,2.931,0.000,0.000,0.000,0.000,0.000,0.000,0.000,0.000,0.000,0.000,0.000,3.142,0.001,0.000,1.003,1.570,1.569,4.085,6.282,1.199,4.712,0.000,0.000,0.211,-8.971,0.990,5.236,4.704,4.719,5.282,4.712,4.712,2.198,6.283,5.083,1.570,0.000,0.000,0.780,-8.643,0.991,5.235,4.706,4.717,
22.680,28.660,0.738,-9.231,2.176,1.021,0.815,0.000,1.788,1.492,1.581,0.000,3.975,2.394,0.000,3.407,2.732,0.000,2.861,0.000,0.000,0.000,0.000,0.000,0.000,0.000,0.000,0.000,0.000,0.000,3.142,0.001,0.000,1.003,1.570,1.569,4.085,6.282,1.199,4.712,0.000,0.000,0.132,-8.934,0.990,5.318,4.704,4.718,5.282,4.712,4.712,2.198,6.282,5.083,1.570,0.000,0.000,0.672,-8.561,0.991,5.318,4.706,4.717,
22.777,28.757,0.692,-9.166,2.233,1.014,0.886,0.000,1.541,1.467,1.632,0.000,3.756,2.400,0.000,3.196,2.669,0.000,2.826,0.000,0.000,0.000,0.000,0.000,0.000,0.000,0.000,0.000,0.000,0.000,3.142,0.001,0.000,1.003,1.570,1.570,4.086,6.281,1.199,4.712,0.000,0.000,0.071,-8.903,0.990,5.373,4.704,4.718,5.282,4.712,4.712,2.198,6.282,5.083,1.570,0.000,0.000,0.588,-8.500,0.991,5.373,4.707,4.716,
22.880,28.860,0.615,-9.074,2.337,1.009,1.089,0.000,1.230,1.422,1.795,0.000,3.437,2.016,0.000,2.901,2.604,0.000,2.720,0.000,0.000,0.000,0.000,0.000,0.000,0.000,0.000,0.000,0.000,0.000,3.142,0.001,0.000,1.003,1.570,1.570,4.086,6.282,1.199,4.712,0.000,0.000,-0.030,-8.877,0.990,5.478,4.706,4.716,5.282,4.712,4.713,2.198,6.282,5.083,1.570,0.000,0.000,0.443,-8.422,0.991,5.478,4.708,4.715,
22.965,28.945,0.559,-9.018,2.413,1.012,1.059,4.700,1.081,1.393,1.972,0.000,3.272,2.052,4.942,2.739,2.584,0.000,2.650,0.000,0.000,0.000,0.000,0.000,0.000,0.000,0.000,0.000,0.000,0.000,3.142,0.001,0.000,1.003,1.570,1.570,4.085,6.282,1.199,4.712,0.000,0.000,-0.099,-8.870,0.990,5.554,4.706,4.715,5.282,4.712,4.712,2.198,6.282,5.083,1.570,0.000,0.000,0.338,-8.381,0.991,5.554,4.708,4.715,
23.080,29.060,0.468,-8.940,2.468,1.016,6.272,4.378,1.015,1.367,2.004,0.000,3.241,2.534,4.388,2.131,2.541,0.000,2.615,0.000,0.000,0.000,0.000,0.000,0.000,0.000,0.000,0.000,0.000,0.000,3.142,6.283,0.000,1.004,1.568,1.567,4.085,6.281,1.199,4.711,0.000,0.000,-0.199,-8.831,0.990,5.612,4.706,4.715,5.281,4.711,4.709,2.198,6.282,5.083,1.570,0.000,0.000,0.211,-8.318,0.990,5.612,4.707,4.715,
23.165,29.145,0.406,-8.890,2.468,1.010,6.270,4.299,1.040,1.358,1.812,0.000,3.321,2.597,4.299,2.544,2.489,0.000,2.615,0.000,0.000,0.000,0.000,0.000,0.000,0.000,0.000,0.000,0.000,0.000,3.142,6.282,0.000,1.004,1.569,1.569,4.085,6.281,1.199,4.712,0.000,0.000,-0.260,-8.780,0.990,5.609,4.706,4.715,5.281,4.711,4.711,2.198,6.282,5.083,1.570,0.000,0.000,0.149,-8.267,0.990,5.610,4.706,4.716,
23.280,29.260,0.313,-8.816,2.468,1.009,6.269,4.182,1.077,1.344,1.527,0.000,3.440,3.919,4.165,2.465,2.412,0.000,2.615,0.000,0.000,0.000,0.000,0.000,0.000,0.000,0.000,0.000,0.000,0.000,3.142,6.282,0.000,1.004,1.569,1.569,4.085,6.281,1.199,4.712,0.000,0.000,-0.353,-8.706,0.990,5.610,4.706,4.715,5.281,4.711,4.711,2.198,6.282,5.083,1.570,0.000,0.000,0.056,-8.193,0.990,5.610,4.706,4.716,
23.367,29.347,0.250,-8.767,2.468,1.012,6.269,4.103,1.102,1.126,1.462,0.000,3.519,0.000,3.281,2.412,2.360,0.000,2.650,0.000,0.000,0.000,0.000,0.000,0.000,0.000,0.000,0.000,0.000,0.000,3.142,6.282,0.000,1.004,1.569,1.569,4.085,6.281,1.199,4.712,0.000,0.000,-0.415,-8.656,0.990,5.610,4.706,4.715,5.281,4.711,4.711,2.198,6.282,5.083,1.570,0.000,0.000,-0.006,-8.143,0.990,5.610,4.706,4.716,
23.480,29.460,0.157,-8.692,2.468,1.013,6.268,3.984,1.139,0.849,1.447,0.000,3.638,0.000,3.940,2.333,2.283,0.000,2.650,0.000,0.000,0.000,0.000,0.000,0.000,0.000,0.000,0.000,0.000,0.000,3.142,6.282,0.000,1.004,1.569,1.569,4.085,6.281,1.199,4.712,0.000,0.000,-0.509,-8.582,0.990,5.610,4.706,4.715,5.281,4.711,4.711,2.198,6.282,5.083,1.570,0.000,0.000,-0.100,-8.069,0.990,5.610,4.706,4.715,
23.570,29.550,0.095,-8.642,2.468,1.011,6.268,3.905,1.163,0.664,1.438,0.000,3.717,0.000,3.850,2.280,2.473,0.000,2.650,0.000,0.000,0.000,0.000,0.000,0.000,0.000,0.000,0.000,0.000,0.000,3.142,6.282,0.000,1.004,1.569,1.569,4.085,6.281,1.199,4.712,0.000,0.000,-0.571,-8.532,0.990,5.610,4.706,4.715,5.281,4.711,4.711,2.198,6.282,5.083,1.570,0.000,0.000,-0.162,-8.019,0.990,5.610,4.706,4.715,
23.680,29.660,0.001,-8.568,2.468,1.011,6.268,3.787,3.252,0.635,1.423,0.000,3.835,0.000,3.714,2.200,1.698,0.000,2.861,0.000,0.000,0.000,0.000,0.000,0.000,0.000,0.000,0.000,0.000,0.000,3.142,6.282,0.000,1.004,1.569,1.569,4.085,6.281,1.199,4.712,0.000,0.000,-0.664,-8.458,0.990,5.611,4.706,4.715,5.281,4.711,4.711,2.198,6.282,5.083,1.570,0.000,0.000,-0.255,-7.945,0.990,5.611,4.706,4.715,
23.774,29.754,-0.061,-8.518,2.469,1.012,6.267,3.707,3.190,0.648,1.413,0.000,3.914,0.000,3.624,2.147,1.913,0.000,2.896,0.000,0.000,0.000,0.000,0.000,0.000,0.000,0.000,0.000,0.000,0.000,3.142,6.282,0.000,1.004,1.569,1.569,4.085,6.281,1.199,4.712,0.000,0.000,-0.726,-8.408,0.990,5.611,4.706,4.715,5.281,4.711,4.711,2.198,6.282,5.083,1.570,0.000,0.000,-0.318,-7.895,0.990,5.611,4.706,4.715,
23.880,29.860,-0.154,-8.444,2.469,1.012,6.267,3.589,3.097,0.668,1.398,0.000,4.033,0.000,3.489,2.068,1.714,0.000,2.896,0.000,0.000,0.000,0.000,0.000,0.000,0.000,0.000,0.000,0.000,0.000,3.142,6.282,0.000,1.004,1.569,1.569,4.085,6.281,1.199,4.712,0.000,0.000,-0.820,-8.334,0.990,5.611,4.706,4.715,5.281,4.711,4.711,2.198,6.282,5.083,1.570,0.000,0.000,-0.411,-7.821,0.990,5.611,4.706,4.715,
23.980,29.960,-0.232,-8.382,2.469,1.011,6.266,3.490,3.019,0.684,0.631,0.000,4.131,0.000,3.376,2.002,1.650,0.000,2.931,0.000,0.000,0.000,0.000,0.000,0.000,0.000,0.000,0.000,0.000,0.000,3.142,6.282,0.000,1.004,1.569,1.569,4.085,6.281,1.199,4.712,0.000,0.000,-0.898,-8.272,0.990,5.611,4.706,4.715,5.281,4.711,4.711,2.198,6.282,5.083,1.570,0.000,0.000,-0.490,-7.759,0.990,5.611,4.707,4.715,
24.074,30.054,-0.294,-8.332,2.470,1.011,6.267,3.410,2.956,0.697,0.643,0.000,4.210,0.000,3.286,1.949,1.599,0.000,2.931,0.000,0.000,0.000,0.000,0.000,0.000,0.000,0.000,0.000,0.000,0.000,3.142,6.282,0.000,1.004,1.569,1.569,4.085,6.281,1.199,4.712,0.000,0.000,-0.960,-8.223,0.990,5.612,4.706,4.715,5.281,4.711,4.711,2.198,6.282,5.083,1.570,0.000,0.000,-0.552,-7.710,0.990,5.612,4.707,4.715,
24.180,30.160,-0.388,-8.258,2.470,1.012,6.266,3.292,2.863,0.716,0.661,0.000,4.328,0.000,3.151,1.870,1.521,0.000,2.966,0.000,0.000,0.000,0.000,0.000,0.000,0.000,0.000,0.000,0.000,0.000,3.142,6.282,0.000,1.004,1.569,1.569,4.085,6.281,1.199,4.712,0.000,0.000,-1.054,-8.149,0.990,5.612,4.706,4.715,5.281,4.711,4.711,2.198,6.282,5.083,1.570,0.000,0.000,-0.646,-7.635,0.990,5.612,4.707,4.715,
24.280,30.260,-0.466,-8.196,2.470,1.012,6.266,3.193,2.785,0.732,0.676,0.000,4.426,0.000,3.038,1.804,1.457,0.000,3.001,0.000,0.000,0.000,0.000,0.000,0.000,0.000,0.000,0.000,0.000,0.000,3.142,6.282,0.000,1.004,1.569,1.569,4.085,6.281,1.199,4.712,0.000,0.000,-1.132,-8.087,0.990,5.612,4.706,4.715,5.281,4.711,4.711,2.198,6.282,5.083,1.570,0.000,0.000,-0.724,-7.574,0.990,5.612,4.707,4.715,
24.380,30.360,-0.528,-8.147,2.471,1.012,6.266,3.113,0.000,1.763,0.688,0.000,4.505,0.000,2.158,1.751,1.406,0.000,3.001,0.000,0.000,0.000,0.000,0.000,0.000,0.000,0.000,0.000,0.000,0.000,3.142,6.282,0.000,1.004,1.569,1.569,4.085,6.281,1.199,4.712,0.000,0.000,-1.194,-8.038,0.990,5.613,4.706,4.715,5.281,4.711,4.711,2.198,6.282,5.083,1.570,0.000,0.000,-0.786,-7.524,0.990,5.613,4.707,4.715,
24.460,30.440,-0.622,-8.073,2.471,1.012,6.265,2.995,0.000,2.903,0.706,0.000,4.623,0.000,2.814,1.672,1.328,0.000,3.036,0.000,0.000,0.000,0.000,0.000,0.000,0.000,0.000,0.000,0.000,0.000,3.142,6.282,0.000,1.004,1.569,1.569,4.085,6.281,1.199,4.712,0.000,0.000,-1.288,-7.964,0.990,5.613,4.706,4.715,5.281,4.711,4.711,2.198,6.282,5.083,1.570,0.000,0.000,-0.880,-7.450,0.990,5.613,4.707,4.715,
24.580,30.560,-0.700,-8.011,2.471,1.012,6.266,2.896,0.000,2.808,0.721,0.000,4.721,0.000,2.702,1.606,0.000,0.000,3.071,0.000,0.000,0.000,0.000,0.000,0.000,0.000,0.000,0.000,0.000,0.000,3.142,6.282,0.000,1.004,1.569,1.569,4.085,6.281,1.199,4.712,0.000,0.000,-1.366,-7.903,0.990,5.613,4.706,4.715,5.281,4.711,4.711,2.198,6.282,5.083,1.570,0.000,0.000,-0.958,-7.388,0.990,5.613,4.707,4.715,
24.667,30.647,-0.778,-7.949,2.472,1.012,6.266,2.797,0.000,2.714,0.735,1.066,4.819,0.000,2.590,1.540,0.000,0.000,3.071,0.000,0.000,0.000,0.000,0.000,0.000,0.000,0.000,0.000,0.000,0.000,3.142,6.282,0.000,1.004,1.569,1.569,4.085,6.281,1.199,4.712,0.000,0.000,-1.444,-7.841,0.990,5.614,4.706,4.715,5.281,4.711,4.711,2.198,6.282,5.083,1.570,0.000,0.000,-1.037,-7.327,0.990,5.614,4.707,4.715,
24.780,30.760,-0.856,-7.887,2.472,1.012,6.265,2.698,0.000,2.619,0.750,1.088,4.917,0.000,2.478,1.021,0.000,0.000,3.106,0.000,0.000,0.000,0.000,0.000,0.000,0.000,0.000,0.000,0.000,0.000,3.142,6.282,0.000,1.004,1.569,1.569,4.085,6.281,1.199,4.712,0.000,0.000,-1.522,-7.780,0.990,5.614,4.706,4.715,5.281,4.711,4.711,2.198,6.282,5.083,1.570,0.000,0.000,-1.115,-7.265,0.990,5.614,4.707,4.715,
24.880,30.860,-0.918,-7.838,2.472,1.012,6.266,2.619,0.000,2.543,1.007,1.105,4.996,0.000,2.389,1.422,0.000,0.000,3.106,0.000,0.000,0.000,0.000,0.000,0.000,0.000,0.000,0.000,0.000,0.000,3.142,6.282,0.000,1.004,1.569,1.569,4.085,6.281,1.199,4.712,0.000,0.000,-1.584,-7.730,0.990,5.614,4.706,4.715,5.281,4.711,4.711,2.198,6.282,5.083,1.570,0.000,0.000,-1.177,-7.216,0.990,5.614,4.707,4.715,
24.980,30.960,-1.012,-7.764,2.473,1.012,6.266,2.500,0.000,2.287,1.471,1.131,0.000,0.000,2.255,1.026,0.000,0.000,3.142,0.000,0.000,0.000,0.000,0.000,0.000,0.000,0.000,0.000,0.000,0.000,3.142,6.282,0.000,1.004,1.569,1.569,4.085,6.281,1.199,4.712,0.000,0.000,-1.678,-7.657,0.990,5.615,4.706,4.715,5.281,4.711,4.711,2.198,6.282,5.083,1.570,0.000,0.000,-1.271,-7.142,0.990,5.615,4.707,4.715,
25.080,31.060,-1.090,-7.702,2.473,1.011,6.266,2.401,0.000,2.335,1.536,1.153,0.000,0.000,2.144,0.960,0.000,0.000,3.142,0.000,0.000,0.000,0.000,0.000,0.000,0.000,0.000,0.000,0.000,0.000,3.142,6.282,0.000,1.004,1.569,1.569,4.085,6.281,1.199,4.712,0.000,0.000,-1.756,-7.595,0.990,5.615,4.706,4.715,5.281,4.711,4.711,2.198,6.282,5.083,1.570,0.000,0.000,-1.350,-7.080,0.990,5.615,4.707,4.715,
25.179,31.159,-1.152,-7.653,2.466,1.012,5.916,2.335,0.000,2.366,1.592,1.161,0.000,0.000,2.078,0.910,0.000,0.000,3.142,0.000,0.000,0.000,0.000,0.000,0.000,0.000,0.000,0.000,0.000,0.000,3.142,6.281,0.001,1.004,1.568,1.567,4.084,6.281,1.199,4.712,0.000,0.000,-1.819,-7.543,0.990,5.611,4.707,4.715,5.281,4.710,4.709,2.197,6.282,5.083,1.570,0.000,0.000,-1.409,-7.030,0.990,5.611,4.706,4.716,
25.263,31.244,-1.244,-7.576,2.367,1.012,4.925,2.415,4.995,2.294,1.741,1.081,0.000,0.000,2.290,0.864,0.000,0.000,3.142,0.000,0.000,0.000,0.000,0.000,0.000,0.000,0.000,0.000,0.000,0.000,3.142,6.280,0.001,1.005,1.568,1.566,4.085,6.281,1.199,4.712,0.000,0.000,-1.897,-7.401,0.990,5.513,4.706,4.715,5.282,4.710,4.709,2.197,6.282,5.083,1.570,0.000,0.000,-1.438,-6.931,0.991,5.512,4.706,4.715,
25.380,31.360,-1.314,-7.505,2.247,1.008,5.040,2.637,4.423,2.091,3.215,1.244,0.000,0.000,2.785,0.839,4.126,0.000,3.142,0.000,0.000,0.000,0.000,0.000,0.000,0.000,0.000,0.000,0.000,0.000,3.142,6.280,0.001,1.004,1.569,1.568,4.085,6.281,1.199,4.712,0.000,0.000,-1.940,-7.252,0.990,5.390,4.704,4.717,5.282,4.711,4.710,2.198,6.282,5.083,1.570,0.000,0.000,-1.428,-6.841,0.991,5.390,4.707,4.716,
25.480,31.460,-1.363,-7.443,2.171,1.009,5.330,2.827,2.984,2.152,2.785,1.550,0.000,4.685,3.264,0.807,4.210,0.000,3.142,0.000,0.000,0.000,0.000,0.000,0.000,0.000,0.000,0.000,0.000,0.000,3.142,6.281,0.001,1.004,1.569,1.568,4.085,6.281,1.199,4.712,0.000,0.000,-1.967,-7.142,0.990,5.314,4.704,4.718,5.282,4.711,4.711,2.197,6.282,5.083,1.570,0.000,0.000,-1.426,-6.771,0.991,5.313,4.705,4.717,
25.580,31.560,-1.428,-7.342,2.079,1.018,5.384,2.823,1.832,0.000,2.382,1.822,1.795,4.436,4.223,0.735,4.057,0.000,1.351,0.000,0.000,0.000,0.000,0.000,0.000,0.000,0.000,0.000,0.000,0.000,3.142,6.281,0.001,1.004,1.569,1.567,4.085,6.281,1.199,4.712,0.000,0.000,-2.003,-6.988,0.990,5.222,4.703,4.719,5.282,4.711,4.710,2.197,6.282,5.083,1.570,0.000,0.000,-1.429,-6.668,0.990,5.222,4.703,4.719,
25.680,31.660,-1.475,-7.254,1.994,1.012,5.254,2.602,1.736,0.000,2.521,1.933,1.668,4.687,2.712,0.670,3.621,0.000,1.492,0.000,0.000,0.000,0.000,0.000,0.000,0.000,0.000,0.000,0.000,0.000,3.142,6.280,0.001,1.004,1.568,1.567,4.085,6.281,1.199,4.712,0.000,0.000,-2.018,-6.852,0.990,5.138,4.701,4.722,5.282,4.711,4.710,2.197,6.282,5.083,1.570,0.000,0.000,-1.419,-6.582,0.991,5.137,4.702,4.721,
25.774,31.754,-1.507,-7.181,1.920,1.009,5.236,2.443,1.776,0.000,2.263,2.038,1.591,0.000,0.000,0.653,3.847,0.000,1.562,0.000,0.000,0.000,0.000,0.000,0.000,0.000,0.000,0.000,0.000,0.000,3.142,6.280,0.001,1.004,1.568,1.567,4.085,6.281,1.199,4.712,0.000,0.000,-2.019,-6.740,0.990,5.064,4.698,4.724,5.282,4.711,4.710,2.197,6.282,5.083,1.570,0.000,0.000,-1.402,-6.515,0.991,5.063,4.700,4.723,
25.880,31.860,-1.544,-7.067,1.824,1.014,5.722,3.017,1.855,4.659,2.059,4.071,1.605,0.000,0.000,0.654,2.812,0.000,1.702,0.000,0.000,0.000,0.000,0.000,0.000,0.000,0.000,0.000,0.000,0.000,3.142,6.281,0.000,1.004,1.569,1.570,4.085,6.281,1.199,4.712,0.000,0.000,-2.010,-6.579,0.990,4.964,4.693,4.731,5.282,4.712,4.712,2.198,6.281,5.083,1.570,0.000,0.000,-1.374,-6.415,0.991,4.964,4.696,4.728,
25.980,31.960,-1.564,-6.990,1.812,1.014,6.265,0.000,1.847,4.641,2.020,4.123,1.705,0.000,0.000,0.672,2.781,0.000,1.738,0.000,0.000,0.000,0.000,0.000,0.000,0.000,0.000,0.000,0.000,0.000,3.142,6.282,0.000,1.003,1.570,1.570,4.085,6.281,1.199,4.712,0.000,0.000,-2.023,-6.496,0.990,4.953,4.692,4.731,5.281,4.711,4.712,2.198,6.282,5.083,1.570,0.000,0.000,-1.387,-6.339,0.990,4.953,4.694,4.730,
26.063,32.043,-1.593,-6.874,1.813,1.009,6.261,0.000,1.809,4.613,2.223,4.052,1.823,0.000,0.000,0.706,3.004,0.000,1.738,0.000,0.000,0.000,0.000,0.000,0.000,0.000,0.000,0.000,0.000,0.000,3.142,6.283,0.000,1.004,1.569,1.569,4.085,6.281,1.199,4.712,0.000,0.000,-2.053,-6.381,0.990,4.954,4.692,4.731,5.281,4.711,4.711,2.198,6.282,5.083,1.570,0.000,0.000,-1.416,-6.223,0.990,4.955,4.694,4.730,
26.180,32.160,-1.617,-6.778,1.813,1.011,6.262,0.000,1.777,0.000,2.395,3.990,1.920,0.000,0.000,0.735,3.075,0.000,1.773,0.000,0.000,0.000,0.000,0.000,0.000,0.000,0.000,0.000,0.000,0.000,3.142,6.282,0.000,1.004,1.569,1.569,4.085,6.281,1.199,4.712,0.000,0.000,-2.077,-6.285,0.990,4.955,4.692,4.731,5.281,4.711,4.711,2.198,6.282,5.083,1.570,0.000,0.000,-1.441,-6.127,0.990,4.955,4.694,4.730,
26.276,32.257,-1.641,-6.681,1.814,1.013,6.263,0.000,1.746,1.466,4.878,3.928,2.019,0.000,0.645,0.764,3.147,0.000,1.808,0.000,0.000,0.000,0.000,0.000,0.000,0.000,0.000,0.000,0.000,0.000,3.142,6.282,0.000,1.004,1.569,1.569,4.085,6.281,1.199,4.712,0.000,0.000,-2.102,-6.188,0.990,4.956,4.692,4.731,5.281,4.711,4.711,2.198,6.282,5.083,1.570,0.000,0.000,-1.465,-6.030,0.990,4.956,4.694,4.730,
26.380,32.360,-1.664,-6.586,1.813,0.942,6.174,0.000,1.716,1.827,4.718,3.851,2.118,0.000,0.669,0.791,3.205,0.000,2.755,0.000,0.000,0.000,0.000,0.000,0.000,0.000,0.000,0.000,0.000,0.000,3.142,6.282,0.001,1.004,1.569,1.568,4.085,6.281,1.199,4.712,0.000,0.000,-2.125,-6.093,0.990,4.956,4.691,4.732,5.281,4.711,4.711,2.197,6.282,5.083,1.570,0.000,0.000,-1.489,-5.935,0.990,4.956,4.691,4.732,
26.480,32.460,-1.681,-6.519,1.782,0.821,5.416,4.494,1.740,1.323,4.625,3.508,2.262,0.000,0.687,1.373,3.009,0.000,2.791,0.000,0.000,0.000,0.000,0.000,0.000,0.000,0.000,0.000,0.000,0.000,3.142,6.281,0.001,1.004,1.568,1.566,4.085,6.281,1.199,4.711,0.000,0.000,-2.128,-6.013,0.990,4.928,4.689,4.733,5.281,4.710,4.708,2.197,6.282,5.083,1.570,0.000,0.000,-1.486,-5.874,0.990,4.927,4.687,4.736,
26.580,32.560,-1.698,-6.425,1.646,0.837,4.868,3.493,1.966,1.333,0.000,2.970,2.740,0.000,0.720,1.300,0.000,0.000,2.931,0.000,0.000,0.000,0.000,0.000,0.000,0.000,0.000,0.000,1.370,0.000,3.142,6.280,0.001,1.005,1.568,1.567,4.084,6.281,1.199,4.712,0.000,0.000,-2.071,-5.863,0.990,4.790,4.653,4.770,5.282,4.711,4.710,2.197,6.282,5.083,1.570,0.000,0.000,-1.416,-5.813,0.991,4.789,4.662,4.761,
26.680,32.660,-1.702,-6.335,1.557,1.012,5.903,2.866,1.784,1.360,0.000,2.702,2.822,0.000,0.743,1.262,0.000,0.000,3.036,0.000,0.000,0.000,0.000,0.000,0.000,0.000,0.000,0.000,1.276,0.000,3.142,6.281,0.000,1.005,1.570,1.570,4.083,6.280,1.199,4.712,0.000,0.000,-2.022,-5.743,0.990,4.728,1.835,1.306,5.282,4.712,4.712,2.198,6.281,5.083,1.571,0.000,0.000,-1.366,-5.750,0.991,4.728,1.807,1.335,
26.773,32.753,-1.701,-6.251,1.555,1.104,6.277,2.787,1.676,1.363,0.000,2.693,2.906,0.000,0.742,1.260,0.000,0.000,3.036,0.000,0.000,0.000,0.000,0.000,0.000,0.000,0.000,0.000,1.180,0.000,3.142,6.283,0.000,1.004,1.569,1.569,4.085,6.281,1.199,4.712,0.000,0.000,-2.020,-5.657,0.990,4.729,1.850,1.291,5.281,4.711,4.711,2.198,6.282,5.083,1.570,0.000,0.000,-1.364,-5.667,0.990,4.729,1.828,1.313,
26.880,32.860,-1.699,-6.125,1.556,1.008,6.263,2.659,1.521,1.364,1.486,2.703,3.032,0.000,0.740,1.259,0.000,0.000,3.036,0.000,0.000,0.000,0.000,0.000,0.000,0.000,0.000,0.000,1.080,0.000,3.142,0.000,0.000,1.003,1.570,1.570,4.086,6.281,1.199,4.712,0.000,0.000,-2.018,-5.531,0.990,4.729,1.911,1.230,5.281,4.712,4.712,2.198,6.282,5.083,1.570,0.000,0.000,-1.362,-5.541,0.990,4.728,1.848,1.293,
26.980,32.960,-1.697,-6.029,1.554,0.965,6.103,2.567,1.400,1.366,1.375,2.698,3.129,0.000,0.739,1.204,0.000,0.000,3.036,0.000,0.000,0.000,0.000,0.000,0.000,0.000,0.000,0.000,1.043,0.000,3.142,6.281,0.001,1.004,1.568,1.568,4.084,6.281,1.199,4.712,0.000,0.000,-2.017,-5.435,0.990,4.727,1.872,1.269,5.281,4.710,4.710,2.197,6.282,5.083,1.570,0.000,0.000,-1.361,-5.445,0.990,4.728,1.917,1.224,
27.080,33.060,-1.695,-5.932,1.500,1.016,5.367,0.000,1.232,1.395,1.355,2.761,3.233,0.000,0.751,1.183,1.880,0.000,3.106,0.908,0.000,0.000,0.000,0.000,0.000,0.000,0.000,0.000,0.000,0.000,3.142,6.280,0.001,1.005,1.568,1.566,4.084,6.281,1.199,4.712,0.000,0.000,-1.983,-5.321,0.990,4.780,1.637,1.503,5.282,4.710,4.709,2.197,6.282,5.083,1.570,0.000,0.000,-1.328,-5.367,0.990,4.781,1.639,1.501,
27.180,33.160,-1.686,-5.831,1.446,1.037,6.070,0.000,1.325,1.435,1.346,3.022,0.000,0.000,0.782,1.159,1.831,0.000,3.142,0.631,0.000,0.000,0.000,0.000,0.000,0.000,0.000,0.000,0.000,0.000,3.142,6.282,0.000,1.004,1.570,1.571,4.085,6.281,1.199,4.712,0.000,0.000,-1.938,-5.205,0.990,4.839,1.609,1.532,5.282,4.712,4.712,2.198,6.281,5.083,1.571,0.000,0.000,-1.287,-5.286,0.991,4.838,1.604,1.538,
27.280,33.260,-1.676,-5.750,1.445,1.012,6.261,0.000,1.348,1.447,1.356,3.131,0.000,0.000,0.971,1.149,1.725,0.000,3.142,0.531,0.000,0.000,0.000,0.000,0.000,0.000,0.000,0.000,0.000,0.000,3.142,6.283,0.000,1.003,1.569,1.569,4.085,6.281,1.199,4.712,0.000,0.000,-1.928,-5.125,0.990,4.838,1.611,1.530,5.281,4.711,4.711,2.198,6.282,5.083,1.570,0.000,0.000,-1.277,-5.207,0.990,4.838,1.606,1.535,
27.367,33.347,-1.661,-5.633,1.446,0.999,6.263,0.000,1.375,1.463,1.371,0.000,0.000,0.000,1.279,4.498,1.650,0.000,3.142,0.400,0.000,0.000,0.000,0.000,0.000,0.000,0.000,0.000,0.000,0.000,3.142,6.282,0.000,1.004,1.569,1.569,4.085,6.281,1.199,4.712,0.000,0.000,-1.914,-5.008,0.990,4.837,1.609,1.532,5.281,4.711,4.711,2.198,6.282,5.083,1.570,0.000,0.000,-1.263,-5.089,0.990,4.837,1.607,1.534,
27.480,33.460,-1.649,-5.535,1.447,1.015,6.263,0.000,1.398,1.476,1.384,0.000,0.000,1.341,1.265,4.452,1.707,0.000,3.142,0.305,0.000,0.000,0.000,0.000,0.000,0.000,0.000,0.000,0.000,0.000,3.142,6.282,0.000,1.004,1.569,1.569,4.085,6.281,1.199,4.712,0.000,0.000,-1.902,-4.910,0.990,4.836,1.609,1.532,5.281,4.711,4.711,2.198,6.282,5.083,1.570,0.000,0.000,-1.251,-4.991,0.990,4.836,1.607,1.534,
27.580,33.560,-1.637,-5.436,1.447,1.018,6.264,0.000,1.421,1.489,1.397,0.000,0.000,1.315,1.251,4.405,1.690,0.000,3.142,0.299,0.000,0.000,0.000,0.000,0.000,0.000,0.000,0.000,0.000,0.000,3.142,6.282,0.000,1.004,1.569,1.569,4.085,6.281,1.199,4.712,0.000,0.000,-1.890,-4.811,0.990,4.836,1.610,1.531,5.281,4.711,4.711,2.198,6.282,5.083,1.570,0.000,0.000,-1.239,-4.891,0.990,4.836,1.607,1.534,
27.675,33.655,-1.628,-5.387,1.449,0.377,0.123,0.000,1.434,1.218,1.406,0.000,0.000,1.293,1.240,4.379,1.680,0.000,3.142,0.416,0.000,0.000,0.000,0.000,0.000,0.000,0.000,0.000,0.000,0.000,3.142,6.277,6.283,1.008,1.566,1.564,4.075,6.282,1.199,4.712,0.000,0.000,-1.887,-4.765,0.991,4.827,1.563,1.578,5.282,4.709,4.706,2.197,6.283,5.083,1.570,0.000,0.000,-1.235,-4.841,0.991,4.827,1.603,1.538,
27.780,33.760,-1.619,-5.306,1.453,1.218,0.091,0.000,2.725,1.025,1.417,0.000,0.000,1.265,1.228,4.340,1.674,0.000,3.142,0.344,0.000,0.000,0.000,0.000,0.000,0.000,0.000,0.000,0.000,0.000,3.142,6.278,6.283,1.008,1.567,1.566,4.077,6.282,1.199,4.712,0.000,0.000,-1.879,-4.685,0.991,4.825,1.576,1.565,5.282,4.710,4.708,2.197,6.282,5.083,1.570,0.000,0.000,-1.227,-4.759,0.991,4.826,1.609,1.533,
27.880,33.860,-1.610,-5.236,1.455,-0.023,0.345,0.000,2.735,0.850,1.427,0.000,0.000,1.242,1.217,4.306,1.663,0.000,3.142,0.286,0.000,0.000,0.000,0.000,0.000,0.000,0.000,0.000,0.000,0.000,3.142,6.278,6.282,1.008,1.566,1.566,4.076,6.280,1.198,4.711,0.000,0.000,-1.871,-4.615,0.991,4.824,1.567,1.574,5.283,4.707,4.705,2.198,6.280,5.083,1.570,0.000,0.000,-1.221,-4.687,0.992,4.822,1.594,1.547,
27.980,33.960,-1.601,-5.186,1.466,0.925,0.116,0.000,2.702,0.811,1.439,0.000,0.000,1.201,1.147,4.274,1.671,0.000,3.142,0.375,0.000,0.000,0.000,0.000,0.000,0.000,0.000,0.000,0.000,0.000,3.142,6.278,6.283,1.008,1.568,1.566,4.076,6.282,1.199,4.712,0.000,0.000,-1.869,-4.568,0.991,4.813,1.570,1.571,5.282,4.711,4.710,2.197,6.276,5.080,1.573,0.019,0.000,-1.213,-4.634,0.990,4.822,1.640,1.502,
28.064,34.044,-1.585,-5.034,1.464,1.420,6.259,0.000,2.739,0.829,1.456,0.000,0.000,1.299,1.177,4.742,1.644,0.000,3.142,0.288,0.000,0.000,0.000,0.000,0.000,0.000,0.000,0.000,0.000,0.000,3.142,6.282,0.000,1.004,1.569,1.569,4.085,6.281,1.199,4.712,0.000,0.000,-1.849,-4.413,0.990,4.819,1.614,1.527,5.281,4.713,4.716,2.198,6.278,5.081,1.567,0.001,0.000,-1.193,-4.483,0.990,4.826,1.629,1.509,
28.180,34.160,-1.579,-5.013,1.476,0.586,0.172,0.000,2.699,0.832,1.466,0.000,4.163,1.332,1.263,4.483,1.657,0.000,3.106,0.401,0.000,0.000,0.000,0.000,0.000,0.000,0.000,0.000,0.000,0.000,3.142,6.277,6.283,1.009,1.569,1.566,4.075,6.283,1.199,4.712,0.000,0.000,-1.853,-4.399,0.991,4.803,1.564,1.577,5.282,4.711,4.710,2.197,6.283,5.083,1.571,0.000,0.000,-1.198,-4.457,0.991,4.804,1.617,1.524,
28.280,34.260,-1.571,-4.939,1.479,1.232,6.194,0.000,2.699,0.839,1.475,0.000,4.235,1.421,3.762,4.103,1.652,0.000,3.106,0.386,0.000,0.000,0.000,0.000,0.000,0.000,0.000,0.000,0.000,0.000,3.142,6.279,6.283,1.007,1.567,1.566,4.077,6.282,1.199,4.712,0.000,0.000,-1.848,-4.325,0.991,4.799,1.575,1.565,5.279,4.712,4.720,2.205,6.256,5.056,1.543,0.011,0.000,-1.180,-4.386,0.984,4.838,1.782,1.328,
28.380,34.360,-1.562,-4.837,1.454,0.360,6.023,0.000,2.834,0.858,1.475,2.196,0.000,1.517,3.795,4.106,1.590,0.000,3.142,0.389,0.000,0.000,0.000,0.000,0.000,0.000,0.000,0.000,0.000,0.000,3.142,0.004,0.001,0.999,1.572,1.574,4.094,6.281,1.200,4.712,0.000,0.000,-1.815,-4.211,0.989,4.836,1.644,1.497,5.279,4.716,4.724,2.201,6.270,5.076,1.560,0.011,0.000,-1.157,-4.293,0.988,4.854,1.646,1.483,
28.480,34.460,-1.564,-4.842,1.470,-0.330,0.556,0.000,2.754,0.850,1.479,0.000,4.337,1.526,3.929,3.837,1.623,0.000,3.106,0.419,0.000,0.000,0.000,0.000,0.000,0.000,0.000,0.000,0.000,0.000,3.142,0.004,0.000,1.000,1.572,1.573,4.091,6.281,1.200,4.712,0.000,0.000,-1.828,-4.221,0.990,4.818,1.640,1.501,5.280,4.714,4.719,2.202,6.267,5.082,1.590,0.038,0.000,-1.170,-4.291,0.991,4.834,1.588,1.569,
28.578,34.558,-1.565,-4.858,1.478,-0.124,6.276,0.000,2.715,0.846,1.481,0.000,4.318,1.515,3.963,3.846,1.640,0.000,3.106,0.501,0.000,0.000,0.000,0.000,0.000,0.000,0.000,0.000,0.000,0.000,3.142,6.282,0.000,1.004,1.568,1.567,4.084,6.281,1.199,4.712,0.000,0.000,-1.839,-4.241,0.990,4.803,1.617,1.523,5.281,4.712,4.714,2.199,6.271,5.083,1.580,0.023,0.000,-1.180,-4.302,0.990,4.818,1.609,1.539,
28.662,34.642,-1.566,-4.862,1.478,0.000,6.270,0.000,2.713,0.845,1.480,0.000,4.313,1.510,3.954,3.846,1.641,0.000,3.106,0.524,0.000,0.000,0.000,0.000,0.000,0.000,0.000,0.000,0.000,0.000,3.142,6.283,0.000,1.004,1.569,1.569,4.085,6.281,1.199,4.712,0.000,0.000,-1.838,-4.245,0.990,4.805,1.622,1.519,5.281,4.712,4.713,2.202,6.278,5.084,1.581,0.023,0.000,-1.183,-4.307,0.992,4.810,1.563,1.588,
28.780,34.760,-1.566,-4.862,1.478,-0.001,6.266,0.000,2.713,0.845,1.480,0.000,4.313,1.510,3.954,3.846,1.641,0.000,3.106,0.524,0.000,0.000,0.000,0.000,0.000,0.000,0.000,0.000,0.000,0.000,3.142,6.283,0.000,1.003,1.569,1.569,4.085,6.281,1.199,4.712,0.000,0.000,-1.838,-4.245,0.990,4.805,1.624,1.517,5.281,4.712,4.713,2.200,6.279,5.083,1.575,0.008,0.000,-1.184,-4.306,0.991,4.809,1.591,1.554,
28.880,34.860,-1.566,-4.862,1.478,-0.001,6.266,0.000,2.713,0.845,1.480,0.000,4.313,1.510,3.954,3.846,1.641,0.000,3.106,0.524,0.000,0.000,0.000,0.000,0.000,0.000,0.000,0.000,0.000,0.000,3.142,6.283,0.000,1.003,1.569,1.569,4.085,6.281,1.199,4.712,0.000,0.000,-1.838,-4.245,0.990,4.805,1.624,1.517,5.281,4.712,4.713,2.200,6.279,5.083,1.575,0.008,0.000,-1.184,-4.306,0.991,4.809,1.591,1.554,
28.980,34.960,-1.566,-4.862,1.478,-0.001,6.266,0.000,2.713,0.845,1.480,0.000,4.313,1.510,3.954,3.846,1.641,0.000,3.106,0.524,0.000,0.000,0.000,0.000,0.000,0.000,0.000,0.000,0.000,0.000,3.142,6.283,0.000,1.003,1.569,1.569,4.085,6.281,1.199,4.712,0.000,0.000,-1.838,-4.245,0.990,4.805,1.624,1.517,5.281,4.712,4.713,2.200,6.279,5.083,1.575,0.008,0.000,-1.184,-4.306,0.991,4.809,1.591,1.554,
29.080,35.060,-1.566,-4.862,1.478,0.000,6.271,0.000,2.713,0.845,1.480,0.000,4.313,1.510,3.954,3.846,1.641,0.000,3.106,0.524,0.000,0.000,0.000,0.000,0.000,0.000,0.000,0.000,0.000,0.000,3.142,6.283,0.000,1.003,1.569,1.569,4.085,6.281,1.199,4.712,0.000,0.000,-1.838,-4.245,0.990,4.805,1.623,1.518,5.281,4.712,4.713,2.202,6.278,5.084,1.581,0.023,0.000,-1.183,-4.307,0.992,4.810,1.564,1.588,
29.180,35.160,-1.566,-4.862,1.478,0.000,6.271,0.000,2.713,0.845,1.480,0.000,4.313,1.510,3.954,3.846,1.641,0.000,3.106,0.524,0.000,0.000,0.000,0.000,0.000,0.000,0.000,0.000,0.000,0.000,3.142,6.283,0.000,1.003,1.569,1.569,4.085,6.281,1.199,4.712,0.000,0.000,-1.838,-4.245,0.990,4.805,1.623,1.518,5.281,4.712,4.713,2.202,6.278,5.084,1.581,0.023,0.000,-1.183,-4.307,0.992,4.810,1.564,1.588,
29.273,35.253,-1.565,-4.858,1.502,0.131,0.799,0.000,2.615,0.838,1.490,0.000,4.309,1.537,4.202,3.868,1.214,0.000,3.071,0.526,0.000,0.000,0.000,0.000,0.000,0.000,0.000,0.000,0.000,0.000,3.142,0.000,6.283,1.004,1.570,1.572,4.085,6.281,1.199,4.712,0.000,0.000,-1.851,-4.248,0.990,4.784,1.633,1.509,5.282,4.713,4.714,2.199,6.281,5.083,1.572,0.003,0.000,-1.196,-4.293,0.991,4.785,1.604,1.539,
29.380,35.360,-1.564,-4.844,1.575,0.121,0.510,0.000,2.362,0.819,1.526,4.950,4.313,1.793,0.000,1.140,1.399,0.000,3.001,0.541,0.000,0.000,0.000,0.000,0.000,0.000,0.000,0.000,0.000,0.000,3.142,0.002,6.282,1.003,1.569,1.568,4.084,6.282,1.199,4.711,0.000,0.000,-1.896,-4.257,0.991,4.719,4.331,5.092,5.278,4.718,4.748,2.234,6.205,5.013,1.612,0.028,0.000,-1.198,-4.267,0.982,4.824,1.957,1.215,
29.480,35.460,-1.565,-4.840,1.595,0.028,0.322,0.000,2.300,0.814,1.538,3.878,4.319,1.745,0.000,1.080,1.373,0.000,3.001,0.548,0.000,0.000,0.000,0.000,0.000,0.000,0.000,0.000,0.000,0.000,3.142,0.003,6.282,1.002,1.571,1.572,4.085,6.281,1.200,4.712,0.000,0.000,-1.906,-4.258,0.991,4.734,4.552,4.872,5.277,4.722,4.765,2.235,6.161,5.014,1.606,0.043,0.000,-1.188,-4.257,0.982,4.859,1.854,1.305,
29.580,35.560,-1.564,-4.843,1.596,-0.236,6.267,0.000,2.300,0.814,1.538,3.873,4.315,1.744,0.000,1.080,1.378,0.000,3.001,0.709,0.000,0.000,0.000,0.000,0.000,0.000,0.000,0.000,0.000,0.000,3.142,0.003,0.001,1.000,1.571,1.571,4.092,6.281,1.200,4.712,0.000,0.000,-1.906,-4.260,0.989,4.736,4.345,5.078,5.280,4.713,4.712,2.199,6.282,5.083,1.570,0.000,0.000,-1.251,-4.247,0.990,4.736,4.540,4.883,
29.680,35.660,-1.563,-4.908,1.588,-1.066,6.124,0.000,2.323,0.817,1.536,3.814,4.250,1.569,0.000,1.286,1.463,0.000,3.001,0.769,0.000,0.000,0.000,0.000,0.000,0.000,0.000,0.000,0.000,0.000,3.142,0.005,0.001,0.999,1.572,1.573,4.094,6.281,1.200,4.712,0.000,0.000,-1.899,-4.322,0.989,4.729,4.080,5.344,5.280,4.714,4.715,2.200,6.282,5.083,1.570,0.000,0.000,-1.243,-4.314,0.990,4.727,4.422,5.002,
29.764,35.744,-1.561,-5.040,1.585,-1.425,6.273,0.000,2.336,0.820,1.536,3.663,4.117,1.400,4.717,3.964,1.361,0.000,3.001,0.900,0.000,0.000,0.000,0.000,0.000,0.000,0.000,0.000,0.000,0.000,3.142,0.000,0.000,1.003,1.570,1.570,4.086,6.281,1.199,4.712,0.000,0.000,-1.897,-4.456,0.990,4.727,4.345,5.079,5.280,4.712,4.712,2.199,6.282,5.083,1.570,0.000,0.000,-1.241,-4.446,0.990,4.727,4.427,4.997,
29.880,35.860,-1.559,-5.160,1.586,-0.977,6.276,0.000,1.283,0.960,1.538,3.518,3.997,1.250,1.203,3.962,1.877,0.000,3.001,1.023,0.000,0.000,0.000,0.000,0.000,0.000,0.000,0.000,0.000,0.000,3.142,6.281,6.283,1.005,1.568,1.568,4.082,6.281,1.199,4.712,0.000,0.000,-1.897,-4.578,0.990,4.730,4.544,4.880,5.281,4.711,4.710,2.199,6.282,5.083,1.570,0.000,0.000,-1.241,-4.567,0.991,4.729,4.480,4.944,
29.978,35.958,-1.558,-5.227,1.586,-0.787,6.275,0.000,1.285,1.207,1.539,3.438,3.930,1.166,1.052,3.961,1.875,0.000,3.001,1.092,0.000,0.000,0.000,0.000,0.000,0.000,0.000,0.000,0.000,0.000,3.142,6.283,0.000,1.004,1.569,1.569,4.085,6.281,1.199,4.712,0.000,0.000,-1.895,-4.643,0.990,4.728,4.410,5.014,5.281,4.711,4.712,2.199,6.282,5.083,1.570,0.000,0.000,-1.239,-4.633,0.990,4.728,4.453,4.971,
30.060,36.040,-1.556,-5.332,1.586,-1.035,6.274,0.000,1.287,1.500,1.541,3.312,3.826,1.035,1.051,4.017,1.874,0.000,3.001,1.212,0.000,0.000,0.000,0.000,0.000,0.000,0.000,0.000,0.000,0.000,3.142,0.001,0.001,1.002,1.570,1.571,4.088,6.281,1.200,4.712,0.000,0.000,-1.893,-4.747,0.990,4.727,4.269,5.155,5.280,4.712,4.713,2.199,6.282,5.083,1.570,0.000,0.000,-1.237,-4.738,0.990,4.727,4.424,5.000,
30.180,36.160,-1.554,-5.440,1.587,-1.120,6.274,0.000,1.289,1.501,1.543,3.181,3.717,0.924,1.101,4.337,1.872,0.000,3.001,1.348,0.000,0.000,0.000,0.000,0.000,0.000,0.000,0.000,0.000,0.000,3.142,0.000,0.000,1.003,1.570,1.570,4.086,6.281,1.199,4.712,0.000,0.000,-1.892,-4.856,0.990,4.729,4.387,5.037,5.281,4.712,4.712,2.199,6.282,5.083,1.570,0.000,0.000,-1.236,-4.846,0.990,4.728,4.455,4.969,
30.272,36.252,-1.553,-5.545,1.587,-0.997,6.275,2.128,1.291,1.503,1.545,3.094,3.613,0.921,1.099,4.647,1.870,0.000,2.966,0.000,0.000,0.000,0.000,0.000,0.000,0.000,0.000,0.000,0.000,0.000,3.142,6.283,0.000,1.004,1.569,1.569,4.085,6.281,1.199,4.712,0.000,0.000,-1.891,-4.961,0.990,4.729,4.436,4.988,5.281,4.711,4.711,2.199,6.282,5.083,1.570,0.000,0.000,-1.235,-4.951,0.990,4.729,4.469,4.955,
30.380,36.360,-1.551,-5.640,1.587,-0.956,6.275,2.221,1.293,1.505,1.547,3.099,3.518,0.918,1.097,4.747,1.868,0.000,2.966,0.000,0.000,0.000,0.000,0.000,0.000,0.000,0.000,0.000,0.000,0.000,3.142,0.000,0.000,1.003,1.570,1.570,4.086,6.281,1.199,4.712,0.000,0.000,-1.889,-5.056,0.990,4.729,4.391,5.032,5.280,4.712,4.712,2.199,6.282,5.083,1.570,0.000,0.000,-1.233,-5.045,0.990,4.729,4.462,4.962,
30.480,36.460,-1.550,-5.717,1.588,-1.007,6.275,2.297,1.295,1.506,1.549,3.102,3.441,0.916,1.096,4.372,1.866,0.000,2.966,0.000,0.000,0.000,0.000,0.000,0.000,0.000,0.000,0.000,0.000,0.000,3.142,0.000,0.000,1.003,1.570,1.570,4.087,6.281,1.199,4.712,0.000,0.000,-1.888,-5.133,0.990,4.729,4.375,5.049,5.280,4.712,4.712,2.199,6.282,5.083,1.570,0.000,0.000,-1.232,-5.122,0.990,4.729,4.462,4.962,
30.580,36.560,-1.548,-5.839,1.588,-1.040,6.275,2.418,1.297,1.508,1.551,3.108,3.319,0.912,1.094,4.412,1.775,0.000,2.966,0.000,0.000,0.000,0.000,0.000,0.000,0.000,0.000,0.000,0.000,0.000,3.142,0.000,0.000,1.003,1.570,1.570,4.086,6.281,1.199,4.712,0.000,0.000,-1.886,-5.255,0.990,4.730,4.411,5.013,5.281,4.712,4.712,2.199,6.282,5.083,1.570,0.000,0.000,-1.230,-5.244,0.990,4.730,4.474,4.950,
30.680,36.660,-1.546,-5.939,1.588,-1.007,6.275,2.517,1.323,1.509,1.553,3.113,3.218,0.908,0.765,1.057,1.773,0.000,2.966,0.000,0.000,0.000,0.000,0.000,0.000,0.000,0.000,0.000,0.000,0.000,3.142,6.283,0.000,1.003,1.570,1.570,4.086,6.281,1.199,4.712,0.000,0.000,-1.885,-5.356,0.990,4.730,4.427,4.996,5.281,4.712,4.712,2.199,6.282,5.083,1.570,0.000,0.000,-1.229,-5.345,0.990,4.730,4.481,4.943,
30.770,36.751,-1.545,-6.018,1.589,-0.996,6.275,2.594,1.423,1.511,1.668,3.117,3.140,0.905,0.572,1.056,1.863,0.000,2.966,0.000,0.000,0.000,0.000,0.000,0.000,0.000,0.000,0.000,0.000,0.000,3.142,0.000,0.000,1.003,1.570,1.570,4.086,6.281,1.199,4.712,0.000,0.000,-1.884,-5.435,0.990,4.731,4.422,5.002,5.281,4.712,4.712,2.199,6.282,5.083,1.570,0.000,0.000,-1.228,-5.423,0.990,4.730,4.483,4.941,
30.880,36.860,-1.544,-6.077,1.589,0.003,6.277,2.652,1.500,1.511,0.000,3.122,3.080,0.903,0.571,1.109,1.934,0.000,2.966,0.000,0.000,0.000,0.000,0.000,0.000,0.000,0.000,0.000,0.000,0.000,3.142,6.278,6.282,1.008,1.568,1.566,4.076,6.282,1.199,4.712,0.000,0.000,-1.886,-5.498,0.991,4.735,4.726,4.697,5.281,4.710,4.709,2.198,6.282,5.083,1.571,0.000,0.000,-1.230,-5.482,0.991,4.735,4.546,4.878,
30.970,36.950,-1.544,-6.048,1.585,0.688,0.014,2.630,1.458,1.513,1.666,3.101,3.109,0.909,0.572,1.107,1.905,0.000,2.966,0.000,0.000,0.000,0.000,0.000,0.000,0.000,0.000,0.000,0.000,0.000,3.142,6.278,6.283,1.008,1.568,1.566,4.076,6.282,1.199,4.712,0.000,0.000,-1.883,-5.467,0.991,4.731,4.712,4.712,5.282,4.710,4.709,2.197,6.283,5.083,1.571,0.000,0.000,-1.227,-5.454,0.991,4.731,4.470,4.954,
31.080,37.060,-1.546,-5.925,1.584,1.166,6.264,2.508,1.307,1.512,1.551,3.095,3.233,0.912,0.805,1.055,0.000,0.000,2.966,0.000,0.000,0.000,0.000,0.000,0.000,0.000,0.000,0.000,1.316,0.000,3.142,6.282,0.000,1.004,1.569,1.569,4.085,6.281,1.199,4.712,0.000,0.000,-1.882,-5.340,0.990,4.727,4.369,5.055,5.281,4.711,4.711,2.198,6.282,5.083,1.570,0.000,0.000,-1.226,-5.331,0.990,4.727,4.398,5.026,
31.179,37.159,-1.547,-5.846,1.585,0.805,6.264,2.430,1.305,1.510,1.550,3.095,3.311,0.914,1.093,4.413,0.000,0.000,2.966,0.000,0.000,0.000,0.000,0.000,0.000,0.000,0.000,0.000,1.178,0.000,3.142,0.002,0.001,1.001,1.570,1.571,4.089,6.281,1.200,4.712,0.000,0.000,-1.882,-5.260,0.989,4.726,4.156,5.268,5.281,4.712,4.713,2.198,6.282,5.083,1.570,0.000,0.000,-1.227,-5.252,0.990,4.725,4.345,5.080,
31.280,37.260,-1.548,-5.774,1.585,0.559,6.266,2.358,1.302,1.509,1.550,3.096,3.383,0.915,1.094,4.390,0.000,0.000,2.966,0.000,0.000,0.000,0.000,0.000,0.000,0.000,0.000,0.000,1.183,0.000,3.142,6.282,0.000,1.004,1.569,1.569,4.085,6.281,1.199,4.712,0.000,0.000,-1.885,-5.190,0.990,4.728,4.413,5.011,5.281,4.711,4.711,2.198,6.282,5.083,1.570,0.000,0.000,-1.229,-5.180,0.990,4.728,4.419,5.005,
31.380,37.360,-1.549,-5.709,1.586,0.797,6.265,2.292,1.299,1.508,1.549,3.096,3.449,0.916,1.095,4.368,1.860,0.000,2.966,0.000,0.000,0.000,0.000,0.000,0.000,0.000,0.000,0.000,0.000,0.000,3.142,6.281,0.000,1.005,1.569,1.568,4.083,6.281,1.199,4.712,0.000,0.000,-1.887,-5.125,0.990,4.729,4.500,4.924,5.281,4.711,4.710,2.198,6.282,5.083,1.570,0.000,0.000,-1.231,-5.114,0.990,4.730,4.446,4.978,
31.474,37.454,-1.550,-5.625,1.586,0.868,6.265,2.208,1.297,1.506,1.548,3.096,3.533,0.917,1.096,0.000,1.863,0.000,2.966,0.000,0.000,0.000,0.000,0.000,0.000,0.000,0.000,0.000,0.000,0.000,3.142,6.282,0.000,1.004,1.569,1.569,4.085,6.281,1.199,4.712,0.000,0.000,-1.888,-5.041,0.990,4.729,4.410,5.014,5.281,4.711,4.711,2.198,6.282,5.083,1.570,0.000,0.000,-1.232,-5.030,0.990,4.729,4.431,4.993,
31.580,37.560,-1.551,-5.545,1.587,0.744,6.265,2.129,1.294,1.505,1.547,3.096,3.612,0.919,1.098,0.000,1.867,0.000,2.966,0.000,0.000,0.000,0.000,0.000,0.000,0.000,0.000,1.086,0.000,0.000,3.142,6.283,0.001,1.003,1.570,1.570,4.086,6.281,1.199,4.712,0.000,0.000,-1.889,-4.961,0.990,4.729,4.380,5.044,5.281,4.711,4.712,2.198,6.282,5.083,1.570,0.000,0.000,-1.233,-4.951,0.990,4.729,4.429,4.996,
31.680,37.660,-1.552,-5.489,1.587,0.705,6.265,2.074,1.292,1.504,1.546,3.122,3.668,0.920,1.098,0.000,1.869,0.000,2.966,0.000,0.000,0.000,0.000,0.000,0.000,0.000,0.000,1.100,0.000,0.000,3.142,6.282,0.000,1.004,1.569,1.569,4.085,6.281,1.199,4.712,0.000,0.000,-1.891,-4.906,0.990,4.730,4.427,4.997,5.281,4.711,4.711,2.198,6.282,5.083,1.570,0.000,0.000,-1.235,-4.895,0.990,4.730,4.444,4.980,
31.780,37.760,-1.554,-5.403,1.588,0.775,6.265,1.987,1.288,1.502,1.545,3.224,3.755,0.947,1.100,0.000,1.873,0.000,3.001,0.000,0.000,0.000,0.000,0.000,0.000,0.000,0.000,1.320,0.000,0.000,3.142,6.282,0.000,1.004,1.569,1.569,4.084,6.281,1.199,4.712,0.000,0.000,-1.893,-4.820,0.990,4.730,4.462,4.962,5.281,4.711,4.711,2.198,6.282,5.083,1.570,0.000,0.000,-1.237,-4.808,0.990,4.731,4.458,4.966,
31.880,37.860,-1.555,-5.341,1.588,0.794,6.265,1.926,1.286,1.501,1.544,3.297,3.816,1.025,1.049,4.027,1.876,0.000,3.001,0.000,0.000,0.000,0.000,0.000,0.000,0.000,0.000,0.000,0.000,0.000,3.142,6.282,0.000,1.004,1.569,1.569,4.085,6.281,1.199,4.712,0.000,0.000,-1.894,-4.758,0.990,4.731,4.447,4.977,5.281,4.711,4.711,2.198,6.282,5.083,1.570,0.000,0.000,-1.238,-4.746,0.990,4.731,4.458,4.966,
31.972,37.952,-1.556,-5.265,1.588,0.763,6.265,1.850,1.283,1.499,1.543,3.388,3.893,1.121,1.050,3.963,1.879,0.000,3.001,0.000,0.000,0.000,0.000,0.000,0.000,0.000,0.000,0.000,0.000,0.000,3.142,6.282,0.000,1.004,1.569,1.569,4.085,6.281,1.199,4.712,0.000,0.000,-1.895,-4.682,0.990,4.731,4.439,4.985,5.281,4.711,4.711,2.198,6.282,5.083,1.570,0.000,0.000,-1.239,-4.670,0.990,4.731,4.461,4.964,
32.080,38.060,-1.558,-5.177,1.589,0.750,6.265,1.762,1.280,1.032,1.541,3.492,3.981,1.232,1.159,3.965,1.884,0.000,3.001,0.000,0.000,0.000,0.000,0.000,0.000,0.000,0.000,0.000,0.000,0.000,3.142,6.282,0.000,1.004,1.569,1.569,4.085,6.281,1.199,4.712,0.000,0.000,-1.897,-4.594,0.990,4.731,4.459,4.964,5.281,4.711,4.711,2.198,6.282,5.083,1.570,0.000,0.000,-1.241,-4.582,0.990,4.731,4.470,4.955,
32.180,38.160,-1.559,-5.103,1.589,0.768,6.266,1.688,2.327,0.821,1.540,3.580,4.055,1.326,4.557,3.967,1.697,0.000,3.001,0.000,0.000,0.000,0.000,0.000,0.000,0.000,0.000,0.000,0.000,0.000,3.142,6.282,0.000,1.004,1.569,1.569,4.085,6.281,1.199,4.712,0.000,0.000,-1.899,-4.520,0.990,4.732,4.468,4.956,5.281,4.711,4.711,2.198,6.282,5.083,1.570,0.000,0.000,-1.243,-4.507,0.990,4.732,4.475,4.949,
32.270,38.250,-1.561,-5.027,1.590,0.771,6.265,1.613,2.323,0.819,1.539,3.669,4.131,1.421,4.828,3.970,1.342,0.000,3.001,0.000,0.000,0.000,0.000,0.000,0.000,0.000,0.000,0.000,0.000,0.000,3.142,6.282,0.000,1.004,1.569,1.569,4.085,6.281,1.199,4.712,0.000,0.000,-1.900,-4.444,0.990,4.732,4.467,4.957,5.281,4.711,4.711,2.198,6.282,5.083,1.570,0.000,0.000,-1.244,-4.432,0.990,4.732,4.479,4.945,
32.380,38.360,-1.562,-4.952,1.590,0.761,6.266,1.538,2.320,0.818,1.537,3.757,4.206,1.516,0.000,3.972,1.514,0.000,3.001,0.000,0.000,0.000,0.000,0.000,0.000,0.000,0.000,0.000,0.000,0.000,3.142,6.282,0.000,1.004,1.569,1.569,4.085,6.281,1.199,4.712,0.000,0.000,-1.902,-4.370,0.990,4.732,4.470,4.954,5.281,4.711,4.711,2.198,6.282,5.083,1.570,0.000,0.000,-1.246,-4.357,0.990,4.733,4.483,4.941,
32.480,38.460,-1.563,-4.893,1.590,0.759,6.266,1.479,2.317,0.816,1.536,3.827,4.265,1.591,0.000,1.233,1.442,0.000,3.001,0.000,0.000,0.000,0.000,0.000,0.000,0.000,0.000,0.000,0.000,0.000,3.142,6.282,0.000,1.004,1.569,1.569,4.085,6.281,1.199,4.712,0.000,0.000,-1.903,-4.310,0.990,4.733,4.476,4.948,5.281,4.711,4.711,2.198,6.282,5.083,1.570,0.000,0.000,-1.248,-4.297,0.990,4.733,4.487,4.937,
32.580,38.560,-1.565,-4.803,1.591,0.765,6.266,1.390,2.313,0.815,1.535,3.933,4.355,1.755,0.000,1.078,1.334,0.000,3.001,0.000,0.000,0.000,0.000,0.000,0.000,0.000,0.000,0.000,0.000,0.000,3.142,6.282,0.000,1.004,1.569,1.569,4.085,6.281,1.199,4.712,0.000,0.000,-1.905,-4.221,0.990,4.733,4.483,4.941,5.281,4.711,4.711,2.198,6.282,5.083,1.570,0.000,0.000,-1.250,-4.208,0.990,4.733,4.492,4.932,
32.680,38.660,-1.566,-4.728,1.591,0.766,6.266,1.316,2.309,0.813,1.533,0.000,4.430,1.757,0.000,1.080,1.243,0.000,3.001,0.000,0.000,0.000,0.000,0.000,0.000,0.000,0.000,0.000,0.000,0.000,3.142,6.282,0.000,1.004,1.569,1.569,4.085,6.281,1.199,4.712,0.000,0.000,-1.907,-4.146,0.990,4.734,4.485,4.938,5.281,4.711,4.711,2.198,6.282,5.083,1.570,0.000,0.000,-1.251,-4.132,0.990,4.734,4.496,4.928,
32.778,38.758,-1.568,-4.669,1.591,0.763,6.266,1.256,2.306,0.812,1.532,0.000,4.490,1.758,0.000,1.135,1.171,0.000,3.001,0.000,0.000,0.000,0.000,0.000,0.000,0.000,2.614,0.000,0.000,0.000,3.142,6.282,0.000,1.004,1.569,1.569,4.085,6.281,1.199,4.712,0.000,0.000,-1.909,-4.086,0.990,4.734,4.488,4.936,5.281,4.711,4.711,2.198,6.282,5.083,1.570,0.000,0.000,-1.253,-4.073,0.990,4.734,4.499,4.925,
32.862,38.842,-1.570,-4.579,1.592,0.763,6.266,1.167,2.302,0.809,0.835,0.000,4.579,1.760,0.000,1.137,1.062,0.000,3.001,0.000,0.000,0.000,0.000,0.000,0.000,0.000,2.764,0.000,0.000,0.000,3.142,6.282,0.000,1.004,1.569,1.569,4.085,6.281,1.199,4.712,0.000,0.000,-1.911,-3.997,0.990,4.734,4.494,4.930,5.281,4.711,4.711,2.198,6.282,5.083,1.570,0.000,0.000,-1.255,-3.983,0.990,4.735,4.503,4.921,
32.980,38.960,-1.571,-4.504,1.592,0.764,6.266,1.093,2.298,0.808,0.833,0.000,4.654,1.762,0.000,1.139,1.028,0.000,3.001,0.000,0.000,0.000,0.000,0.000,0.000,0.000,2.852,0.000,0.000,0.000,3.142,6.282,0.000,1.004,1.569,1.569,4.085,6.281,1.199,4.712,0.000,0.000,-1.913,-3.923,0.990,4.735,4.498,4.926,5.281,4.711,4.711,2.198,6.282,5.083,1.570,0.000,0.000,-1.257,-3.908,0.990,4.735,4.507,4.917,
33.080,39.060,-1.573,-4.430,1.593,0.764,6.266,1.019,2.295,0.806,0.832,0.000,4.729,1.764,0.000,1.141,1.031,0.000,3.001,0.000,0.000,0.000,0.000,0.000,0.000,0.000,3.029,0.000,0.000,0.000,3.142,6.282,0.000,1.004,1.569,1.569,4.085,6.281,1.199,4.712,0.000,0.000,-1.914,-3.848,0.990,4.735,4.501,4.923,5.281,4.711,4.711,2.198,6.282,5.083,1.570,0.000,0.000,-1.259,-3.833,0.990,4.735,4.510,4.914,
33.180,39.160,-1.574,-4.355,1.593,0.763,6.266,0.945,2.291,0.804,0.830,0.000,4.803,1.766,0.000,1.143,1.035,0.000,3.001,0.000,0.000,0.000,0.000,0.000,0.000,0.000,3.140,0.000,0.000,0.000,3.142,6.282,0.000,1.004,1.569,1.569,4.085,6.281,1.199,4.712,0.000,0.000,-1.916,-3.773,0.990,4.736,4.504,4.919,5.281,4.711,4.711,2.198,6.282,5.083,1.570,0.000,0.000,-1.261,-3.758,0.990,4.736,4.514,4.910,
33.280,39.260,-1.576,-4.295,1.593,0.763,6.266,0.885,2.288,1.079,0.829,2.622,4.863,1.685,0.000,1.144,1.038,0.000,3.001,0.000,0.000,0.000,0.000,0.000,0.000,0.000,3.237,0.000,0.000,0.000,3.142,6.282,0.000,1.004,1.569,1.569,4.085,6.281,1.199,4.712,0.000,0.000,-1.918,-3.714,0.990,4.736,4.507,4.916,5.281,4.711,4.711,2.198,6.282,5.083,1.570,0.000,0.000,-1.262,-3.699,0.990,4.736,4.516,4.908,
33.371,39.351,-1.578,-4.221,1.594,0.764,6.266,0.811,2.284,1.021,0.827,2.621,4.938,1.687,0.000,1.146,1.042,0.000,3.001,0.000,0.000,0.000,0.000,0.000,0.000,0.000,3.352,0.000,0.000,0.000,3.142,6.282,0.000,1.004,1.569,1.569,4.085,6.281,1.199,4.712,0.000,0.000,-1.920,-3.639,0.990,4.736,4.511,4.913,5.281,4.711,4.711,2.198,6.282,5.083,1.570,0.000,0.000,-1.264,-3.624,0.990,4.736,4.519,4.905,
33.480,39.460,-1.580,-4.131,1.594,0.764,6.266,0.722,2.279,1.472,0.825,2.619,0.000,1.736,1.072,1.149,1.046,0.000,3.142,0.000,0.000,0.000,0.000,0.000,0.000,0.000,0.000,0.000,0.000,0.000,3.142,6.282,0.000,1.004,1.569,1.569,4.085,6.281,1.199,4.712,0.000,0.000,-1.922,-3.550,0.990,4.737,4.514,4.909,5.281,4.711,4.711,2.198,6.282,5.083,1.570,0.000,0.000,-1.266,-3.534,0.990,4.737,4.523,4.901,
33.580,39.560,-1.581,-4.056,1.595,0.764,6.266,0.648,2.275,1.470,0.823,2.617,0.000,1.831,1.074,1.048,1.050,0.000,3.142,0.000,0.000,0.000,0.000,0.000,0.000,0.000,0.000,0.000,0.000,0.000,3.142,6.282,0.000,1.004,1.569,1.569,4.085,6.281,1.199,4.712,0.000,0.000,-1.924,-3.475,0.990,4.737,4.517,4.906,5.281,4.711,4.711,2.198,6.282,5.083,1.570,0.000,0.000,-1.268,-3.459,0.990,4.737,4.526,4.898,
33.675,39.655,-1.583,-3.986,1.595,0.525,6.266,0.579,2.271,1.468,0.821,2.616,0.000,1.919,1.128,0.843,1.054,0.000,3.142,0.000,0.000,0.000,0.000,0.000,0.000,0.000,0.000,0.000,0.000,0.000,3.142,0.002,0.001,1.001,1.570,1.571,4.090,6.281,1.200,4.712,0.000,0.000,-1.925,-3.404,0.989,4.736,4.394,5.029,5.281,4.712,4.713,2.198,6.282,5.083,1.570,0.000,0.000,-1.269,-3.389,0.990,4.735,4.506,4.918,
33.780,39.760,-1.584,-3.955,1.596,0.178,6.265,0.547,2.269,1.467,0.821,2.616,0.000,1.959,1.129,0.750,1.056,0.000,3.142,0.000,0.000,0.000,0.000,0.000,3.405,0.000,0.000,0.000,0.000,0.000,3.106,0.000,0.001,1.002,1.570,1.570,4.087,6.281,1.200,4.712,0.000,0.000,-1.927,-3.374,0.990,4.737,4.462,4.961,5.281,4.712,4.712,2.198,6.282,5.083,1.570,0.000,0.000,-1.271,-3.358,0.990,4.737,4.522,4.902,
33.880,39.860,-1.583,-3.959,1.595,-0.333,6.193,0.551,2.271,1.468,0.821,2.615,0.000,1.954,1.128,0.762,1.054,0.000,3.142,0.000,0.000,0.000,0.000,0.000,3.340,0.000,0.000,0.000,0.000,0.000,3.071,0.004,0.001,0.999,1.571,1.572,4.094,6.280,1.200,4.712,0.000,0.000,-1.924,-3.375,0.989,4.734,4.274,5.150,5.280,4.712,4.714,2.199,6.281,5.083,1.570,0.000,0.000,-1.268,-3.362,0.990,4.734,4.506,4.919,
33.966,39.946,-1.581,-4.062,1.582,-1.329,6.134,0.658,2.311,1.475,0.820,2.569,0.000,1.806,1.078,1.145,1.031,0.000,3.142,0.000,0.000,0.000,0.000,0.000,3.217,0.000,0.000,0.000,0.000,0.000,3.036,0.004,0.001,0.999,1.571,1.573,4.093,6.280,1.200,4.712,0.000,0.000,-1.914,-3.474,0.989,4.724,3.823,5.601,5.280,4.713,4.715,2.199,6.281,5.083,1.570,0.000,0.000,-1.258,-3.470,0.990,4.721,4.222,5.203,
34.080,40.060,-1.580,-4.200,1.582,-1.302,6.274,0.795,2.315,1.477,0.821,2.570,0.000,1.717,0.000,1.144,1.027,0.000,3.142,0.000,0.000,0.000,0.000,0.000,3.078,0.000,4.411,0.000,0.000,0.000,3.036,6.282,0.000,1.004,1.569,1.568,4.083,6.281,1.199,4.712,0.000,0.000,-1.916,-3.616,0.990,4.725,4.423,5.001,5.281,4.711,4.711,2.199,6.282,5.083,1.570,0.000,0.000,-1.259,-3.608,0.990,4.725,4.401,5.023,
34.180,40.160,-1.579,-4.287,1.582,-0.908,6.276,0.881,2.316,1.023,0.822,2.573,0.000,1.715,0.000,1.143,1.026,0.000,3.142,0.000,0.000,0.000,0.000,0.000,2.992,0.000,0.000,0.000,0.000,0.000,3.036,6.281,6.283,1.005,1.569,1.568,4.082,6.281,1.199,4.712,0.000,0.000,-1.915,-3.703,0.990,4.726,4.485,4.939,5.281,4.711,4.710,2.199,6.282,5.083,1.570,0.000,0.000,-1.259,-3.694,0.991,4.726,4.420,5.004,
34.272,40.252,-1.578,-4.384,1.583,-0.866,6.273,0.976,2.316,0.803,0.824,0.000,0.000,1.795,0.000,1.142,1.025,0.000,3.142,0.000,0.000,0.000,0.000,0.000,2.895,0.000,0.000,0.000,0.000,0.000,3.036,0.001,0.000,1.002,1.570,1.571,4.088,6.281,1.200,4.712,0.000,0.000,-1.912,-3.798,0.990,4.724,4.179,5.245,5.280,4.712,4.713,2.199,6.282,5.083,1.570,0.000,0.000,-1.256,-3.791,0.990,4.724,4.345,5.079,
34.380,40.360,-1.576,-4.481,1.583,-1.102,6.274,1.073,2.317,0.804,0.825,0.000,0.000,1.792,0.000,1.141,1.023,0.000,3.142,0.000,0.000,0.000,0.000,0.000,2.790,0.000,0.000,0.000,0.000,0.000,3.036,0.001,0.000,1.002,1.570,1.571,4.088,6.281,1.200,4.712,0.000,0.000,-1.911,-3.895,0.990,4.725,4.193,5.230,5.280,4.712,4.713,2.199,6.282,5.083,1.570,0.000,0.000,-1.255,-3.888,0.990,4.724,4.356,5.068,
34.480,40.460,-1.575,-4.570,1.584,-1.107,6.274,1.160,2.318,0.805,0.826,0.000,0.000,1.790,0.000,1.139,1.057,0.000,3.142,0.000,0.000,0.000,0.000,0.000,2.689,0.000,0.000,0.000,0.000,0.000,3.001,6.283,0.000,1.003,1.570,1.570,4.085,6.281,1.199,4.712,0.000,0.000,-1.911,-3.984,0.990,4.726,4.329,5.095,5.281,4.711,4.712,2.199,6.282,5.083,1.570,0.000,0.000,-1.255,-3.976,0.990,4.725,4.397,5.027,
34.563,40.543,-1.574,-4.691,1.584,-0.964,6.275,1.280,2.319,0.807,1.521,0.000,0.000,1.786,0.000,1.138,1.204,0.000,3.142,0.000,0.000,0.000,0.000,0.000,2.514,0.000,0.000,0.000,0.000,0.000,3.001,6.283,0.000,1.004,1.569,1.569,4.085,6.281,1.199,4.712,0.000,0.000,-1.910,-4.106,0.990,4.726,4.358,5.065,5.281,4.711,4.712,2.199,6.282,5.083,1.570,0.000,0.000,-1.254,-4.098,0.990,4.726,4.413,5.012,
34.680,40.660,-1.572,-4.785,1.584,-0.976,6.274,1.373,2.320,0.808,1.523,4.990,0.000,1.783,0.000,1.084,1.318,0.000,3.142,0.000,0.000,0.000,0.000,0.000,2.385,0.000,0.000,0.000,0.000,0.000,3.001,0.000,0.000,1.003,1.570,1.570,4.086,6.281,1.199,4.712,0.000,0.000,-1.908,-4.200,0.990,4.726,4.303,5.121,5.280,4.712,4.712,2.199,6.282,5.083,1.570,0.000,0.000,-1.253,-4.192,0.990,4.726,4.403,5.021,
34.780,40.760,-1.571,-4.864,1.585,-1.029,6.274,1.451,2.321,0.809,1.524,3.876,0.000,1.619,0.000,1.168,1.413,0.000,3.142,0.000,0.000,0.000,0.000,0.000,2.267,0.000,0.000,0.000,0.000,0.000,3.001,0.000,0.000,1.003,1.570,1.570,4.086,6.281,1.199,4.712,0.000,0.000,-1.908,-4.279,0.990,4.726,4.308,5.116,5.280,4.712,4.712,2.199,6.282,5.083,1.570,0.000,0.000,-1.252,-4.271,0.990,4.726,4.409,5.015,
34.864,40.844,-1.570,-4.987,1.585,-1.030,6.274,1.572,2.322,0.811,1.526,3.728,0.000,1.467,4.895,3.973,1.334,0.000,3.142,0.000,0.000,0.000,0.000,0.000,2.035,0.000,0.000,0.000,0.000,0.000,3.001,6.283,0.000,1.003,1.570,1.570,4.086,6.281,1.199,4.712,0.000,0.000,-1.906,-4.402,0.990,4.727,4.360,5.064,5.281,4.712,4.712,2.199,6.282,5.083,1.570,0.000,0.000,-1.250,-4.393,0.990,4.727,4.428,4.996,
34.980,40.960,-1.568,-5.086,1.585,-0.998,6.275,1.670,2.323,0.812,1.528,3.608,0.000,1.342,4.556,3.972,1.681,0.000,3.142,0.000,0.000,0.000,0.000,0.000,1.866,0.000,0.000,0.000,0.000,0.000,3.001,6.283,0.000,1.003,1.570,1.570,4.086,6.281,1.199,4.712,0.000,0.000,-1.905,-4.502,0.990,4.728,4.368,5.056,5.281,4.712,4.712,2.199,6.282,5.083,1.570,0.000,0.000,-1.249,-4.493,0.990,4.727,4.435,4.989,
35.080,41.060,-1.567,-5.165,1.586,-0.999,6.275,1.748,1.270,0.976,1.530,3.513,0.000,1.244,1.189,3.971,1.892,0.000,3.142,0.000,0.000,0.000,0.000,0.000,1.722,0.000,0.000,0.000,0.000,0.000,3.001,0.000,0.000,1.003,1.570,1.570,4.086,6.281,1.199,4.712,0.000,0.000,-1.904,-4.580,0.990,4.728,4.361,5.062,5.280,4.712,4.712,2.199,6.282,5.083,1.570,0.000,0.000,-1.248,-4.571,0.990,4.727,4.438,4.987,
35.180,41.160,-1.565,-5.284,1.586,-1.019,6.275,1.865,1.272,1.490,1.532,3.369,0.000,1.096,1.060,3.970,1.890,0.000,3.142,0.000,0.000,0.000,0.000,0.000,1.441,0.000,0.000,0.000,0.000,0.000,3.001,0.000,0.000,1.003,1.570,1.570,4.086,6.281,1.199,4.712,0.000,0.000,-1.903,-4.700,0.990,4.728,4.370,5.053,5.280,4.712,4.712,2.199,6.282,5.083,1.570,0.000,0.000,-1.247,-4.690,0.990,4.728,4.445,4.979,
35.280,41.260,-1.564,-5.364,1.587,-1.018,6.275,1.944,1.274,1.492,1.533,3.273,0.000,0.995,1.059,4.110,1.888,0.000,3.142,0.000,0.000,0.000,0.000,0.000,1.282,0.000,0.000,0.000,0.000,0.000,3.001,0.000,0.000,1.003,1.570,1.570,4.086,6.281,1.199,4.712,0.000,0.000,-1.902,-4.780,0.990,4.728,4.383,5.041,5.281,4.712,4.712,2.199,6.282,5.083,1.570,0.000,0.000,-1.246,-4.770,0.990,4.728,4.451,4.973,
35.369,41.349,-1.562,-5.464,1.587,-1.009,6.275,2.043,1.276,1.493,1.535,3.153,0.000,0.937,1.109,4.404,1.887,0.000,3.142,0.000,0.000,0.000,0.000,0.000,1.101,0.000,0.000,0.000,0.000,0.000,3.001,0.000,0.000,1.003,1.570,1.570,4.086,6.281,1.199,4.712,0.000,0.000,-1.900,-4.880,0.990,4.729,4.392,5.032,5.281,4.712,4.712,2.199,6.282,5.083,1.570,0.000,0.000,-1.244,-4.869,0.990,4.729,4.458,4.967,
35.480,41.460,-1.560,-5.583,1.587,-1.010,6.275,2.160,1.278,1.495,1.537,3.082,0.000,0.933,1.107,0.000,1.884,0.000,3.142,0.000,0.000,0.000,0.000,0.000,0.814,0.000,0.000,0.000,0.000,0.000,3.001,0.000,0.000,1.003,1.570,1.570,4.086,6.281,1.199,4.712,0.000,0.000,-1.898,-4.999,0.990,4.729,4.396,5.028,5.281,4.712,4.712,2.199,6.282,5.083,1.570,0.000,0.000,-1.243,-4.988,0.990,4.729,4.463,4.961,
35.580,41.560,-1.559,-5.662,1.588,-1.013,6.275,2.239,1.280,1.496,1.539,3.086,0.000,0.931,1.105,4.362,1.883,0.000,3.142,0.000,0.000,0.000,0.000,0.000,0.659,0.000,0.000,0.000,0.000,0.000,3.001,0.000,0.000,1.003,1.570,1.570,4.086,6.281,1.199,4.712,0.000,0.000,-1.897,-5.078,0.990,4.730,4.401,5.023,5.281,4.712,4.712,2.199,6.282,5.083,1.570,0.000,0.000,-1.241,-5.068,0.990,4.729,4.467,4.957,
35.664,41.644,-1.557,-5.782,1.588,-1.013,6.275,2.356,1.282,1.498,1.541,3.092,0.000,0.000,1.103,4.401,1.880,0.000,3.142,0.000,0.000,0.000,0.000,0.000,0.441,0.523,0.000,0.000,0.000,0.000,3.001,0.000,0.000,1.003,1.570,1.570,4.086,6.281,1.199,4.712,0.000,0.000,-1.896,-5.198,0.990,4.730,4.411,5.013,5.281,4.712,4.712,2.199,6.282,5.083,1.570,0.000,0.000,-1.240,-5.187,0.990,4.730,4.474,4.950,
35.780,41.760,-1.556,-5.873,1.605,-0.045,0.629,2.425,1.258,1.493,1.553,3.178,0.000,0.000,1.096,4.431,1.835,0.000,3.142,0.000,0.000,0.000,0.000,0.000,0.343,0.315,0.000,0.000,0.000,0.000,3.001,6.282,0.001,1.005,1.572,1.576,4.084,6.278,1.199,4.713,0.000,0.000,-1.899,-5.296,0.989,4.737,4.513,4.912,5.282,4.713,4.719,2.196,6.278,5.083,1.571,0.000,0.000,-1.244,-5.272,0.990,4.737,4.481,4.945,
35.875,41.855,-1.565,-5.888,1.651,-0.465,0.365,2.607,1.326,1.468,1.689,3.413,0.000,0.000,1.093,0.000,2.091,0.000,3.142,0.000,0.000,0.000,0.000,0.000,0.478,0.463,0.000,0.000,0.000,0.000,3.071,0.006,0.002,0.997,1.570,1.570,4.097,6.280,1.200,4.711,0.000,0.000,-1.939,-5.324,0.989,4.791,4.573,4.849,5.279,4.712,4.713,2.199,6.281,5.083,1.569,0.000,0.000,-1.284,-5.275,0.990,4.791,4.653,4.770,
35.980,41.960,-1.557,-5.975,1.663,-1.256,0.033,2.772,1.458,1.471,0.000,3.455,0.000,0.000,0.858,1.102,2.121,0.000,3.142,0.000,0.000,0.000,0.000,0.000,0.384,0.348,0.000,0.000,0.000,0.000,3.036,0.004,0.001,1.000,1.571,1.572,4.093,6.280,1.200,4.712,0.000,0.000,-1.937,-5.416,0.989,4.802,4.612,4.811,5.280,4.713,4.714,2.199,6.281,5.083,1.570,0.000,0.000,-1.284,-5.358,0.990,4.802,4.665,4.759,
36.080,42.060,-1.566,-6.012,1.715,-0.091,0.978,3.218,1.585,1.449,0.000,3.323,0.000,0.000,0.897,4.474,2.353,0.000,3.142,0.000,0.000,0.000,0.000,0.000,0.342,0.316,0.000,0.000,0.000,0.000,3.001,0.006,0.002,0.998,1.573,1.576,4.097,6.279,1.200,4.712,0.000,0.000,-1.971,-5.472,0.988,4.847,4.627,4.796,5.280,4.715,4.719,2.198,6.280,5.083,1.570,0.000,0.000,-1.321,-5.381,0.990,4.847,4.674,4.750,
36.180,42.160,-1.560,-6.097,1.779,-1.207,0.253,4.058,1.904,1.445,0.000,3.804,0.000,0.000,0.622,4.339,2.685,0.000,3.142,0.000,0.000,0.000,0.000,0.000,0.354,0.413,0.000,0.000,0.000,0.000,2.931,0.005,0.001,0.999,1.570,1.571,4.094,6.280,1.200,4.712,0.000,0.000,-2.003,-5.585,0.989,4.919,4.668,4.754,5.280,4.712,4.713,2.199,6.282,5.083,1.570,0.000,0.000,-1.360,-5.453,0.990,4.919,4.692,4.731,
36.280,42.260,-1.541,-6.190,1.796,0.014,0.287,4.170,1.902,1.462,0.000,4.017,0.000,0.000,0.546,1.162,2.742,0.000,3.142,0.000,0.000,0.000,0.000,0.000,0.306,0.364,0.000,0.000,0.000,0.000,2.861,0.003,0.002,1.001,1.570,1.570,4.093,6.280,1.200,4.712,0.000,0.000,-1.992,-5.686,0.988,4.935,4.666,4.757,5.280,4.713,4.715,2.198,6.281,5.083,1.570,0.000,0.000,-1.351,-5.542,0.989,4.933,4.685,4.739,
36.368,42.348,-1.546,-6.192,1.817,-0.004,0.139,4.051,1.863,1.456,4.969,4.235,0.000,0.713,0.550,1.183,2.906,0.000,3.142,0.000,0.000,0.000,0.000,0.000,0.443,0.000,0.000,0.000,0.000,0.000,2.861,0.000,0.001,1.003,1.567,1.566,4.087,6.281,1.199,4.711,0.000,0.000,-2.010,-5.701,0.990,4.962,4.691,4.732,5.281,4.710,4.709,2.199,6.282,5.083,1.570,0.000,0.000,-1.374,-5.541,0.990,4.962,4.696,4.727,
36.480,42.460,-1.545,-6.192,1.819,0.001,6.261,4.052,1.862,1.456,4.958,4.255,0.000,0.712,0.549,1.184,2.916,0.000,3.142,0.000,0.000,0.000,0.000,0.000,0.450,0.000,0.000,0.000,0.000,0.000,2.861,6.283,0.000,1.003,1.570,1.570,4.085,6.281,1.199,4.712,0.000,0.000,-2.008,-5.701,0.990,4.960,4.692,4.731,5.281,4.711,4.712,2.198,6.282,5.083,1.570,0.000,0.000,-1.372,-5.540,0.990,4.960,4.695,4.729,
36.580,42.560,-1.545,-6.192,1.819,0.001,6.262,4.052,1.862,1.456,4.958,4.255,0.000,0.712,0.549,1.184,2.916,0.000,3.142,0.000,0.000,0.000,0.000,0.000,0.462,0.000,0.000,0.000,0.000,0.000,2.861,6.283,0.000,1.003,1.569,1.569,4.085,6.281,1.199,4.712,0.000,0.000,-2.008,-5.701,0.990,4.960,4.692,4.731,5.281,4.711,4.712,2.198,6.282,5.083,1.570,0.000,0.000,-1.372,-5.540,0.990,4.960,4.695,4.729,
36.663,42.643,-1.545,-6.192,1.819,0.001,6.262,4.052,1.862,1.456,4.958,4.255,0.000,0.712,0.549,1.184,2.916,0.000,3.142,0.000,0.000,0.000,0.000,0.000,0.513,0.000,0.000,0.000,0.000,0.000,2.861,6.283,0.000,1.003,1.569,1.569,4.085,6.281,1.199,4.712,0.000,0.000,-2.008,-5.701,0.990,4.960,4.692,4.731,5.281,4.711,4.712,2.198,6.282,5.083,1.570,0.000,0.000,-1.372,-5.540,0.990,4.960,4.695,4.729,
36.780,42.760,-1.545,-6.192,1.819,0.001,6.262,4.052,1.862,1.456,4.958,4.255,0.000,0.712,0.549,1.184,2.916,0.000,3.142,0.000,0.000,0.000,0.000,0.000,0.552,0.000,0.000,0.000,0.000,0.000,2.896,6.283,0.000,1.003,1.569,1.569,4.085,6.281,1.199,4.712,0.000,0.000,-2.008,-5.701,0.990,4.960,4.692,4.731,5.281,4.711,4.712,2.198,6.282,5.083,1.570,0.000,0.000,-1.372,-5.540,0.990,4.960,4.695,4.729,
36.878,42.858,-1.545,-6.192,1.819,0.001,6.262,4.052,1.862,1.456,4.958,4.255,0.000,0.712,0.549,1.184,2.916,0.000,3.142,0.000,0.000,0.000,0.000,0.000,0.636,0.000,0.000,0.000,0.000,0.000,2.931,6.283,0.000,1.003,1.569,1.569,4.085,6.281,1.199,4.712,0.000,0.000,-2.008,-5.701,0.990,4.960,4.692,4.731,5.281,4.711,4.712,2.198,6.282,5.083,1.570,0.000,0.000,-1.372,-5.540,0.990,4.960,4.695,4.729,
36.980,42.960,-1.545,-6.192,1.819,0.001,6.262,4.052,1.862,1.456,4.958,4.255,0.000,0.712,0.549,1.184,2.916,0.000,3.142,0.000,0.000,0.000,0.000,0.000,0.696,0.000,0.000,0.000,0.000,0.000,2.931,6.283,0.000,1.003,1.569,1.569,4.085,6.281,1.199,4.712,0.000,0.000,-2.008,-5.701,0.990,4.960,4.692,4.731,5.281,4.711,4.712,2.198,6.282,5.083,1.570,0.000,0.000,-1.372,-5.540,0.990,4.960,4.695,4.729,
37.080,43.060,-1.545,-6.192,1.819,0.001,6.262,4.052,1.862,1.456,4.958,4.255,0.000,0.712,0.549,1.184,2.916,0.000,3.142,0.000,0.000,0.000,0.000,0.000,0.753,0.000,0.000,0.000,0.000,0.000,2.966,6.283,0.000,1.003,1.569,1.569,4.085,6.281,1.199,4.712,0.000,0.000,-2.008,-5.701,0.990,4.960,4.692,4.731,5.281,4.711,4.712,2.198,6.282,5.083,1.570,0.000,0.000,-1.372,-5.540,0.990,4.960,4.695,4.729,
37.162,43.142,-1.545,-6.192,1.819,0.001,6.262,4.052,1.862,1.456,4.958,4.255,0.000,0.712,0.549,1.184,2.916,0.000,3.142,0.000,0.000,0.000,0.000,0.000,0.911,0.000,0.000,0.000,0.000,0.000,3.036,6.283,0.000,1.003,1.569,1.569,4.085,6.281,1.199,4.712,0.000,0.000,-2.008,-5.701,0.990,4.960,4.692,4.731,5.281,4.711,4.712,2.198,6.282,5.083,1.570,0.000,0.000,-1.372,-5.540,0.990,4.960,4.695,4.729,
37.280,43.260,-1.545,-6.192,1.819,0.001,6.263,4.052,1.862,1.456,4.958,4.255,0.000,0.712,0.549,1.184,2.916,0.000,3.142,0.000,0.000,0.000,0.000,0.000,1.010,0.000,0.000,0.000,0.000,0.000,3.071,6.283,0.000,1.003,1.569,1.569,4.085,6.281,1.199,4.712,0.000,0.000,-2.008,-5.701,0.990,4.960,4.692,4.731,5.281,4.711,4.712,2.198,6.282,5.083,1.570,0.000,0.000,-1.372,-5.540,0.990,4.960,4.695,4.729,
37.377,43.357,-1.545,-6.192,1.819,0.001,6.262,4.052,1.862,1.456,4.958,4.255,0.000,0.712,0.549,1.184,2.916,0.000,3.142,0.000,0.000,0.000,0.000,0.000,1.160,0.000,0.000,0.000,0.000,0.000,3.106,6.283,0.000,1.003,1.569,1.569,4.085,6.281,1.199,4.712,0.000,0.000,-2.008,-5.701,0.990,4.960,4.692,4.731,5.281,4.711,4.712,2.198,6.282,5.083,1.570,0.000,0.000,-1.372,-5.540,0.990,4.960,4.695,4.729,
37.480,43.460,-1.545,-6.192,1.819,0.001,6.262,4.052,1.862,1.456,4.958,4.255,2.593,0.712,0.549,1.184,2.916,0.000,2.720,0.000,0.000,0.000,0.000,0.000,0.000,0.000,0.000,0.000,0.000,0.000,3.142,6.283,0.000,1.003,1.569,1.569,4.085,6.281,1.199,4.712,0.000,0.000,-2.008,-5.701,0.990,4.960,4.692,4.731,5.281,4.711,4.712,2.198,6.282,5.083,1.570,0.000,0.000,-1.372,-5.540,0.990,4.960,4.695,4.729,
37.580,43.560,-1.545,-6.192,1.819,0.001,6.262,4.052,1.862,1.456,4.958,4.255,2.593,0.712,0.549,1.184,2.916,0.000,2.720,0.000,0.000,0.000,0.000,0.000,0.000,0.000,0.000,0.000,0.000,0.000,3.142,6.283,0.000,1.003,1.569,1.569,4.085,6.281,1.199,4.712,0.000,0.000,-2.008,-5.701,0.990,4.960,4.692,4.731,5.281,4.711,4.712,2.198,6.282,5.083,1.570,0.000,0.000,-1.372,-5.540,0.990,4.960,4.695,4.729,
37.679,43.659,-1.545,-6.192,1.819,0.001,6.262,4.052,1.862,1.456,4.958,4.255,2.593,0.712,0.549,1.184,2.916,0.000,2.720,0.000,0.000,0.000,0.000,0.000,0.000,0.000,0.000,0.000,0.000,0.000,3.142,6.283,0.000,1.003,1.569,1.569,4.085,6.281,1.199,4.712,0.000,0.000,-2.008,-5.701,0.990,4.960,4.692,4.731,5.281,4.711,4.712,2.198,6.282,5.083,1.570,0.000,0.000,-1.372,-5.540,0.990,4.960,4.695,4.729,
37.780,43.760,-1.545,-6.192,1.819,0.001,6.262,4.052,1.862,1.456,4.958,4.255,2.593,0.712,0.549,1.184,2.916,0.000,2.720,0.000,0.000,0.000,0.000,0.000,0.000,0.000,0.000,0.000,0.000,0.000,3.142,6.283,0.000,1.003,1.569,1.569,4.085,6.281,1.199,4.712,0.000,0.000,-2.008,-5.701,0.990,4.960,4.692,4.731,5.281,4.711,4.712,2.198,6.282,5.083,1.570,0.000,0.000,-1.372,-5.540,0.990,4.960,4.695,4.729,
37.880,43.860,-1.545,-6.192,1.819,0.001,6.262,4.052,1.862,1.456,4.958,4.255,2.593,0.712,0.549,1.184,2.916,0.000,2.720,0.000,0.000,0.000,0.000,0.000,0.000,0.000,0.000,0.000,0.000,0.000,3.142,6.283,0.000,1.003,1.569,1.569,4.085,6.281,1.199,4.712,0.000,0.000,-2.008,-5.701,0.990,4.960,4.692,4.731,5.281,4.711,4.712,2.198,6.282,5.083,1.570,0.000,0.000,-1.372,-5.540,0.990,4.960,4.695,4.729,
37.966,43.946,-1.545,-6.192,1.819,0.001,6.263,4.052,1.862,1.456,4.958,4.255,2.593,0.712,0.549,1.184,2.916,0.000,2.720,0.000,0.000,0.000,0.000,0.000,0.000,0.000,0.000,0.000,0.000,0.000,3.142,6.283,0.000,1.003,1.569,1.569,4.085,6.281,1.199,4.712,0.000,0.000,-2.008,-5.701,0.990,4.960,4.692,4.731,5.281,4.711,4.712,2.198,6.282,5.083,1.570,0.000,0.000,-1.372,-5.540,0.990,4.960,4.695,4.729,
38.080,44.060,-1.545,-6.192,1.819,0.001,6.262,4.052,1.862,1.456,4.958,4.255,2.593,0.712,0.549,1.184,2.916,0.000,2.720,0.000,0.000,0.000,0.000,0.000,0.000,0.000,0.000,0.000,0.000,0.000,3.142,6.283,0.000,1.003,1.569,1.569,4.085,6.281,1.199,4.712,0.000,0.000,-2.008,-5.701,0.990,4.960,4.692,4.731,5.281,4.711,4.712,2.198,6.282,5.083,1.570,0.000,0.000,-1.372,-5.540,0.990,4.960,4.695,4.729,
38.180,44.160,-1.545,-6.192,1.819,0.001,6.262,4.052,1.862,1.456,4.958,4.255,2.593,0.712,0.549,1.184,2.916,0.000,2.720,0.000,0.000,0.000,0.000,0.000,0.000,0.000,0.000,0.000,0.000,0.000,3.142,6.283,0.000,1.003,1.569,1.569,4.085,6.281,1.199,4.712,0.000,0.000,-2.008,-5.701,0.990,4.960,4.692,4.731,5.281,4.711,4.712,2.198,6.282,5.083,1.570,0.000,0.000,-1.372,-5.540,0.990,4.960,4.695,4.729,
38.265,44.245,-1.545,-6.192,1.819,0.001,6.262,4.052,1.862,1.456,4.958,4.255,2.593,0.712,0.549,1.184,2.916,0.000,2.720,0.000,0.000,0.000,0.000,0.000,0.000,0.000,0.000,0.000,0.000,0.000,3.142,6.283,0.000,1.003,1.569,1.569,4.085,6.281,1.199,4.712,0.000,0.000,-2.008,-5.701,0.990,4.960,4.692,4.731,5.281,4.711,4.712,2.198,6.282,5.083,1.570,0.000,0.000,-1.372,-5.540,0.990,4.960,4.695,4.729,
38.380,44.360,-1.545,-6.192,1.819,0.001,6.262,4.052,1.862,1.456,4.958,4.255,2.593,0.712,0.549,1.184,2.916,0.000,2.720,0.000,0.000,0.000,0.000,0.000,0.000,0.000,0.000,0.000,0.000,0.000,3.142,6.283,0.000,1.003,1.569,1.569,4.085,6.281,1.199,4.712,0.000,0.000,-2.008,-5.701,0.990,4.960,4.692,4.731,5.281,4.711,4.712,2.198,6.282,5.083,1.570,0.000,0.000,-1.372,-5.540,0.990,4.960,4.695,4.729,
38.480,44.460,-1.545,-6.192,1.819,0.001,6.262,4.052,1.862,1.456,4.958,4.255,2.593,0.712,0.549,1.184,2.916,0.000,2.720,0.000,0.000,0.000,0.000,0.000,0.000,0.000,0.000,0.000,0.000,0.000,3.142,6.283,0.000,1.003,1.569,1.569,4.085,6.281,1.199,4.712,0.000,0.000,-2.008,-5.701,0.990,4.960,4.692,4.731,5.281,4.711,4.712,2.198,6.282,5.083,1.570,0.000,0.000,-1.372,-5.540,0.990,4.960,4.695,4.729,
38.580,44.560,-1.545,-6.192,1.819,0.001,6.262,4.052,1.862,1.456,4.958,4.255,2.593,0.712,0.549,1.184,2.916,0.000,2.720,0.000,0.000,0.000,0.000,0.000,0.000,0.000,0.000,0.000,0.000,0.000,3.142,6.283,0.000,1.003,1.569,1.569,4.085,6.281,1.199,4.712,0.000,0.000,-2.008,-5.701,0.990,4.960,4.692,4.731,5.281,4.711,4.712,2.198,6.282,5.083,1.570,0.000,0.000,-1.372,-5.540,0.990,4.960,4.695,4.729,
38.680,44.660,-1.545,-6.192,1.819,0.001,6.262,4.052,1.862,1.456,4.958,4.255,2.593,0.712,0.549,1.184,2.916,0.000,2.720,0.000,0.000,0.000,0.000,0.000,0.000,0.000,0.000,0.000,0.000,0.000,3.142,6.283,0.000,1.003,1.569,1.569,4.085,6.281,1.199,4.712,0.000,0.000,-2.008,-5.701,0.990,4.960,4.692,4.731,5.281,4.711,4.712,2.198,6.282,5.083,1.570,0.000,0.000,-1.372,-5.540,0.990,4.960,4.695,4.729,
38.766,44.746,-1.545,-6.192,1.819,0.001,6.262,4.052,1.862,1.456,4.958,4.255,2.593,0.712,0.549,1.184,2.916,0.000,2.720,0.000,0.000,0.000,0.000,0.000,0.000,0.000,0.000,0.000,0.000,0.000,3.142,6.283,0.000,1.003,1.569,1.569,4.085,6.281,1.199,4.712,0.000,0.000,-2.008,-5.701,0.990,4.960,4.692,4.731,5.281,4.711,4.712,2.198,6.282,5.083,1.570,0.000,0.000,-1.372,-5.540,0.990,4.960,4.695,4.729,
38.880,44.860,-1.545,-6.192,1.819,0.001,6.262,4.052,1.862,1.456,4.958,4.255,2.593,0.712,0.549,1.184,2.916,0.000,2.720,0.000,0.000,0.000,0.000,0.000,0.000,0.000,0.000,0.000,0.000,0.000,3.142,6.283,0.000,1.003,1.569,1.569,4.085,6.281,1.199,4.712,0.000,0.000,-2.008,-5.701,0.990,4.960,4.692,4.731,5.281,4.711,4.712,2.198,6.282,5.083,1.570,0.000,0.000,-1.372,-5.540,0.990,4.960,4.695,4.729,
38.980,44.960,-1.545,-6.192,1.819,0.001,6.262,4.052,1.862,1.456,4.958,4.255,2.593,0.712,0.549,1.184,2.916,0.000,2.720,0.000,0.000,0.000,0.000,0.000,0.000,0.000,0.000,0.000,0.000,0.000,3.142,6.283,0.000,1.003,1.569,1.569,4.085,6.281,1.199,4.712,0.000,0.000,-2.008,-5.701,0.990,4.960,4.692,4.731,5.281,4.711,4.712,2.198,6.282,5.083,1.570,0.000,0.000,-1.372,-5.540,0.990,4.960,4.695,4.729,
39.064,45.044,-1.545,-6.192,1.819,0.001,6.262,4.052,1.862,1.456,4.958,4.255,2.593,0.712,0.549,1.184,2.916,0.000,2.720,0.000,0.000,0.000,0.000,0.000,0.000,0.000,0.000,0.000,0.000,0.000,3.142,6.283,0.000,1.003,1.569,1.569,4.085,6.281,1.199,4.712,0.000,0.000,-2.008,-5.701,0.990,4.960,4.692,4.731,5.281,4.711,4.712,2.198,6.282,5.083,1.570,0.000,0.000,-1.372,-5.540,0.990,4.960,4.695,4.729,
39.180,45.160,-1.545,-6.192,1.819,0.001,6.262,4.052,1.862,1.456,4.958,4.255,2.593,0.712,0.549,1.184,2.916,0.000,2.720,0.000,0.000,0.000,0.000,0.000,0.000,0.000,0.000,0.000,0.000,0.000,3.142,6.283,0.000,1.003,1.569,1.569,4.085,6.281,1.199,4.712,0.000,0.000,-2.008,-5.701,0.990,4.960,4.692,4.731,5.281,4.711,4.712,2.198,6.282,5.083,1.570,0.000,0.000,-1.372,-5.540,0.990,4.960,4.695,4.729,
39.280,45.260,-1.545,-6.192,1.819,0.001,6.262,4.052,1.862,1.456,4.958,4.255,2.593,0.712,0.549,1.184,2.916,0.000,2.720,0.000,0.000,0.000,0.000,0.000,0.000,0.000,0.000,0.000,0.000,0.000,3.142,6.283,0.000,1.003,1.569,1.569,4.085,6.281,1.199,4.712,0.000,0.000,-2.008,-5.701,0.990,4.960,4.692,4.731,5.281,4.711,4.712,2.198,6.282,5.083,1.570,0.000,0.000,-1.372,-5.540,0.990,4.960,4.695,4.729,
39.366,45.346,-1.545,-6.192,1.819,0.001,6.262,4.052,1.862,1.456,4.958,4.255,2.593,0.712,0.549,1.184,2.916,0.000,2.720,0.000,0.000,0.000,0.000,0.000,0.000,0.000,0.000,0.000,0.000,0.000,3.142,6.283,0.000,1.003,1.569,1.569,4.085,6.281,1.199,4.712,0.000,0.000,-2.008,-5.701,0.990,4.960,4.692,4.731,5.281,4.711,4.712,2.198,6.282,5.083,1.570,0.000,0.000,-1.372,-5.540,0.990,4.960,4.695,4.729,
39.480,45.460,-1.5