deveshdatwani/Gopher/Assets/Data/07-21 07-14-59/Obstacle Handling_robot_value.csv
game_time,true_time,x,y,az,vx,vaz,dis_to_obs_0,dis_to_obs_36,dis_to_obs_72,dis_to_obs_108,dis_to_obs_144,dis_to_obs_180,dis_to_obs_-144,dis_to_obs_-108,dis_to_obs_-72,dis_to_obs_-36,dis_to_min_obs,direction_to_min_obs,dis_to_human_0,dis_to_human_36,dis_to_human_72,dis_to_human_108,dis_to_human_144,dis_to_human_180,dis_to_human_-144,dis_to_human_-108,dis_to_human_-72,dis_to_human_-36,dis_to_min_human,direction_to_min_human,main_cam_yaw,main_cam_pitch,left_joint_1,left_joint_2,left_joint_3,left_joint_4,left_joint_5,left_joint_6,left_joint_7,left_joint_gripper,left_is_grasping,left_end_x,left_end_y,left_end_z,left_end_ax,left_end_ay,left_end_az,right_joint_1,right_joint_2,right_joint_3,right_joint_4,right_joint_5,right_joint_6,right_joint_7,right_joint_gripper,right_is_grasping,right_end_x,right_end_y,right_end_z,right_end_ax,right_end_ay,right_end_az,
7.680,13.506,0.997,-10.129,1.576,0.808,6.266,3.630,0.000,1.829,1.257,2.120,4.782,3.178,2.097,1.696,4.425,0.000,2.826,0.000,0.000,0.000,0.000,0.000,0.000,0.000,0.000,0.000,0.000,0.000,3.142,6.282,0.000,1.004,1.569,1.569,4.085,6.281,1.199,4.712,0.000,0.000,0.666,-9.542,0.990,4.720,3.993,5.431,5.281,4.711,4.711,2.198,6.282,5.083,1.570,0.000,0.000,1.321,-9.538,0.990,4.720,4.035,5.389,
7.771,13.598,0.997,-10.060,1.576,0.975,6.265,3.561,0.000,1.929,1.257,2.121,4.851,3.265,2.098,1.697,4.339,0.000,2.861,0.000,0.000,0.000,0.000,0.000,0.000,0.000,0.000,0.000,0.000,0.000,3.142,6.281,0.000,1.005,1.569,1.568,4.083,6.281,1.199,4.712,0.000,0.000,0.664,-9.474,0.990,4.721,4.254,5.169,5.281,4.711,4.710,2.198,6.282,5.083,1.570,0.000,0.000,1.320,-9.469,0.990,4.721,4.154,5.270,
7.880,13.706,0.996,-9.933,1.577,1.115,6.265,3.434,0.000,2.113,1.256,2.121,4.979,3.364,2.098,1.698,4.183,0.000,3.036,0.000,0.000,0.000,0.000,0.000,0.000,0.000,0.000,0.000,0.000,0.000,3.142,6.282,0.000,1.004,1.569,1.569,4.085,6.281,1.199,4.712,0.000,0.000,0.664,-9.346,0.990,4.720,4.088,5.336,5.281,4.711,4.711,2.198,6.282,5.083,1.570,0.000,0.000,1.320,-9.342,0.990,4.720,4.115,5.309,
7.980,13.806,0.996,-9.828,1.577,1.003,6.265,3.329,0.000,1.705,1.256,2.121,0.000,3.363,2.098,1.699,3.516,0.000,3.142,0.000,0.000,0.000,0.000,0.000,0.000,0.000,0.000,0.000,0.000,0.000,3.142,6.283,0.000,1.003,1.570,1.570,4.086,6.281,1.199,4.712,0.000,0.000,0.663,-9.241,0.990,4.721,4.016,5.408,5.281,4.711,4.712,2.198,6.282,5.083,1.570,0.000,0.000,1.319,-9.237,0.990,4.720,4.106,5.319,
8.080,13.906,0.995,-9.733,1.578,0.958,6.265,3.234,0.000,1.656,1.277,2.121,0.000,3.362,2.099,1.700,3.399,0.000,3.142,0.000,0.000,0.000,0.000,0.000,0.000,0.000,0.000,0.000,0.000,0.000,3.142,6.282,0.000,1.004,1.569,1.569,4.085,6.281,1.199,4.712,0.000,0.000,0.662,-9.147,0.990,4.721,4.152,5.272,5.281,4.711,4.711,2.198,6.282,5.083,1.570,0.000,0.000,1.318,-9.142,0.990,4.721,4.176,5.248,
8.180,14.006,0.994,-9.636,1.578,1.018,6.265,3.137,0.000,1.605,1.351,2.121,0.000,3.361,2.099,0.000,3.324,0.000,3.142,0.000,0.000,0.000,0.000,0.000,0.000,0.000,0.000,0.000,0.000,0.000,3.142,6.282,0.000,1.004,1.569,1.569,4.084,6.281,1.199,4.712,0.000,0.000,0.661,-9.050,0.990,4.722,4.220,5.204,5.281,4.711,4.711,2.198,6.282,5.083,1.570,0.000,0.000,1.317,-9.044,0.990,4.722,4.215,5.210,
8.280,14.106,0.993,-9.535,1.579,1.038,6.265,3.036,0.000,1.552,1.430,2.121,0.000,3.361,2.100,0.000,3.693,0.000,3.142,0.000,0.000,0.000,0.000,0.000,0.000,0.000,0.000,0.000,0.000,0.000,3.142,6.282,0.000,1.004,1.569,1.569,4.085,6.281,1.199,4.712,0.000,0.000,0.660,-8.948,0.990,4.722,4.194,5.229,5.281,4.711,4.711,2.198,6.282,5.083,1.570,0.000,0.000,1.316,-8.943,0.990,4.722,4.219,5.205,
8.380,14.206,0.992,-9.434,1.591,1.007,0.533,2.936,0.000,1.504,1.499,2.160,0.000,3.308,2.093,0.000,3.540,0.000,3.142,0.000,0.000,0.000,0.000,0.000,0.000,0.000,0.000,0.000,0.000,0.000,3.142,0.001,0.000,1.003,1.571,1.572,4.086,6.281,1.199,4.712,0.000,0.000,0.654,-8.851,0.990,4.730,4.417,5.007,5.281,4.712,4.714,2.199,6.281,5.083,1.571,0.000,0.000,1.309,-8.838,0.991,4.730,4.517,4.908,
8.478,14.304,0.989,-9.336,1.680,0.998,1.386,2.858,0.000,1.490,1.518,2.503,0.000,2.981,1.645,0.000,3.241,0.000,3.142,0.000,0.000,0.000,0.000,0.000,0.000,0.000,0.000,0.000,0.000,0.000,3.142,0.002,0.000,1.003,1.571,1.572,4.086,6.281,1.199,4.712,0.000,0.000,0.600,-8.785,0.990,4.819,4.669,4.755,5.282,4.713,4.714,2.198,6.282,5.083,1.571,0.000,0.000,1.252,-8.714,0.991,4.819,4.685,4.739,
8.580,14.406,0.975,-9.237,1.801,1.016,1.224,2.824,0.000,1.502,1.528,3.239,0.000,2.667,1.632,4.355,2.952,0.000,3.142,0.000,3.145,0.000,0.000,0.000,0.000,0.000,0.000,0.000,0.000,0.000,3.142,0.001,0.000,1.003,1.570,1.569,4.085,6.282,1.199,4.712,0.000,0.000,0.520,-8.739,0.990,4.944,4.693,4.730,5.282,4.712,4.712,2.198,6.283,5.083,1.570,0.000,0.000,1.159,-8.589,0.991,4.943,4.698,4.726,
8.680,14.506,0.955,-9.159,1.873,1.027,0.872,2.801,0.000,1.496,1.551,3.923,4.202,2.544,1.647,4.534,2.794,0.000,3.106,0.000,3.123,0.000,0.000,0.000,0.000,0.000,0.000,0.000,0.000,0.000,3.142,0.001,0.000,1.004,1.570,1.569,4.085,6.282,1.199,4.712,0.000,0.000,0.466,-8.694,0.990,5.015,4.697,4.726,5.282,4.712,4.711,2.198,6.282,5.083,1.570,0.000,0.000,1.093,-8.499,0.991,5.015,4.701,4.723,
8.780,14.606,0.923,-9.063,1.943,1.016,0.868,2.771,4.723,1.474,1.584,0.000,3.974,2.461,0.000,3.993,2.640,0.000,3.036,0.000,0.000,0.000,0.000,0.000,0.000,0.000,0.000,0.000,0.000,0.000,3.142,0.001,0.000,1.003,1.570,1.570,4.086,6.281,1.199,4.712,0.000,0.000,0.403,-8.634,0.990,5.084,4.698,4.724,5.282,4.712,4.712,2.198,6.282,5.083,1.570,0.000,0.000,1.015,-8.395,0.991,5.084,4.703,4.721,
8.880,14.706,0.877,-8.954,2.046,1.005,1.091,2.786,0.000,1.470,1.626,0.000,4.196,2.374,0.000,2.890,2.478,0.000,2.966,0.000,0.000,0.000,0.000,0.000,0.000,0.000,0.000,0.000,0.000,0.000,3.142,0.001,0.000,1.003,1.570,1.570,4.086,6.282,1.199,4.712,0.000,0.000,0.315,-8.580,0.990,5.187,4.702,4.721,5.282,4.712,4.713,2.198,6.282,5.083,1.571,0.000,0.000,0.899,-8.280,0.991,5.187,4.705,4.718,
8.977,14.803,0.839,-8.884,2.122,1.013,1.062,2.358,0.000,1.482,1.657,0.000,4.127,1.904,0.000,3.104,2.388,0.000,2.861,0.000,0.000,0.000,0.000,0.000,0.000,0.000,0.000,0.000,0.000,0.000,3.142,0.001,0.000,1.003,1.570,1.570,4.085,6.282,1.199,4.712,0.000,0.000,0.251,-8.554,0.990,5.263,4.704,4.719,5.282,4.712,4.712,2.198,6.282,5.083,1.570,0.000,0.000,0.810,-8.210,0.991,5.263,4.706,4.717,
9.080,14.906,0.773,-8.783,2.225,1.019,0.964,2.536,0.000,1.491,1.763,0.000,3.659,1.905,0.000,2.751,2.285,0.000,2.791,0.000,0.000,0.000,0.000,0.000,0.000,0.000,0.000,0.000,0.000,0.000,3.142,0.001,0.000,1.003,1.570,1.570,4.085,6.281,1.199,4.712,0.000,0.000,0.154,-8.516,0.990,5.367,4.705,4.718,5.282,4.712,4.712,2.198,6.282,5.083,1.570,0.000,0.000,0.674,-8.116,0.991,5.366,4.707,4.716,
9.180,15.006,0.723,-8.720,2.292,1.014,0.990,0.000,0.000,1.500,1.869,0.000,3.448,1.924,0.000,2.566,2.233,0.000,2.720,2.912,0.000,0.000,0.000,0.000,0.000,0.000,0.000,0.000,0.000,0.000,3.142,0.001,0.000,1.003,1.570,1.570,4.086,6.281,1.199,4.712,0.000,0.000,0.088,-8.494,0.990,5.433,4.705,4.717,5.282,4.712,4.712,2.198,6.282,5.083,1.570,0.000,0.000,0.581,-8.061,0.991,5.433,4.707,4.715,
9.280,15.106,0.642,-8.633,2.397,1.011,1.039,4.874,3.909,1.739,2.110,0.000,3.207,3.262,4.300,2.336,2.182,0.000,2.615,0.000,0.000,0.000,0.000,0.000,0.000,0.000,0.000,0.000,0.000,0.000,3.142,0.001,0.000,1.003,1.570,1.570,4.085,6.281,1.199,4.712,0.000,0.000,-0.014,-8.475,0.990,5.538,4.706,4.716,5.282,4.712,4.712,2.198,6.282,5.083,1.570,0.000,0.000,0.431,-7.993,0.991,5.538,4.708,4.715,
9.380,15.206,0.582,-8.580,2.468,1.013,1.035,4.519,3.833,1.708,2.359,0.000,3.093,0.000,3.736,1.778,2.166,0.000,2.545,0.000,0.000,0.000,0.000,0.000,0.000,0.000,0.000,0.000,0.000,0.000,3.142,0.001,0.000,1.003,1.570,1.570,4.085,6.281,1.199,4.712,0.000,0.000,-0.083,-8.469,0.990,5.610,4.706,4.715,5.282,4.712,4.712,2.198,6.282,5.083,1.570,0.000,0.000,0.326,-7.956,0.991,5.609,4.708,4.714,
9.480,15.306,0.486,-8.508,2.574,1.015,1.015,4.090,1.528,1.668,2.996,4.633,2.982,0.000,3.134,2.069,2.170,0.000,2.475,0.000,0.000,0.000,0.000,0.000,0.000,0.000,0.000,0.000,0.000,0.000,3.142,0.001,0.000,1.003,1.570,1.570,4.085,6.281,1.199,4.712,0.000,0.000,-0.187,-8.468,0.990,5.715,4.707,4.714,5.282,4.712,4.712,2.198,6.282,5.083,1.570,0.000,0.000,0.166,-7.915,0.991,5.715,4.708,4.714,
9.580,15.406,0.401,-8.456,2.661,1.014,1.009,4.007,1.365,1.640,4.234,4.800,2.483,0.000,2.774,1.981,2.176,0.000,2.404,0.000,0.000,0.000,0.000,0.000,0.000,0.000,0.000,0.000,0.000,0.000,3.142,0.001,0.000,1.003,1.570,1.570,4.085,6.282,1.199,4.712,0.000,0.000,-0.274,-8.475,0.990,5.802,4.707,4.714,5.282,4.712,4.712,2.198,6.282,5.083,1.570,0.000,0.000,0.030,-7.893,0.991,5.802,4.709,4.713,
9.678,15.504,0.329,-8.421,2.731,1.013,1.013,4.934,1.255,1.620,0.000,0.000,2.479,0.000,2.550,1.928,1.898,0.000,2.545,0.000,0.000,0.000,0.000,0.000,0.000,0.000,0.000,0.000,0.000,0.000,3.142,0.001,0.000,1.003,1.570,1.570,4.085,6.282,1.199,4.712,0.000,0.000,-0.342,-8.486,0.990,5.872,4.707,4.713,5.282,4.712,4.712,2.198,6.282,5.083,1.570,0.000,0.000,-0.080,-7.884,0.991,5.872,4.709,4.713,
9.780,15.606,0.218,-8.376,2.785,1.013,0.013,0.000,1.166,1.583,0.000,4.802,2.543,0.000,2.380,1.876,1.912,0.000,2.510,0.000,0.000,0.000,0.000,0.000,0.000,0.000,0.000,0.000,0.000,0.000,3.142,6.283,0.000,1.004,1.568,1.567,4.085,6.281,1.199,4.712,0.000,0.000,-0.449,-8.480,0.990,5.930,4.707,4.713,5.281,4.711,4.709,2.198,6.282,5.083,1.570,0.000,0.000,-0.220,-7.865,0.990,5.930,4.708,4.713,
9.874,15.700,0.125,-8.341,2.785,1.010,6.270,0.000,1.143,1.297,0.000,4.963,2.643,0.000,1.776,1.842,1.870,0.000,2.510,0.000,0.000,0.000,0.000,0.000,0.000,0.000,0.000,0.000,0.000,0.000,3.142,6.282,0.000,1.004,1.569,1.569,4.085,6.281,1.199,4.712,0.000,0.000,-0.542,-8.444,0.990,5.927,4.707,4.713,5.281,4.711,4.711,2.198,6.282,5.083,1.570,0.000,0.000,-0.313,-7.829,0.990,5.928,4.707,4.714,
9.980,15.806,0.032,-8.306,2.786,1.011,6.269,0.000,1.120,0.823,0.000,0.000,2.742,0.000,2.292,1.807,4.216,0.000,2.545,0.000,0.000,0.000,0.000,0.000,0.000,0.000,0.000,0.000,0.000,0.000,3.142,6.282,0.000,1.004,1.569,1.569,4.085,6.281,1.199,4.712,0.000,0.000,-0.635,-8.409,0.990,5.928,4.707,4.713,5.281,4.711,4.711,2.198,6.282,5.083,1.570,0.000,0.000,-0.406,-7.794,0.990,5.928,4.707,4.714,
10.080,15.906,-0.061,-8.272,2.786,1.013,6.268,0.000,1.097,0.806,0.000,0.000,2.841,4.882,2.248,1.772,4.087,0.000,2.580,0.000,0.000,0.000,0.000,0.000,0.000,0.000,0.000,0.000,0.000,0.000,3.142,6.282,0.000,1.004,1.569,1.569,4.085,6.281,1.199,4.712,0.000,0.000,-0.728,-8.375,0.990,5.928,4.707,4.713,5.281,4.711,4.711,2.198,6.282,5.083,1.570,0.000,0.000,-0.500,-7.760,0.990,5.928,4.707,4.714,
10.180,16.006,-0.155,-8.237,2.785,1.012,6.195,0.000,2.972,0.789,1.955,0.000,2.942,4.960,2.205,1.738,4.043,0.000,2.580,0.000,0.000,0.000,0.000,0.000,0.000,0.000,0.000,0.000,0.000,0.000,3.142,6.282,0.001,1.004,1.569,1.568,4.084,6.281,1.199,4.712,0.000,0.000,-0.821,-8.340,0.990,5.928,4.708,4.713,5.281,4.711,4.710,2.197,6.282,5.083,1.570,0.000,0.000,-0.593,-7.725,0.990,5.928,4.707,4.714,
10.280,16.106,-0.229,-8.209,2.756,1.012,5.462,0.000,3.036,0.779,1.857,0.000,3.056,0.000,2.221,1.712,3.932,0.000,2.650,0.000,0.000,0.000,0.000,0.000,0.000,0.000,0.000,0.000,0.000,0.000,3.142,6.280,0.001,1.004,1.567,1.565,4.084,6.282,1.199,4.711,0.000,0.000,-0.899,-8.295,0.990,5.902,4.708,4.712,5.281,4.710,4.708,2.197,6.282,5.083,1.570,0.000,0.000,-0.653,-7.686,0.990,5.902,4.707,4.713,
10.380,16.206,-0.339,-8.161,2.625,1.010,4.890,3.151,2.937,0.789,0.806,0.000,3.840,0.000,2.445,1.692,1.506,0.000,2.791,0.000,0.000,0.000,0.000,0.000,0.000,0.000,0.000,0.000,0.000,0.000,3.142,6.280,0.001,1.004,1.568,1.567,4.085,6.281,1.199,4.712,0.000,0.000,-1.014,-8.157,0.990,5.769,4.707,4.714,5.282,4.711,4.710,2.197,6.282,5.083,1.570,0.000,0.000,-0.690,-7.586,0.991,5.768,4.708,4.713,
10.480,16.306,-0.407,-8.121,2.544,1.007,5.559,3.100,2.846,0.811,0.786,0.000,4.122,0.000,2.623,1.683,1.412,0.000,2.896,0.000,0.000,0.000,0.000,0.000,0.000,0.000,0.000,0.000,0.000,0.000,3.142,6.281,0.000,1.004,1.570,1.570,4.085,6.280,1.199,4.712,0.000,0.000,-1.079,-8.060,0.990,5.684,4.706,4.715,5.282,4.712,4.712,2.198,6.281,5.083,1.571,0.000,0.000,-0.710,-7.518,0.991,5.684,4.708,4.714,
10.580,16.406,-0.505,-8.053,2.530,1.013,6.273,3.010,2.747,1.779,0.793,0.000,4.281,0.000,2.558,1.619,1.333,0.000,2.931,0.000,0.000,0.000,0.000,0.000,0.000,0.000,0.000,0.000,0.000,0.000,3.142,6.283,0.000,1.003,1.569,1.569,4.085,6.281,1.199,4.712,0.000,0.000,-1.177,-7.984,0.990,5.672,4.706,4.715,5.281,4.711,4.711,2.198,6.282,5.083,1.570,0.000,0.000,-0.800,-7.446,0.990,5.672,4.707,4.715,
10.676,16.502,-0.571,-8.007,2.531,1.013,6.269,2.929,2.681,3.102,0.801,0.000,4.357,0.000,2.479,1.571,0.000,0.000,2.966,0.000,0.000,0.000,0.000,0.000,0.000,0.000,0.000,0.000,0.000,0.000,3.142,6.283,0.000,1.003,1.569,1.569,4.085,6.281,1.199,4.712,0.000,0.000,-1.242,-7.939,0.990,5.673,4.706,4.715,5.281,4.711,4.712,2.198,6.282,5.083,1.570,0.000,0.000,-0.866,-7.401,0.990,5.673,4.707,4.715,
10.780,16.606,-0.669,-7.939,2.533,1.011,6.262,2.808,0.000,2.980,0.811,0.000,4.473,0.000,2.362,1.499,0.000,0.000,3.001,0.000,0.000,0.000,0.000,0.000,0.000,0.000,0.000,0.000,0.000,0.000,3.142,6.283,0.000,1.003,1.569,1.569,4.085,6.281,1.199,4.712,0.000,0.000,-1.340,-7.871,0.990,5.674,4.706,4.715,5.281,4.711,4.711,2.198,6.282,5.083,1.570,0.000,0.000,-0.965,-7.333,0.990,5.674,4.707,4.715,
10.876,16.702,-0.750,-7.882,2.534,1.011,6.260,2.708,0.000,2.877,0.820,0.000,4.569,0.000,2.267,0.983,0.000,0.000,3.001,0.000,0.000,0.000,0.000,0.000,0.000,0.000,0.000,0.000,0.000,0.000,3.142,6.283,0.000,1.003,1.569,1.569,4.085,6.281,1.199,4.712,0.000,0.000,-1.422,-7.815,0.990,5.675,4.706,4.715,5.281,4.711,4.711,2.198,6.282,5.083,1.570,0.000,0.000,-1.047,-7.277,0.990,5.675,4.707,4.715,
10.980,16.806,-0.832,-7.825,2.534,1.012,6.261,2.609,0.000,2.775,0.829,0.000,4.666,0.000,2.171,1.380,0.000,0.000,3.036,0.000,0.000,0.000,0.000,0.000,0.000,0.000,0.000,0.000,0.000,0.000,3.142,6.283,0.000,1.004,1.569,1.569,4.085,6.281,1.199,4.712,0.000,0.000,-1.503,-7.759,0.990,5.676,4.707,4.715,5.281,4.711,4.711,2.198,6.282,5.083,1.570,0.000,0.000,-1.129,-7.220,0.990,5.676,4.707,4.715,
11.069,16.895,-0.914,-7.768,2.535,1.012,6.261,2.509,0.000,2.672,0.888,1.288,4.763,0.000,2.076,1.010,0.000,0.000,3.071,0.000,0.000,0.000,0.000,0.000,0.000,0.000,0.000,0.000,0.000,0.000,3.142,6.283,0.000,1.004,1.569,1.569,4.085,6.281,1.199,4.712,0.000,0.000,-1.585,-7.703,0.990,5.677,4.707,4.715,5.281,4.711,4.711,2.198,6.282,5.083,1.570,0.000,0.000,-1.211,-7.163,0.990,5.677,4.707,4.715,
11.180,17.006,-0.996,-7.712,2.536,1.011,6.262,2.409,0.000,2.568,1.272,1.303,4.861,0.000,1.982,0.951,0.000,0.000,3.071,0.000,0.000,0.000,0.000,0.000,0.000,0.000,0.000,0.000,0.000,0.000,3.142,6.282,0.000,1.004,1.569,1.569,4.085,6.281,1.199,4.712,0.000,0.000,-1.667,-7.646,0.990,5.678,4.707,4.715,5.281,4.711,4.711,2.198,6.282,5.083,1.570,0.000,0.000,-1.294,-7.107,0.990,5.678,4.707,4.715,
11.270,17.096,-1.077,-7.655,2.536,1.012,6.246,2.311,0.000,2.303,1.556,1.316,4.960,0.000,1.889,0.892,3.703,0.000,3.106,0.000,0.000,0.000,0.000,0.000,0.000,0.000,0.000,0.000,0.000,0.000,3.142,6.282,0.000,1.004,1.569,1.569,4.084,6.281,1.199,4.712,0.000,0.000,-1.749,-7.590,0.990,5.678,4.707,4.715,5.281,4.711,4.711,2.197,6.282,5.083,1.570,0.000,0.000,-1.376,-7.051,0.990,5.679,4.706,4.715,
11.380,17.206,-1.159,-7.598,2.500,1.012,5.382,2.269,0.000,2.349,1.632,1.273,0.000,0.000,1.885,0.842,0.000,0.000,3.142,0.000,0.000,0.000,0.000,0.000,0.000,0.000,0.000,0.000,0.000,0.000,3.142,6.280,0.001,1.005,1.567,1.565,4.084,6.282,1.199,4.711,0.000,0.000,-1.829,-7.511,0.990,5.646,4.707,4.714,5.281,4.710,4.708,2.197,6.282,5.083,1.570,0.000,0.000,-1.437,-6.985,0.990,5.646,4.706,4.715,
11.480,17.306,-1.223,-7.550,2.415,1.011,4.895,2.343,0.000,2.384,1.734,1.177,0.000,0.000,2.053,0.817,0.000,0.000,3.142,0.000,0.000,0.000,0.000,0.000,0.000,0.000,0.000,0.000,0.000,0.000,3.142,6.280,0.001,1.004,1.568,1.566,4.085,6.281,1.199,4.712,0.000,0.000,-1.883,-7.406,0.990,5.560,4.706,4.715,5.282,4.710,4.709,2.197,6.282,5.083,1.570,0.000,0.000,-1.447,-6.914,0.991,5.559,4.707,4.715,
11.580,17.406,-1.309,-7.467,2.276,1.007,5.163,2.558,4.398,2.122,3.383,1.220,0.000,0.000,2.496,0.780,4.037,0.000,3.142,0.000,0.000,0.000,0.000,0.000,0.000,0.000,0.000,0.000,0.000,0.000,3.142,6.280,0.001,1.004,1.569,1.568,4.085,6.281,1.199,4.712,0.000,0.000,-1.941,-7.232,0.990,5.419,4.705,4.717,5.282,4.711,4.711,2.198,6.282,5.083,1.570,0.000,0.000,-1.442,-6.806,0.991,5.418,4.707,4.716,
11.680,17.506,-1.372,-7.390,2.192,1.015,5.421,2.731,2.990,2.180,2.854,1.561,0.000,0.000,2.881,0.730,4.101,0.000,3.142,0.000,0.000,0.000,0.000,0.000,0.000,0.000,0.000,0.000,0.000,0.000,3.142,6.281,0.001,1.004,1.569,1.568,4.085,6.281,1.199,4.712,0.000,0.000,-1.982,-7.103,0.990,5.335,4.704,4.718,5.282,4.711,4.710,2.197,6.282,5.083,1.570,0.000,0.000,-1.449,-6.720,0.991,5.335,4.705,4.717,
11.780,17.606,-1.429,-7.308,2.115,1.018,5.339,2.952,1.804,4.879,2.287,1.852,0.000,4.736,3.443,0.668,4.523,0.000,3.142,0.000,0.000,0.000,0.000,0.000,0.000,0.000,0.000,0.000,0.000,0.000,3.142,6.281,0.001,1.004,1.568,1.567,4.085,6.281,1.199,4.712,0.000,0.000,-2.016,-6.974,0.990,5.259,4.703,4.719,5.282,4.711,4.710,2.197,6.282,5.083,1.570,0.000,0.000,-1.454,-6.634,0.990,5.258,4.704,4.719,
11.880,17.706,-1.479,-7.221,2.026,1.010,5.231,2.608,1.703,0.000,2.485,1.955,1.795,4.608,4.874,0.678,3.568,0.000,1.457,0.000,0.000,0.000,0.000,0.000,0.000,0.000,0.000,0.000,0.000,0.000,3.142,6.280,0.001,1.004,1.568,1.567,4.085,6.281,1.199,4.712,0.000,0.000,-2.034,-6.838,0.990,5.170,4.701,4.721,5.282,4.711,4.710,2.197,6.282,5.083,1.570,0.000,0.000,-1.445,-6.548,0.991,5.170,4.703,4.720,
11.962,17.788,-1.520,-7.131,1.935,1.010,5.262,2.404,1.743,0.000,2.274,2.082,1.677,0.000,4.417,0.678,3.543,0.000,1.562,0.000,0.000,0.000,0.000,0.000,0.000,0.000,0.000,0.000,0.000,0.000,3.142,6.280,0.001,1.004,1.568,1.567,4.085,6.281,1.199,4.712,0.000,0.000,-2.039,-6.698,0.990,5.079,4.699,4.724,5.282,4.711,4.710,2.197,6.282,5.083,1.570,0.000,0.000,-1.425,-6.464,0.991,5.078,4.700,4.723,
12.080,17.906,-1.554,-7.037,1.847,1.016,5.294,2.744,1.809,4.646,2.082,4.070,1.612,0.000,0.000,0.676,3.183,0.000,1.667,0.000,0.000,0.000,0.000,0.000,0.000,0.000,0.000,0.000,0.000,0.000,3.142,6.281,0.001,1.004,1.569,1.567,4.085,6.281,1.199,4.712,0.000,0.000,-2.032,-6.561,0.990,4.991,4.695,4.728,5.282,4.711,4.710,2.197,6.282,5.083,1.570,0.000,0.000,-1.401,-6.381,0.991,4.991,4.697,4.726,
12.165,17.991,-1.580,-6.940,1.761,1.014,5.297,4.762,1.907,4.044,2.283,3.596,1.860,0.000,0.000,0.670,2.703,0.000,1.773,0.000,0.000,0.000,0.000,0.000,0.000,0.000,0.000,0.000,0.000,0.000,3.142,6.281,0.001,1.004,1.568,1.567,4.085,6.281,1.199,4.712,0.000,0.000,-2.015,-6.425,0.990,4.905,4.687,4.736,5.282,4.711,4.710,2.197,6.282,5.083,1.570,0.000,0.000,-1.371,-6.300,0.991,4.905,4.689,4.734,
12.280,18.106,-1.597,-6.842,1.674,1.011,5.269,4.032,2.053,1.535,0.000,2.961,2.327,0.000,0.000,0.659,0.000,0.000,1.913,0.000,0.000,0.000,0.000,0.000,0.000,0.000,0.000,0.000,0.000,0.000,3.142,6.281,0.001,1.004,1.569,1.567,4.085,6.281,1.199,4.712,0.000,0.000,-1.985,-6.290,0.990,4.818,4.666,4.757,5.282,4.711,4.710,2.197,6.282,5.083,1.570,0.000,0.000,-1.333,-6.222,0.991,4.817,4.671,4.753,
12.373,18.199,-1.604,-6.763,1.603,1.012,5.270,3.394,2.215,1.443,4.892,2.648,2.396,0.000,0.000,0.648,4.738,0.000,1.983,0.000,0.000,0.000,0.000,0.000,0.000,0.000,0.000,0.000,0.000,0.000,3.142,6.281,0.001,1.004,1.569,1.567,4.085,6.281,1.199,4.712,0.000,0.000,-1.953,-6.185,0.990,4.747,4.573,4.850,5.282,4.711,4.710,2.197,6.282,5.083,1.570,0.000,0.000,-1.297,-6.163,0.991,4.746,4.585,4.839,
12.480,18.306,-1.605,-6.643,1.508,1.015,5.712,3.326,2.093,1.487,0.000,2.686,2.519,0.000,0.000,0.629,4.866,0.000,3.036,0.000,0.000,0.000,0.000,0.000,0.000,0.000,0.000,0.000,0.000,0.000,3.142,6.281,0.000,1.004,1.569,1.570,4.085,6.281,1.199,4.712,0.000,0.000,-1.895,-6.035,0.990,4.776,1.649,1.492,5.282,4.712,4.712,2.198,6.281,5.083,1.570,0.000,0.000,-1.240,-6.075,0.991,4.776,1.635,1.506,
12.576,18.402,-1.599,-6.563,1.496,1.012,6.283,3.274,1.981,1.500,0.000,2.652,2.601,0.000,0.000,0.621,4.813,0.000,2.264,0.000,0.000,0.000,0.000,0.000,0.000,0.000,0.000,0.000,0.000,0.000,3.142,6.282,0.000,1.004,1.570,1.570,4.085,6.281,1.199,4.712,0.000,0.000,-1.882,-5.951,0.990,4.789,1.635,1.506,5.281,4.711,4.712,2.198,6.282,5.083,1.570,0.000,0.000,-1.228,-6.000,0.990,4.788,1.628,1.513,
12.666,18.492,-1.590,-6.445,1.496,1.009,6.261,3.155,1.841,1.508,0.000,2.669,2.720,0.000,0.639,0.612,4.655,0.000,2.264,0.000,0.000,0.000,0.000,0.000,0.000,0.000,0.000,0.000,0.000,0.000,3.142,6.283,0.000,1.004,1.569,1.569,4.085,6.281,1.199,4.712,0.000,0.000,-1.874,-5.833,0.990,4.787,1.636,1.505,5.281,4.711,4.711,2.198,6.282,5.083,1.570,0.000,0.000,-1.220,-5.881,0.990,4.787,1.631,1.511,
12.780,18.606,-1.583,-6.346,1.497,1.013,6.262,3.055,1.723,1.516,0.000,2.683,2.819,0.000,0.631,0.605,4.525,0.000,2.299,0.000,0.000,0.000,0.000,0.000,0.000,0.000,0.000,0.000,0.000,0.000,3.142,6.282,0.000,1.004,1.569,1.569,4.085,6.281,1.199,4.712,0.000,0.000,-1.867,-5.734,0.990,4.786,1.636,1.505,5.281,4.711,4.711,2.198,6.282,5.083,1.570,0.000,0.000,-1.213,-5.782,0.990,4.786,1.631,1.510,
12.875,18.701,-1.577,-6.266,1.498,1.013,6.263,2.975,1.629,1.522,0.000,2.694,2.899,0.000,0.625,1.112,4.420,0.000,2.334,0.000,0.000,0.000,0.000,0.000,0.000,0.000,0.000,0.000,0.000,0.000,3.142,6.282,0.000,1.004,1.569,1.569,4.085,6.281,1.199,4.712,0.000,0.000,-1.862,-5.654,0.990,4.785,1.637,1.504,5.281,4.711,4.711,2.198,6.282,5.083,1.570,0.000,0.000,-1.208,-5.702,0.990,4.785,1.632,1.509,
12.980,18.806,-1.568,-6.147,1.498,1.011,6.263,2.856,1.488,1.531,1.594,2.711,3.018,0.000,0.615,1.103,4.263,0.000,2.931,0.000,0.000,0.000,0.000,0.000,0.000,0.000,0.000,0.000,0.000,0.000,3.142,6.282,0.000,1.004,1.569,1.569,4.085,6.281,1.199,4.712,0.000,0.000,-1.854,-5.536,0.990,4.785,1.637,1.503,5.281,4.711,4.711,2.198,6.282,5.083,1.570,0.000,0.000,-1.199,-5.583,0.990,4.785,1.633,1.508,
13.080,18.906,-1.563,-6.068,1.499,1.011,6.263,2.776,1.442,1.537,1.491,2.722,3.098,0.000,0.609,1.098,4.159,0.000,3.036,0.000,0.000,0.000,0.000,0.000,0.000,0.000,0.000,0.000,0.000,0.000,3.142,6.282,0.000,1.004,1.569,1.569,4.085,6.281,1.199,4.712,0.000,0.000,-1.848,-5.456,0.990,4.784,1.638,1.503,5.281,4.711,4.711,2.198,6.282,5.083,1.570,0.000,0.000,-1.194,-5.503,0.990,4.784,1.634,1.508,
13.164,18.990,-1.554,-5.948,1.500,1.012,6.264,2.657,1.456,1.545,1.500,2.741,3.217,0.000,0.600,1.089,1.902,0.000,3.036,0.000,0.000,0.000,0.000,0.000,0.000,0.000,0.000,0.000,0.000,0.000,3.142,6.282,0.000,1.004,1.569,1.569,4.085,6.281,1.199,4.712,0.000,0.000,-1.840,-5.337,0.990,4.784,1.638,1.503,5.281,4.711,4.711,2.198,6.282,5.083,1.570,0.000,0.000,-1.186,-5.384,0.990,4.783,1.634,1.507,
13.280,19.106,-1.547,-5.849,1.500,1.012,6.264,2.558,1.468,1.553,1.508,2.866,3.316,1.034,0.836,1.030,1.773,0.000,3.071,0.000,0.000,0.000,0.000,0.000,0.000,0.000,0.000,0.000,0.000,0.000,3.142,6.282,0.000,1.004,1.569,1.569,4.085,6.281,1.199,4.712,0.000,0.000,-1.834,-5.238,0.990,4.783,1.639,1.502,5.281,4.711,4.711,2.198,6.282,5.083,1.570,0.000,0.000,-1.179,-5.284,0.990,4.783,1.635,1.506,
13.375,19.201,-1.542,-5.770,1.506,1.011,0.358,2.469,1.464,1.555,1.517,2.952,3.394,1.013,1.118,4.399,1.661,0.000,3.036,0.000,0.000,0.000,0.000,0.000,0.000,0.000,0.000,0.000,0.000,0.000,3.142,0.000,0.000,1.003,1.570,1.571,4.086,6.281,1.199,4.712,0.000,0.000,-1.830,-5.161,0.990,4.779,1.647,1.494,5.281,4.712,4.713,2.199,6.281,5.083,1.570,0.000,0.000,-1.176,-5.203,0.991,4.779,1.627,1.515,
13.480,19.306,-1.536,-5.651,1.594,1.012,0.972,2.233,1.306,1.517,1.567,3.157,3.508,0.886,1.080,0.000,1.859,0.000,2.966,0.000,0.000,0.000,0.000,0.000,0.000,0.000,0.000,0.000,0.000,0.000,3.142,0.001,0.000,1.003,1.570,1.569,4.085,6.282,1.199,4.712,0.000,0.000,-1.878,-5.069,0.990,4.736,4.519,4.905,5.282,4.712,4.712,2.198,6.282,5.083,1.570,0.000,0.000,-1.222,-5.054,0.991,4.735,4.567,4.857,
13.580,19.406,-1.540,-5.551,1.633,1.017,6.271,2.092,1.240,1.498,1.587,3.354,3.401,0.850,1.072,4.135,1.983,0.000,2.931,0.000,0.000,0.000,0.000,0.000,0.000,0.000,0.000,0.000,0.000,0.000,3.142,6.283,0.000,1.004,1.568,1.567,4.085,6.282,1.199,4.711,0.000,0.000,-1.907,-4.983,0.990,4.778,4.637,4.786,5.281,4.711,4.709,2.198,6.282,5.083,1.570,0.000,0.000,-1.252,-4.942,0.990,4.777,4.646,4.778,
13.680,19.506,-1.547,-5.451,1.633,1.010,6.270,1.993,1.231,1.492,1.581,3.341,3.501,0.919,1.079,4.020,1.994,0.000,2.931,0.000,0.000,0.000,0.000,0.000,0.000,0.000,0.000,0.000,0.000,0.000,3.142,6.282,0.000,1.004,1.569,1.569,4.085,6.281,1.199,4.712,0.000,0.000,-1.911,-4.884,0.990,4.775,4.637,4.787,5.281,4.711,4.711,2.198,6.282,5.083,1.570,0.000,0.000,-1.257,-4.843,0.990,4.775,4.637,4.787,
13.780,19.606,-1.551,-5.372,1.633,1.008,6.270,1.914,1.223,1.487,1.575,3.332,3.580,1.022,1.032,4.026,2.004,0.000,2.931,0.000,0.000,0.000,0.000,0.000,0.000,0.000,0.000,0.000,0.000,0.000,3.142,6.282,0.000,1.004,1.569,1.569,4.085,6.281,1.199,4.712,0.000,0.000,-1.916,-4.804,0.990,4.775,4.638,4.786,5.281,4.711,4.711,2.198,6.282,5.083,1.570,0.000,0.000,-1.262,-4.763,0.990,4.775,4.637,4.787,
13.880,19.706,-1.556,-5.301,1.633,0.321,6.264,1.843,1.216,1.482,1.571,3.326,3.649,1.115,1.037,4.031,2.014,0.000,2.931,0.000,0.000,0.000,0.000,0.000,0.000,0.000,0.000,0.000,0.000,0.000,3.142,0.001,0.001,1.002,1.570,1.570,4.089,6.281,1.200,4.712,0.000,0.000,-1.920,-4.732,0.989,4.774,4.602,4.822,5.281,4.712,4.712,2.198,6.282,5.083,1.570,0.000,0.000,-1.265,-4.692,0.990,4.774,4.636,4.788,
13.980,19.806,-1.557,-5.285,1.634,0.119,6.265,1.827,1.214,1.481,1.570,3.327,3.662,1.136,1.038,4.033,2.017,0.000,2.931,0.000,0.000,0.000,0.000,0.000,0.000,0.000,0.000,0.000,0.000,0.000,3.142,0.000,0.001,1.003,1.570,1.570,4.087,6.281,1.199,4.712,0.000,0.000,-1.922,-4.717,0.990,4.775,4.618,4.805,5.281,4.712,4.712,2.198,6.282,5.083,1.570,0.000,0.000,-1.267,-4.676,0.990,4.775,4.638,4.786,
14.080,19.906,-1.554,-5.330,1.629,-0.872,6.101,1.876,1.225,1.486,1.570,3.304,3.645,1.074,1.036,4.022,1.996,0.000,2.931,0.000,0.000,0.000,0.000,0.000,0.000,0.000,0.000,0.000,0.000,0.000,3.142,0.005,0.001,0.998,1.573,1.573,4.095,6.281,1.200,4.712,0.000,0.000,-1.913,-4.757,0.989,4.766,4.526,4.898,5.280,4.714,4.715,2.200,6.283,5.083,1.570,0.000,0.000,-1.258,-4.723,0.990,4.766,4.635,4.789,
14.179,20.005,-1.549,-5.423,1.621,-1.415,0.008,1.976,1.245,1.494,1.571,3.272,3.594,0.947,1.084,4.004,1.961,0.000,2.966,0.000,0.000,0.000,0.000,0.000,0.000,0.000,0.000,0.000,0.000,0.000,3.142,0.003,0.001,1.001,1.571,1.573,4.090,6.280,1.200,4.712,0.000,0.000,-1.904,-4.849,0.989,4.759,4.547,4.877,5.280,4.713,4.715,2.199,6.281,5.083,1.570,0.000,0.000,-1.249,-4.818,0.990,4.759,4.621,4.804,
14.280,20.106,-1.541,-5.581,1.621,-1.095,6.275,2.133,1.257,1.502,1.580,3.290,3.433,0.862,1.076,4.339,1.947,0.000,2.931,0.000,0.000,0.000,0.000,0.000,0.000,0.000,0.000,0.000,0.000,0.000,3.142,6.281,6.283,1.005,1.568,1.568,4.082,6.281,1.199,4.712,0.000,0.000,-1.900,-5.011,0.990,4.765,4.658,4.765,5.281,4.711,4.710,2.199,6.282,5.083,1.570,0.000,0.000,-1.244,-4.976,0.991,4.765,4.638,4.786,
14.380,20.206,-1.537,-5.653,1.621,-0.800,6.275,2.204,1.262,1.506,1.584,3.298,3.360,0.856,1.072,4.534,1.941,0.000,2.931,0.000,0.000,0.000,0.000,0.000,0.000,0.000,0.000,0.000,0.000,0.000,3.142,6.282,0.000,1.004,1.569,1.569,4.084,6.281,1.199,4.712,0.000,0.000,-1.895,-5.082,0.990,4.764,4.634,4.789,5.281,4.711,4.711,2.199,6.282,5.083,1.570,0.000,0.000,-1.240,-5.049,0.990,4.764,4.636,4.788,
14.480,20.306,-1.533,-5.734,1.622,-0.919,6.273,2.284,1.268,1.510,1.588,3.308,3.277,0.849,1.068,0.000,1.934,0.000,2.931,0.000,0.000,0.000,0.000,0.000,0.000,0.000,0.000,0.000,0.000,0.000,3.142,0.001,0.000,1.002,1.570,1.571,4.088,6.281,1.200,4.712,0.000,0.000,-1.890,-5.162,0.990,4.762,4.583,4.840,5.280,4.712,4.713,2.199,6.282,5.083,1.570,0.000,0.000,-1.235,-5.129,0.990,4.762,4.630,4.794,
14.580,20.406,-1.528,-5.836,1.622,-1.123,6.274,2.385,1.275,1.515,1.594,3.321,3.172,0.841,1.062,4.393,1.926,0.000,2.931,0.000,0.000,0.000,0.000,0.000,0.000,0.000,0.000,0.000,0.000,0.000,3.142,0.001,0.000,1.002,1.570,1.570,4.087,6.281,1.200,4.712,0.000,0.000,-1.885,-5.264,0.990,4.763,4.596,4.828,5.280,4.712,4.712,2.199,6.282,5.083,1.570,0.000,0.000,-1.230,-5.231,0.990,4.763,4.631,4.793,
14.664,20.490,-1.521,-5.966,1.623,-1.028,6.275,2.512,1.395,1.522,1.716,3.336,3.041,0.830,0.761,1.044,1.821,0.000,2.931,0.000,0.000,0.000,0.000,0.000,0.000,0.000,0.000,0.000,0.000,0.000,3.142,6.283,0.000,1.004,1.569,1.569,4.085,6.281,1.199,4.712,0.000,0.000,-1.880,-5.394,0.990,4.765,4.624,4.799,5.281,4.711,4.711,2.199,6.282,5.083,1.570,0.000,0.000,-1.225,-5.360,0.990,4.765,4.635,4.789,
14.780,20.606,-1.516,-6.062,1.623,-0.951,6.274,2.607,1.521,1.527,0.000,3.435,2.944,0.821,0.536,1.068,1.873,0.000,2.826,0.000,0.000,0.000,0.000,0.000,0.000,0.000,0.000,0.000,0.000,0.000,3.142,6.283,0.000,1.003,1.570,1.570,4.086,6.281,1.199,4.712,0.000,0.000,-1.875,-5.490,0.990,4.764,4.614,4.810,5.281,4.712,4.712,2.199,6.282,5.083,1.570,0.000,0.000,-1.219,-5.456,0.990,4.764,4.634,4.790,
14.880,20.706,-1.511,-6.157,1.623,-1.005,6.274,2.702,1.646,1.532,0.000,3.323,2.846,0.813,0.531,1.087,1.986,0.000,2.791,0.000,0.000,0.000,0.000,0.000,0.000,0.000,0.000,0.000,0.000,0.000,3.142,0.000,0.000,1.003,1.570,1.570,4.087,6.281,1.199,4.712,0.000,0.000,-1.870,-5.585,0.990,4.764,4.605,4.819,5.280,4.712,4.712,2.199,6.282,5.083,1.570,0.000,0.000,-1.214,-5.552,0.990,4.764,4.634,4.790,
14.978,20.805,-1.507,-6.238,1.624,-1.042,6.275,2.781,1.752,1.536,0.000,3.228,2.764,0.000,0.527,1.083,2.080,0.000,2.194,0.000,0.000,0.000,0.000,0.000,0.000,0.000,0.000,0.000,0.000,0.000,3.142,0.000,0.000,1.003,1.570,1.570,4.086,6.281,1.199,4.712,0.000,0.000,-1.866,-5.666,0.990,4.765,4.610,4.814,5.280,4.712,4.712,2.199,6.282,5.083,1.570,0.000,0.000,-1.211,-5.632,0.990,4.765,4.634,4.790,
15.080,20.906,-1.500,-6.360,1.624,-1.015,6.275,2.901,1.913,1.543,0.000,3.085,2.640,0.000,0.520,0.542,4.700,0.000,2.159,0.000,0.000,0.000,0.000,0.000,0.000,0.000,0.000,0.000,0.000,0.000,3.142,6.283,0.000,1.003,1.570,1.570,4.086,6.281,1.199,4.712,0.000,0.000,-1.860,-5.789,0.990,4.766,4.617,4.806,5.281,4.712,4.712,2.199,6.282,5.083,1.570,0.000,0.000,-1.205,-5.754,0.990,4.766,4.636,4.788,
15.163,20.989,-1.496,-6.438,1.626,-0.996,0.142,2.977,2.019,1.546,0.000,2.990,2.554,0.000,0.515,0.537,4.705,0.000,2.896,0.000,0.000,0.000,0.000,0.000,0.000,0.000,0.000,0.000,0.000,0.000,3.142,0.001,0.000,1.002,1.570,1.571,4.087,6.281,1.200,4.712,0.000,0.000,-1.856,-5.868,0.990,4.766,4.610,4.814,5.280,4.712,4.713,2.200,6.282,5.083,1.570,0.000,0.000,-1.201,-5.832,0.991,4.766,4.648,4.776,
15.280,21.106,-1.488,-6.556,1.699,-1.010,1.293,3.642,2.156,1.532,0.000,3.346,2.195,0.000,0.499,0.546,2.352,0.000,1.948,0.000,0.000,0.000,0.000,0.000,0.000,0.000,0.000,0.000,0.000,0.000,3.142,0.003,0.000,1.002,1.571,1.572,4.087,6.281,1.199,4.712,0.000,0.000,-1.887,-6.013,0.990,4.837,4.668,4.756,5.281,4.713,4.714,2.200,6.281,5.083,1.570,0.000,0.000,-1.236,-5.930,0.991,4.837,4.693,4.731,
15.365,21.191,-1.477,-6.635,1.798,-1.015,1.466,4.488,1.982,1.632,4.986,4.219,2.065,0.000,0.481,0.564,2.456,0.000,1.808,0.000,0.000,0.000,0.000,0.000,0.000,0.000,0.000,0.000,0.000,0.000,3.142,0.002,0.000,1.002,1.569,1.569,4.087,6.281,1.199,4.712,0.000,0.000,-1.930,-6.135,0.990,4.940,4.691,4.732,5.281,4.712,4.712,2.199,6.282,5.083,1.570,0.000,0.000,-1.290,-5.987,0.991,4.939,4.701,4.722,
15.480,21.306,-1.445,-6.750,1.929,-1.009,1.044,2.464,1.838,4.766,2.361,4.270,2.243,4.840,0.449,0.578,3.155,0.000,1.667,0.000,0.000,0.000,0.000,0.000,0.000,0.000,0.000,0.000,0.000,0.000,3.142,0.002,0.000,1.003,1.569,1.568,4.086,6.281,1.199,4.711,0.000,0.000,-1.961,-6.314,0.990,5.073,4.698,4.724,5.281,4.711,4.711,2.199,6.282,5.083,1.570,0.000,0.000,-1.346,-6.084,0.991,5.072,4.704,4.719,
15.564,21.391,-1.409,-6.843,2.007,-1.016,0.865,2.161,1.799,0.000,2.585,2.344,0.000,4.744,0.415,0.568,3.195,0.000,3.142,0.000,0.000,0.000,0.000,0.000,0.000,0.000,0.000,0.000,0.000,0.000,3.142,0.002,0.000,1.003,1.569,1.569,4.087,6.281,1.199,4.712,0.000,0.000,-1.955,-6.447,0.990,5.148,4.699,4.723,5.281,4.712,4.712,2.199,6.282,5.083,1.570,0.000,0.000,-1.360,-6.171,0.991,5.148,4.705,4.718,
15.680,21.506,-1.365,-6.933,2.085,-1.016,1.010,2.359,1.781,0.000,2.735,2.232,0.000,0.000,0.655,0.550,3.688,0.000,3.142,0.000,0.000,0.000,0.000,0.000,0.000,0.000,0.000,0.000,0.000,0.000,3.142,0.002,0.000,1.003,1.570,1.570,4.087,6.281,1.199,4.712,0.000,0.000,-1.940,-6.581,0.990,5.226,4.701,4.721,5.281,4.712,4.712,2.199,6.282,5.083,1.570,0.000,0.000,-1.369,-6.259,0.991,5.226,4.707,4.716,
15.772,21.598,-1.324,-7.002,2.157,-1.011,1.093,2.554,1.774,0.000,2.594,1.969,0.000,0.000,0.739,0.534,4.439,0.000,3.142,0.000,0.000,0.000,0.000,0.000,0.000,0.000,0.000,0.000,0.000,0.000,3.142,0.002,0.000,1.003,1.570,1.569,4.087,6.281,1.199,4.712,0.000,0.000,-1.924,-6.693,0.990,5.299,4.703,4.719,5.281,4.712,4.712,2.199,6.282,5.083,1.570,0.000,0.000,-1.377,-6.330,0.991,5.298,4.707,4.715,
15.880,21.706,-1.255,-7.099,2.267,-1.013,1.046,2.666,1.940,2.532,3.436,1.500,0.000,0.000,1.580,0.494,3.731,0.000,3.142,0.000,0.000,0.000,0.000,0.000,0.000,0.000,0.000,0.000,0.000,0.000,3.142,0.002,0.000,1.003,1.569,1.569,4.087,6.281,1.199,4.712,0.000,0.000,-1.886,-6.858,0.990,5.409,4.704,4.717,5.281,4.712,4.712,2.199,6.282,5.083,1.570,0.000,0.000,-1.381,-6.437,0.991,5.408,4.708,4.715,
15.980,21.806,-1.190,-7.174,2.353,-1.018,0.998,2.524,4.498,2.338,4.193,1.563,0.000,0.000,1.475,0.431,4.006,0.000,3.142,0.000,0.000,0.000,0.000,0.000,0.000,0.000,0.000,0.000,0.000,0.000,3.142,0.002,0.000,1.003,1.569,1.569,4.087,6.281,1.199,4.712,0.000,0.000,-1.838,-6.988,0.990,5.495,4.705,4.716,5.281,4.712,4.712,2.199,6.282,5.083,1.570,0.000,0.000,-1.372,-6.526,0.991,5.494,4.708,4.714,
16.080,21.906,-1.118,-7.244,2.438,-1.015,1.026,2.432,0.000,2.546,2.045,1.658,0.000,0.000,1.399,0.480,0.000,0.000,3.142,0.000,0.000,0.000,0.000,0.000,0.000,0.000,0.000,0.000,0.000,0.000,3.142,0.002,0.000,1.003,1.570,1.569,4.087,6.281,1.199,4.712,0.000,0.000,-1.780,-7.113,0.990,5.580,4.705,4.716,5.281,4.712,4.712,2.199,6.282,5.083,1.570,0.000,0.000,-1.355,-6.613,0.991,5.580,4.709,4.714,
16.180,22.006,-1.056,-7.295,2.508,-1.012,1.043,2.381,0.000,2.825,1.944,1.770,0.000,0.000,0.676,0.521,0.000,0.000,3.142,0.000,0.000,0.000,0.000,0.000,0.000,0.000,0.000,0.000,0.000,0.000,3.142,0.002,0.000,1.003,1.569,1.569,4.087,6.281,1.199,4.712,0.000,0.000,-1.726,-7.211,0.990,5.650,4.706,4.715,5.281,4.712,4.712,2.199,6.282,5.083,1.570,0.000,0.000,-1.337,-6.682,0.991,5.650,4.709,4.713,
16.280,22.106,-0.958,-7.363,2.614,-1.014,1.039,2.340,0.000,2.801,1.412,0.000,4.119,0.000,0.632,0.576,3.346,0.000,3.001,0.000,0.000,0.000,0.000,0.000,0.000,0.000,0.000,0.000,0.000,0.000,3.142,0.002,0.000,1.003,1.569,1.569,4.087,6.281,1.199,4.712,0.000,0.000,-1.633,-7.350,0.990,5.756,4.706,4.714,5.281,4.712,4.712,2.199,6.282,5.083,1.570,0.000,0.000,-1.302,-6.783,0.991,5.755,4.709,4.713,
16.380,22.206,-0.888,-7.402,2.684,-1.016,1.031,2.334,0.000,3.107,1.242,0.000,3.912,0.000,0.643,0.609,3.055,0.000,2.896,0.000,0.000,0.000,0.000,0.000,0.000,0.000,0.000,0.000,0.000,0.000,3.142,0.002,0.000,1.003,1.569,1.569,4.087,6.281,1.199,4.712,0.000,0.000,-1.562,-7.436,0.990,5.826,4.706,4.714,5.281,4.712,4.712,2.199,6.282,5.083,1.570,0.000,0.000,-1.272,-6.848,0.991,5.825,4.709,4.713,
16.468,22.295,-0.833,-7.429,2.771,0.047,0.599,2.422,2.514,3.532,1.300,0.000,4.334,2.093,0.630,0.631,3.035,0.000,2.791,0.000,0.000,0.000,0.000,0.000,0.000,0.000,0.000,0.000,0.000,0.000,3.142,6.280,6.283,1.008,1.566,1.564,4.077,6.282,1.199,4.711,0.000,0.000,-1.500,-7.527,0.991,5.919,4.712,4.711,5.282,4.709,4.707,2.199,6.282,5.083,1.570,0.000,0.000,-1.264,-6.913,0.991,5.918,4.710,4.713,
16.580,22.406,-0.859,-7.419,2.833,0.389,0.932,3.207,2.537,3.803,1.343,0.000,0.000,2.891,0.605,0.621,3.160,0.000,3.142,0.000,0.000,0.000,0.000,0.000,0.000,0.000,0.000,0.000,0.000,0.000,3.142,0.001,0.000,1.004,1.570,1.570,4.085,6.281,1.199,4.712,0.000,0.000,-1.520,-7.553,0.990,5.974,4.707,4.713,5.282,4.712,4.713,2.198,6.282,5.083,1.570,0.000,0.000,-1.321,-6.928,0.991,5.974,4.709,4.713,
16.665,22.491,-0.917,-7.402,2.923,0.899,0.942,4.784,2.567,2.009,1.410,0.000,0.000,2.249,1.043,0.607,3.097,0.000,3.142,0.000,0.000,0.000,0.000,0.000,0.000,0.000,0.000,0.000,0.000,0.000,3.142,6.281,6.283,1.007,1.568,1.566,4.080,6.282,1.199,4.712,0.000,0.000,-1.562,-7.598,0.990,6.069,4.711,4.711,5.283,4.710,4.709,2.198,6.282,5.083,1.570,0.000,0.000,-1.422,-6.956,0.991,6.068,4.709,4.712,
16.780,22.606,-1.028,-7.379,3.003,1.305,1.006,0.000,2.546,1.954,1.458,0.000,0.000,1.858,0.644,4.098,2.703,0.000,3.142,0.000,0.000,0.000,0.000,0.000,0.000,0.000,0.000,0.000,0.000,0.000,3.142,0.000,0.000,1.005,1.570,1.570,4.084,6.282,1.199,4.712,0.000,0.000,-1.657,-7.623,0.990,6.144,4.708,4.712,5.282,4.712,4.712,2.198,6.282,5.083,1.571,0.000,0.000,-1.567,-6.973,0.991,6.144,4.709,4.712,
16.876,22.702,-1.126,-7.367,3.076,1.146,1.102,0.000,2.546,1.909,1.510,0.000,0.000,0.799,0.610,0.000,2.408,0.000,3.142,0.000,0.000,0.000,0.000,0.000,0.000,0.000,0.000,0.000,0.000,0.000,3.142,0.002,0.001,1.002,1.571,1.571,4.088,6.281,1.199,4.712,0.000,0.000,-1.737,-7.655,0.990,6.216,4.706,4.712,5.282,4.713,4.714,2.198,6.282,5.083,1.570,0.000,0.000,-1.693,-7.000,0.991,6.216,4.709,4.712,
16.980,22.806,-1.241,-7.363,3.188,0.862,1.038,0.000,2.555,1.849,1.629,4.976,0.000,1.376,0.945,3.060,2.087,0.000,3.142,0.000,0.000,0.000,0.000,0.000,0.000,0.000,0.000,0.000,0.000,0.000,3.142,0.001,0.000,1.003,1.570,1.570,4.086,6.281,1.199,4.712,0.000,0.000,-1.814,-7.718,0.990,0.046,4.707,4.711,5.282,4.712,4.712,2.198,6.282,5.083,1.570,0.000,0.000,-1.845,-7.062,0.991,0.045,4.709,4.711,
17.080,22.906,-1.311,-7.367,3.257,0.950,0.992,0.000,2.358,1.817,1.724,4.414,4.228,0.838,3.738,2.727,1.924,0.000,3.106,0.000,0.000,0.000,0.000,0.000,0.000,0.000,0.000,0.000,0.000,0.000,3.142,0.000,0.000,1.004,1.570,1.569,4.084,6.282,1.199,4.712,0.000,0.000,-1.858,-7.762,0.990,0.116,4.708,4.711,5.282,4.712,4.711,2.198,6.282,5.083,1.570,0.000,0.000,-1.934,-7.110,0.991,0.116,4.709,4.711,
17.161,22.987,-1.433,-7.386,3.360,1.092,1.011,4.845,2.230,1.776,1.885,4.720,4.092,0.782,4.608,3.034,1.866,0.000,3.071,0.000,0.000,0.000,0.000,0.000,0.000,0.000,0.000,0.000,0.000,0.000,3.142,0.001,0.000,1.004,1.570,1.570,4.085,6.281,1.199,4.712,0.000,0.000,-1.937,-7.834,0.990,0.218,4.708,4.710,5.282,4.712,4.712,2.198,6.282,5.083,1.570,0.000,0.000,-2.079,-7.193,0.991,0.218,4.709,4.711,
17.280,23.106,-1.535,-7.411,3.437,1.026,0.602,2.237,2.502,1.747,0.000,0.000,3.125,0.897,4.071,2.521,2.836,0.000,3.001,0.000,0.000,0.000,0.000,0.000,0.000,0.000,0.000,0.000,0.000,0.000,3.142,0.001,0.000,1.003,1.569,1.568,4.086,6.282,1.199,4.712,0.000,0.000,-2.002,-7.897,0.990,0.297,4.707,4.709,5.281,4.712,4.711,2.198,6.283,5.083,1.570,0.000,0.000,-2.194,-7.270,0.991,0.297,4.708,4.710,
17.373,23.200,-1.628,-7.440,3.450,0.971,6.273,2.059,2.387,1.718,1.912,0.000,3.091,1.071,4.015,2.318,4.777,0.000,2.966,0.000,0.000,0.000,0.000,0.000,0.000,0.000,0.000,0.000,0.000,0.000,3.142,6.282,0.000,1.004,1.569,1.569,4.085,6.281,1.199,4.712,0.000,0.000,-2.089,-7.932,0.990,0.310,4.707,4.710,5.281,4.711,4.711,2.198,6.282,5.083,1.570,0.000,0.000,-2.289,-7.307,0.990,0.310,4.707,4.710,
17.480,23.306,-1.720,-7.469,3.451,1.005,6.270,1.967,2.009,1.688,1.726,0.000,3.187,1.227,4.016,2.162,4.681,0.000,3.001,0.000,0.000,0.000,0.000,0.000,0.000,0.000,0.000,0.000,0.000,0.000,3.142,6.282,0.000,1.004,1.569,1.569,4.084,6.281,1.199,4.712,0.000,0.000,-2.181,-7.962,0.990,0.310,4.708,4.710,5.281,4.711,4.711,2.198,6.282,5.083,1.570,0.000,0.000,-2.381,-7.337,0.990,0.310,4.707,4.710,
17.568,23.394,-1.796,-7.494,3.451,1.032,6.269,1.890,1.937,1.664,1.573,0.000,3.267,1.357,4.174,2.033,4.600,0.000,3.001,0.000,0.000,0.000,0.000,0.000,0.000,0.000,0.000,0.000,0.000,0.000,3.142,6.282,0.000,1.004,1.569,1.569,4.085,6.281,1.199,4.712,0.000,0.000,-2.257,-7.986,0.990,0.310,4.708,4.710,5.281,4.711,4.711,2.198,6.282,5.083,1.570,0.000,0.000,-2.457,-7.361,0.990,0.310,4.707,4.710,
17.680,23.506,-1.912,-7.530,3.451,1.015,6.269,1.774,1.894,1.627,1.340,0.000,3.386,1.554,4.414,1.837,3.871,0.000,3.001,0.000,0.000,0.000,0.000,0.000,0.000,0.000,0.000,0.000,0.000,0.000,3.142,6.282,0.000,1.004,1.569,1.569,4.085,6.281,1.199,4.712,0.000,0.000,-2.373,-8.023,0.990,0.310,4.707,4.710,5.281,4.711,4.711,2.198,6.282,5.083,1.570,0.000,0.000,-2.573,-7.398,0.990,0.310,4.708,4.710,
17.773,23.599,-1.978,-7.552,3.444,0.723,5.901,1.745,1.779,1.605,1.368,0.000,3.536,1.650,4.494,1.742,3.810,0.000,3.001,0.000,0.000,0.000,0.000,0.000,0.000,0.000,0.000,0.000,0.000,0.000,3.142,6.283,0.001,1.002,1.569,1.568,4.088,6.281,1.200,4.712,0.000,0.000,-2.444,-8.042,0.989,0.303,4.706,4.709,5.281,4.711,4.710,2.197,6.282,5.083,1.570,0.000,0.000,-2.639,-7.415,0.990,0.303,4.707,4.710,
17.880,23.706,-2.038,-7.569,3.342,0.452,4.889,4.243,1.905,4.554,1.486,0.000,3.293,1.546,4.194,1.920,2.534,0.000,3.106,0.000,0.000,0.000,0.000,0.000,0.000,0.000,0.000,0.000,0.000,0.000,3.142,6.280,0.001,1.004,1.568,1.566,4.085,6.281,1.199,4.712,0.000,0.000,-2.549,-8.011,0.990,0.204,4.708,4.710,5.282,4.711,4.709,2.197,6.282,5.083,1.570,0.000,0.000,-2.680,-7.367,0.991,0.203,4.708,4.710,
17.976,23.802,-2.078,-7.577,3.241,0.613,4.985,0.000,1.601,3.384,1.749,0.000,0.000,1.452,4.886,2.240,2.187,0.000,3.142,0.000,0.000,0.000,0.000,0.000,0.000,0.000,0.000,0.000,0.000,0.000,3.142,6.279,0.000,1.005,1.568,1.567,4.083,6.281,1.199,4.712,0.000,0.000,-2.630,-7.964,0.990,0.102,4.709,4.711,5.283,4.711,4.710,2.197,6.282,5.083,1.570,0.000,0.000,-2.697,-7.310,0.991,0.101,4.709,4.711,
18.080,23.906,-2.161,-7.582,3.134,0.740,5.463,0.000,1.360,2.862,1.668,0.000,0.000,1.434,4.085,2.696,1.856,0.000,3.142,0.000,0.000,0.000,0.000,0.000,0.000,0.000,0.000,0.000,0.000,0.000,3.142,6.281,0.001,1.004,1.569,1.568,4.085,6.281,1.199,4.712,0.000,0.000,-2.752,-7.906,0.990,6.276,4.707,4.711,5.282,4.711,4.711,2.197,6.282,5.083,1.570,0.000,0.000,-2.747,-7.250,0.991,6.276,4.708,4.712,
18.180,24.006,-2.215,-7.581,3.077,0.652,5.442,0.000,1.241,2.264,1.639,0.000,0.000,1.456,3.933,3.048,1.722,0.000,3.142,0.000,0.000,0.000,0.000,0.000,0.000,0.000,0.000,0.000,0.000,0.000,3.142,6.281,0.001,1.004,1.569,1.568,4.086,6.281,1.199,4.712,0.000,0.000,-2.825,-7.872,0.990,6.220,4.707,4.711,5.281,4.711,4.711,2.197,6.282,5.083,1.570,0.000,0.000,-2.783,-7.217,0.990,6.220,4.708,4.712,
18.280,24.106,-2.286,-7.575,2.976,0.587,5.200,3.958,1.130,1.624,1.608,1.557,0.000,1.728,3.920,2.709,1.292,0.000,3.142,0.000,0.000,0.000,0.000,0.000,0.000,0.000,0.000,0.000,0.000,0.000,3.142,6.280,0.001,1.004,1.569,1.567,4.085,6.281,1.199,4.712,0.000,0.000,-2.921,-7.803,0.990,6.120,4.708,4.712,5.282,4.711,4.710,2.197,6.282,5.083,1.570,0.000,0.000,-2.813,-7.155,0.991,6.119,4.708,4.712,
18.365,24.191,-2.337,-7.565,2.909,0.820,5.626,3.954,1.323,1.656,0.000,1.638,0.000,2.743,3.601,2.676,1.200,0.000,3.142,0.000,0.000,0.000,0.000,0.000,0.000,0.000,0.000,0.000,0.000,0.000,3.142,6.279,0.000,1.006,1.569,1.568,4.081,6.281,1.199,4.712,0.000,0.000,-2.985,-7.750,0.990,6.051,4.709,4.712,5.282,4.711,4.711,2.197,6.282,5.083,1.571,0.000,0.000,-2.835,-7.111,0.991,6.051,4.709,4.713,
18.475,24.301,-2.461,-7.534,2.895,1.232,6.278,3.840,3.743,1.544,0.000,1.775,0.000,1.961,3.631,2.642,1.145,0.000,3.142,0.000,0.000,0.000,0.000,0.000,0.000,0.000,0.000,0.000,0.000,0.000,3.142,6.282,0.000,1.004,1.569,1.568,4.084,6.281,1.199,4.712,0.000,0.000,-3.112,-7.710,0.990,6.037,4.708,4.712,5.281,4.711,4.711,2.198,6.282,5.083,1.570,0.000,0.000,-2.952,-7.073,0.990,6.037,4.708,4.713,
18.580,24.406,-2.572,-7.506,2.895,1.050,6.262,3.725,3.806,1.328,0.000,1.890,0.000,1.883,3.943,2.614,1.109,0.000,3.142,0.000,0.000,0.000,0.000,0.000,0.000,0.000,0.000,0.000,0.000,0.000,3.142,0.001,0.001,1.002,1.570,1.570,4.087,6.281,1.200,4.712,0.000,0.000,-3.224,-7.681,0.990,6.036,4.706,4.713,5.281,4.712,4.712,2.198,6.282,5.083,1.570,0.000,0.000,-3.064,-7.045,0.990,6.036,4.708,4.713,
18.664,24.490,-2.663,-7.484,2.896,0.898,6.263,3.631,3.857,1.152,0.000,1.985,0.000,1.819,4.121,4.252,1.299,0.000,3.142,0.000,0.000,0.000,0.000,0.000,0.000,0.000,0.000,0.000,0.000,0.000,3.142,6.283,0.000,1.003,1.569,1.569,4.086,6.281,1.199,4.712,0.000,0.000,-3.314,-7.659,0.990,6.038,4.707,4.713,5.281,4.711,4.712,2.198,6.282,5.083,1.570,0.000,0.000,-3.155,-7.023,0.990,6.038,4.708,4.713,
18.780,24.606,-2.733,-7.466,2.897,0.968,6.262,3.558,3.896,1.015,4.661,2.058,0.000,1.875,4.260,3.340,1.276,0.000,3.142,0.000,0.000,0.000,0.000,0.000,0.000,0.000,0.000,0.000,0.000,0.000,3.142,6.282,0.000,1.004,1.569,1.569,4.084,6.281,1.199,4.712,0.000,0.000,-3.384,-7.643,0.990,6.039,4.708,4.712,5.281,4.711,4.711,2.198,6.282,5.083,1.570,0.000,0.000,-3.226,-7.006,0.990,6.039,4.708,4.713,
18.880,24.706,-2.852,-7.437,2.898,1.071,6.263,3.436,3.739,0.783,3.480,2.309,0.000,2.004,4.491,1.838,1.238,0.000,3.142,0.000,0.000,0.000,0.000,0.000,0.000,0.000,0.000,0.000,0.000,0.000,3.142,6.282,0.000,1.004,1.569,1.569,4.085,6.281,1.199,4.712,0.000,0.000,-3.503,-7.613,0.990,6.040,4.708,4.713,5.281,4.711,4.711,2.198,6.282,5.083,1.570,0.000,0.000,-3.345,-6.977,0.990,6.040,4.708,4.713,
18.973,24.799,-2.932,-7.417,2.901,1.033,0.218,3.351,3.636,0.792,3.501,2.342,0.000,2.093,4.101,0.920,1.215,0.000,3.142,0.000,0.000,0.000,0.000,0.000,0.000,0.000,0.000,0.000,0.000,0.000,3.142,0.000,0.000,1.003,1.570,1.571,4.086,6.281,1.199,4.712,0.000,0.000,-3.583,-7.594,0.990,6.041,4.707,4.713,5.281,4.712,4.713,2.199,6.282,5.083,1.570,0.000,0.000,-3.426,-6.957,0.990,6.041,4.708,4.713,
19.080,24.906,-3.047,-7.390,2.984,0.980,1.326,3.184,3.410,0.787,0.000,2.326,0.000,2.304,4.573,0.735,1.276,0.000,3.142,0.000,0.000,0.000,0.000,0.000,0.000,0.000,0.000,0.000,0.000,0.000,3.142,0.002,0.000,1.003,1.571,1.572,4.086,6.281,1.199,4.712,0.000,0.000,-3.681,-7.620,0.990,6.123,4.707,4.713,5.282,4.713,4.714,2.198,6.282,5.083,1.571,0.000,0.000,-3.577,-6.973,0.991,6.122,4.709,4.713,
19.180,25.006,-3.145,-7.378,3.086,1.016,0.642,0.000,2.945,0.767,0.000,2.375,0.000,3.138,4.222,0.911,1.383,0.000,3.142,0.000,0.000,0.000,0.000,0.000,0.000,0.000,0.000,0.000,0.000,0.000,3.142,6.283,0.000,1.004,1.569,1.566,4.084,6.282,1.199,4.712,0.000,0.000,-3.751,-7.675,0.990,6.232,4.708,4.711,5.282,4.711,4.709,2.198,6.283,5.083,1.570,0.000,0.000,-3.715,-7.020,0.991,6.231,4.709,4.711,
19.275,25.101,-3.246,-7.373,3.096,1.033,6.255,0.000,2.841,0.770,0.000,2.463,0.000,3.235,4.261,0.908,1.342,0.000,3.142,0.000,0.000,0.000,0.000,0.000,0.000,0.000,0.000,0.000,0.000,0.000,3.142,6.282,0.000,1.004,1.569,1.569,4.084,6.281,1.199,4.712,0.000,0.000,-3.849,-7.675,0.990,6.238,4.708,4.712,5.281,4.711,4.711,2.197,6.282,5.083,1.570,0.000,0.000,-3.820,-7.019,0.990,6.238,4.707,4.712,
19.380,25.206,-3.346,-7.368,3.095,1.008,6.275,0.000,2.789,0.775,0.000,2.553,0.000,3.355,0.925,0.903,1.333,0.000,3.142,0.000,0.000,0.000,0.000,0.000,0.000,0.000,0.000,0.000,0.000,0.000,3.142,6.282,0.000,1.004,1.569,1.569,4.085,6.281,1.199,4.712,0.000,0.000,-3.950,-7.670,0.990,6.238,4.708,4.712,5.281,4.711,4.711,2.197,6.282,5.083,1.570,0.000,0.000,-3.920,-7.014,0.990,6.238,4.708,4.712,
19.480,25.306,-3.445,-7.364,3.095,1.000,6.273,0.000,2.798,0.780,1.793,2.641,0.000,0.000,0.744,0.898,0.000,0.000,3.142,0.000,0.000,0.000,0.000,0.000,0.000,0.000,0.000,0.000,0.000,0.000,3.142,6.282,0.000,1.004,1.569,1.569,4.084,6.281,1.199,4.712,0.000,0.000,-4.048,-7.665,0.990,6.237,4.708,4.712,5.281,4.711,4.711,2.197,6.282,5.083,1.570,0.000,0.000,-4.018,-7.010,0.990,6.237,4.708,4.712,
19.562,25.388,-3.524,-7.360,3.095,1.011,6.272,0.000,2.893,1.737,0.773,2.712,0.000,0.000,0.740,0.894,0.000,0.000,3.142,0.000,0.000,0.000,0.000,0.000,0.000,0.000,0.000,0.000,0.000,0.000,3.142,6.282,0.000,1.004,1.569,1.569,4.084,6.281,1.199,4.712,0.000,0.000,-4.127,-7.661,0.990,6.237,4.708,4.712,5.281,4.711,4.711,2.197,6.282,5.083,1.570,0.000,0.000,-4.097,-7.006,0.990,6.237,4.708,4.712,
19.680,25.506,-3.623,-7.355,3.095,1.018,6.271,0.000,2.902,1.742,0.778,3.002,0.000,0.000,0.912,0.889,0.000,0.000,3.142,0.000,0.000,0.000,0.000,0.000,0.000,0.000,0.000,0.000,0.000,0.000,3.142,6.282,0.000,1.004,1.569,1.569,4.085,6.281,1.199,4.712,0.000,0.000,-4.227,-7.656,0.990,6.237,4.708,4.712,5.281,4.711,4.711,2.197,6.282,5.083,1.570,0.000,0.000,-4.197,-7.001,0.990,6.237,4.708,4.712,
19.776,25.603,-3.743,-7.350,3.095,1.010,6.273,0.000,2.910,1.695,0.784,3.014,0.000,0.000,0.906,0.884,0.000,0.000,3.142,0.000,0.000,0.000,0.000,0.000,0.000,0.000,0.000,0.000,0.000,0.000,3.142,6.283,0.000,1.003,1.569,1.569,4.085,6.281,1.199,4.712,0.000,0.000,-4.347,-7.651,0.990,6.237,4.707,4.712,5.281,4.711,4.711,2.198,6.282,5.083,1.570,0.000,0.000,-4.316,-6.995,0.990,6.237,4.708,4.712,
19.880,25.706,-3.842,-7.345,3.124,1.007,0.848,0.000,2.802,1.683,0.796,3.143,0.000,0.000,0.892,0.887,3.002,0.000,3.142,0.000,0.000,0.000,0.000,0.000,0.000,0.000,0.000,0.000,0.000,0.000,3.142,0.001,0.000,1.003,1.571,1.572,4.086,6.281,1.199,4.712,0.000,0.000,-4.437,-7.661,0.990,6.262,4.707,4.712,5.281,4.713,4.714,2.199,6.281,5.083,1.571,0.000,0.000,-4.425,-7.006,0.991,6.262,4.709,4.712,
19.980,25.806,-3.922,-7.345,3.207,1.010,1.422,0.000,2.448,1.646,0.822,3.044,0.000,1.058,0.871,0.860,2.652,0.000,3.142,0.000,0.000,0.000,0.000,0.000,0.000,0.000,0.000,0.000,0.000,0.000,3.142,0.002,0.000,1.003,1.571,1.571,4.086,6.282,1.199,4.712,0.000,0.000,-4.488,-7.710,0.990,0.064,4.708,4.711,5.282,4.713,4.714,2.198,6.282,5.083,1.571,0.000,0.000,-4.531,-7.055,0.991,0.063,4.709,4.712,
20.080,25.906,-4.041,-7.358,3.347,1.020,1.072,0.000,2.353,1.648,0.869,0.000,3.110,1.096,0.863,0.000,2.160,0.000,3.036,0.000,0.000,0.000,0.000,0.000,0.000,0.000,0.000,0.000,0.000,0.000,3.142,0.001,0.000,1.003,1.570,1.569,4.085,6.282,1.199,4.712,0.000,0.000,-4.551,-7.801,0.990,0.207,4.708,4.710,5.282,4.712,4.711,2.198,6.283,5.083,1.570,0.000,0.000,-4.685,-7.158,0.991,0.206,4.709,4.711,
20.180,26.006,-4.139,-7.381,3.423,1.020,0.804,2.876,3.099,1.619,0.886,0.000,3.271,1.113,0.881,0.000,2.180,0.000,3.001,0.000,0.000,0.000,0.000,0.000,0.000,0.000,0.000,0.000,0.000,0.000,3.142,0.001,0.000,1.003,1.570,1.569,4.085,6.281,1.199,4.712,0.000,0.000,-4.614,-7.860,0.990,0.282,4.707,4.710,5.282,4.712,4.712,2.198,6.282,5.083,1.570,0.000,0.000,-4.796,-7.230,0.991,0.282,4.709,4.711,
20.271,26.098,-4.216,-7.404,3.482,1.011,0.936,2.601,0.000,1.598,0.897,0.000,3.415,1.095,0.855,0.000,2.061,0.000,2.966,0.000,0.000,0.000,0.000,0.000,0.000,0.000,0.000,0.000,0.000,0.000,3.142,0.001,0.000,1.003,1.570,1.570,4.086,6.281,1.199,4.712,0.000,0.000,-4.662,-7.910,0.990,0.339,4.707,4.710,5.282,4.712,4.713,2.198,6.282,5.083,1.570,0.000,0.000,-4.881,-7.291,0.991,0.339,4.709,4.711,
20.378,26.204,-4.309,-7.440,3.572,1.009,1.091,2.272,0.000,1.576,0.922,0.000,4.190,1.076,4.030,0.000,1.924,0.000,2.826,0.000,0.000,0.000,0.000,0.000,0.000,0.000,0.000,0.000,0.000,0.000,3.142,0.001,0.000,1.003,1.570,1.570,4.085,6.282,1.199,4.712,0.000,0.000,-4.708,-7.983,0.990,0.429,4.707,4.709,5.282,4.712,4.713,2.198,6.282,5.083,1.570,0.000,0.000,-4.981,-7.387,0.991,0.429,4.709,4.710,
20.480,26.306,-4.416,-7.493,3.683,1.016,1.022,2.070,0.000,1.556,0.957,0.000,0.000,1.077,0.000,1.560,4.440,0.000,3.142,0.000,0.000,0.000,0.000,0.000,0.000,0.000,0.000,0.000,0.000,0.000,3.142,0.001,0.000,1.003,1.570,1.570,4.085,6.282,1.199,4.712,0.000,0.000,-4.751,-8.078,0.990,0.541,4.707,4.709,5.282,4.712,4.712,2.198,6.282,5.083,1.570,0.000,0.000,-5.090,-7.516,0.991,0.541,4.708,4.710,
20.580,26.406,-4.500,-7.547,3.769,1.016,0.984,2.223,0.000,1.540,0.978,0.000,1.501,1.100,0.000,1.804,0.000,0.000,3.071,0.000,0.000,0.000,0.000,0.000,0.000,0.000,0.000,0.000,0.000,0.000,3.142,0.001,0.000,1.003,1.570,1.570,4.085,6.281,1.199,4.712,0.000,0.000,-4.785,-8.158,0.990,0.627,4.707,4.708,5.282,4.712,4.712,2.198,6.282,5.083,1.570,0.000,0.000,-5.170,-7.627,0.991,0.627,4.708,4.709,
20.666,26.492,-4.564,-7.595,3.837,1.014,1.004,2.149,0.000,1.530,0.995,0.000,1.637,1.076,0.000,2.092,0.000,0.000,3.001,0.000,0.000,0.000,0.000,0.000,0.000,0.000,0.000,0.000,0.000,0.000,3.142,0.001,0.000,1.003,1.570,1.570,4.086,6.281,1.199,4.712,0.000,0.000,-4.806,-8.224,0.990,0.695,4.706,4.707,5.282,4.712,4.712,2.198,6.282,5.083,1.570,0.000,0.000,-5.227,-7.720,0.991,0.695,4.708,4.709,
20.780,26.606,-4.654,-7.674,3.942,1.013,1.031,1.816,0.000,1.520,1.026,0.000,1.636,0.000,0.000,1.713,4.423,0.000,2.896,0.000,0.000,0.000,0.000,0.000,0.000,0.000,0.000,0.000,0.000,0.000,3.142,0.001,0.000,1.003,1.570,1.570,4.085,6.281,1.199,4.712,0.000,0.000,-4.828,-8.326,0.990,0.800,4.706,4.706,5.282,4.712,4.712,2.198,6.282,5.083,1.570,0.000,0.000,-5.299,-7.869,0.991,0.800,4.708,4.708,
20.880,26.706,-4.722,-7.747,4.031,1.014,1.017,1.527,4.505,1.517,1.059,3.890,1.606,4.423,1.606,1.711,2.043,0.000,2.826,0.000,0.000,0.000,0.000,0.000,0.000,0.000,0.000,0.000,0.000,0.000,3.142,0.001,0.000,1.003,1.570,1.570,4.085,6.282,1.199,4.712,0.000,0.000,-4.838,-8.412,0.990,0.889,4.705,4.706,5.282,4.712,4.712,2.198,6.282,5.083,1.570,0.000,0.000,-5.348,-7.998,0.991,0.889,4.707,4.708,
20.980,26.806,-4.783,-7.827,4.119,1.014,1.017,1.473,4.430,1.518,1.098,4.077,1.601,4.535,1.692,3.858,1.682,0.000,2.755,0.000,0.000,0.000,0.000,0.000,0.000,0.000,0.000,0.000,0.000,0.000,3.142,0.001,0.000,1.003,1.570,1.570,4.085,6.281,1.199,4.712,0.000,0.000,-4.840,-8.499,0.990,0.977,4.704,4.704,5.282,4.712,4.712,2.198,6.282,5.083,1.570,0.000,0.000,-5.384,-8.131,0.991,0.976,4.706,4.707,
21.080,26.906,-4.837,-7.911,4.206,1.014,1.008,0.000,4.384,1.524,1.158,4.858,1.613,0.000,1.941,4.096,1.464,0.000,2.685,0.000,0.000,0.000,0.000,0.000,0.000,0.000,0.000,0.000,0.000,0.000,3.142,0.001,0.000,1.003,1.570,1.570,4.085,6.281,1.199,4.712,0.000,0.000,-4.836,-8.585,0.990,1.064,4.703,4.703,5.282,4.712,4.712,2.198,6.282,5.083,1.570,0.000,0.000,-5.409,-8.267,0.991,1.064,4.706,4.706,
21.180,27.006,-4.874,-7.981,4.276,1.014,1.011,0.000,0.000,1.535,1.262,0.000,1.634,0.000,1.801,0.000,1.564,0.000,2.615,0.000,0.000,0.000,0.000,0.000,0.000,0.000,0.000,0.000,0.000,0.000,3.142,0.001,0.000,1.003,1.570,1.570,4.085,6.281,1.199,4.712,0.000,0.000,-4.826,-8.654,0.990,1.134,4.701,4.701,5.282,4.712,4.712,2.198,6.282,5.083,1.570,0.000,0.000,-5.421,-8.376,0.991,1.133,4.704,4.705,
21.280,27.106,-4.915,-8.072,4.364,1.014,1.028,0.000,3.376,1.557,0.000,0.000,1.620,0.000,1.622,0.000,1.624,0.000,2.580,0.000,0.000,0.000,0.000,0.000,0.000,0.000,0.000,0.000,0.000,0.000,3.142,0.001,0.000,1.003,1.570,1.570,4.085,6.281,1.199,4.712,0.000,0.000,-4.807,-8.738,0.990,1.222,4.699,4.698,5.282,4.712,4.712,2.198,6.282,5.083,1.570,0.000,0.000,-5.424,-8.514,0.991,1.221,4.703,4.703,
21.380,27.206,-4.946,-8.167,4.452,1.014,1.009,0.000,2.953,1.593,0.000,2.294,0.000,1.813,1.892,1.798,1.299,0.000,3.142,0.000,0.000,0.000,0.000,0.000,0.000,0.000,0.000,0.000,0.000,0.000,3.142,0.001,0.000,1.003,1.570,1.570,4.085,6.282,1.199,4.712,0.000,0.000,-4.781,-8.821,0.990,1.310,4.694,4.694,5.282,4.712,4.712,2.198,6.282,5.083,1.570,0.000,0.000,-5.415,-8.652,0.991,1.310,4.699,4.699,
21.480,27.306,-4.970,-8.264,4.539,1.013,1.013,0.000,2.732,1.363,0.000,2.387,0.000,1.967,3.816,1.299,0.972,0.000,3.142,0.000,0.000,0.000,0.000,0.000,0.000,0.000,0.000,0.000,0.000,0.000,3.142,0.001,0.000,1.003,1.570,1.570,4.085,6.281,1.199,4.712,0.000,0.000,-4.748,-8.901,0.990,1.397,4.685,4.684,5.282,4.712,4.712,2.198,6.282,5.083,1.570,0.000,0.000,-5.395,-8.788,0.991,1.397,4.693,4.693,
21.579,27.405,-4.987,-8.383,4.640,1.015,0.779,4.524,2.326,1.323,0.000,2.401,0.000,2.221,3.785,1.263,0.944,0.000,3.142,0.000,0.000,0.000,0.000,0.000,0.000,0.000,0.000,0.000,0.000,0.000,3.142,0.001,0.000,1.004,1.570,1.568,4.085,6.282,1.199,4.712,0.000,0.000,-4.701,-8.994,0.990,1.499,4.647,4.646,5.282,4.712,4.711,2.198,6.282,5.083,1.570,0.000,0.000,-5.356,-8.947,0.991,1.499,4.662,4.661,
21.673,27.499,-4.993,-8.483,4.664,1.013,6.250,4.420,2.256,1.559,1.298,2.482,0.000,2.193,3.767,1.319,1.225,0.000,3.142,0.000,0.000,0.000,0.000,0.000,0.000,0.000,0.000,0.000,0.000,0.000,3.142,6.282,0.000,1.004,1.569,1.568,4.085,6.281,1.199,4.712,0.000,0.000,-4.692,-9.087,0.990,1.524,4.610,4.609,5.281,4.711,4.710,2.198,6.282,5.083,1.570,0.000,0.000,-5.348,-9.055,0.990,1.524,4.616,4.616,
21.780,27.606,-4.997,-8.562,4.664,1.009,6.270,4.340,2.263,1.319,1.302,2.581,0.000,2.185,3.995,1.348,1.487,0.000,3.142,0.000,0.000,0.000,0.000,0.000,0.000,0.000,0.000,0.000,0.000,0.000,3.142,6.282,0.000,1.004,1.569,1.569,4.085,6.281,1.199,4.712,0.000,0.000,-4.697,-9.166,0.990,1.522,4.615,4.615,5.281,4.711,4.711,2.198,6.282,5.083,1.570,0.000,0.000,-5.352,-9.135,0.990,1.522,4.615,4.615,
21.880,27.706,-5.002,-8.661,4.664,1.011,6.270,4.241,2.271,1.021,1.308,2.705,0.000,2.176,4.212,1.243,1.815,0.000,3.142,0.000,0.000,0.000,0.000,0.000,0.000,0.000,0.000,0.000,0.000,0.000,3.142,6.282,0.000,1.004,1.569,1.569,4.085,6.281,1.199,4.712,0.000,0.000,-4.702,-9.266,0.990,1.522,4.615,4.614,5.281,4.711,4.711,2.198,6.282,5.083,1.570,0.000,0.000,-5.357,-9.234,0.990,1.523,4.616,4.615,
21.975,27.801,-5.007,-8.781,4.664,1.013,6.268,4.121,2.281,0.649,1.314,2.854,0.000,2.165,4.416,0.621,4.719,0.000,3.142,0.000,0.000,0.000,0.000,0.000,0.000,0.000,0.000,0.000,0.000,0.000,3.142,6.282,0.000,1.004,1.569,1.569,4.085,6.281,1.199,4.712,0.000,0.000,-4.707,-9.385,0.990,1.523,4.615,4.614,5.281,4.711,4.711,2.198,6.282,5.083,1.570,0.000,0.000,-5.363,-9.353,0.990,1.523,4.616,4.615,
22.066,27.892,-5.012,-8.880,4.664,1.012,6.269,4.022,2.289,0.654,1.319,2.835,0.000,2.156,0.000,0.596,4.593,0.000,3.142,0.000,0.000,0.000,0.000,0.000,0.000,0.000,0.000,0.000,0.000,0.000,3.142,6.282,0.000,1.004,1.569,1.569,4.085,6.281,1.199,4.712,0.000,0.000,-4.712,-9.484,0.990,1.523,4.614,4.613,5.281,4.711,4.711,2.198,6.282,5.083,1.570,0.000,0.000,-5.367,-9.453,0.990,1.523,4.616,4.615,
22.180,28.006,-5.016,-8.960,4.664,1.011,6.268,3.942,2.353,1.376,1.323,2.870,0.000,2.169,1.211,0.592,4.491,0.000,3.142,0.000,0.000,0.000,0.000,0.000,0.000,0.000,0.000,0.000,0.000,0.000,3.142,6.282,0.000,1.004,1.569,1.569,4.085,6.281,1.199,4.712,0.000,0.000,-4.716,-9.564,0.990,1.523,4.614,4.613,5.281,4.711,4.711,2.198,6.282,5.083,1.570,0.000,0.000,-5.371,-9.533,0.990,1.523,4.615,4.615,
22.280,28.106,-5.021,-9.059,4.664,1.012,6.268,3.843,2.233,1.381,1.328,2.994,0.000,2.288,1.241,0.624,4.364,0.000,3.142,0.000,0.000,0.000,0.000,0.000,0.000,0.000,0.000,0.000,0.000,0.000,3.142,6.282,0.000,1.004,1.569,1.569,4.085,6.281,1.199,4.712,0.000,0.000,-4.721,-9.663,0.990,1.523,4.613,4.612,5.281,4.711,4.711,2.198,6.282,5.083,1.570,0.000,0.000,-5.376,-9.632,0.990,1.523,4.615,4.615,
22.380,28.206,-5.027,-9.178,4.665,1.012,6.268,3.723,2.089,1.387,0.659,3.143,0.000,2.432,0.596,0.703,4.212,0.000,3.142,0.000,0.000,0.000,0.000,0.000,0.000,0.000,0.000,0.000,0.000,0.000,3.142,6.282,0.000,1.004,1.569,1.569,4.085,6.281,1.199,4.712,0.000,0.000,-4.726,-9.782,0.990,1.523,4.612,4.611,5.281,4.711,4.711,2.198,6.282,5.083,1.570,0.000,0.000,-5.381,-9.751,0.990,1.524,4.615,4.614,
22.474,28.300,-5.031,-9.278,4.665,1.011,6.268,3.624,1.972,1.391,0.664,0.000,0.000,2.551,0.591,0.768,4.085,0.000,3.142,0.000,0.000,0.000,0.000,0.000,0.000,0.000,0.000,0.000,0.000,0.000,3.142,6.282,0.000,1.004,1.569,1.569,4.085,6.281,1.199,4.712,0.000,0.000,-4.731,-9.882,0.990,1.524,4.612,4.611,5.281,4.711,4.711,2.198,6.282,5.083,1.570,0.000,0.000,-5.386,-9.851,0.990,1.524,4.614,4.614,
22.578,28.405,-5.036,-9.377,4.665,1.012,6.267,3.524,1.979,1.396,0.781,0.000,0.000,2.671,0.589,0.834,4.012,0.000,3.142,0.000,0.000,0.000,0.000,0.000,0.000,0.000,0.000,0.000,0.000,0.000,3.142,6.282,0.000,1.004,1.569,1.569,4.085,6.281,1.199,4.712,0.000,0.000,-4.735,-9.981,0.990,1.524,4.611,4.610,5.281,4.711,4.711,2.198,6.282,5.083,1.570,0.000,0.000,-5.390,-9.951,0.990,1.524,4.614,4.614,
22.665,28.491,-5.040,-9.457,4.666,1.012,6.268,3.445,1.985,1.400,1.225,0.000,0.000,2.767,0.626,0.887,4.007,0.000,3.142,0.000,0.000,0.000,0.000,0.000,0.000,0.000,0.000,0.000,0.000,0.000,3.142,6.282,0.000,1.004,1.569,1.569,4.085,6.281,1.199,4.712,0.000,0.000,-4.739,-10.060,0.990,1.524,4.610,4.610,5.281,4.711,4.711,2.198,6.282,5.083,1.570,0.000,0.000,-5.394,-10.030,0.990,1.524,4.614,4.613,
22.768,28.595,-5.044,-9.556,4.666,1.012,6.267,3.345,1.992,1.405,1.565,0.000,0.000,2.887,0.672,0.953,4.002,0.000,3.142,0.000,0.000,0.000,0.000,0.000,0.000,0.000,0.000,0.000,0.000,0.000,3.142,6.282,0.000,1.004,1.569,1.569,4.085,6.281,1.199,4.712,0.000,0.000,-4.743,-10.160,0.990,1.525,4.610,4.609,5.281,4.711,4.711,2.198,6.282,5.083,1.570,0.000,0.000,-5.398,-10.130,0.990,1.525,4.613,4.613,
22.880,28.706,-5.049,-9.656,4.666,1.011,6.268,3.246,1.999,1.410,1.391,0.000,0.000,3.007,0.719,1.019,3.996,0.000,3.142,0.000,0.000,0.000,0.000,0.000,0.000,0.000,0.000,0.000,0.000,0.000,3.142,6.282,0.000,1.004,1.569,1.569,4.085,6.281,1.199,4.712,0.000,0.000,-4.748,-10.259,0.990,1.525,4.609,4.608,5.281,4.711,4.711,2.198,6.282,5.083,1.570,0.000,0.000,-5.403,-10.229,0.990,1.525,4.612,4.612,
22.980,28.806,-5.053,-9.755,4.667,1.011,6.267,3.146,2.006,1.414,1.396,0.000,0.000,0.962,0.765,1.085,3.990,0.000,3.142,0.000,0.000,0.000,0.000,0.000,0.000,0.000,0.000,0.000,0.000,0.000,3.142,6.282,0.000,1.004,1.569,1.569,4.085,6.281,1.199,4.712,0.000,0.000,-4.752,-10.359,0.990,1.525,4.608,4.607,5.281,4.711,4.711,2.198,6.282,5.083,1.570,0.000,0.000,-5.407,-10.329,0.990,1.525,4.612,4.611,
23.080,28.906,-5.059,-9.874,4.659,1.012,5.905,3.028,2.037,1.424,1.399,1.096,0.000,0.963,0.820,1.156,3.945,0.000,3.142,0.000,0.000,0.000,0.000,0.000,0.000,0.000,0.000,0.000,0.000,0.000,3.142,6.281,0.001,1.004,1.568,1.567,4.084,6.281,1.199,4.712,0.000,0.000,-4.760,-10.480,0.990,1.521,4.623,4.622,5.281,4.710,4.709,2.197,6.282,5.083,1.570,0.000,0.000,-5.415,-10.446,0.990,1.521,4.607,4.607,
23.180,29.006,-5.065,-9.974,4.583,1.013,4.998,2.943,3.371,1.475,1.378,1.102,0.000,1.080,0.857,1.134,3.596,0.000,3.142,0.000,0.000,0.000,0.000,0.000,0.000,0.000,0.000,0.000,0.000,0.000,3.142,6.280,0.001,1.005,1.568,1.565,4.084,6.281,1.199,4.711,0.000,0.000,-4.813,-10.601,0.990,1.446,4.674,4.673,5.282,4.710,4.708,2.197,6.282,5.083,1.570,0.000,0.000,-5.464,-10.517,0.990,1.445,4.676,4.674,
23.270,29.096,-5.081,-10.072,4.465,1.009,5.213,3.627,3.073,1.619,1.369,1.463,3.684,3.153,0.890,1.078,3.727,0.000,2.861,0.000,0.000,0.000,0.000,0.000,0.000,0.000,0.000,0.000,0.000,0.000,3.142,6.281,0.000,1.004,1.569,1.569,4.085,6.281,1.199,4.712,0.000,0.000,-4.906,-10.724,0.990,1.324,4.692,4.691,5.282,4.711,4.711,2.198,6.281,5.083,1.570,0.000,0.000,-5.542,-10.564,0.991,1.324,4.698,4.698,
23.367,29.193,-5.101,-10.149,4.431,1.011,0.010,3.526,2.252,1.410,1.385,1.643,3.799,3.200,0.912,1.079,3.761,0.000,2.896,0.000,0.000,0.000,0.000,0.000,0.000,0.000,0.000,0.000,0.000,0.000,3.142,6.282,0.000,1.004,1.570,1.572,4.085,6.280,1.199,4.712,0.000,0.000,-4.950,-10.806,0.990,1.286,4.695,4.695,5.282,4.712,4.713,2.198,6.281,5.083,1.571,0.000,0.000,-5.580,-10.624,0.991,1.287,4.698,4.698,
23.480,29.306,-5.128,-10.245,4.433,1.012,6.272,3.429,2.151,1.441,1.413,1.788,3.896,1.324,0.936,3.929,3.600,0.000,6.125,0.000,0.000,0.000,0.000,0.000,0.000,0.000,0.000,0.000,0.000,0.000,3.142,6.283,0.000,1.003,1.569,1.569,4.085,6.281,1.199,4.712,0.000,0.000,-4.975,-10.902,0.990,1.292,4.695,4.694,5.281,4.711,4.711,2.198,6.282,5.083,1.570,0.000,0.000,-5.606,-10.721,0.990,1.292,4.697,4.697,
23.576,29.403,-5.161,-10.360,4.435,1.012,6.268,3.311,2.028,1.478,1.446,1.965,4.014,1.252,0.965,3.896,3.410,0.000,6.125,0.000,0.000,0.000,0.000,0.000,0.000,0.000,0.000,0.000,0.000,0.000,3.142,6.283,0.000,1.003,1.569,1.569,4.085,6.281,1.199,4.712,0.000,0.000,-5.007,-11.017,0.990,1.293,4.695,4.694,5.281,4.711,4.711,2.198,6.282,5.083,1.570,0.000,0.000,-5.638,-10.837,0.990,1.293,4.697,4.697,
23.680,29.506,-5.189,-10.456,4.435,1.011,6.265,3.212,1.926,1.510,1.474,1.918,4.112,1.283,0.989,3.869,3.254,0.000,5.529,0.000,0.000,0.000,0.000,0.000,0.000,0.000,0.000,0.000,0.000,0.000,3.142,6.283,0.000,1.003,1.569,1.569,4.085,6.281,1.199,4.712,0.000,0.000,-5.033,-11.112,0.990,1.294,4.695,4.694,5.281,4.711,4.711,2.198,6.282,5.083,1.570,0.000,0.000,-5.664,-10.933,0.990,1.294,4.697,4.697,
23.780,29.606,-5.210,-10.532,4.436,1.011,6.261,3.133,1.845,1.535,1.495,1.947,4.191,1.307,1.009,3.847,3.130,0.000,5.493,0.000,0.000,0.000,0.000,0.000,0.000,0.000,0.000,0.000,0.000,0.000,3.142,6.283,0.000,1.003,1.569,1.569,4.085,6.281,1.199,4.712,0.000,0.000,-5.055,-11.189,0.990,1.295,4.695,4.694,5.281,4.711,4.711,2.198,6.282,5.083,1.570,0.000,0.000,-5.686,-11.010,0.990,1.295,4.696,4.696,
23.869,29.695,-5.243,-10.647,4.437,1.012,6.262,3.014,1.722,1.572,1.528,1.991,4.310,1.345,1.038,3.815,2.944,0.000,5.493,0.000,0.000,0.000,0.000,0.000,0.000,0.000,0.000,0.000,0.000,0.000,3.142,6.283,0.000,1.004,1.569,1.569,4.085,6.281,1.199,4.712,0.000,0.000,-5.087,-11.303,0.990,1.296,4.695,4.694,5.281,4.711,4.711,2.198,6.282,5.083,1.570,0.000,0.000,-5.718,-11.125,0.990,1.296,4.696,4.696,
23.980,29.806,-5.270,-10.743,4.436,1.012,6.154,2.912,1.618,1.605,1.555,2.025,4.410,1.377,1.063,3.788,2.868,0.000,5.458,0.000,0.000,0.000,0.000,0.000,0.000,0.000,0.000,0.000,0.000,0.000,3.142,6.282,0.001,1.004,1.569,1.568,4.084,6.281,1.199,4.712,0.000,0.000,-5.113,-11.399,0.990,1.296,4.696,4.695,5.281,4.711,4.710,2.197,6.282,5.083,1.570,0.000,0.000,-5.745,-11.221,0.990,1.296,4.694,4.694,
24.071,29.897,-5.298,-10.839,4.385,1.013,5.213,3.742,1.488,1.695,1.580,1.979,4.582,1.472,1.091,3.756,2.824,0.000,5.493,0.000,0.000,0.000,0.000,0.000,0.000,0.000,0.000,0.000,0.000,0.000,3.142,6.280,0.001,1.005,1.568,1.565,4.084,6.282,1.199,4.711,0.000,0.000,-5.173,-11.503,0.990,1.248,4.698,4.697,5.281,4.710,4.708,2.197,6.282,5.083,1.570,0.000,0.000,-5.795,-11.293,0.990,1.248,4.696,4.696,
24.174,30.000,-5.324,-10.914,4.292,1.011,4.877,3.792,1.425,2.932,1.414,1.889,4.834,1.638,1.122,3.746,3.104,0.000,5.564,0.000,0.000,0.000,0.000,0.000,0.000,0.000,0.000,0.000,0.000,0.000,3.142,6.280,0.001,1.004,1.568,1.566,4.085,6.281,1.199,4.712,0.000,0.000,-5.262,-11.587,0.990,1.154,4.700,4.700,5.282,4.711,4.709,2.197,6.282,5.083,1.570,0.000,0.000,-5.862,-11.319,0.991,1.153,4.703,4.702,
24.280,30.106,-5.377,-11.021,4.158,1.006,5.234,4.154,1.888,1.645,1.495,1.817,2.259,4.485,1.173,3.228,4.916,0.000,3.738,0.000,0.000,0.000,0.000,0.000,0.000,0.000,0.000,0.000,0.000,0.000,3.142,6.281,0.001,1.004,1.569,1.568,4.085,6.281,1.199,4.712,0.000,0.000,-5.406,-11.695,0.990,1.018,4.703,4.703,5.282,4.711,4.711,2.198,6.281,5.083,1.570,0.000,0.000,-5.965,-11.350,0.991,1.017,4.705,4.705,
24.380,30.206,-5.419,-11.088,4.093,1.015,5.419,3.676,1.813,1.473,1.564,1.814,2.442,0.000,1.200,2.749,4.748,0.000,3.773,0.000,0.000,0.000,0.000,0.000,0.000,0.000,0.000,0.000,0.000,0.000,3.142,6.281,0.001,1.004,1.569,1.568,4.085,6.281,1.199,4.712,0.000,0.000,-5.493,-11.759,0.990,0.953,4.704,4.704,5.282,4.711,4.710,2.197,6.282,5.083,1.570,0.000,0.000,-6.028,-11.379,0.991,0.953,4.705,4.705,
24.477,30.303,-5.479,-11.169,4.049,1.017,6.177,3.360,2.987,1.326,1.648,1.849,2.625,0.000,1.212,3.789,4.619,0.000,3.809,0.000,0.000,0.000,0.000,0.000,0.000,0.000,0.000,0.000,0.000,0.000,3.142,6.282,0.000,1.004,1.570,1.571,4.085,6.281,1.199,4.712,0.000,0.000,-5.583,-11.835,0.990,0.906,4.705,4.706,5.282,4.712,4.712,2.198,6.281,5.083,1.571,0.000,0.000,-6.100,-11.432,0.991,0.906,4.705,4.707,
24.579,30.406,-5.552,-11.263,4.037,1.007,5.792,3.187,2.745,1.201,1.733,1.919,2.771,0.000,1.216,3.728,4.526,0.000,3.809,0.000,0.000,0.000,0.000,0.000,0.000,0.000,0.000,0.000,0.000,0.000,3.142,6.281,0.001,1.004,1.568,1.566,4.084,6.281,1.199,4.712,0.000,0.000,-5.662,-11.930,0.990,0.900,4.705,4.705,5.281,4.710,4.709,2.197,6.282,5.083,1.570,0.000,0.000,-6.175,-11.520,0.990,0.899,4.704,4.705,
24.680,30.506,-5.602,-11.325,3.975,1.010,5.053,2.878,2.418,1.164,2.711,1.736,2.802,0.000,1.239,3.767,4.403,0.000,3.844,0.000,0.000,0.000,0.000,0.000,0.000,0.000,0.000,0.000,0.000,0.000,3.142,6.280,0.001,1.005,1.568,1.565,4.084,6.281,1.199,4.711,0.000,0.000,-5.753,-11.984,0.990,0.838,4.705,4.705,5.282,4.710,4.708,2.197,6.282,5.083,1.570,0.000,0.000,-6.240,-11.543,0.990,0.837,4.705,4.706,
24.761,30.588,-5.671,-11.397,3.888,1.014,5.793,2.534,2.181,1.675,2.901,1.776,2.661,0.000,1.267,3.852,4.266,0.000,3.914,0.000,0.000,0.000,0.000,0.000,0.000,0.000,0.000,0.000,0.000,0.000,3.142,6.282,0.000,1.004,1.570,1.571,4.085,6.280,1.199,4.712,0.000,0.000,-5.881,-12.038,0.990,0.745,4.706,4.707,5.282,4.712,4.713,2.198,6.281,5.083,1.571,0.000,0.000,-6.327,-11.556,0.991,0.745,4.707,4.708,
24.880,30.706,-5.759,-11.478,3.882,1.012,6.270,2.397,2.973,1.580,1.646,1.864,2.766,0.000,2.441,3.765,4.174,0.000,3.879,0.000,0.000,0.000,0.000,0.000,0.000,0.000,0.000,0.000,0.000,0.000,3.142,6.283,0.000,1.003,1.569,1.569,4.085,6.281,1.199,4.712,0.000,0.000,-5.972,-12.118,0.990,0.741,4.706,4.707,5.281,4.711,4.711,2.198,6.282,5.083,1.570,0.000,0.000,-6.415,-11.634,0.990,0.741,4.707,4.708,
24.976,30.802,-5.833,-11.545,3.883,1.009,6.265,2.299,2.905,1.506,1.506,1.938,2.868,0.000,2.262,3.679,4.101,0.000,3.844,0.000,0.000,0.000,0.000,0.000,0.000,0.000,0.000,0.000,0.000,0.000,3.142,6.283,0.000,1.003,1.569,1.569,4.085,6.281,1.199,4.712,0.000,0.000,-6.045,-12.186,0.990,0.742,4.706,4.707,5.281,4.711,4.711,2.198,6.282,5.083,1.570,0.000,0.000,-6.488,-11.702,0.990,0.742,4.707,4.708,
25.065,30.891,-5.891,-11.599,3.884,1.011,6.262,2.219,2.850,1.447,1.393,1.998,2.949,0.000,2.172,3.611,4.042,0.000,3.809,0.000,0.000,0.000,0.000,0.000,0.000,0.000,0.000,0.000,0.000,0.000,3.142,6.283,0.000,1.003,1.569,1.569,4.085,6.281,1.199,4.712,0.000,0.000,-6.103,-12.239,0.990,0.742,4.706,4.707,5.281,4.711,4.711,2.198,6.282,5.083,1.570,0.000,0.000,-6.547,-11.756,0.990,0.742,4.706,4.708,
25.180,31.006,-5.965,-11.666,3.885,1.013,6.261,2.120,2.781,1.372,1.251,2.072,3.051,0.000,2.132,3.525,3.968,0.000,3.809,0.000,0.000,0.000,0.000,0.000,0.000,0.000,0.000,0.000,0.000,0.000,3.142,6.283,0.000,1.003,1.569,1.569,4.085,6.281,1.199,4.712,0.000,0.000,-6.176,-12.307,0.990,0.743,4.706,4.707,5.281,4.711,4.711,2.198,6.282,5.083,1.570,0.000,0.000,-6.620,-11.824,0.990,0.743,4.706,4.708,
25.280,31.106,-6.052,-11.747,3.886,1.012,6.263,2.000,2.698,1.346,1.189,2.161,3.173,0.000,2.083,3.423,3.880,0.000,3.773,0.000,0.000,0.000,0.000,0.000,0.000,0.000,0.000,0.000,0.000,0.000,3.142,6.283,0.000,1.004,1.569,1.569,4.085,6.281,1.199,4.712,0.000,0.000,-6.263,-12.388,0.990,0.744,4.706,4.707,5.281,4.711,4.711,2.198,6.282,5.083,1.570,0.000,0.000,-6.708,-11.906,0.990,0.744,4.706,4.708,
25.364,31.190,-6.126,-11.815,3.886,1.011,6.262,1.900,2.629,2.629,1.272,2.235,3.274,2.645,2.158,3.339,3.807,0.000,3.738,0.000,0.000,0.000,0.000,0.000,0.000,0.000,0.000,0.000,0.000,0.000,3.142,6.283,0.000,1.004,1.569,1.569,4.085,6.281,1.199,4.712,0.000,0.000,-6.336,-12.456,0.990,0.745,4.706,4.707,5.281,4.711,4.711,2.198,6.282,5.083,1.570,0.000,0.000,-6.781,-11.974,0.990,0.745,4.706,4.708,
25.473,31.300,-6.199,-11.882,3.887,1.012,6.264,1.800,2.560,2.554,1.354,2.310,3.376,2.549,2.233,3.254,3.733,0.000,3.738,0.000,0.000,0.000,0.000,0.000,0.000,0.000,0.000,0.000,0.000,0.000,3.142,6.282,0.000,1.004,1.569,1.569,4.085,6.281,1.199,4.712,0.000,0.000,-6.409,-12.523,0.990,0.746,4.706,4.707,5.281,4.711,4.711,2.198,6.282,5.083,1.570,0.000,0.000,-6.854,-12.041,0.990,0.746,4.706,4.708,
25.580,31.406,-6.247,-11.926,3.887,0.398,6.264,1.735,2.515,2.506,1.407,2.358,3.442,2.486,2.282,3.199,3.685,0.000,3.703,0.000,0.000,0.000,0.000,0.000,0.000,0.000,0.000,0.000,0.000,0.000,3.142,0.001,0.001,1.001,1.570,1.571,4.089,6.281,1.200,4.712,0.000,0.000,-6.458,-12.568,0.989,0.744,4.703,4.705,5.281,4.712,4.713,2.198,6.282,5.083,1.570,0.000,0.000,-6.902,-12.085,0.990,0.744,4.706,4.707,
25.670,31.496,-6.263,-11.942,3.888,0.121,6.265,1.713,2.500,2.490,1.426,2.375,3.467,2.461,2.300,3.179,3.669,0.000,3.703,0.000,0.000,0.000,0.000,0.000,0.000,0.000,0.000,0.000,0.000,0.000,3.142,0.000,0.001,1.003,1.570,1.570,4.087,6.281,1.199,4.712,0.000,0.000,-6.473,-12.583,0.990,0.746,4.704,4.706,5.281,4.712,4.712,2.198,6.282,5.083,1.570,0.000,0.000,-6.918,-12.101,0.990,0.746,4.706,4.707,
25.780,31.606,-6.266,-11.944,3.888,0.012,6.269,1.710,2.497,2.487,1.428,2.378,3.472,2.455,2.303,3.175,3.666,0.000,3.703,0.000,0.000,0.000,0.000,0.000,0.000,0.000,0.000,0.000,0.000,0.000,3.142,6.283,0.001,1.003,1.569,1.569,4.086,6.281,1.199,4.712,0.000,0.000,-6.475,-12.586,0.990,0.747,4.705,4.706,5.281,4.711,4.712,2.198,6.282,5.083,1.570,0.000,0.000,-6.921,-12.104,0.990,0.747,4.706,4.707,
25.880,31.706,-6.266,-11.944,3.888,-0.002,6.271,1.710,2.497,2.487,1.428,2.378,3.472,2.454,2.303,3.175,3.666,0.000,3.703,0.000,0.000,0.000,0.000,0.000,0.000,0.000,0.000,0.000,0.000,0.000,3.142,6.283,0.000,1.003,1.569,1.569,4.085,6.281,1.199,4.712,0.000,0.000,-6.475,-12.586,0.990,0.747,4.706,4.707,5.281,4.711,4.712,2.198,6.282,5.083,1.570,0.000,0.000,-6.921,-12.104,0.990,0.747,4.707,4.708,
25.972,31.798,-6.266,-11.944,3.888,-0.002,6.271,1.710,2.497,2.487,1.428,2.378,3.472,2.454,2.303,3.175,3.666,0.000,3.703,0.000,0.000,0.000,0.000,0.000,0.000,0.000,0.000,0.000,0.000,0.000,3.142,6.283,0.000,1.003,1.569,1.569,4.085,6.281,1.199,4.712,0.000,0.000,-6.475,-12.586,0.990,0.747,4.706,4.707,5.281,4.711,4.712,2.198,6.282,5.083,1.570,0.000,0.000,-6.921,-12.104,0.990,0.747,4.707,4.708,
26.080,31.906,-6.266,-11.944,3.888,-0.002,6.271,1.710,2.497,2.487,1.428,2.378,3.472,2.454,2.303,3.175,3.666,0.000,3.703,0.000,0.000,0.000,0.000,0.000,0.000,0.000,0.000,0.000,0.000,0.000,3.142,6.283,0.000,1.003,1.569,1.569,4.085,6.281,1.199,4.712,0.000,0.000,-6.475,-12.586,0.990,0.747,4.706,4.707,5.281,4.711,4.712,2.198,6.282,5.083,1.570,0.000,0.000,-6.921,-12.104,0.990,0.747,4.707,4.708,
26.161,31.987,-6.266,-11.944,3.888,-0.002,6.271,1.710,2.497,2.487,1.428,2.378,3.472,2.454,2.303,3.175,3.666,0.000,3.703,0.000,0.000,0.000,0.000,0.000,0.000,0.000,0.000,0.000,0.000,0.000,3.142,6.283,0.000,1.003,1.569,1.569,4.085,6.281,1.199,4.712,0.000,0.000,-6.475,-12.586,0.990,0.747,4.706,4.707,5.281,4.711,4.712,2.198,6.282,5.083,1.570,0.000,0.000,-6.921,-12.104,0.990,0.747,4.707,4.708,
26.280,32.106,-6.266,-11.944,3.887,-0.001,6.176,1.708,2.497,2.486,1.429,2.378,3.469,2.462,2.302,3.177,3.666,0.000,3.703,0.000,0.000,0.000,0.000,0.000,0.000,0.000,0.000,0.000,0.000,0.000,3.142,6.282,0.001,1.004,1.569,1.568,4.084,6.281,1.199,4.712,0.000,0.000,-6.475,-12.586,0.990,0.747,4.706,4.707,5.281,4.711,4.710,2.197,6.282,5.083,1.570,0.000,0.000,-6.921,-12.105,0.990,0.747,4.706,4.707,
26.372,32.198,-6.266,-11.944,3.838,-0.004,5.134,1.633,2.523,2.437,1.469,2.363,3.320,0.000,2.252,3.270,3.647,0.000,3.773,0.000,0.000,0.000,0.000,0.000,0.000,0.000,0.000,0.000,0.000,0.000,3.142,6.280,0.001,1.004,1.568,1.565,4.084,6.282,1.199,4.711,0.000,0.000,-6.505,-12.576,0.990,0.701,4.706,4.707,5.281,4.710,4.708,2.197,6.283,5.083,1.570,0.000,0.000,-6.927,-12.073,0.990,0.700,4.706,4.707,
26.465,32.291,-6.265,-11.944,3.736,-0.003,4.674,1.508,3.121,2.179,1.612,3.165,3.074,0.000,2.173,3.508,3.636,0.000,3.844,0.000,0.000,0.000,0.000,0.000,0.000,0.000,0.000,0.000,0.000,0.000,3.142,6.280,0.001,1.004,1.569,1.567,4.085,6.281,1.199,4.712,0.000,0.000,-6.569,-12.548,0.990,0.597,4.706,4.707,5.282,4.711,4.710,2.198,6.282,5.083,1.570,0.000,0.000,-6.937,-12.004,0.991,0.595,4.708,4.709,
26.580,32.406,-6.265,-11.945,3.603,-0.003,4.948,1.392,2.783,1.675,1.377,3.194,2.844,0.000,2.879,4.026,3.214,0.000,3.984,0.000,0.000,0.000,0.000,0.000,0.000,0.000,0.000,0.000,0.000,0.000,3.142,6.281,0.000,1.004,1.570,1.569,4.085,6.281,1.199,4.712,0.000,0.000,-6.646,-12.501,0.990,0.462,4.707,4.709,5.282,4.712,4.712,2.198,6.282,5.083,1.571,0.000,0.000,-6.938,-11.913,0.991,0.461,4.709,4.710,
26.680,32.506,-6.265,-11.945,3.558,-0.001,6.264,1.362,2.552,1.623,1.316,1.701,2.569,0.000,2.862,3.855,3.240,0.000,4.054,0.000,0.000,0.000,0.000,0.000,0.000,0.000,0.000,0.000,0.000,0.000,3.142,6.283,0.000,1.003,1.570,1.570,4.085,6.281,1.199,4.712,0.000,0.000,-6.671,-12.483,0.990,0.415,4.707,4.709,5.281,4.712,4.712,2.198,6.282,5.083,1.570,0.000,0.000,-6.936,-11.883,0.990,0.415,4.708,4.710,
26.779,32.605,-6.265,-11.945,3.558,0.000,6.261,1.362,2.552,1.623,1.316,1.701,2.569,0.000,2.862,3.855,3.240,0.000,4.054,0.000,0.000,0.000,0.000,0.000,0.000,0.000,0.000,0.000,0.000,0.000,3.142,6.283,0.000,1.003,1.569,1.569,4.085,6.281,1.199,4.712,0.000,0.000,-6.671,-12.483,0.990,0.416,4.707,4.709,5.281,4.711,4.712,2.198,6.282,5.083,1.570,0.000,0.000,-6.936,-11.883,0.990,0.416,4.708,4.710,
26.880,32.706,-6.265,-11.945,3.557,0.001,6.182,1.361,2.548,1.624,1.315,1.692,2.568,0.000,2.861,3.852,3.241,0.000,4.054,0.000,0.000,0.000,0.000,0.000,0.000,0.000,0.000,0.000,0.000,0.000,3.142,6.282,0.001,1.004,1.569,1.568,4.084,6.281,1.199,4.712,0.000,0.000,-6.670,-12.484,0.990,0.417,4.707,4.709,5.281,4.711,4.710,2.197,6.282,5.083,1.570,0.000,0.000,-6.936,-11.884,0.990,0.417,4.707,4.709,
26.977,32.803,-6.264,-11.945,3.508,0.001,5.114,1.485,2.344,2.150,1.287,1.336,2.517,3.448,2.850,3.691,3.277,0.000,4.089,0.000,0.000,0.000,0.000,0.000,0.000,0.000,0.000,0.000,0.000,0.000,3.142,6.280,0.001,1.004,1.567,1.565,4.084,6.282,1.199,4.711,0.000,0.000,-6.695,-12.465,0.990,0.371,4.708,4.709,5.281,4.710,4.708,2.197,6.283,5.083,1.570,0.000,0.000,-6.931,-11.852,0.990,0.370,4.707,4.709,
27.076,32.902,-6.264,-11.945,3.376,-0.005,4.667,2.231,1.949,2.462,2.661,1.351,2.415,3.734,1.839,3.356,3.004,0.000,4.230,0.000,0.000,0.000,0.000,0.000,0.000,0.000,0.000,0.000,0.000,0.000,3.142,6.280,0.001,1.004,1.569,1.568,4.085,6.281,1.199,4.712,0.000,0.000,-6.760,-12.402,0.990,0.236,4.707,4.710,5.282,4.712,4.711,2.198,6.282,5.083,1.570,0.000,0.000,-6.913,-11.764,0.991,0.235,4.709,4.710,
27.180,33.006,-6.263,-11.945,3.270,0.002,4.938,3.676,1.736,2.490,2.504,1.416,2.368,3.514,2.368,2.319,3.154,0.000,4.335,0.000,0.000,0.000,0.000,0.000,0.000,0.000,0.000,0.000,0.000,0.000,3.142,6.281,0.000,1.004,1.570,1.569,4.085,6.281,1.199,4.712,0.000,0.000,-6.806,-12.347,0.990,0.129,4.707,4.711,5.282,4.712,4.712,2.198,6.282,5.083,1.571,0.000,0.000,-6.890,-11.696,0.991,0.128,4.709,4.711,
27.266,33.092,-6.263,-11.945,3.172,-0.003,5.347,3.641,1.591,3.057,2.639,1.496,2.349,3.227,0.000,2.224,3.345,0.000,4.440,0.000,0.000,0.000,0.000,0.000,0.000,0.000,0.000,0.000,0.000,0.000,3.142,6.281,0.000,1.004,1.569,1.569,4.085,6.281,1.199,4.712,0.000,0.000,-6.842,-12.292,0.990,0.030,4.708,4.711,5.281,4.712,4.712,2.198,6.282,5.083,1.570,0.000,0.000,-6.862,-11.636,0.991,0.030,4.708,4.712,
27.380,33.206,-6.263,-11.946,3.097,0.007,5.376,3.638,1.504,3.127,2.138,1.596,3.166,3.057,0.000,2.177,3.528,0.000,4.511,0.000,0.000,0.000,0.000,0.000,0.000,0.000,0.000,0.000,0.000,0.000,3.142,6.281,0.001,1.004,1.569,1.568,4.085,6.281,1.199,4.712,0.000,0.000,-6.866,-12.248,0.990,6.240,4.708,4.711,5.281,4.711,4.711,2.198,6.282,5.083,1.570,0.000,0.000,-6.837,-11.593,0.990,6.240,4.708,4.712,
27.480,33.306,-6.264,-11.946,2.989,-0.002,5.104,3.670,1.406,2.889,1.688,1.401,2.000,2.869,0.000,2.888,3.874,0.000,4.616,0.000,0.000,0.000,0.000,0.000,0.000,0.000,0.000,0.000,0.000,0.000,3.142,6.281,0.001,1.004,1.569,1.568,4.085,6.281,1.199,4.712,0.000,0.000,-6.896,-12.182,0.990,6.132,4.708,4.712,5.281,4.711,4.711,2.198,6.282,5.083,1.570,0.000,0.000,-6.796,-11.533,0.990,6.132,4.708,4.712,
27.580,33.406,-6.263,-11.946,2.881,-0.006,5.083,3.274,1.462,2.366,1.997,1.285,1.307,2.520,3.474,2.852,3.709,0.000,4.721,0.000,0.000,0.000,0.000,0.000,0.000,0.000,0.000,0.000,0.000,0.000,3.142,6.281,0.001,1.004,1.569,1.569,4.085,6.281,1.199,4.712,0.000,0.000,-6.917,-12.112,0.990,6.023,4.707,4.713,5.282,4.712,4.711,2.198,6.282,5.083,1.570,0.000,0.000,-6.748,-11.478,0.991,6.023,4.708,4.713,
27.660,33.487,-6.263,-11.947,2.787,-0.002,5.249,2.957,1.909,2.059,2.457,2.738,1.347,2.441,3.609,1.695,3.174,0.000,4.826,0.000,0.000,0.000,0.000,0.000,0.000,0.000,0.000,0.000,0.000,0.000,3.142,6.281,0.001,1.004,1.569,1.569,4.085,6.281,1.199,4.712,0.000,0.000,-6.930,-12.051,0.990,5.929,4.707,4.713,5.281,4.711,4.711,2.198,6.282,5.083,1.570,0.000,0.000,-6.702,-11.435,0.990,5.928,4.708,4.713,
27.780,33.606,-6.263,-11.947,2.717,0.001,5.254,3.038,3.731,1.890,2.465,2.615,1.386,2.400,3.825,1.950,3.304,0.000,4.862,0.000,0.000,0.000,0.000,0.000,0.000,0.000,0.000,0.000,0.000,0.000,3.142,6.281,0.001,1.004,1.569,1.568,4.085,6.281,1.199,4.712,0.000,0.000,-6.935,-12.005,0.990,5.860,4.707,4.713,5.281,4.711,4.711,2.198,6.282,5.083,1.570,0.000,0.000,-6.666,-11.406,0.990,5.860,4.707,4.714,
27.876,33.702,-6.263,-11.947,2.607,-0.002,5.124,3.210,3.661,1.685,2.502,2.463,1.468,2.359,3.411,2.604,2.287,0.000,5.002,0.000,0.000,0.000,0.000,0.000,0.000,0.000,0.000,0.000,0.000,0.000,3.142,6.281,0.001,1.004,1.569,1.568,4.085,6.281,1.199,4.712,0.000,0.000,-6.938,-11.930,0.990,5.750,4.707,4.714,5.281,4.711,4.711,2.198,6.282,5.083,1.570,0.000,0.000,-6.604,-11.365,0.990,5.749,4.707,4.714,
27.980,33.806,-6.263,-11.947,2.506,-0.003,5.141,3.424,3.637,1.548,2.858,2.442,1.604,3.163,3.145,0.000,2.199,0.000,5.107,0.000,0.000,0.000,0.000,0.000,0.000,0.000,0.000,0.000,0.000,0.000,3.142,6.281,0.001,1.004,1.569,1.568,4.085,6.281,1.199,4.712,0.000,0.000,-6.932,-11.863,0.990,5.648,4.706,4.715,5.282,4.711,4.711,2.198,6.282,5.083,1.570,0.000,0.000,-6.543,-11.334,0.991,5.648,4.707,4.715,
28.080,33.906,-6.263,-11.948,2.411,-0.003,5.197,3.688,3.649,1.452,3.190,1.830,1.427,3.179,2.955,0.000,2.379,0.000,5.177,0.000,0.000,0.000,0.000,0.000,0.000,0.000,0.000,0.000,0.000,0.000,3.142,6.281,0.001,1.004,1.569,1.568,4.085,6.281,1.199,4.712,0.000,0.000,-6.921,-11.800,0.990,5.554,4.706,4.716,5.281,4.711,4.711,2.198,6.282,5.083,1.570,0.000,0.000,-6.484,-11.311,0.990,5.553,4.706,4.716,
28.171,33.997,-6.263,-11.948,2.318,-0.002,5.186,3.948,3.227,1.379,2.673,1.624,1.298,1.586,2.814,0.000,2.874,0.000,5.283,0.000,0.000,0.000,0.000,0.000,0.000,0.000,0.000,0.000,0.000,0.000,3.142,6.281,0.001,1.004,1.569,1.568,4.085,6.281,1.199,4.712,0.000,0.000,-6.905,-11.740,0.990,5.461,4.705,4.716,5.281,4.711,4.711,2.198,6.282,5.083,1.570,0.000,0.000,-6.424,-11.293,0.990,5.460,4.706,4.716,
28.280,34.106,-6.263,-11.948,2.223,-0.002,5.160,3.632,3.522,1.558,2.268,2.956,2.802,1.317,2.495,3.377,2.850,0.000,5.388,0.000,0.000,0.000,0.000,0.000,0.000,0.000,0.000,0.000,0.000,0.000,3.142,6.281,0.001,1.004,1.569,1.568,4.085,6.281,1.199,4.712,0.000,0.000,-6.882,-11.680,0.990,5.365,4.705,4.717,5.281,4.711,4.711,2.198,6.282,5.083,1.570,0.000,0.000,-6.361,-11.281,0.991,5.365,4.705,4.717,
28.380,34.206,-6.263,-11.949,2.145,-0.002,5.145,3.431,2.967,1.969,2.031,2.455,2.652,1.353,2.435,3.641,1.729,0.000,5.458,0.000,0.000,0.000,0.000,0.000,0.000,0.000,0.000,0.000,0.000,0.000,3.142,6.281,0.001,1.004,1.569,1.568,4.085,6.281,1.199,4.712,0.000,0.000,-6.860,-11.633,0.990,5.287,4.704,4.719,5.281,4.711,4.711,2.198,6.282,5.083,1.570,0.000,0.000,-6.309,-11.276,0.991,5.287,4.704,4.718,
28.480,34.306,-6.264,-11.949,2.027,-0.002,5.179,2.347,3.122,3.687,1.772,2.479,2.481,1.427,2.375,3.583,2.248,0.000,5.564,0.000,0.000,0.000,0.000,0.000,0.000,0.000,0.000,0.000,0.000,0.000,3.142,6.281,0.001,1.004,1.569,1.569,4.085,6.281,1.199,4.712,0.000,0.000,-6.818,-11.565,0.990,5.169,4.702,4.721,5.282,4.711,4.711,2.198,6.282,5.083,1.570,0.000,0.000,-6.229,-11.276,0.991,5.169,4.703,4.720,
28.580,34.406,-6.264,-11.949,1.950,-0.002,5.168,2.265,3.257,3.651,1.646,2.513,2.599,1.492,2.355,3.339,2.825,0.000,5.634,0.000,0.000,0.000,0.000,0.000,0.000,0.000,0.000,0.000,0.000,0.000,3.142,6.281,0.001,1.004,1.569,1.568,4.085,6.281,1.199,4.712,0.000,0.000,-6.788,-11.524,0.990,5.093,4.700,4.723,5.281,4.711,4.711,2.198,6.282,5.083,1.570,0.000,0.000,-6.178,-11.281,0.991,5.092,4.701,4.722,
28.680,34.506,-6.264,-11.950,1.836,-0.012,5.226,2.176,3.521,3.637,1.506,3.120,1.934,1.522,3.166,3.063,0.000,0.000,5.774,0.000,0.000,0.000,0.000,0.000,0.000,0.000,0.000,0.000,0.000,0.000,3.142,6.281,0.001,1.004,1.569,1.568,4.085,6.281,1.199,4.712,0.000,0.000,-6.736,-11.468,0.990,4.979,4.695,4.729,5.281,4.711,4.711,2.198,6.282,5.083,1.570,0.000,0.000,-6.102,-11.296,0.990,4.978,4.696,4.728,
28.780,34.606,-6.264,-11.951,1.745,-0.013,5.214,2.732,2.435,3.661,1.422,3.016,1.674,1.370,3.192,2.899,0.000,0.000,5.844,0.000,0.000,0.000,0.000,0.000,0.000,0.000,0.000,0.000,0.000,0.000,3.142,6.281,0.001,1.004,1.569,1.568,4.085,6.281,1.199,4.712,0.000,0.000,-6.690,-11.428,0.990,4.888,4.685,4.738,5.282,4.711,4.711,2.197,6.282,5.083,1.570,0.000,0.000,-6.044,-11.314,0.990,4.888,4.686,4.738,
28.880,34.706,-6.264,-11.952,1.651,0.016,5.152,2.865,3.824,3.249,1.355,2.502,2.053,1.281,1.324,2.555,0.000,0.000,5.950,0.000,0.000,0.000,0.000,0.000,0.000,0.000,0.000,0.000,0.000,0.000,3.142,6.281,0.001,1.004,1.569,1.568,4.085,6.281,1.199,4.712,0.000,0.000,-6.639,-11.391,0.990,4.794,4.657,4.766,5.282,4.711,4.711,2.198,6.282,5.083,1.570,0.000,0.000,-5.985,-11.338,0.991,4.793,4.660,4.764,
28.980,34.806,-6.264,-11.950,1.555,0.013,5.188,2.850,3.536,3.122,1.719,2.149,2.454,2.727,1.333,2.466,3.527,0.000,6.055,0.000,0.000,0.000,0.000,0.000,0.000,0.000,0.000,0.000,0.000,0.000,3.142,6.281,0.001,1.004,1.569,1.568,4.085,6.281,1.199,4.712,0.000,0.000,-6.584,-11.356,0.990,4.728,1.880,1.260,5.281,4.711,4.711,2.198,6.282,5.083,1.570,0.000,0.000,-5.928,-11.366,0.990,4.729,1.844,1.296,
29.080,34.906,-6.264,-11.950,1.480,-0.008,5.168,1.846,3.360,3.004,2.219,1.946,2.464,2.597,1.372,2.415,3.743,0.000,6.125,0.000,0.000,0.000,0.000,0.000,0.000,0.000,0.000,0.000,0.000,0.000,3.142,6.281,0.001,1.004,1.569,1.568,4.085,6.281,1.199,4.712,0.000,0.000,-6.539,-11.333,0.990,4.803,1.624,1.516,5.281,4.711,4.711,2.198,6.282,5.083,1.570,0.000,0.000,-5.885,-11.393,0.990,4.803,1.619,1.522,
29.180,35.006,-6.264,-11.948,1.363,0.172,5.141,2.454,2.309,3.174,3.669,1.714,2.509,2.444,1.453,2.366,3.475,0.000,6.231,0.000,0.000,0.000,0.000,0.000,0.000,0.000,0.000,0.000,0.000,0.000,3.142,6.278,0.000,1.006,1.568,1.567,4.081,6.281,1.199,4.712,0.000,0.000,-6.466,-11.305,0.990,4.917,1.582,1.558,5.282,4.710,4.709,2.197,6.282,5.083,1.570,0.000,0.000,-5.824,-11.438,0.991,4.918,1.592,1.550,
29.280,35.106,-6.257,-11.913,1.298,0.740,5.707,0.000,2.207,3.305,3.652,1.628,3.102,2.715,1.502,2.345,3.276,0.000,0.018,0.000,0.000,0.000,0.000,0.000,0.000,0.000,0.000,0.000,0.000,0.000,3.142,6.277,6.283,1.008,1.568,1.567,4.078,6.281,1.198,4.712,0.000,0.000,-6.417,-11.259,0.990,4.982,1.577,1.564,5.283,4.710,4.709,2.197,6.282,5.083,1.571,0.000,0.000,-5.784,-11.432,0.991,4.982,1.585,1.557,
29.374,35.200,-6.230,-11.820,1.240,1.084,5.415,0.000,2.064,3.469,3.670,1.588,3.256,2.488,1.531,2.315,3.100,0.000,0.088,0.000,0.000,0.000,0.000,0.000,0.000,0.000,0.000,0.000,0.000,0.000,3.142,6.280,0.001,1.005,1.568,1.566,4.084,6.281,1.199,4.712,0.000,0.000,-6.352,-11.156,0.990,5.039,1.585,1.556,5.282,4.710,4.709,2.197,6.282,5.083,1.570,0.000,0.000,-5.731,-11.368,0.990,5.039,1.585,1.556,
29.480,35.306,-6.193,-11.720,1.127,0.681,5.097,0.000,2.676,3.913,3.265,1.544,3.042,2.058,1.729,3.115,2.840,0.000,0.193,0.000,0.000,0.000,0.000,0.000,0.000,0.000,0.000,0.000,0.000,0.000,3.142,6.282,0.001,1.002,1.569,1.569,4.088,6.281,1.199,4.712,0.000,0.000,-6.237,-11.046,0.989,5.156,1.586,1.555,5.281,4.712,4.711,2.198,6.282,5.083,1.570,0.000,0.000,-5.644,-11.329,0.990,5.156,1.581,1.560,
29.572,35.398,-6.171,-11.675,1.056,0.710,5.614,0.000,2.599,3.576,3.785,1.861,2.702,1.940,1.673,3.127,2.714,0.000,0.263,0.000,0.000,0.000,0.000,0.000,0.000,0.000,0.000,0.000,0.000,0.000,3.142,6.280,0.000,1.005,1.569,1.569,4.083,6.281,1.199,4.712,0.000,0.000,-6.167,-11.001,0.990,5.227,1.579,1.563,5.282,4.711,4.712,2.197,6.281,5.083,1.571,0.000,0.000,-5.595,-11.323,0.991,5.227,1.579,1.563,
29.680,35.506,-6.113,-11.576,1.043,1.186,6.276,0.000,2.494,3.394,3.059,2.144,2.752,2.045,1.786,3.077,2.633,0.000,0.298,0.000,0.000,0.000,0.000,0.000,0.000,0.000,0.000,0.000,0.000,0.000,3.142,6.281,0.000,1.005,1.569,1.568,4.083,6.281,1.199,4.712,0.000,0.000,-6.102,-10.902,0.990,5.239,1.578,1.564,5.281,4.711,4.710,2.198,6.282,5.083,1.570,0.000,0.000,-5.534,-11.231,0.990,5.239,1.579,1.563,
29.780,35.606,-6.054,-11.475,1.044,1.118,6.262,0.000,1.241,2.942,3.051,2.374,2.873,2.267,1.570,3.016,2.570,0.000,0.298,0.000,0.000,0.000,0.000,0.000,0.000,0.000,0.000,0.000,0.000,0.000,3.142,0.000,0.001,1.003,1.570,1.570,4.087,6.281,1.200,4.712,0.000,0.000,-6.041,-10.800,0.990,5.241,1.582,1.560,5.281,4.712,4.712,2.198,6.282,5.083,1.570,0.000,0.000,-5.475,-11.131,0.990,5.240,1.580,1.563,
29.880,35.706,-6.005,-11.389,1.045,0.919,6.262,0.000,1.240,3.143,3.101,2.567,2.977,2.457,1.494,2.133,2.516,0.000,0.333,0.000,0.000,0.000,0.000,0.000,0.000,0.000,0.000,0.000,0.000,0.000,3.142,0.000,0.000,1.003,1.570,1.570,4.086,6.281,1.199,4.712,0.000,0.000,-5.992,-10.715,0.990,5.239,1.582,1.560,5.281,4.712,4.712,2.198,6.282,5.083,1.570,0.000,0.000,-5.425,-11.044,0.990,5.239,1.580,1.563,
29.980,35.806,-5.959,-11.311,1.045,0.959,6.261,0.000,1.239,1.993,3.147,2.743,3.071,2.630,1.426,2.087,2.467,0.000,0.333,0.000,0.000,0.000,0.000,0.000,0.000,0.000,0.000,0.000,0.000,0.000,3.142,6.282,0.000,1.004,1.569,1.569,4.084,6.281,1.199,4.712,0.000,0.000,-5.949,-10.637,0.990,5.237,1.579,1.562,5.281,4.711,4.711,2.198,6.282,5.083,1.570,0.000,0.000,-5.381,-10.965,0.990,5.237,1.580,1.563,
30.061,35.888,-5.909,-11.224,1.046,1.060,6.262,0.000,1.238,1.876,3.197,4.431,3.175,2.821,1.387,2.035,2.413,0.000,0.333,0.000,0.000,0.000,0.000,0.000,0.000,0.000,0.000,0.000,0.000,0.000,3.142,6.282,0.000,1.004,1.569,1.569,4.084,6.281,1.199,4.712,0.000,0.000,-5.899,-10.550,0.990,5.237,1.580,1.562,5.281,4.711,4.711,2.198,6.282,5.083,1.570,0.000,0.000,-5.331,-10.878,0.990,5.237,1.580,1.563,
30.180,36.006,-5.857,-11.134,1.047,1.037,6.263,0.000,1.238,1.753,3.250,4.490,3.283,3.020,1.510,1.982,2.356,0.000,0.369,0.000,0.000,0.000,0.000,0.000,0.000,0.000,0.000,0.000,0.000,0.000,3.142,6.283,0.000,1.003,1.569,1.569,4.086,6.281,1.199,4.712,0.000,0.000,-5.847,-10.460,0.990,5.237,1.581,1.561,5.281,4.711,4.711,2.198,6.282,5.083,1.570,0.000,0.000,-5.279,-10.788,0.990,5.236,1.580,1.562,
30.280,36.106,-5.808,-11.049,1.047,0.986,6.264,0.000,1.237,1.636,3.300,4.546,3.386,3.210,1.627,1.931,2.302,0.000,0.404,0.000,0.000,0.000,0.000,0.000,0.000,0.000,0.000,0.000,0.000,0.000,3.142,6.283,0.000,1.003,1.569,1.569,4.085,6.281,1.199,4.712,0.000,0.000,-5.798,-10.374,0.990,5.236,1.581,1.561,5.281,4.711,4.711,2.198,6.282,5.083,1.570,0.000,0.000,-5.229,-10.702,0.990,5.236,1.580,1.562,
30.380,36.206,-5.769,-10.981,1.048,0.993,6.263,0.000,1.236,1.594,3.339,4.590,3.466,3.942,1.719,1.891,2.260,0.000,0.404,0.000,0.000,0.000,0.000,0.000,0.000,0.000,0.000,0.000,0.000,0.000,3.142,6.282,0.000,1.004,1.569,1.569,4.085,6.281,1.199,4.712,0.000,0.000,-5.760,-10.307,0.990,5.235,1.580,1.562,5.281,4.711,4.711,2.198,6.282,5.083,1.570,0.000,0.000,-5.191,-10.634,0.990,5.235,1.580,1.562,
30.480,36.306,-5.709,-10.878,1.048,1.025,6.264,0.000,1.234,1.680,3.399,4.658,3.589,3.727,1.860,1.830,2.195,0.000,0.439,0.000,0.000,0.000,0.000,0.000,0.000,0.000,0.000,0.000,0.000,0.000,3.142,6.282,0.000,1.004,1.569,1.569,4.085,6.281,1.199,4.712,0.000,0.000,-5.700,-10.203,0.990,5.234,1.580,1.562,5.281,4.711,4.711,2.198,6.282,5.083,1.570,0.000,0.000,-5.132,-10.530,0.990,5.234,1.580,1.562,
30.572,36.399,-5.669,-10.808,1.049,1.021,6.265,4.921,1.234,0.780,2.898,4.704,3.672,2.135,1.956,1.789,2.151,0.000,0.439,0.000,0.000,0.000,0.000,0.000,0.000,0.000,0.000,0.000,0.000,0.000,3.142,6.282,0.000,1.004,1.569,1.569,4.085,6.281,1.199,4.712,0.000,0.000,-5.660,-10.133,0.990,5.234,1.580,1.561,5.281,4.711,4.711,2.198,6.282,5.083,1.570,0.000,0.000,-5.092,-10.460,0.990,5.234,1.580,1.562,
30.680,36.506,-5.610,-10.705,1.049,1.005,6.264,4.801,1.232,0.779,3.500,4.771,3.796,2.209,2.979,1.728,2.086,0.000,0.474,0.000,0.000,0.000,0.000,0.000,0.000,0.000,0.000,0.000,0.000,0.000,3.142,6.282,0.000,1.004,1.569,1.569,4.085,6.281,1.199,4.712,0.000,0.000,-5.601,-10.030,0.990,5.233,1.580,1.561,5.281,4.711,4.711,2.198,6.282,5.083,1.570,0.000,0.000,-5.032,-10.356,0.990,5.233,1.580,1.562,
30.780,36.606,-5.560,-10.619,1.050,1.009,6.264,4.702,1.231,0.779,3.549,4.827,3.898,2.295,3.097,1.678,2.032,0.000,2.650,0.000,0.000,0.000,0.000,0.000,0.000,0.000,0.000,0.000,0.000,0.000,3.142,6.282,0.000,1.004,1.569,1.569,4.085,6.281,1.199,4.712,0.000,0.000,-5.553,-9.944,0.990,5.233,1.580,1.562,5.281,4.711,4.711,2.198,6.282,5.083,1.570,0.000,0.000,-4.983,-10.270,0.990,5.233,1.580,1.562,
30.880,36.706,-5.511,-10.532,1.050,1.015,6.265,4.602,1.230,0.778,3.599,4.883,4.001,2.382,3.216,1.891,1.978,0.000,2.650,0.000,0.000,0.000,0.000,0.000,0.000,0.000,0.000,0.000,0.000,0.000,3.142,6.282,0.000,1.004,1.569,1.569,4.085,6.281,1.199,4.712,0.000,0.000,-5.503,-9.858,0.990,5.232,1.580,1.562,5.281,4.711,4.711,2.198,6.282,5.083,1.570,0.000,0.000,-4.934,-10.184,0.990,5.232,1.580,1.562,
30.980,36.806,-5.461,-10.446,1.051,1.013,6.264,4.502,1.228,0.778,3.649,4.939,4.103,2.470,3.335,1.777,1.924,0.000,2.685,0.000,0.000,0.000,0.000,0.000,0.000,0.000,0.000,0.000,0.000,0.000,3.142,6.282,0.000,1.004,1.569,1.569,4.085,6.281,1.199,4.712,0.000,0.000,-5.454,-9.771,0.990,5.232,1.580,1.561,5.281,4.711,4.711,2.198,6.282,5.083,1.570,0.000,0.000,-4.885,-10.097,0.990,5.232,1.580,1.562,
31.080,36.906,-5.412,-10.360,1.051,1.010,6.265,4.403,1.340,0.777,0.793,4.995,4.206,2.557,3.413,1.727,1.870,0.000,2.685,0.000,0.000,0.000,0.000,0.000,0.000,0.000,0.000,0.000,0.000,0.000,3.142,6.282,0.000,1.004,1.569,1.569,4.085,6.281,1.199,4.712,0.000,0.000,-5.405,-9.685,0.990,5.232,1.580,1.561,5.281,4.711,4.711,2.198,6.282,5.083,1.570,0.000,0.000,-4.835,-10.010,0.990,5.231,1.580,1.562,
31.163,36.990,-5.369,-10.284,1.065,0.732,0.566,4.284,3.823,0.774,0.797,0.000,4.400,2.637,2.115,1.678,1.834,0.000,2.685,0.000,0.000,0.000,0.000,0.000,0.000,0.000,0.000,0.000,0.000,0.000,3.142,0.002,0.000,1.001,1.571,1.573,4.089,6.280,1.200,4.712,0.000,0.000,-5.368,-9.609,0.990,5.223,1.585,1.558,5.281,4.713,4.715,2.199,6.281,5.083,1.571,0.000,0.000,-4.795,-9.928,0.991,5.222,1.578,1.564,
31.280,37.106,-5.340,-10.229,1.156,0.589,1.387,4.045,1.081,0.756,0.826,0.000,0.000,2.069,1.899,1.629,1.893,0.000,3.142,0.000,0.000,0.000,0.000,0.000,0.000,0.000,0.000,0.000,0.000,0.000,3.142,0.002,0.000,1.003,1.571,1.571,4.086,6.281,1.199,4.712,0.000,0.000,-5.402,-9.558,0.990,5.129,1.583,1.559,5.282,4.713,4.714,2.198,6.282,5.083,1.571,0.000,0.000,-4.801,-9.823,0.991,5.130,1.578,1.564,
31.370,37.196,-5.321,-10.183,1.254,0.706,1.313,3.854,0.975,0.739,0.864,3.792,4.440,2.174,1.732,1.603,1.813,0.000,3.071,0.000,0.000,0.000,0.000,0.000,0.000,0.000,0.000,0.000,0.000,0.000,3.142,0.000,0.000,1.004,1.569,1.568,4.084,6.282,1.199,4.712,0.000,0.000,-5.451,-9.521,0.990,5.027,1.583,1.558,5.282,4.712,4.711,2.198,6.282,5.083,1.570,0.000,0.000,-4.827,-9.725,0.991,5.028,1.581,1.560,
31.480,37.306,-5.290,-10.078,1.315,1.143,6.246,3.705,0.895,0.711,0.866,3.684,4.471,2.335,1.627,1.576,1.517,0.000,3.036,0.000,0.000,0.000,0.000,0.000,0.000,0.000,0.000,0.000,0.000,0.000,3.142,6.281,0.000,1.006,1.567,1.565,4.082,6.282,1.199,4.711,0.000,0.000,-5.462,-9.425,0.990,4.964,1.584,1.556,5.281,4.710,4.708,2.197,6.283,5.083,1.570,0.000,0.000,-4.827,-9.590,0.990,4.964,1.588,1.553,
31.580,37.406,-5.261,-9.966,1.314,1.131,6.276,3.574,0.857,0.680,0.829,3.856,4.587,2.455,1.748,1.547,1.267,0.000,3.036,0.000,0.000,0.000,0.000,0.000,0.000,0.000,0.000,0.000,0.000,0.000,3.142,6.282,0.001,1.003,1.569,1.569,4.086,6.281,1.199,4.712,0.000,0.000,-5.429,-9.312,0.990,4.969,1.591,1.550,5.281,4.711,4.711,2.197,6.282,5.083,1.570,0.000,0.000,-4.795,-9.479,0.990,4.969,1.590,1.552,
31.671,37.498,-5.240,-9.886,1.314,0.968,6.274,3.484,0.903,0.658,0.802,3.977,4.670,2.540,1.897,1.526,1.143,0.000,3.036,0.000,0.000,0.000,0.000,0.000,0.000,0.000,0.000,0.000,0.000,0.000,3.142,6.283,0.001,1.003,1.569,1.569,4.086,6.281,1.199,4.712,0.000,0.000,-5.408,-9.233,0.990,4.969,1.593,1.549,5.281,4.711,4.711,2.197,6.282,5.083,1.570,0.000,0.000,-4.774,-9.399,0.990,4.969,1.590,1.552,
31.780,37.606,-5.212,-9.780,1.314,0.952,6.271,3.365,2.846,0.629,0.767,4.140,4.780,2.655,1.768,1.498,1.067,0.000,3.036,0.000,0.000,0.000,0.000,0.000,0.000,0.000,0.000,0.000,0.000,0.000,3.142,6.282,0.000,1.004,1.569,1.568,4.084,6.281,1.199,4.712,0.000,0.000,-5.381,-9.127,0.990,4.968,1.588,1.553,5.281,4.711,4.711,2.197,6.282,5.083,1.570,0.000,0.000,-4.746,-9.293,0.990,4.968,1.590,1.552,
31.880,37.706,-5.192,-9.704,1.314,1.036,6.271,3.280,2.764,0.609,0.742,4.255,4.858,3.434,1.745,1.478,1.041,0.000,3.036,0.000,0.000,0.000,0.000,0.000,0.000,0.000,0.000,0.000,0.000,0.000,3.142,6.282,0.000,1.004,1.569,1.568,4.084,6.281,1.199,4.712,0.000,0.000,-5.361,-9.051,0.990,4.968,1.587,1.554,5.281,4.711,4.711,2.197,6.282,5.083,1.570,0.000,0.000,-4.727,-9.217,0.990,4.968,1.589,1.552,
31.980,37.806,-5.161,-9.584,1.314,1.041,6.269,3.147,2.717,0.576,0.702,0.000,4.983,3.564,1.707,1.446,1.844,0.000,3.106,0.000,0.000,0.000,0.000,0.000,0.000,0.000,0.000,0.000,0.000,0.000,3.142,6.282,0.000,1.004,1.569,1.569,4.085,6.281,1.199,4.712,0.000,0.000,-5.329,-8.931,0.990,4.969,1.590,1.551,5.281,4.711,4.711,2.198,6.282,5.083,1.570,0.000,0.000,-4.695,-9.097,0.990,4.969,1.589,1.552,
32.080,37.906,-5.135,-9.488,1.314,0.991,6.270,3.042,2.783,0.550,0.670,0.000,0.000,3.667,1.677,1.421,1.811,0.000,3.142,0.000,0.000,0.000,0.000,0.000,0.000,0.000,0.000,0.000,0.000,0.000,3.142,6.282,0.000,1.004,1.569,1.569,4.085,6.281,1.199,4.712,0.000,0.000,-5.304,-8.834,0.990,4.969,1.590,1.551,5.281,4.711,4.711,2.198,6.282,5.083,1.570,0.000,0.000,-4.669,-9.001,0.990,4.969,1.589,1.552,
32.180,38.006,-5.111,-9.393,1.314,0.997,6.268,2.940,2.846,0.556,0.639,0.000,0.000,3.769,1.648,1.396,1.779,0.000,3.142,0.000,0.000,0.000,0.000,0.000,0.000,0.000,0.000,0.000,0.000,0.000,3.142,6.282,0.000,1.004,1.569,1.569,4.085,6.281,1.199,4.712,0.000,0.000,-5.280,-8.740,0.990,4.968,1.589,1.552,5.281,4.711,4.711,2.198,6.282,5.083,1.570,0.000,0.000,-4.645,-8.906,0.990,4.968,1.589,1.552,
32.280,38.106,-5.086,-9.297,1.314,1.022,6.269,2.835,3.028,0.585,0.607,0.000,0.000,3.872,1.618,1.371,1.746,0.000,3.142,0.000,0.000,0.000,0.000,0.000,0.000,0.000,0.000,0.000,0.000,0.000,3.142,6.282,0.000,1.004,1.569,1.569,4.085,6.281,1.199,4.712,0.000,0.000,-5.254,-8.644,0.990,4.968,1.589,1.552,5.281,4.711,4.711,2.198,6.282,5.083,1.570,0.000,0.000,-4.620,-8.810,0.990,4.968,1.589,1.552,
32.380,38.206,-5.060,-9.200,1.314,1.019,6.268,2.730,2.923,1.277,0.574,1.455,0.000,3.977,1.587,0.730,0.000,0.000,3.142,0.000,0.000,0.000,0.000,0.000,0.000,0.000,0.000,0.000,0.000,0.000,3.142,6.282,0.000,1.004,1.569,1.569,4.085,6.281,1.199,4.712,0.000,0.000,-5.229,-8.547,0.990,4.968,1.590,1.552,5.281,4.711,4.711,2.198,6.282,5.083,1.570,0.000,0.000,-4.594,-8.713,0.990,4.968,1.589,1.552,
32.480,38.306,-5.035,-9.104,1.314,1.006,6.201,2.629,2.818,4.058,0.563,1.372,0.000,4.080,1.558,0.641,0.000,0.000,3.142,0.000,0.000,0.000,0.000,0.000,0.000,0.000,0.000,0.000,0.000,0.000,3.142,6.282,0.001,1.004,1.569,1.568,4.084,6.281,1.199,4.712,0.000,0.000,-5.204,-8.451,0.990,4.968,1.589,1.552,5.281,4.711,4.710,2.197,6.282,5.083,1.570,0.000,0.000,-4.569,-8.616,0.990,4.968,1.591,1.551,
32.580,38.406,-5.009,-9.008,1.269,1.009,5.276,2.561,2.668,4.207,0.577,1.144,0.000,4.114,1.574,0.614,0.000,0.000,3.142,0.000,0.000,0.000,0.000,0.000,0.000,0.000,0.000,0.000,0.000,0.000,3.142,6.280,0.001,1.005,1.567,1.565,4.084,6.282,1.199,4.711,0.000,0.000,-5.151,-8.347,0.990,5.009,1.586,1.554,5.281,4.710,4.708,2.197,6.282,5.083,1.570,0.000,0.000,-4.524,-8.542,0.990,5.010,1.588,1.553,
32.661,38.487,-4.978,-8.914,1.159,1.013,5.123,2.614,0.000,3.739,1.281,0.856,0.000,3.419,1.674,0.584,1.435,0.000,3.142,0.000,0.000,0.000,0.000,0.000,0.000,0.000,0.000,0.000,0.000,0.000,3.142,6.280,0.001,1.004,1.569,1.568,4.085,6.281,1.199,4.712,0.000,0.000,-5.044,-8.242,0.990,5.123,1.583,1.558,5.282,4.711,4.711,2.198,6.282,5.083,1.570,0.000,0.000,-4.442,-8.504,0.991,5.124,1.580,1.562,
32.780,38.606,-4.936,-8.823,1.114,1.012,6.262,2.566,0.000,2.464,1.275,0.771,0.000,3.480,1.687,1.346,1.351,0.000,3.142,0.000,0.000,0.000,0.000,0.000,0.000,0.000,0.000,0.000,0.000,0.000,3.142,6.282,0.000,1.003,1.570,1.571,4.085,6.280,1.199,4.712,0.000,0.000,-4.970,-8.150,0.990,5.172,1.582,1.560,5.281,4.712,4.713,2.198,6.281,5.083,1.571,0.000,0.000,-4.381,-8.439,0.991,5.171,1.580,1.562,
32.869,38.695,-4.901,-8.751,1.115,1.011,6.271,2.486,0.000,2.362,1.284,0.788,0.000,3.554,1.636,1.904,1.312,0.000,3.142,0.000,0.000,0.000,0.000,0.000,0.000,0.000,0.000,0.000,0.000,0.000,3.142,6.283,0.000,1.003,1.569,1.569,4.085,6.281,1.199,4.712,0.000,0.000,-4.937,-8.078,0.990,5.168,1.582,1.560,5.281,4.711,4.711,2.198,6.282,5.083,1.570,0.000,0.000,-4.348,-8.366,0.990,5.168,1.580,1.561,
32.980,38.806,-4.849,-8.644,1.117,1.011,6.265,2.366,0.000,2.207,1.309,0.849,0.000,3.663,0.626,1.108,4.395,0.000,3.142,0.000,0.000,0.000,0.000,0.000,0.000,0.000,0.000,0.000,0.000,0.000,3.142,6.283,0.000,1.003,1.569,1.569,4.085,6.281,1.199,4.712,0.000,0.000,-4.885,-7.971,0.990,5.167,1.582,1.560,5.281,4.711,4.711,2.198,6.282,5.083,1.570,0.000,0.000,-4.296,-8.258,0.990,5.167,1.581,1.561,
33.071,38.898,-4.814,-8.573,1.117,1.012,6.262,2.287,0.000,2.103,1.641,0.890,0.000,4.397,0.577,1.073,4.357,0.000,3.142,0.000,0.000,0.000,0.000,0.000,0.000,0.000,0.000,0.000,0.000,0.000,3.142,6.283,0.000,1.003,1.569,1.569,4.085,6.281,1.199,4.712,0.000,0.000,-4.851,-7.899,0.990,5.166,1.582,1.560,5.281,4.711,4.711,2.198,6.282,5.083,1.570,0.000,0.000,-4.261,-8.186,0.990,5.166,1.581,1.561,
