deveshdatwani/Gopher/Assets/Data/07-16 21-51-03/Obstacle Handling_robot_value.csv
game_time,true_time,x,y,az,vx,vaz,dis_to_obs_0,dis_to_obs_36,dis_to_obs_72,dis_to_obs_108,dis_to_obs_144,dis_to_obs_180,dis_to_obs_-144,dis_to_obs_-108,dis_to_obs_-72,dis_to_obs_-36,dis_to_min_obs,direction_to_min_obs,dis_to_human_0,dis_to_human_36,dis_to_human_72,dis_to_human_108,dis_to_human_144,dis_to_human_180,dis_to_human_-144,dis_to_human_-108,dis_to_human_-72,dis_to_human_-36,dis_to_min_human,direction_to_min_human,main_cam_yaw,main_cam_pitch,left_joint_1,left_joint_2,left_joint_3,left_joint_4,left_joint_5,left_joint_6,left_joint_7,left_joint_gripper,left_is_grasping,left_end_x,left_end_y,left_end_z,left_end_ax,left_end_ay,left_end_az,right_joint_1,right_joint_2,right_joint_3,right_joint_4,right_joint_5,right_joint_6,right_joint_7,right_joint_gripper,right_is_grasping,right_end_x,right_end_y,right_end_z,right_end_ax,right_end_ay,right_end_az,
13.820,22.358,1.034,-10.005,1.359,0.208,6.265,3.572,3.457,1.777,1.252,1.684,0.000,3.022,2.265,1.979,0.000,0.000,3.142,0.000,0.000,0.000,0.000,0.000,0.000,0.000,0.000,0.000,0.000,0.000,3.142,0.001,0.001,1.002,1.570,1.570,4.088,6.281,1.200,4.712,0.000,0.000,0.837,-9.359,0.990,4.926,1.600,1.541,5.281,4.712,4.712,2.198,6.282,5.083,1.570,0.000,0.000,1.478,-9.498,0.990,4.925,1.593,1.549,
13.920,22.458,1.036,-9.996,1.360,0.012,0.044,3.562,3.454,1.775,1.261,1.688,0.000,3.033,2.261,1.977,0.000,0.000,3.142,0.000,0.000,0.000,0.000,0.000,0.000,0.000,0.000,0.000,0.000,0.000,3.142,0.001,0.000,1.002,1.570,1.570,4.087,6.281,1.200,4.712,0.000,0.000,0.839,-9.350,0.990,4.925,1.599,1.542,5.281,4.712,4.712,2.199,6.282,5.083,1.570,0.000,0.000,1.480,-9.489,0.990,4.925,1.591,1.550,
14.011,22.549,1.035,-9.997,1.394,-0.036,0.918,3.542,3.593,1.778,1.227,1.746,4.992,3.081,2.219,1.986,4.974,0.000,3.106,0.000,0.000,0.000,0.000,0.000,0.000,0.000,0.000,0.000,0.000,0.000,3.142,0.002,0.000,1.002,1.571,1.573,4.087,6.281,1.199,4.712,0.000,0.000,0.818,-9.359,0.990,4.893,1.602,1.540,5.281,4.713,4.715,2.200,6.281,5.083,1.571,0.000,0.000,1.463,-9.476,0.991,4.893,1.586,1.556,
14.120,22.658,1.035,-10.000,1.481,-0.023,1.526,3.066,3.778,1.794,1.260,1.925,4.932,3.134,2.131,1.611,4.591,0.000,3.036,0.000,0.000,0.000,0.000,0.000,0.000,0.000,0.000,0.000,0.000,0.000,3.142,0.002,0.000,1.003,1.570,1.571,4.086,6.281,1.199,4.712,0.000,0.000,0.762,-9.383,0.990,4.804,1.622,1.519,5.282,4.713,4.714,2.199,6.282,5.083,1.570,0.000,0.000,1.415,-9.443,0.991,4.805,1.598,1.543,
14.214,22.752,1.035,-9.999,1.639,0.029,1.364,3.512,0.000,1.867,1.330,2.417,4.924,3.052,2.023,1.696,3.583,0.000,2.861,0.000,0.000,0.000,0.000,0.000,0.000,0.000,0.000,0.000,0.000,0.000,3.142,0.002,0.000,1.003,1.569,1.568,4.086,6.281,1.199,4.712,0.000,0.000,0.666,-9.433,0.990,4.782,4.646,4.777,5.282,4.712,4.711,2.199,6.282,5.083,1.570,0.000,0.000,1.322,-9.389,0.991,4.780,4.669,4.755,
14.320,22.858,1.035,-9.997,1.721,0.016,1.082,3.547,0.000,1.659,1.384,2.824,4.971,2.788,1.990,1.762,3.910,0.000,2.791,0.000,0.000,0.000,0.000,0.000,0.000,0.000,0.000,0.000,0.000,0.000,3.142,0.002,0.000,1.003,1.569,1.569,4.086,6.281,1.199,4.712,0.000,0.000,0.621,-9.463,0.990,4.864,4.680,4.743,5.281,4.712,4.712,2.199,6.282,5.083,1.570,0.000,0.000,1.270,-9.365,0.991,4.863,4.692,4.732,
14.415,22.953,1.035,-9.996,1.823,0.010,0.958,3.627,0.000,1.470,1.471,3.607,0.000,2.542,1.968,0.000,3.739,0.000,3.142,0.000,0.000,0.000,0.000,0.000,0.000,0.000,0.000,0.000,0.000,0.000,3.142,0.002,0.000,1.003,1.570,1.570,4.086,6.281,1.199,4.712,0.000,0.000,0.569,-9.507,0.990,4.964,4.693,4.731,5.281,4.712,4.712,2.199,6.282,5.083,1.570,0.000,0.000,1.205,-9.344,0.991,4.964,4.701,4.723,
14.520,23.058,1.034,-9.995,1.893,0.014,1.101,3.706,1.777,1.371,1.548,0.000,4.326,2.410,1.966,0.000,3.649,0.000,3.071,0.000,0.000,0.000,0.000,0.000,0.000,0.000,0.000,0.000,0.000,0.000,3.142,0.002,0.000,1.003,1.570,1.570,4.086,6.281,1.199,4.712,0.000,0.000,0.537,-9.539,0.990,5.033,4.697,4.727,5.281,4.712,4.713,2.199,6.282,5.083,1.570,0.000,0.000,1.159,-9.332,0.991,5.033,4.704,4.720,
14.616,23.154,1.051,-10.041,1.954,-0.868,0.058,3.846,1.810,1.271,1.652,4.972,3.083,2.294,1.955,4.765,3.637,0.000,3.036,0.000,0.000,0.000,0.000,0.000,0.000,0.000,0.000,0.000,0.000,0.000,3.142,0.005,0.001,0.999,1.571,1.571,4.094,6.281,1.200,4.712,0.000,0.000,0.526,-9.614,0.989,5.094,4.687,4.735,5.280,4.713,4.713,2.200,6.282,5.083,1.570,0.000,0.000,1.136,-9.372,0.990,5.094,4.701,4.721,
14.720,23.258,1.085,-10.126,1.956,-1.378,6.276,3.941,1.882,1.276,1.701,4.895,2.977,2.251,1.921,0.000,3.723,0.000,2.440,0.000,0.000,0.000,0.000,0.000,0.000,0.000,0.000,0.000,0.000,0.000,3.142,0.002,0.001,1.001,1.571,1.572,4.090,6.281,1.200,4.712,0.000,0.000,0.560,-9.701,0.989,5.095,4.692,4.730,5.280,4.712,4.713,2.199,6.282,5.083,1.570,0.000,0.000,1.169,-9.456,0.990,5.096,4.701,4.722,
14.820,23.358,1.142,-10.266,1.957,-0.910,6.279,4.094,2.002,1.333,1.778,4.751,2.823,2.183,1.863,0.000,3.866,0.000,0.474,0.000,0.000,0.000,0.000,0.000,0.000,0.000,0.000,0.000,0.000,0.000,3.142,6.279,6.283,1.007,1.568,1.566,4.078,6.281,1.199,4.712,0.000,0.000,0.615,-9.847,0.991,5.102,4.710,4.714,5.281,4.710,4.709,2.198,6.282,5.083,1.570,0.000,0.000,1.222,-9.597,0.991,5.101,4.702,4.721,
14.920,23.458,1.164,-10.320,1.957,-0.352,6.277,4.153,2.047,1.355,1.807,4.696,2.765,2.158,1.842,0.000,3.921,0.000,0.474,0.000,0.000,0.000,0.000,0.000,0.000,0.000,0.000,0.000,0.000,0.000,3.142,6.281,6.283,1.005,1.569,1.568,4.082,6.281,1.199,4.712,0.000,0.000,0.638,-9.899,0.990,5.100,4.704,4.719,5.281,4.711,4.710,2.199,6.282,5.083,1.570,0.000,0.000,1.245,-9.651,0.991,5.100,4.702,4.721,
15.015,23.553,1.171,-10.337,1.957,-0.099,6.276,4.173,2.063,1.362,1.817,4.678,2.745,2.149,1.834,0.000,3.940,0.000,0.474,0.000,0.000,0.000,0.000,0.000,0.000,0.000,0.000,0.000,0.000,0.000,3.142,6.282,0.000,1.004,1.569,1.569,4.084,6.281,1.199,4.712,0.000,0.000,0.645,-9.916,0.990,5.099,4.701,4.722,5.281,4.711,4.711,2.199,6.282,5.083,1.570,0.000,0.000,1.253,-9.669,0.990,5.099,4.702,4.722,
15.120,23.658,1.172,-10.340,1.957,0.000,6.266,4.176,2.065,1.363,1.818,4.675,2.741,2.147,1.833,0.000,3.942,0.000,0.474,0.000,0.000,0.000,0.000,0.000,0.000,0.000,0.000,0.000,0.000,0.000,3.142,6.283,0.000,1.004,1.569,1.569,4.085,6.281,1.199,4.712,0.000,0.000,0.646,-9.918,0.990,5.099,4.700,4.723,5.281,4.711,4.712,2.199,6.282,5.083,1.570,0.000,0.000,1.254,-9.671,0.990,5.099,4.702,4.722,
15.220,23.758,1.172,-10.340,1.957,0.001,6.267,4.176,2.065,1.363,1.819,4.675,2.740,2.147,1.833,0.000,3.942,0.000,0.474,0.000,0.000,0.000,0.000,0.000,0.000,0.000,0.000,0.000,0.000,0.000,3.142,6.283,0.000,1.003,1.569,1.569,4.085,6.281,1.199,4.712,0.000,0.000,0.646,-9.918,0.990,5.099,4.699,4.724,5.281,4.711,4.712,2.198,6.282,5.083,1.570,0.000,0.000,1.254,-9.671,0.990,5.099,4.701,4.722,
15.302,23.840,1.172,-10.340,1.957,0.001,6.266,4.176,2.065,1.363,1.819,4.675,2.740,2.147,1.833,0.000,3.942,0.000,0.474,0.000,0.000,0.000,0.000,0.000,0.000,0.000,0.000,0.000,0.000,0.000,3.142,6.283,0.000,1.003,1.569,1.569,4.085,6.281,1.199,4.712,0.000,0.000,0.646,-9.918,0.990,5.099,4.699,4.724,5.281,4.711,4.712,2.198,6.282,5.083,1.570,0.000,0.000,1.254,-9.671,0.990,5.099,4.701,4.722,
15.420,23.958,1.172,-10.340,1.957,0.001,6.266,4.176,2.065,1.363,1.819,4.675,2.740,2.147,1.833,0.000,3.942,0.000,0.474,0.000,0.000,0.000,0.000,0.000,0.000,0.000,0.000,0.000,0.000,0.000,3.142,6.283,0.000,1.003,1.569,1.569,4.085,6.281,1.199,4.712,0.000,0.000,0.646,-9.918,0.990,5.099,4.699,4.724,5.281,4.711,4.712,2.198,6.282,5.083,1.570,0.000,0.000,1.254,-9.671,0.990,5.099,4.701,4.722,
15.509,24.047,1.172,-10.340,1.957,0.001,6.266,4.176,2.065,1.363,1.819,4.675,2.740,2.147,1.833,0.000,3.942,0.000,0.474,0.000,0.000,0.000,0.000,0.000,0.000,0.000,0.000,0.000,0.000,0.000,3.142,6.283,0.000,1.003,1.569,1.569,4.085,6.281,1.199,4.712,0.000,0.000,0.646,-9.918,0.990,5.099,4.699,4.724,5.281,4.711,4.712,2.198,6.282,5.083,1.570,0.000,0.000,1.254,-9.671,0.990,5.099,4.701,4.722,
15.620,24.158,1.172,-10.340,1.957,0.001,6.266,4.176,2.065,1.363,1.819,4.675,2.740,2.147,1.833,0.000,3.942,0.000,0.474,0.000,0.000,0.000,0.000,0.000,0.000,0.000,0.000,0.000,0.000,0.000,3.142,6.283,0.000,1.003,1.569,1.569,4.085,6.281,1.199,4.712,0.000,0.000,0.646,-9.918,0.990,5.099,4.699,4.724,5.281,4.711,4.712,2.198,6.282,5.083,1.570,0.000,0.000,1.254,-9.671,0.990,5.099,4.701,4.722,
15.720,24.258,1.172,-10.340,1.957,0.001,6.266,4.176,2.065,1.363,1.819,4.675,2.740,2.147,1.833,0.000,3.942,0.000,0.474,0.000,0.000,0.000,0.000,0.000,0.000,0.000,0.000,0.000,0.000,0.000,3.142,6.283,0.000,1.003,1.569,1.569,4.085,6.281,1.199,4.712,0.000,0.000,0.646,-9.918,0.990,5.099,4.699,4.724,5.281,4.711,4.712,2.198,6.282,5.083,1.570,0.000,0.000,1.254,-9.671,0.990,5.099,4.701,4.722,
15.820,24.358,1.172,-10.340,1.957,0.001,6.267,4.176,2.065,1.363,1.819,4.675,2.740,2.147,1.833,0.000,3.942,0.000,0.474,0.000,0.000,0.000,0.000,0.000,0.000,0.000,0.000,0.000,0.000,0.000,3.142,6.283,0.000,1.003,1.569,1.569,4.085,6.281,1.199,4.712,0.000,0.000,0.646,-9.918,0.990,5.099,4.699,4.724,5.281,4.711,4.712,2.198,6.282,5.083,1.570,0.000,0.000,1.254,-9.671,0.990,5.099,4.701,4.722,
15.920,24.458,1.172,-10.340,1.957,0.001,6.266,4.176,2.065,1.363,1.819,4.675,2.740,2.147,1.833,0.000,3.942,0.000,0.474,0.000,0.000,0.000,0.000,0.000,0.000,0.000,0.000,0.000,0.000,0.000,3.142,6.283,0.000,1.003,1.569,1.569,4.085,6.281,1.199,4.712,0.000,0.000,0.646,-9.918,0.990,5.099,4.699,4.724,5.281,4.711,4.712,2.198,6.282,5.083,1.570,0.000,0.000,1.254,-9.671,0.990,5.099,4.701,4.722,
16.020,24.558,1.172,-10.340,1.957,0.001,6.266,4.176,2.065,1.363,1.819,4.675,2.740,2.147,1.833,0.000,3.942,0.000,0.474,0.000,0.000,0.000,0.000,0.000,0.000,0.000,0.000,0.000,0.000,0.000,3.142,6.283,0.000,1.003,1.569,1.569,4.085,6.281,1.199,4.712,0.000,0.000,0.646,-9.918,0.990,5.099,4.699,4.724,5.281,4.711,4.712,2.198,6.282,5.083,1.570,0.000,0.000,1.254,-9.671,0.990,5.099,4.701,4.722,
16.120,24.658,1.172,-10.340,1.957,0.001,6.266,4.176,2.065,1.363,1.819,4.675,2.740,2.147,1.833,0.000,3.942,0.000,0.474,0.000,0.000,0.000,0.000,0.000,0.000,0.000,0.000,0.000,0.000,0.000,3.142,6.283,0.000,1.003,1.569,1.569,4.085,6.281,1.199,4.712,0.000,0.000,0.646,-9.918,0.990,5.099,4.699,4.724,5.281,4.711,4.712,2.198,6.282,5.083,1.570,0.000,0.000,1.254,-9.671,0.990,5.099,4.701,4.722,
16.217,24.755,1.172,-10.340,1.957,0.001,6.266,4.176,2.065,1.363,1.819,4.675,2.740,2.147,1.833,0.000,3.942,0.000,0.474,0.000,0.000,0.000,0.000,0.000,0.000,0.000,0.000,0.000,0.000,0.000,3.142,6.283,0.000,1.003,1.569,1.569,4.085,6.281,1.199,4.712,0.000,0.000,0.646,-9.918,0.990,5.099,4.699,4.724,5.281,4.711,4.712,2.198,6.282,5.083,1.570,0.000,0.000,1.254,-9.671,0.990,5.099,4.701,4.722,
16.320,24.858,1.172,-10.340,1.957,0.001,6.267,4.176,2.065,1.363,1.819,4.675,2.740,2.147,1.833,0.000,3.942,0.000,0.474,0.000,0.000,0.000,0.000,0.000,0.000,0.000,0.000,0.000,0.000,0.000,3.142,6.283,0.000,1.003,1.569,1.569,4.085,6.281,1.199,4.712,0.000,0.000,0.646,-9.918,0.990,5.099,4.699,4.724,5.281,4.711,4.712,2.198,6.282,5.083,1.570,0.000,0.000,1.254,-9.671,0.990,5.099,4.701,4.722,
16.411,24.949,1.171,-10.337,1.938,0.191,5.872,4.139,2.063,1.360,1.786,4.698,2.881,2.175,1.832,1.858,3.957,0.000,0.474,0.000,0.000,0.000,0.000,0.000,0.000,0.000,0.000,0.000,0.000,0.000,3.142,6.278,0.000,1.007,1.567,1.564,4.079,6.282,1.199,4.712,0.000,0.000,0.650,-9.908,0.990,5.085,4.707,4.716,5.282,4.709,4.707,2.196,6.282,5.083,1.570,0.000,0.000,1.262,-9.670,0.990,5.085,4.698,4.725,
16.520,25.058,1.157,-10.300,1.921,0.798,0.104,4.072,2.033,1.344,1.743,4.744,3.055,2.216,1.845,1.850,3.936,0.000,0.509,0.000,0.000,0.000,0.000,0.000,0.000,0.000,0.000,0.000,0.000,0.000,3.142,6.278,6.283,1.008,1.568,1.567,4.077,6.281,1.199,4.712,0.000,0.000,0.646,-9.862,0.990,5.065,4.711,4.713,5.282,4.710,4.709,2.197,6.282,5.083,1.571,0.000,0.000,1.261,-9.634,0.991,5.065,4.700,4.724,
16.611,25.149,1.112,-10.176,1.921,0.958,6.272,3.940,1.933,1.299,1.685,4.871,3.181,2.270,1.890,0.000,3.808,0.000,2.440,0.000,0.000,0.000,0.000,0.000,0.000,0.000,0.000,0.000,0.000,0.000,3.142,0.003,0.001,1.000,1.571,1.572,4.092,6.281,1.200,4.712,0.000,0.000,0.602,-9.733,0.989,5.060,4.687,4.735,5.280,4.713,4.714,2.198,6.282,5.083,1.570,0.000,0.000,1.219,-9.510,0.990,5.060,4.698,4.725,
16.720,25.258,1.094,-10.126,1.922,0.455,6.264,3.887,1.892,1.274,1.662,4.922,3.231,2.291,1.908,0.000,3.756,0.000,2.475,0.000,0.000,0.000,0.000,0.000,0.000,0.000,0.000,0.000,0.000,0.000,3.142,0.002,0.001,1.001,1.570,1.571,4.090,6.281,1.200,4.712,0.000,0.000,0.583,-9.684,0.989,5.061,4.691,4.732,5.281,4.712,4.713,2.198,6.282,5.083,1.570,0.000,0.000,1.199,-9.460,0.990,5.062,4.699,4.725,
16.813,25.351,1.084,-10.099,1.922,0.109,6.265,3.859,1.870,1.282,1.650,4.949,3.254,2.302,1.918,0.000,3.727,0.000,2.475,0.000,0.000,0.000,0.000,0.000,0.000,0.000,0.000,0.000,0.000,0.000,3.142,0.000,0.001,1.003,1.570,1.570,4.087,6.281,1.199,4.712,0.000,0.000,0.573,-9.659,0.990,5.063,4.696,4.727,5.281,4.712,4.712,2.198,6.282,5.083,1.570,0.000,0.000,1.188,-9.433,0.990,5.064,4.699,4.725,
16.920,25.458,1.083,-10.096,1.923,0.005,6.270,3.857,1.867,1.283,1.649,4.951,3.253,2.303,1.919,0.000,3.724,0.000,2.475,0.000,0.000,0.000,0.000,0.000,0.000,0.000,0.000,0.000,0.000,0.000,3.142,6.283,0.001,1.003,1.569,1.569,4.086,6.281,1.199,4.712,0.000,0.000,0.571,-9.656,0.990,5.064,4.697,4.726,5.281,4.711,4.712,2.198,6.282,5.083,1.570,0.000,0.000,1.187,-9.430,0.990,5.065,4.699,4.724,
17.013,25.552,1.083,-10.096,1.923,-0.001,6.232,3.856,1.867,1.284,1.649,4.951,3.256,2.303,1.919,0.000,3.724,0.000,2.475,0.000,0.000,0.000,0.000,0.000,0.000,0.000,0.000,0.000,0.000,0.000,3.142,6.282,0.000,1.004,1.569,1.569,4.085,6.281,1.199,4.712,0.000,0.000,0.571,-9.657,0.990,5.065,4.698,4.724,5.281,4.711,4.711,2.198,6.282,5.083,1.570,0.000,0.000,1.187,-9.430,0.990,5.065,4.699,4.724,
17.120,25.658,1.083,-10.097,1.898,-0.011,5.501,3.821,1.870,1.313,1.616,4.984,4.112,2.343,1.918,0.000,3.751,0.000,2.510,0.000,0.000,0.000,0.000,0.000,0.000,0.000,0.000,0.000,0.000,0.000,3.142,6.281,0.001,1.004,1.568,1.566,4.084,6.281,1.199,4.711,0.000,0.000,0.580,-9.645,0.990,5.044,4.698,4.724,5.281,4.710,4.708,2.197,6.282,5.083,1.570,0.000,0.000,1.201,-9.434,0.990,5.043,4.696,4.727,
17.213,25.751,1.083,-10.098,1.766,0.001,4.730,3.681,0.000,1.509,1.475,3.240,4.895,2.606,1.929,1.750,3.939,0.000,2.650,0.000,0.000,0.000,0.000,0.000,0.000,0.000,0.000,0.000,0.000,0.000,3.142,6.280,0.001,1.004,1.569,1.567,4.085,6.281,1.199,4.712,0.000,0.000,0.645,-9.584,0.990,4.910,4.688,4.735,5.282,4.711,4.710,2.198,6.282,5.083,1.570,0.000,0.000,1.289,-9.456,0.991,4.909,4.693,4.730,
17.320,25.858,1.081,-10.087,1.660,0.413,5.209,3.608,0.000,1.751,1.393,2.605,4.844,2.906,1.966,1.662,3.638,0.000,2.755,0.000,0.000,0.000,0.000,0.000,0.000,0.000,0.000,0.000,0.000,0.000,3.142,6.277,6.283,1.008,1.568,1.567,4.078,6.281,1.199,4.712,0.000,0.000,0.699,-9.532,0.990,4.805,4.700,4.724,5.284,4.710,4.710,2.197,6.282,5.083,1.571,0.000,0.000,1.353,-9.470,0.992,4.804,4.682,4.742,
17.415,25.953,1.073,-9.979,1.600,1.334,5.974,3.483,0.000,2.072,1.350,2.340,4.935,3.138,2.004,1.630,4.173,0.000,2.931,0.000,0.000,0.000,0.000,0.000,0.000,0.000,0.000,0.000,0.000,0.000,3.142,6.278,6.283,1.008,1.568,1.566,4.079,6.282,1.199,4.712,0.000,0.000,0.725,-9.402,0.990,4.746,4.656,4.767,5.282,4.710,4.709,2.197,6.282,5.083,1.570,0.000,0.000,1.381,-9.380,0.991,4.746,4.580,4.844,
17.520,26.058,1.071,-9.880,1.567,0.964,5.908,3.381,0.000,1.794,1.331,2.221,0.000,3.284,2.027,1.614,4.148,0.000,3.142,0.000,0.000,0.000,0.000,0.000,0.000,0.000,0.000,0.000,0.000,0.000,3.142,0.002,0.001,1.000,1.571,1.571,4.093,6.280,1.200,4.712,0.000,0.000,0.746,-9.287,0.989,4.724,2.510,0.631,5.280,4.712,4.714,2.198,6.282,5.083,1.570,0.000,0.000,1.402,-9.292,0.990,4.721,2.263,0.878,
17.607,26.145,1.068,-9.843,1.542,-0.218,5.935,3.343,0.000,1.763,1.316,2.139,0.000,3.407,2.047,1.604,4.177,0.000,3.142,0.000,0.000,0.000,0.000,0.000,0.000,0.000,0.000,0.000,0.000,0.000,3.142,0.002,0.001,1.000,1.569,1.570,4.092,6.280,1.200,4.711,0.000,0.000,0.757,-9.242,0.989,4.743,1.859,1.281,5.280,4.711,4.712,2.198,6.281,5.083,1.570,0.000,0.000,1.412,-9.264,0.990,4.742,1.743,1.398,
17.720,26.258,1.067,-9.871,1.487,-0.414,5.093,2.936,3.640,1.759,1.285,1.990,0.000,3.296,2.090,1.581,4.400,0.000,3.142,0.000,0.000,0.000,0.000,0.000,0.000,0.000,0.000,0.000,0.000,0.000,3.142,6.281,0.001,1.003,1.569,1.567,4.085,6.282,1.199,4.712,0.000,0.000,0.787,-9.257,0.990,4.793,1.627,1.514,5.281,4.711,4.710,2.198,6.282,5.083,1.570,0.000,0.000,1.441,-9.311,0.990,4.794,1.629,1.512,
17.803,26.341,1.057,-9.952,1.344,-1.044,5.088,3.528,3.785,1.770,1.335,1.692,0.000,3.061,2.257,1.953,0.000,0.000,3.142,0.000,0.000,0.000,0.000,0.000,0.000,0.000,0.000,0.000,0.000,0.000,3.142,0.002,0.001,1.000,1.572,1.573,4.092,6.280,1.199,4.712,0.000,0.000,0.873,-9.302,0.989,4.945,1.606,1.536,5.281,4.714,4.715,2.199,6.281,5.083,1.571,0.000,0.000,1.511,-9.452,0.991,4.944,1.587,1.554,
17.920,26.458,1.034,-10.045,1.274,-1.317,5.668,3.688,3.777,1.801,1.306,1.563,0.000,4.171,2.390,1.967,0.000,0.000,3.142,0.000,0.000,0.000,0.000,0.000,0.000,0.000,0.000,0.000,0.000,0.000,3.142,0.000,0.000,1.001,1.572,1.574,4.088,6.281,1.199,4.713,0.000,0.000,0.895,-9.385,0.990,5.015,1.590,1.552,5.281,4.714,4.716,2.199,6.282,5.083,1.571,0.000,0.000,1.522,-9.579,0.991,5.015,1.583,1.559,
18.020,26.558,0.991,-10.179,1.263,-0.992,6.280,3.840,3.904,1.833,1.177,1.496,4.954,4.438,2.459,2.009,0.000,0.000,1.176,0.000,0.000,0.000,0.000,0.000,0.000,0.000,0.000,0.000,0.000,0.000,3.142,6.282,6.283,1.004,1.569,1.568,4.083,6.281,1.199,4.712,0.000,0.000,0.856,-9.519,0.990,5.019,1.583,1.558,5.280,4.711,4.711,2.199,6.282,5.083,1.570,0.000,0.000,1.482,-9.717,0.991,5.019,1.583,1.559,
18.113,26.652,0.972,-10.240,1.263,-0.389,6.277,3.903,3.969,1.846,1.158,1.471,4.890,4.497,2.483,2.028,0.000,0.000,1.141,0.000,0.000,0.000,0.000,0.000,0.000,0.000,0.000,0.000,0.000,0.000,3.142,6.281,6.283,1.005,1.569,1.568,4.082,6.281,1.199,4.712,0.000,0.000,0.836,-9.580,0.990,5.019,1.581,1.560,5.281,4.711,4.710,2.199,6.282,5.083,1.570,0.000,0.000,1.462,-9.777,0.991,5.019,1.584,1.558,
18.220,26.758,0.966,-10.258,1.263,-0.155,6.277,3.923,3.989,1.851,1.152,1.464,4.871,4.514,2.490,2.034,0.000,0.000,1.106,0.000,0.000,0.000,0.000,0.000,0.000,0.000,0.000,0.000,0.000,0.000,3.142,6.282,0.000,1.004,1.569,1.569,4.084,6.281,1.199,4.712,0.000,0.000,0.831,-9.598,0.990,5.020,1.584,1.557,5.281,4.711,4.711,2.199,6.282,5.083,1.570,0.000,0.000,1.457,-9.796,0.990,5.020,1.584,1.558,
18.320,26.858,0.965,-10.264,1.263,-0.001,6.267,3.928,3.995,1.852,1.150,1.462,4.864,4.517,2.492,2.036,0.000,0.000,1.106,0.000,0.000,0.000,0.000,0.000,0.000,0.000,0.000,0.000,0.000,0.000,3.142,6.283,0.000,1.004,1.569,1.569,4.085,6.281,1.199,4.712,0.000,0.000,0.830,-9.603,0.990,5.020,1.587,1.555,5.281,4.711,4.712,2.199,6.282,5.083,1.570,0.000,0.000,1.455,-9.802,0.990,5.020,1.584,1.557,
18.404,26.942,0.954,-10.296,1.262,-0.751,6.167,3.962,4.027,1.858,1.139,1.447,4.833,4.564,2.507,2.047,0.000,0.000,1.387,0.000,0.000,0.000,0.000,0.000,0.000,0.000,0.000,0.000,0.000,0.000,3.142,0.005,0.001,0.998,1.573,1.574,4.095,6.281,1.200,4.712,0.000,0.000,0.824,-9.632,0.989,5.026,1.604,1.538,5.280,4.714,4.716,2.199,6.282,5.083,1.570,0.000,0.000,1.447,-9.835,0.990,5.026,1.585,1.557,
18.520,27.058,0.928,-10.376,1.256,-1.347,0.001,4.055,4.103,1.878,1.113,1.407,4.758,4.760,2.550,2.072,0.000,0.000,1.071,0.000,0.000,0.000,0.000,0.000,0.000,0.000,0.000,0.000,0.000,0.000,3.142,0.003,0.001,1.000,1.571,1.573,4.092,6.280,1.200,4.712,0.000,0.000,0.802,-9.713,0.989,5.032,1.597,1.545,5.280,4.713,4.715,2.199,6.281,5.083,1.570,0.000,0.000,1.424,-9.919,0.990,5.032,1.585,1.557,
18.620,27.158,0.878,-10.530,1.256,-1.171,6.276,4.215,4.492,2.294,1.063,1.344,4.597,4.599,2.611,2.122,2.151,0.000,1.000,0.000,0.000,0.000,0.000,0.000,0.000,0.000,0.000,0.000,0.000,0.000,3.142,6.281,6.283,1.005,1.569,1.568,4.082,6.281,1.199,4.712,0.000,0.000,0.747,-9.868,0.990,5.025,1.581,1.560,5.281,4.711,4.710,2.199,6.282,5.083,1.570,0.000,0.000,1.371,-10.071,0.991,5.026,1.584,1.558,
18.716,27.254,0.849,-10.618,1.256,-0.800,6.276,4.307,3.897,2.380,1.034,1.308,4.503,4.506,2.646,2.151,2.188,0.000,0.965,0.000,0.000,0.000,0.000,0.000,0.000,0.000,0.000,0.000,0.000,0.000,3.142,6.282,0.000,1.004,1.569,1.569,4.084,6.281,1.199,4.712,0.000,0.000,0.719,-9.957,0.990,5.027,1.584,1.557,5.281,4.711,4.711,2.199,6.282,5.083,1.570,0.000,0.000,1.343,-10.160,0.990,5.027,1.584,1.558,
18.820,27.358,0.829,-10.679,1.256,-0.883,6.275,4.371,3.961,2.060,1.014,1.283,4.439,4.442,2.670,2.171,2.213,0.000,0.930,0.000,0.000,0.000,0.000,0.000,0.000,0.000,0.000,0.000,0.000,0.000,3.142,0.001,0.000,1.002,1.570,1.571,4.088,6.281,1.200,4.712,0.000,0.000,0.700,-10.017,0.990,5.029,1.591,1.551,5.280,4.712,4.713,2.199,6.282,5.083,1.570,0.000,0.000,1.324,-10.221,0.990,5.028,1.584,1.558,
18.919,27.457,0.792,-10.794,1.257,-1.123,6.275,4.490,4.232,1.458,0.977,1.236,4.317,4.322,2.715,2.208,2.260,0.000,0.895,0.000,0.000,0.000,0.000,0.000,0.000,0.000,0.000,0.000,0.000,0.000,3.142,0.001,0.000,1.003,1.570,1.570,4.087,6.281,1.200,4.712,0.000,0.000,0.662,-10.132,0.990,5.028,1.589,1.552,5.280,4.712,4.712,2.199,6.282,5.083,1.570,0.000,0.000,1.286,-10.336,0.990,5.028,1.584,1.558,
19.020,27.558,0.767,-10.872,1.257,-0.783,6.279,4.571,4.314,1.159,0.952,1.205,4.235,4.241,2.746,2.233,2.292,0.000,0.860,0.000,0.000,0.000,0.000,0.000,0.000,0.000,0.000,0.000,0.000,0.000,3.142,6.280,6.283,1.006,1.568,1.567,4.079,6.281,1.199,4.712,0.000,0.000,0.634,-10.211,0.990,5.023,1.576,1.565,5.281,4.710,4.709,2.198,6.282,5.083,1.570,0.000,0.000,1.259,-10.412,0.991,5.024,1.583,1.558,
19.120,27.658,0.750,-10.923,1.257,-0.235,6.277,4.625,4.369,1.135,0.935,1.184,4.181,4.187,2.766,2.250,2.313,0.000,0.825,0.000,0.000,0.000,0.000,0.000,0.000,0.000,0.000,0.000,0.000,0.000,3.142,6.282,0.000,1.005,1.569,1.569,4.083,6.281,1.199,4.712,0.000,0.000,0.619,-10.262,0.990,5.025,1.583,1.559,5.281,4.711,4.711,2.199,6.282,5.083,1.570,0.000,0.000,1.243,-10.464,0.990,5.025,1.584,1.558,
19.220,27.758,0.747,-10.934,1.257,-0.047,6.271,4.636,4.380,1.131,0.932,1.179,4.169,4.175,2.770,2.253,2.318,0.000,0.825,0.000,0.000,0.000,0.000,0.000,0.000,0.000,0.000,0.000,0.000,0.000,3.142,6.283,0.000,1.004,1.569,1.569,4.085,6.281,1.199,4.712,0.000,0.000,0.616,-10.272,0.990,5.026,1.585,1.556,5.281,4.711,4.711,2.199,6.282,5.083,1.570,0.000,0.000,1.240,-10.475,0.990,5.026,1.584,1.558,
19.320,27.858,0.747,-10.935,1.257,0.001,6.272,4.636,4.381,1.131,0.932,1.179,4.169,4.175,2.770,2.254,2.318,0.000,0.825,0.000,0.000,0.000,0.000,0.000,0.000,0.000,0.000,0.000,0.000,0.000,3.142,6.283,0.000,1.003,1.569,1.569,4.085,6.281,1.199,4.712,0.000,0.000,0.616,-10.273,0.990,5.026,1.587,1.554,5.281,4.711,4.712,2.198,6.282,5.083,1.570,0.000,0.000,1.240,-10.475,0.990,5.026,1.585,1.557,
19.420,27.958,0.747,-10.935,1.257,0.001,6.272,4.636,4.381,1.131,0.932,1.179,4.169,4.175,2.770,2.254,2.318,0.000,0.825,0.000,0.000,0.000,0.000,0.000,0.000,0.000,0.000,0.000,0.000,0.000,3.142,6.283,0.000,1.003,1.569,1.569,4.085,6.281,1.199,4.712,0.000,0.000,0.616,-10.273,0.990,5.026,1.587,1.554,5.281,4.711,4.712,2.198,6.282,5.083,1.570,0.000,0.000,1.240,-10.475,0.990,5.026,1.585,1.557,
19.502,28.040,0.747,-10.935,1.257,0.001,6.272,4.636,4.381,1.131,0.932,1.179,4.169,4.175,2.770,2.254,2.318,0.000,0.825,0.000,0.000,0.000,0.000,0.000,0.000,0.000,0.000,0.000,0.000,0.000,3.142,6.283,0.000,1.003,1.569,1.569,4.085,6.281,1.199,4.712,0.000,0.000,0.616,-10.273,0.990,5.026,1.587,1.554,5.281,4.711,4.712,2.198,6.282,5.083,1.570,0.000,0.000,1.240,-10.475,0.990,5.026,1.585,1.557,
19.620,28.158,0.747,-10.935,1.257,0.001,6.272,4.636,4.381,1.131,0.932,1.179,4.169,4.175,2.770,2.254,2.318,0.000,0.825,0.000,0.000,0.000,0.000,0.000,0.000,0.000,0.000,0.000,0.000,0.000,3.142,6.283,0.000,1.003,1.569,1.569,4.085,6.281,1.199,4.712,0.000,0.000,0.616,-10.273,0.990,5.026,1.587,1.554,5.281,4.711,4.712,2.198,6.282,5.083,1.570,0.000,0.000,1.240,-10.475,0.990,5.026,1.585,1.557,
19.720,28.258,0.747,-10.935,1.257,0.001,6.272,4.636,4.381,1.131,0.932,1.179,4.169,4.175,2.770,2.254,2.318,0.000,0.825,0.000,0.000,0.000,0.000,0.000,0.000,0.000,0.000,0.000,0.000,0.000,3.142,6.283,0.000,1.003,1.569,1.569,4.085,6.281,1.199,4.712,0.000,0.000,0.616,-10.273,0.990,5.026,1.587,1.554,5.281,4.711,4.712,2.198,6.282,5.083,1.570,0.000,0.000,1.240,-10.475,0.990,5.026,1.585,1.557,
19.820,28.358,0.747,-10.935,1.257,0.001,6.272,4.636,4.381,1.131,0.932,1.179,4.169,4.175,2.770,2.254,2.318,0.000,0.825,0.000,0.000,0.000,0.000,0.000,0.000,0.000,0.000,0.000,0.000,0.000,3.142,6.283,0.000,1.003,1.569,1.569,4.085,6.281,1.199,4.712,0.000,0.000,0.616,-10.273,0.990,5.026,1.587,1.554,5.281,4.711,4.712,2.198,6.282,5.083,1.570,0.000,0.000,1.240,-10.475,0.990,5.026,1.585,1.557,
19.912,28.450,0.747,-10.935,1.257,0.001,6.272,4.636,4.381,1.131,0.932,1.179,4.169,4.175,2.770,2.254,2.318,0.000,0.825,0.000,0.000,0.000,0.000,0.000,0.000,0.000,0.000,0.000,0.000,0.000,3.142,6.283,0.000,1.003,1.569,1.569,4.085,6.281,1.199,4.712,0.000,0.000,0.616,-10.273,0.990,5.026,1.587,1.554,5.281,4.711,4.712,2.198,6.282,5.083,1.570,0.000,0.000,1.240,-10.475,0.990,5.026,1.585,1.557,
20.020,28.558,0.747,-10.935,1.257,0.001,6.272,4.636,4.381,1.131,0.932,1.179,4.169,4.175,2.770,2.254,2.318,0.000,0.825,0.000,0.000,0.000,0.000,0.000,0.000,0.000,0.000,0.000,0.000,0.000,3.142,6.283,0.000,1.003,1.569,1.569,4.085,6.281,1.199,4.712,0.000,0.000,0.616,-10.273,0.990,5.026,1.587,1.554,5.281,4.711,4.712,2.198,6.282,5.083,1.570,0.000,0.000,1.240,-10.475,0.990,5.026,1.585,1.557,
20.116,28.654,0.747,-10.935,1.257,0.001,6.272,4.636,4.381,1.131,0.932,1.179,4.169,4.175,2.770,2.254,2.318,0.000,0.825,0.000,0.000,0.000,0.000,0.000,0.000,0.000,0.000,0.000,0.000,0.000,3.142,6.283,0.000,1.003,1.569,1.569,4.085,6.281,1.199,4.712,0.000,0.000,0.616,-10.273,0.990,5.026,1.587,1.554,5.281,4.711,4.712,2.198,6.282,5.083,1.570,0.000,0.000,1.240,-10.475,0.990,5.026,1.585,1.557,
20.220,28.758,0.747,-10.935,1.257,0.001,6.272,4.636,4.381,1.131,0.932,1.179,4.169,4.175,2.770,2.254,2.318,0.000,0.825,0.000,0.000,0.000,0.000,0.000,0.000,0.000,0.000,0.000,0.000,0.000,3.142,6.283,0.000,1.003,1.569,1.569,4.085,6.281,1.199,4.712,0.000,0.000,0.616,-10.273,0.990,5.026,1.587,1.554,5.281,4.711,4.712,2.198,6.282,5.083,1.570,0.000,0.000,1.240,-10.475,0.990,5.026,1.585,1.557,
20.318,28.856,0.747,-10.935,1.257,0.001,6.272,4.636,4.381,1.131,0.932,1.179,4.169,4.175,2.770,2.254,2.318,0.000,0.825,0.000,0.000,0.000,0.000,0.000,0.000,0.000,0.000,0.000,0.000,0.000,3.142,6.283,0.000,1.003,1.569,1.569,4.085,6.281,1.199,4.712,0.000,0.000,0.616,-10.273,0.990,5.026,1.587,1.554,5.281,4.711,4.712,2.198,6.282,5.083,1.570,0.000,0.000,1.240,-10.475,0.990,5.026,1.585,1.557,
20.420,28.958,0.747,-10.935,1.257,0.001,6.272,4.636,4.381,1.131,0.932,1.179,4.169,4.175,2.770,2.254,2.318,0.000,0.825,0.000,0.000,0.000,0.000,0.000,0.000,0.000,0.000,0.000,0.000,0.000,3.142,6.283,0.000,1.003,1.569,1.569,4.085,6.281,1.199,4.712,0.000,0.000,0.616,-10.273,0.990,5.026,1.587,1.554,5.281,4.711,4.712,2.198,6.282,5.083,1.570,0.000,0.000,1.240,-10.475,0.990,5.026,1.585,1.557,
20.520,29.058,0.747,-10.935,1.257,0.001,6.272,4.636,4.381,1.131,0.932,1.179,4.169,4.175,2.770,2.254,2.318,0.000,0.825,0.000,0.000,0.000,0.000,0.000,0.000,0.000,0.000,0.000,0.000,0.000,3.142,6.283,0.000,1.003,1.569,1.569,4.085,6.281,1.199,4.712,0.000,0.000,0.616,-10.273,0.990,5.026,1.587,1.554,5.281,4.711,4.712,2.198,6.282,5.083,1.570,0.000,0.000,1.240,-10.475,0.990,5.026,1.585,1.557,
20.620,29.158,0.747,-10.935,1.257,0.001,6.272,4.636,4.381,1.131,0.932,1.179,4.169,4.175,2.770,2.254,2.318,0.000,0.825,0.000,0.000,0.000,0.000,0.000,0.000,0.000,0.000,0.000,0.000,0.000,3.142,6.283,0.000,1.003,1.569,1.569,4.085,6.281,1.199,4.712,0.000,0.000,0.616,-10.273,0.990,5.026,1.587,1.554,5.281,4.711,4.712,2.198,6.282,5.083,1.570,0.000,0.000,1.240,-10.475,0.990,5.026,1.585,1.557,
20.720,29.258,0.747,-10.935,1.257,0.001,6.272,4.636,4.381,1.131,0.932,1.179,4.169,4.175,2.770,2.254,2.318,0.000,0.825,0.000,0.000,0.000,0.000,0.000,0.000,0.000,0.000,0.000,0.000,0.000,3.142,6.283,0.000,1.003,1.569,1.569,4.085,6.281,1.199,4.712,0.000,0.000,0.616,-10.273,0.990,5.026,1.587,1.554,5.281,4.711,4.712,2.198,6.282,5.083,1.570,0.000,0.000,1.240,-10.475,0.990,5.026,1.585,1.557,
20.820,29.358,0.747,-10.935,1.257,0.001,6.272,4.636,4.381,1.131,0.932,1.179,4.169,4.175,2.770,2.254,2.318,0.000,0.825,0.000,0.000,0.000,0.000,0.000,0.000,0.000,0.000,0.000,0.000,0.000,3.142,6.283,0.000,1.003,1.569,1.569,4.085,6.281,1.199,4.712,0.000,0.000,0.616,-10.273,0.990,5.026,1.587,1.554,5.281,4.711,4.712,2.198,6.282,5.083,1.570,0.000,0.000,1.240,-10.475,0.990,5.026,1.585,1.557,
20.920,29.458,0.747,-10.935,1.257,0.001,6.272,4.636,4.381,1.131,0.932,1.179,4.169,4.175,2.770,2.254,2.318,0.000,0.825,0.000,0.000,0.000,0.000,0.000,0.000,0.000,0.000,0.000,0.000,0.000,3.142,6.283,0.000,1.003,1.569,1.569,4.085,6.281,1.199,4.712,0.000,0.000,0.616,-10.273,0.990,5.026,1.587,1.554,5.281,4.711,4.712,2.198,6.282,5.083,1.570,0.000,0.000,1.240,-10.475,0.990,5.026,1.585,1.557,
21.020,29.558,0.747,-10.935,1.257,0.001,6.272,4.636,4.381,1.131,0.932,1.179,4.169,4.175,2.770,2.254,2.318,0.000,0.825,0.000,0.000,0.000,0.000,0.000,0.000,0.000,0.000,0.000,0.000,0.000,3.142,6.283,0.000,1.003,1.569,1.569,4.085,6.281,1.199,4.712,0.000,0.000,0.616,-10.273,0.990,5.026,1.587,1.554,5.281,4.711,4.712,2.198,6.282,5.083,1.570,0.000,0.000,1.240,-10.475,0.990,5.026,1.585,1.557,
21.120,29.658,0.747,-10.935,1.257,0.001,6.272,4.636,4.381,1.131,0.932,1.179,4.169,4.175,2.770,2.254,2.318,0.000,0.825,0.000,0.000,0.000,0.000,0.000,0.000,0.000,0.000,0.000,0.000,0.000,3.142,6.283,0.000,1.003,1.569,1.569,4.085,6.281,1.199,4.712,0.000,0.000,0.616,-10.273,0.990,5.026,1.587,1.554,5.281,4.711,4.712,2.198,6.282,5.083,1.570,0.000,0.000,1.240,-10.475,0.990,5.026,1.585,1.557,
21.220,29.758,0.747,-10.935,1.257,0.001,6.272,4.636,4.381,1.131,0.932,1.179,4.169,4.175,2.770,2.254,2.318,0.000,0.825,0.000,0.000,0.000,0.000,0.000,0.000,0.000,0.000,0.000,0.000,0.000,3.142,6.283,0.000,1.003,1.569,1.569,4.085,6.281,1.199,4.712,0.000,0.000,0.616,-10.273,0.990,5.026,1.587,1.554,5.281,4.711,4.712,2.198,6.282,5.083,1.570,0.000,0.000,1.240,-10.475,0.990,5.026,1.585,1.557,
21.320,29.858,0.747,-10.935,1.257,0.001,6.272,4.636,4.381,1.131,0.932,1.179,4.169,4.175,2.770,2.254,2.318,0.000,0.825,0.000,0.000,0.000,0.000,0.000,0.000,0.000,0.000,0.000,0.000,0.000,3.142,6.283,0.000,1.003,1.569,1.569,4.085,6.281,1.199,4.712,0.000,0.000,0.616,-10.273,0.990,5.026,1.587,1.554,5.281,4.711,4.712,2.198,6.282,5.083,1.570,0.000,0.000,1.240,-10.475,0.990,5.026,1.585,1.557,
21.404,29.942,0.747,-10.935,1.257,0.001,6.272,4.636,4.381,1.131,0.932,1.179,4.169,4.175,2.770,2.254,2.318,0.000,0.825,0.000,0.000,0.000,0.000,0.000,0.000,0.000,0.000,0.000,0.000,0.000,3.142,6.283,0.000,1.003,1.569,1.569,4.085,6.281,1.199,4.712,0.000,0.000,0.616,-10.273,0.990,5.026,1.587,1.554,5.281,4.711,4.712,2.198,6.282,5.083,1.570,0.000,0.000,1.240,-10.475,0.990,5.026,1.585,1.557,
21.520,30.058,0.747,-10.935,1.257,0.001,6.272,4.636,4.381,1.131,0.932,1.179,4.169,4.175,2.770,2.254,2.318,0.000,0.825,0.000,0.000,0.000,0.000,0.000,0.000,0.000,0.000,0.000,0.000,0.000,3.142,6.283,0.000,1.003,1.569,1.569,4.085,6.281,1.199,4.712,0.000,0.000,0.616,-10.273,0.990,5.026,1.587,1.554,5.281,4.711,4.712,2.198,6.282,5.083,1.570,0.000,0.000,1.240,-10.475,0.990,5.026,1.585,1.557,
21.617,30.155,0.747,-10.935,1.257,0.001,6.272,4.636,4.381,1.131,0.932,1.179,4.169,4.175,2.770,2.254,2.318,0.000,0.825,0.000,0.000,0.000,0.000,0.000,0.000,0.000,0.000,0.000,0.000,0.000,3.142,6.283,0.000,1.003,1.569,1.569,4.085,6.281,1.199,4.712,0.000,0.000,0.616,-10.273,0.990,5.026,1.587,1.554,5.281,4.711,4.712,2.198,6.282,5.083,1.570,0.000,0.000,1.240,-10.475,0.990,5.026,1.585,1.557,
21.720,30.258,0.747,-10.935,1.257,0.001,6.272,4.636,4.381,1.131,0.932,1.179,4.169,4.175,2.770,2.254,2.318,0.000,0.825,0.000,0.000,0.000,0.000,0.000,0.000,0.000,0.000,0.000,0.000,0.000,3.142,6.283,0.000,1.003,1.569,1.569,4.085,6.281,1.199,4.712,0.000,0.000,0.616,-10.273,0.990,5.026,1.587,1.554,5.281,4.711,4.712,2.198,6.282,5.083,1.570,0.000,0.000,1.240,-10.475,0.990,5.026,1.585,1.557,
21.812,30.350,0.747,-10.935,1.257,0.001,6.272,4.636,4.381,1.131,0.932,1.179,4.169,4.175,2.770,2.254,2.318,0.000,0.825,0.000,0.000,0.000,0.000,0.000,0.000,0.000,0.000,0.000,0.000,0.000,3.142,6.283,0.000,1.003,1.569,1.569,4.085,6.281,1.199,4.712,0.000,0.000,0.616,-10.273,0.990,5.026,1.587,1.554,5.281,4.711,4.712,2.198,6.282,5.083,1.570,0.000,0.000,1.240,-10.475,0.990,5.026,1.585,1.557,
21.920,30.458,0.747,-10.935,1.257,0.001,6.272,4.636,4.381,1.131,0.932,1.179,4.169,4.175,2.770,2.254,2.318,0.000,0.825,0.000,0.000,0.000,0.000,0.000,0.000,0.000,0.000,0.000,0.000,0.000,3.142,6.283,0.000,1.003,1.569,1.569,4.085,6.281,1.199,4.712,0.000,0.000,0.616,-10.273,0.990,5.026,1.587,1.554,5.281,4.711,4.712,2.198,6.282,5.083,1.570,0.000,0.000,1.240,-10.475,0.990,5.026,1.585,1.557,
22.020,30.558,0.747,-10.935,1.257,0.001,6.272,4.636,4.381,1.131,0.932,1.179,4.169,4.175,2.770,2.254,2.318,0.000,0.825,0.000,0.000,0.000,0.000,0.000,0.000,0.000,0.000,0.000,0.000,0.000,3.142,6.283,0.000,1.003,1.569,1.569,4.085,6.281,1.199,4.712,0.000,0.000,0.616,-10.273,0.990,5.026,1.587,1.554,5.281,4.711,4.712,2.198,6.282,5.083,1.570,0.000,0.000,1.240,-10.475,0.990,5.026,1.585,1.557,
22.120,30.658,0.747,-10.935,1.257,0.001,6.272,4.636,4.381,1.131,0.932,1.179,4.169,4.175,2.770,2.254,2.318,0.000,0.825,0.000,0.000,0.000,0.000,0.000,0.000,0.000,0.000,0.000,0.000,0.000,3.142,6.283,0.000,1.003,1.569,1.569,4.085,6.281,1.199,4.712,0.000,0.000,0.616,-10.273,0.990,5.026,1.587,1.554,5.281,4.711,4.712,2.198,6.282,5.083,1.570,0.000,0.000,1.240,-10.475,0.990,5.026,1.585,1.557,
22.212,30.750,0.747,-10.935,1.257,0.001,6.272,4.636,4.381,1.131,0.932,1.179,4.169,4.175,2.770,2.254,2.318,0.000,0.825,0.000,0.000,0.000,0.000,0.000,0.000,0.000,0.000,0.000,0.000,0.000,3.142,6.283,0.000,1.003,1.569,1.569,4.085,6.281,1.199,4.712,0.000,0.000,0.616,-10.273,0.990,5.026,1.587,1.554,5.281,4.711,4.712,2.198,6.282,5.083,1.570,0.000,0.000,1.240,-10.475,0.990,5.026,1.585,1.557,
22.320,30.858,0.747,-10.935,1.257,0.001,6.272,4.636,4.381,1.131,0.932,1.179,4.169,4.175,2.770,2.254,2.318,0.000,0.825,0.000,0.000,0.000,0.000,0.000,0.000,0.000,0.000,0.000,0.000,0.000,3.142,6.283,0.000,1.003,1.569,1.569,4.085,6.281,1.199,4.712,0.000,0.000,0.616,-10.273,0.990,5.026,1.587,1.554,5.281,4.711,4.712,2.198,6.282,5.083,1.570,0.000,0.000,1.240,-10.475,0.990,5.026,1.585,1.557,
22.415,30.953,0.747,-10.935,1.257,0.001,6.272,4.636,4.381,1.131,0.932,1.179,4.169,4.175,2.770,2.254,2.318,0.000,0.825,0.000,0.000,0.000,0.000,0.000,0.000,0.000,0.000,0.000,0.000,0.000,3.142,6.283,0.000,1.003,1.569,1.569,4.085,6.281,1.199,4.712,0.000,0.000,0.616,-10.273,0.990,5.026,1.587,1.554,5.281,4.711,4.712,2.198,6.282,5.083,1.570,0.000,0.000,1.240,-10.475,0.990,5.026,1.585,1.557,
22.520,31.058,0.747,-10.935,1.257,0.001,6.272,4.636,4.381,1.131,0.932,1.179,4.169,4.175,2.770,2.254,2.318,0.000,0.825,0.000,0.000,0.000,0.000,0.000,0.000,0.000,0.000,0.000,0.000,0.000,3.142,6.283,0.000,1.003,1.569,1.569,4.085,6.281,1.199,4.712,0.000,0.000,0.616,-10.273,0.990,5.026,1.587,1.554,5.281,4.711,4.712,2.198,6.282,5.083,1.570,0.000,0.000,1.240,-10.475,0.990,5.026,1.585,1.557,
22.620,31.158,0.747,-10.935,1.257,0.001,6.272,4.636,4.381,1.131,0.932,1.179,4.169,4.175,2.770,2.254,2.318,0.000,0.825,0.000,0.000,0.000,0.000,0.000,0.000,0.000,0.000,0.000,0.000,0.000,3.142,6.283,0.000,1.003,1.569,1.569,4.085,6.281,1.199,4.712,0.000,0.000,0.616,-10.273,0.990,5.026,1.587,1.554,5.281,4.711,4.712,2.198,6.282,5.083,1.570,0.000,0.000,1.240,-10.475,0.990,5.026,1.585,1.557,
22.706,31.244,0.747,-10.935,1.257,0.001,6.272,4.636,4.381,1.131,0.932,1.179,4.169,4.175,2.770,2.254,2.318,0.000,0.825,0.000,0.000,0.000,0.000,0.000,0.000,0.000,0.000,0.000,0.000,0.000,3.142,6.283,0.000,1.003,1.569,1.569,4.085,6.281,1.199,4.712,0.000,0.000,0.616,-10.273,0.990,5.026,1.587,1.554,5.281,4.711,4.712,2.198,6.282,5.083,1.570,0.000,0.000,1.240,-10.475,0.990,5.026,1.585,1.557,
22.820,31.358,0.747,-10.935,1.257,0.001,6.272,4.636,4.381,1.131,0.932,1.179,4.169,4.175,2.770,2.254,2.318,0.000,0.825,0.000,0.000,0.000,0.000,0.000,0.000,0.000,0.000,0.000,0.000,0.000,3.142,6.283,0.000,1.003,1.569,1.569,4.085,6.281,1.199,4.712,0.000,0.000,0.616,-10.273,0.990,5.026,1.587,1.554,5.281,4.711,4.712,2.198,6.282,5.083,1.570,0.000,0.000,1.240,-10.475,0.990,5.026,1.585,1.557,
22.913,31.451,0.747,-10.935,1.257,0.001,6.272,4.636,4.381,1.131,0.932,1.179,4.169,4.175,2.770,2.254,2.318,0.000,0.825,0.000,0.000,0.000,0.000,0.000,0.000,0.000,0.000,0.000,0.000,0.000,3.142,6.283,0.000,1.003,1.569,1.569,4.085,6.281,1.199,4.712,0.000,0.000,0.616,-10.273,0.990,5.026,1.587,1.554,5.281,4.711,4.712,2.198,6.282,5.083,1.570,0.000,0.000,1.240,-10.475,0.990,5.026,1.585,1.557,
23.020,31.558,0.747,-10.935,1.257,0.001,6.272,4.636,4.381,1.131,0.932,1.179,4.169,4.175,2.770,2.254,2.318,0.000,0.825,0.000,0.000,0.000,0.000,0.000,0.000,0.000,0.000,0.000,0.000,0.000,3.142,6.283,0.000,1.003,1.569,1.569,4.085,6.281,1.199,4.712,0.000,0.000,0.616,-10.273,0.990,5.026,1.587,1.554,5.281,4.711,4.712,2.198,6.282,5.083,1.570,0.000,0.000,1.240,-10.475,0.990,5.026,1.585,1.557,
23.118,31.656,0.747,-10.935,1.257,0.001,6.272,4.636,4.381,1.131,0.932,1.179,4.169,4.175,2.770,2.254,2.318,0.000,0.825,0.000,0.000,0.000,0.000,0.000,0.000,0.000,0.000,0.000,0.000,0.000,3.142,6.283,0.000,1.003,1.569,1.569,4.085,6.281,1.199,4.712,0.000,0.000,0.616,-10.273,0.990,5.026,1.587,1.554,5.281,4.711,4.712,2.198,6.282,5.083,1.570,0.000,0.000,1.240,-10.475,0.990,5.026,1.585,1.557,
23.220,31.758,0.747,-10.935,1.257,0.001,6.272,4.636,4.381,1.131,0.932,1.179,4.169,4.175,2.770,2.254,2.318,0.000,0.825,0.000,0.000,0.000,0.000,0.000,0.000,0.000,0.000,0.000,0.000,0.000,3.142,6.283,0.000,1.003,1.569,1.569,4.085,6.281,1.199,4.712,0.000,0.000,0.616,-10.273,0.990,5.026,1.587,1.554,5.281,4.711,4.712,2.198,6.282,5.083,1.570,0.000,0.000,1.240,-10.475,0.990,5.026,1.585,1.557,
23.316,31.854,0.747,-10.935,1.257,0.001,6.272,4.636,4.381,1.131,0.932,1.179,4.169,4.175,2.770,2.254,2.318,0.000,0.825,0.000,0.000,0.000,0.000,0.000,0.000,0.000,0.000,0.000,0.000,0.000,3.142,6.283,0.000,1.003,1.569,1.569,4.085,6.281,1.199,4.712,0.000,0.000,0.616,-10.273,0.990,5.026,1.587,1.554,5.281,4.711,4.712,2.198,6.282,5.083,1.570,0.000,0.000,1.240,-10.475,0.990,5.026,1.585,1.557,
23.420,31.958,0.747,-10.935,1.257,0.001,6.272,4.636,4.381,1.131,0.932,1.179,4.169,4.175,2.770,2.254,2.318,0.000,0.825,0.000,0.000,0.000,0.000,0.000,0.000,0.000,0.000,0.000,0.000,0.000,3.142,6.283,0.000,1.003,1.569,1.569,4.085,6.281,1.199,4.712,0.000,0.000,0.616,-10.273,0.990,5.026,1.587,1.554,5.281,4.711,4.712,2.198,6.282,5.083,1.570,0.000,0.000,1.240,-10.475,0.990,5.026,1.585,1.557,
23.518,32.056,0.747,-10.935,1.257,0.001,6.272,4.636,4.381,1.131,0.932,1.179,4.169,4.175,2.770,2.254,2.318,0.000,0.825,0.000,0.000,0.000,0.000,0.000,0.000,0.000,0.000,0.000,0.000,0.000,3.142,6.283,0.000,1.003,1.569,1.569,4.085,6.281,1.199,4.712,0.000,0.000,0.616,-10.273,0.990,5.026,1.587,1.554,5.281,4.711,4.712,2.198,6.282,5.083,1.570,0.000,0.000,1.240,-10.475,0.990,5.026,1.585,1.557,
23.620,32.158,0.747,-10.935,1.257,0.001,6.272,4.636,4.381,1.131,0.932,1.179,4.169,4.175,2.770,2.254,2.318,0.000,0.825,0.000,0.000,0.000,0.000,0.000,0.000,0.000,0.000,0.000,0.000,0.000,3.142,6.283,0.000,1.003