deveshdatwani/Gopher/Assets/Data/07-21 01-41-37/Obstacle Handling_robot_value.csv
game_time,true_time,x,y,az,vx,vaz,dis_to_obs_0,dis_to_obs_36,dis_to_obs_72,dis_to_obs_108,dis_to_obs_144,dis_to_obs_180,dis_to_obs_-144,dis_to_obs_-108,dis_to_obs_-72,dis_to_obs_-36,dis_to_min_obs,direction_to_min_obs,dis_to_human_0,dis_to_human_36,dis_to_human_72,dis_to_human_108,dis_to_human_144,dis_to_human_180,dis_to_human_-144,dis_to_human_-108,dis_to_human_-72,dis_to_human_-36,dis_to_min_human,direction_to_min_human,main_cam_yaw,main_cam_pitch,left_joint_1,left_joint_2,left_joint_3,left_joint_4,left_joint_5,left_joint_6,left_joint_7,left_joint_gripper,left_is_grasping,left_end_x,left_end_y,left_end_z,left_end_ax,left_end_ay,left_end_az,right_joint_1,right_joint_2,right_joint_3,right_joint_4,right_joint_5,right_joint_6,right_joint_7,right_joint_gripper,right_is_grasping,right_end_x,right_end_y,right_end_z,right_end_ax,right_end_ay,right_end_az,
7.380,12.934,0.996,-9.902,1.577,1.006,6.265,3.403,0.000,1.743,1.256,2.121,0.000,3.364,2.098,1.698,4.144,0.000,3.142,0.000,0.000,0.000,0.000,0.000,0.000,0.000,0.000,0.000,0.000,0.000,3.142,6.282,0.000,1.004,1.569,1.569,4.085,6.281,1.199,4.712,0.000,0.000,0.663,-9.315,0.990,4.721,4.076,5.348,5.281,4.711,4.711,2.198,6.282,5.083,1.570,0.000,0.000,1.319,-9.310,0.990,4.721,4.121,5.303,
7.480,13.034,0.995,-9.803,1.578,0.997,6.265,3.304,0.000,1.692,1.255,2.121,0.000,3.363,2.099,1.699,3.485,0.000,3.142,0.000,0.000,0.000,0.000,0.000,0.000,0.000,0.000,0.000,0.000,0.000,3.142,6.282,0.000,1.004,1.569,1.569,4.085,6.281,1.199,4.712,0.000,0.000,0.662,-9.217,0.990,4.721,4.135,5.289,5.281,4.711,4.711,2.198,6.282,5.083,1.570,0.000,0.000,1.318,-9.212,0.990,4.721,4.158,5.266,
7.563,13.117,0.994,-9.724,1.578,1.011,6.265,3.225,0.000,1.651,1.283,2.121,0.000,3.363,2.099,1.700,3.388,0.000,3.142,0.000,0.000,0.000,0.000,0.000,0.000,0.000,0.000,0.000,0.000,0.000,3.142,6.282,0.000,1.004,1.569,1.569,4.085,6.281,1.199,4.712,0.000,0.000,0.661,-9.138,0.990,4.721,4.166,5.258,5.281,4.711,4.711,2.198,6.282,5.083,1.570,0.000,0.000,1.317,-9.133,0.990,4.721,4.181,5.243,
7.680,13.234,0.994,-9.604,1.578,1.019,6.266,3.105,0.000,1.588,1.376,2.121,0.000,3.362,2.100,0.000,3.326,0.000,3.142,0.000,0.000,0.000,0.000,0.000,0.000,0.000,0.000,0.000,0.000,0.000,3.142,6.282,0.000,1.004,1.569,1.569,4.085,6.281,1.199,4.712,0.000,0.000,0.660,-9.018,0.990,4.722,4.177,5.247,5.281,4.711,4.711,2.198,6.282,5.083,1.570,0.000,0.000,1.316,-9.013,0.990,4.722,4.202,5.222,
7.780,13.334,0.993,-9.505,1.579,1.010,6.266,3.006,0.000,1.536,1.453,2.120,0.000,3.362,2.100,0.000,3.656,0.000,3.142,0.000,0.000,0.000,0.000,0.000,0.000,0.000,0.000,0.000,0.000,0.000,3.142,6.282,0.000,1.004,1.569,1.569,4.085,6.281,1.199,4.712,0.000,0.000,0.659,-8.918,0.990,4.722,4.193,5.230,5.281,4.711,4.711,2.198,6.282,5.083,1.570,0.000,0.000,1.315,-8.913,0.990,4.722,4.220,5.204,
7.866,13.420,0.992,-9.425,1.579,1.007,6.265,2.926,0.000,1.495,1.514,2.120,0.000,3.361,2.101,0.000,3.559,0.000,3.142,0.000,0.000,0.000,0.000,0.000,0.000,0.000,0.000,0.000,0.000,0.000,3.142,6.282,0.000,1.004,1.569,1.569,4.085,6.281,1.199,4.712,0.000,0.000,0.658,-8.839,0.990,4.722,4.215,5.209,5.281,4.711,4.711,2.198,6.282,5.083,1.570,0.000,0.000,1.314,-8.833,0.990,4.722,4.238,5.187,
7.972,13.525,0.991,-9.326,1.580,1.012,6.265,2.827,3.195,1.719,1.590,2.120,0.000,3.361,2.102,0.000,3.437,0.000,3.142,0.000,0.000,0.000,0.000,0.000,0.000,0.000,0.000,0.000,0.000,0.000,3.142,6.282,0.000,1.004,1.569,1.569,4.085,6.281,1.199,4.712,0.000,0.000,0.657,-8.740,0.990,4.723,4.237,5.187,5.281,4.711,4.711,2.198,6.282,5.083,1.570,0.000,0.000,1.313,-8.734,0.990,4.723,4.256,5.168,
8.080,13.634,0.990,-9.207,1.602,1.012,0.745,2.710,3.100,1.966,1.665,2.193,0.000,3.264,1.675,0.000,3.241,0.000,3.142,0.000,0.000,0.000,0.000,0.000,0.000,0.000,0.000,0.000,0.000,0.000,3.142,0.001,0.000,1.003,1.571,1.572,4.086,6.281,1.199,4.712,0.000,0.000,0.645,-8.628,0.990,4.741,4.532,4.892,5.281,4.712,4.714,2.199,6.281,5.083,1.571,0.000,0.000,1.300,-8.607,0.991,4.741,4.596,4.828,
8.180,13.734,0.985,-9.107,1.705,1.011,1.438,2.637,0.000,1.666,1.672,2.621,0.000,2.907,1.642,0.000,2.939,0.000,3.142,0.000,0.000,0.000,0.000,0.000,0.000,0.000,0.000,0.000,0.000,0.000,3.142,0.002,0.000,1.003,1.571,1.571,4.086,6.281,1.199,4.712,0.000,0.000,0.581,-8.567,0.990,4.845,4.677,4.746,5.282,4.713,4.713,2.198,6.282,5.083,1.571,0.000,0.000,1.232,-8.479,0.991,4.845,4.690,4.734,
8.280,13.834,0.968,-9.009,1.822,1.016,1.118,2.602,0.000,1.450,1.682,3.408,0.000,2.629,2.035,4.603,2.683,0.000,3.142,0.000,0.000,0.000,0.000,0.000,0.000,0.000,0.000,0.000,0.000,0.000,3.142,0.001,0.000,1.003,1.570,1.569,4.085,6.282,1.199,4.712,0.000,0.000,0.503,-8.520,0.990,4.965,4.695,4.728,5.282,4.712,4.712,2.198,6.283,5.083,1.570,0.000,0.000,1.139,-8.356,0.991,4.964,4.699,4.725,
8.377,13.931,0.947,-8.931,1.888,1.020,0.830,2.574,0.000,1.401,1.704,4.098,4.035,2.526,0.000,4.062,2.543,0.000,3.106,0.000,2.967,0.000,0.000,0.000,0.000,0.000,0.000,0.000,0.000,0.000,3.142,0.001,0.000,1.003,1.570,1.569,4.085,6.282,1.199,4.712,0.000,0.000,0.451,-8.474,0.990,5.030,4.697,4.726,5.282,4.712,4.712,2.198,6.282,5.083,1.570,0.000,0.000,1.075,-8.269,0.991,5.030,4.701,4.722,
8.480,14.034,0.907,-8.818,1.975,1.012,0.960,2.541,0.000,1.361,1.743,0.000,4.206,2.433,0.000,2.817,1.919,0.000,3.001,0.000,2.766,0.000,0.000,0.000,0.000,0.000,0.000,0.000,0.000,0.000,3.142,0.001,0.000,1.003,1.570,1.570,4.086,6.281,1.199,4.712,0.000,0.000,0.373,-8.405,0.990,5.116,4.700,4.723,5.282,4.712,4.713,2.198,6.282,5.083,1.570,0.000,0.000,0.977,-8.147,0.991,5.116,4.704,4.720,
8.580,14.134,0.865,-8.727,2.066,1.009,1.094,2.556,0.000,1.331,1.779,0.000,4.492,1.923,0.000,3.047,2.243,0.000,2.931,0.000,0.000,0.000,0.000,0.000,0.000,0.000,0.000,0.000,0.000,0.000,3.142,0.001,0.000,1.003,1.570,1.570,4.085,6.282,1.199,4.712,0.000,0.000,0.297,-8.365,0.990,5.207,4.703,4.720,5.282,4.712,4.712,2.198,6.282,5.083,1.571,0.000,0.000,0.874,-8.053,0.991,5.207,4.706,4.718,
8.680,14.234,0.827,-8.658,2.140,1.014,1.033,2.568,0.000,1.331,1.813,0.000,4.030,1.904,0.000,2.767,2.160,0.000,2.861,0.000,0.000,0.000,0.000,0.000,0.000,0.000,0.000,0.000,0.000,0.000,3.142,0.001,0.000,1.003,1.570,1.570,4.085,6.282,1.199,4.712,0.000,0.000,0.232,-8.339,0.990,5.282,4.704,4.718,5.282,4.712,4.712,2.198,6.282,5.083,1.570,0.000,0.000,0.785,-7.985,0.991,5.282,4.706,4.717,
8.780,14.334,0.759,-8.559,2.243,1.016,0.978,2.283,0.000,1.324,1.869,0.000,3.597,2.171,0.000,2.451,2.062,0.000,2.755,0.000,0.000,0.000,0.000,0.000,0.000,0.000,0.000,0.000,0.000,0.000,3.142,0.001,0.000,1.003,1.570,1.570,4.085,6.282,1.199,4.712,0.000,0.000,0.135,-8.303,0.990,5.385,4.705,4.717,5.282,4.712,4.712,2.198,6.282,5.083,1.570,0.000,0.000,0.648,-7.894,0.991,5.384,4.707,4.716,
8.879,14.433,0.708,-8.497,2.312,1.015,0.998,2.340,0.000,1.320,1.912,0.000,3.396,2.554,4.753,2.282,2.013,0.000,2.685,0.000,0.000,0.000,0.000,0.000,0.000,0.000,0.000,0.000,0.000,0.000,3.142,0.001,0.000,1.003,1.570,1.570,4.086,6.281,1.199,4.712,0.000,0.000,0.068,-8.284,0.990,5.453,4.705,4.717,5.282,4.712,4.712,2.198,6.282,5.083,1.570,0.000,0.000,0.552,-7.841,0.991,5.452,4.707,4.715,
8.980,14.534,0.624,-8.411,2.417,1.013,1.023,0.000,3.885,1.328,2.167,0.000,3.174,0.000,3.725,1.596,1.964,0.000,2.615,2.513,0.000,0.000,0.000,0.000,0.000,0.000,0.000,0.000,0.000,0.000,3.142,0.001,0.000,1.003,1.570,1.570,4.085,6.282,1.199,4.712,0.000,0.000,-0.034,-8.266,0.990,5.558,4.706,4.716,5.282,4.712,4.712,2.198,6.282,5.083,1.570,0.000,0.000,0.401,-7.775,0.991,5.558,4.708,4.715,
9.080,14.634,0.564,-8.359,2.488,1.014,1.019,0.000,3.814,1.342,2.439,0.000,3.070,0.000,3.248,1.965,1.948,0.000,2.545,2.436,0.000,0.000,0.000,0.000,0.000,0.000,0.000,0.000,0.000,0.000,3.142,0.001,0.000,1.003,1.570,1.570,4.085,6.282,1.199,4.712,0.000,0.000,-0.104,-8.261,0.990,5.629,4.706,4.715,5.282,4.712,4.712,2.198,6.282,5.083,1.570,0.000,0.000,0.296,-7.740,0.991,5.628,4.708,4.714,
9.180,14.734,0.466,-8.290,2.593,1.015,1.009,4.021,3.735,1.382,3.172,4.824,2.503,0.000,2.730,1.835,1.949,0.000,2.650,0.000,0.000,0.000,0.000,0.000,0.000,0.000,0.000,0.000,0.000,0.000,3.142,0.001,0.000,1.003,1.570,1.570,4.085,6.282,1.199,4.712,0.000,0.000,-0.208,-8.262,0.990,5.734,4.707,4.714,5.282,4.712,4.712,2.198,6.282,5.083,1.570,0.000,0.000,0.135,-7.702,0.991,5.734,4.708,4.714,
9.277,14.831,0.398,-8.249,2.662,1.014,1.009,3.926,3.701,1.435,4.265,0.000,2.484,0.000,2.475,1.770,2.163,0.000,2.580,0.000,0.000,0.000,0.000,0.000,0.000,0.000,0.000,0.000,0.000,0.000,3.142,0.001,0.000,1.003,1.570,1.570,4.085,6.282,1.199,4.712,0.000,0.000,-0.277,-8.268,0.990,5.804,4.707,4.714,5.282,4.712,4.712,2.198,6.282,5.083,1.570,0.000,0.000,0.026,-7.686,0.991,5.803,4.709,4.713,
9.380,14.934,0.290,-8.197,2.757,1.015,0.592,4.729,3.408,1.525,0.000,4.875,2.494,0.000,2.203,1.700,1.664,0.000,2.510,0.000,0.000,0.000,0.000,0.000,0.000,0.000,0.000,0.000,0.000,0.000,3.142,0.000,0.000,1.004,1.569,1.568,4.085,6.282,1.199,4.712,0.000,0.000,-0.380,-8.282,0.990,5.901,4.707,4.713,5.281,4.711,4.710,2.198,6.283,5.083,1.570,0.000,0.000,-0.134,-7.673,0.991,5.900,4.708,4.713,
9.480,15.034,0.215,-8.167,2.769,1.012,6.249,4.739,3.343,1.087,0.000,4.918,2.648,0.000,1.580,1.669,1.642,0.000,2.510,0.000,0.000,0.000,0.000,0.000,0.000,0.000,0.000,0.000,0.000,0.000,3.142,6.282,0.000,1.004,1.569,1.568,4.085,6.281,1.199,4.712,0.000,0.000,-0.453,-8.260,0.990,5.913,4.707,4.713,5.281,4.711,4.710,2.198,6.282,5.083,1.570,0.000,0.000,-0.215,-7.649,0.990,5.913,4.708,4.713,
9.580,15.134,0.123,-8.131,2.770,1.009,6.269,4.640,3.247,1.023,0.000,0.000,2.748,4.652,2.097,1.633,1.598,0.000,2.545,0.000,0.000,0.000,0.000,0.000,0.000,0.000,0.000,0.000,0.000,0.000,3.142,6.282,0.000,1.004,1.569,1.569,4.085,6.281,1.199,4.712,0.000,0.000,-0.545,-8.224,0.990,5.912,4.707,4.713,5.281,4.711,4.711,2.198,6.282,5.083,1.570,0.000,0.000,-0.307,-7.612,0.990,5.912,4.707,4.714,
9.662,15.216,0.012,-8.088,2.770,1.012,6.268,4.521,3.329,1.005,0.000,0.000,2.868,0.000,2.041,1.590,1.547,0.000,2.580,0.000,0.000,0.000,0.000,0.000,0.000,0.000,0.000,0.000,0.000,0.000,3.142,6.282,0.000,1.004,1.569,1.569,4.085,6.281,1.199,4.712,0.000,0.000,-0.657,-8.181,0.990,5.912,4.707,4.713,5.281,4.711,4.711,2.198,6.282,5.083,1.570,0.000,0.000,-0.419,-7.569,0.990,5.912,4.707,4.714,
9.780,15.334,-0.081,-8.052,2.770,1.013,6.268,4.422,3.459,0.990,3.514,0.000,2.969,0.000,1.994,1.554,1.504,0.000,2.580,0.000,0.000,0.000,0.000,0.000,0.000,0.000,0.000,0.000,0.000,0.000,3.142,6.282,0.000,1.004,1.569,1.569,4.085,6.281,1.199,4.712,0.000,0.000,-0.749,-8.144,0.990,5.912,4.707,4.713,5.281,4.711,4.711,2.198,6.282,5.083,1.570,0.000,0.000,-0.511,-7.533,0.990,5.912,4.707,4.714,
9.864,15.418,-0.174,-8.016,2.770,1.012,6.268,4.322,3.199,0.975,2.124,0.000,3.070,0.000,1.947,1.517,1.460,0.000,2.615,0.000,0.000,0.000,0.000,0.000,0.000,0.000,0.000,0.000,0.000,0.000,3.142,6.282,0.000,1.004,1.569,1.569,4.085,6.281,1.199,4.712,0.000,0.000,-0.842,-8.108,0.990,5.912,4.707,4.713,5.281,4.711,4.711,2.198,6.282,5.083,1.570,0.000,0.000,-0.604,-7.497,0.990,5.912,4.707,4.714,
9.980,15.534,-0.267,-7.980,2.770,1.011,6.267,4.223,3.103,0.959,2.069,0.000,3.171,0.000,1.901,1.481,0.000,0.000,2.650,0.000,0.000,0.000,0.000,0.000,0.000,0.000,0.000,0.000,1.754,0.000,3.142,6.282,0.000,1.004,1.569,1.569,4.085,6.281,1.199,4.712,0.000,0.000,-0.935,-8.073,0.990,5.912,4.707,4.713,5.281,4.711,4.711,2.198,6.282,5.083,1.570,0.000,0.000,-0.697,-7.461,0.990,5.913,4.707,4.714,
10.070,15.624,-0.359,-7.944,2.771,1.012,6.267,4.124,3.007,0.944,2.015,0.000,3.273,0.000,1.854,1.445,0.000,0.000,2.650,0.000,0.000,0.000,0.000,0.000,0.000,0.000,0.000,0.000,1.783,0.000,3.142,6.282,0.000,1.004,1.569,1.569,4.085,6.281,1.199,4.712,0.000,0.000,-1.027,-8.037,0.990,5.913,4.707,4.713,5.281,4.711,4.711,2.198,6.282,5.083,1.570,0.000,0.000,-0.790,-7.425,0.990,5.913,4.707,4.714,
10.180,15.734,-0.452,-7.908,2.771,1.012,6.266,4.025,2.910,0.929,1.046,0.000,3.375,0.000,1.807,1.409,0.000,0.000,2.685,0.000,0.000,0.000,0.000,0.000,0.000,0.000,0.000,0.000,1.895,0.000,3.142,6.282,0.000,1.004,1.569,1.569,4.085,6.281,1.199,4.712,0.000,0.000,-1.120,-8.001,0.990,5.913,4.707,4.713,5.281,4.711,4.711,2.198,6.282,5.083,1.570,0.000,0.000,-0.883,-7.389,0.990,5.913,4.707,4.714,
10.275,15.829,-0.526,-7.879,2.771,1.012,6.267,3.945,2.833,0.916,1.032,0.000,3.457,3.627,1.770,0.942,3.576,0.000,2.720,0.000,0.000,0.000,0.000,0.000,0.000,0.000,0.000,0.000,0.000,0.000,3.142,6.282,0.000,1.004,1.569,1.569,4.085,6.281,1.199,4.712,0.000,0.000,-1.194,-7.972,0.990,5.913,4.707,4.713,5.281,4.711,4.711,2.198,6.282,5.083,1.570,0.000,0.000,-0.957,-7.361,0.990,5.913,4.707,4.714,
10.380,15.934,-0.638,-7.836,2.772,1.011,6.266,3.826,2.718,1.672,1.011,0.000,3.579,3.651,1.714,2.170,3.525,0.000,2.755,0.000,0.000,0.000,0.000,0.000,0.000,0.000,0.000,0.000,0.000,0.000,3.142,6.282,0.000,1.004,1.569,1.569,4.085,6.281,1.199,4.712,0.000,0.000,-1.306,-7.929,0.990,5.914,4.707,4.713,5.281,4.711,4.711,2.198,6.282,5.083,1.570,0.000,0.000,-1.069,-7.318,0.990,5.914,4.707,4.714,
10.480,16.034,-0.712,-7.807,2.772,1.012,6.267,3.747,2.641,1.708,0.998,0.000,3.661,0.000,1.677,1.010,3.491,0.000,2.755,0.000,0.000,0.000,0.000,0.000,0.000,0.000,0.000,0.000,0.000,0.000,3.142,6.282,0.000,1.004,1.569,1.569,4.085,6.281,1.199,4.712,0.000,0.000,-1.380,-7.901,0.990,5.914,4.707,4.713,5.281,4.711,4.711,2.198,6.282,5.083,1.570,0.000,0.000,-1.143,-7.289,0.990,5.914,4.707,4.714,
10.580,16.134,-0.823,-7.764,2.772,1.012,6.266,3.627,2.525,1.762,0.977,0.000,3.785,4.871,1.621,0.967,3.440,0.000,2.791,0.000,0.000,0.000,0.000,0.000,0.000,0.000,0.000,0.000,0.000,0.000,3.142,6.282,0.000,1.004,1.569,1.569,4.085,6.281,1.199,4.712,0.000,0.000,-1.491,-7.858,0.990,5.914,4.707,4.713,5.281,4.711,4.711,2.198,6.282,5.083,1.570,0.000,0.000,-1.255,-7.246,0.990,5.914,4.707,4.714,
10.680,16.234,-0.897,-7.735,2.770,1.012,6.084,3.552,2.446,1.802,0.962,0.000,3.839,4.805,1.587,0.938,3.400,0.000,2.826,0.000,0.000,0.000,0.000,0.000,0.000,0.000,0.000,0.000,0.000,0.000,3.142,6.281,0.001,1.004,1.568,1.568,4.084,6.281,1.199,4.712,0.000,0.000,-1.566,-7.829,0.990,5.914,4.708,4.713,5.281,4.710,4.710,2.197,6.282,5.083,1.570,0.000,0.000,-1.328,-7.217,0.990,5.914,4.707,4.714,
10.780,16.334,-1.008,-7.690,2.689,1.012,5.002,2.430,2.286,2.946,0.906,0.000,4.015,0.000,1.642,0.899,3.186,0.000,2.931,0.000,0.000,0.000,0.000,0.000,0.000,0.000,0.000,0.000,0.000,0.000,3.142,6.280,0.001,1.005,1.568,1.565,4.084,6.281,1.199,4.711,0.000,0.000,-1.683,-7.731,0.990,5.835,4.707,4.713,5.282,4.710,4.708,2.197,6.282,5.083,1.570,0.000,0.000,-1.396,-7.140,0.990,5.834,4.707,4.713,
10.880,16.434,-1.097,-7.644,2.568,1.009,4.986,2.241,0.000,2.505,1.554,1.370,4.877,0.000,1.798,0.873,3.355,0.000,3.071,0.000,0.000,0.000,0.000,0.000,0.000,0.000,0.000,0.000,0.000,0.000,3.142,6.280,0.001,1.004,1.569,1.567,4.085,6.281,1.199,4.712,0.000,0.000,-1.770,-7.602,0.990,5.711,4.706,4.714,5.282,4.711,4.710,2.197,6.282,5.083,1.570,0.000,0.000,-1.415,-7.050,0.991,5.711,4.708,4.714,
10.965,16.519,-1.163,-7.600,2.487,1.008,5.276,2.286,0.000,2.387,1.636,1.248,0.000,0.000,1.924,0.848,0.000,0.000,3.142,0.000,0.000,0.000,0.000,0.000,0.000,0.000,0.000,0.000,0.000,0.000,3.142,6.281,0.001,1.004,1.569,1.568,4.085,6.281,1.199,4.712,0.000,0.000,-1.831,-7.503,0.990,5.630,4.706,4.715,5.282,4.711,4.711,2.197,6.281,5.083,1.570,0.000,0.000,-1.431,-6.982,0.991,5.629,4.707,4.715,
11.080,16.634,-1.256,-7.525,2.393,1.018,5.406,2.343,4.969,2.314,1.777,1.160,0.000,0.000,2.082,0.798,0.000,0.000,3.142,0.000,0.000,0.000,0.000,0.000,0.000,0.000,0.000,0.000,0.000,0.000,3.142,6.281,0.001,1.004,1.569,1.567,4.085,6.281,1.199,4.712,0.000,0.000,-1.912,-7.366,0.990,5.536,4.706,4.715,5.282,4.711,4.710,2.197,6.282,5.083,1.570,0.000,0.000,-1.465,-6.885,0.990,5.536,4.706,4.715,
11.180,16.734,-1.314,-7.470,2.328,1.015,5.296,2.411,4.953,2.168,3.709,1.146,0.000,0.000,2.232,0.761,4.438,0.000,3.142,0.000,0.000,0.000,0.000,0.000,0.000,0.000,0.000,0.000,0.000,0.000,3.142,6.281,0.001,1.004,1.568,1.567,4.085,6.281,1.199,4.712,0.000,0.000,-1.959,-7.268,0.990,5.472,4.705,4.716,5.282,4.711,4.710,2.197,6.282,5.083,1.570,0.000,0.000,-1.482,-6.817,0.990,5.471,4.706,4.716,
11.269,16.823,-1.394,-7.381,2.219,1.009,5.239,2.601,3.076,2.051,2.928,1.540,0.000,0.000,2.635,0.705,4.020,0.000,3.142,0.000,0.000,0.000,0.000,0.000,0.000,0.000,0.000,0.000,0.000,0.000,3.142,6.280,0.001,1.004,1.568,1.567,4.085,6.281,1.199,4.712,0.000,0.000,-2.012,-7.110,0.990,5.363,4.704,4.717,5.282,4.711,4.710,2.197,6.282,5.083,1.570,0.000,0.000,-1.489,-6.714,0.991,5.362,4.705,4.717,
11.380,16.934,-1.452,-7.300,2.129,1.013,5.280,2.842,1.787,4.898,2.291,1.858,0.000,4.795,3.218,0.717,4.743,0.000,3.142,0.000,0.000,0.000,0.000,0.000,0.000,0.000,0.000,0.000,0.000,0.000,3.142,6.281,0.001,1.004,1.569,1.567,4.085,6.281,1.199,4.712,0.000,0.000,-2.044,-6.975,0.990,5.273,4.703,4.719,5.282,4.711,4.710,2.197,6.282,5.083,1.570,0.000,0.000,-1.488,-6.627,0.991,5.272,4.704,4.718,
11.470,17.024,-1.494,-7.232,2.060,1.016,5.297,2.667,1.748,0.000,2.393,1.936,1.859,4.548,4.039,0.724,3.989,0.000,1.422,0.000,0.000,0.000,0.000,0.000,0.000,0.000,0.000,0.000,0.000,0.000,3.142,6.281,0.001,1.004,1.569,1.567,4.085,6.281,1.199,4.712,0.000,0.000,-2.062,-6.867,0.990,5.204,4.702,4.720,5.282,4.711,4.710,2.197,6.282,5.083,1.570,0.000,0.000,-1.483,-6.558,0.991,5.203,4.703,4.719,
11.580,17.134,-1.547,-7.125,1.956,1.013,5.276,2.418,1.690,0.000,2.280,2.079,1.709,0.000,2.745,0.726,3.294,0.000,1.562,0.000,0.000,0.000,0.000,0.000,0.000,0.000,0.000,0.000,0.000,0.000,3.142,6.281,0.001,1.004,1.569,1.567,4.085,6.281,1.199,4.712,0.000,0.000,-2.074,-6.703,0.990,5.100,4.700,4.723,5.282,4.711,4.710,2.197,6.282,5.083,1.570,0.000,0.000,-1.466,-6.456,0.991,5.099,4.701,4.722,
11.668,17.222,-1.583,-7.032,1.868,1.011,5.278,2.478,1.746,4.617,2.078,4.049,1.633,0.000,0.000,0.721,3.473,0.000,1.667,0.000,0.000,0.000,0.000,0.000,0.000,0.000,0.000,0.000,0.000,0.000,3.142,6.280,0.001,1.004,1.568,1.567,4.085,6.281,1.199,4.712,0.000,0.000,-2.071,-6.565,0.990,5.012,4.696,4.727,5.282,4.711,4.710,2.197,6.282,5.083,1.570,0.000,0.000,-1.443,-6.372,0.991,5.011,4.697,4.726,
11.780,17.334,-1.610,-6.936,1.780,1.013,5.276,0.000,1.836,0.000,2.223,3.677,1.865,0.000,0.000,0.713,2.690,0.000,1.773,0.000,0.000,0.000,0.000,0.000,0.000,0.000,0.000,0.000,0.000,0.000,3.142,6.281,0.001,1.004,1.569,1.567,4.085,6.281,1.199,4.712,0.000,0.000,-2.055,-6.428,0.990,4.924,4.689,4.733,5.282,4.711,4.710,2.197,6.282,5.083,1.570,0.000,0.000,-1.413,-6.291,0.991,4.923,4.692,4.732,
11.880,17.434,-1.626,-6.857,1.710,1.014,5.279,4.774,1.937,1.496,4.520,3.110,2.113,0.000,0.000,0.703,2.677,0.000,1.843,0.000,0.000,0.000,0.000,0.000,0.000,0.000,0.000,0.000,0.000,0.000,3.142,6.281,0.001,1.004,1.569,1.567,4.085,6.281,1.199,4.712,0.000,0.000,-2.034,-6.320,0.990,4.854,4.678,4.745,5.282,4.711,4.710,2.197,6.282,5.083,1.570,0.000,0.000,-1.384,-6.228,0.991,4.853,4.681,4.742,
11.980,17.534,-1.639,-6.738,1.615,1.013,5.709,3.517,2.128,1.403,4.889,2.657,2.421,0.000,0.000,0.689,4.892,0.000,1.983,0.000,0.000,0.000,0.000,0.000,0.000,0.000,0.000,0.000,0.000,0.000,3.142,6.281,0.000,1.004,1.569,1.570,4.085,6.281,1.199,4.712,0.000,0.000,-1.993,-6.164,0.990,4.756,4.600,4.824,5.282,4.712,4.712,2.198,6.281,5.083,1.570,0.000,0.000,-1.338,-6.135,0.991,4.756,4.619,4.805,
12.070,17.624,-1.643,-6.639,1.603,1.009,6.274,3.328,2.155,1.403,4.970,2.796,2.520,0.000,0.000,0.690,4.804,0.000,2.018,0.000,0.000,0.000,0.000,0.000,0.000,0.000,0.000,0.000,0.000,0.000,3.142,6.283,0.000,1.003,1.569,1.569,4.085,6.281,1.199,4.712,0.000,0.000,-1.990,-6.060,0.990,4.745,4.560,4.863,5.281,4.711,4.711,2.198,6.282,5.083,1.570,0.000,0.000,-1.335,-6.039,0.990,4.745,4.576,4.848,
12.180,17.734,-1.646,-6.540,1.603,1.010,6.262,3.231,2.148,1.400,0.000,2.912,2.619,0.000,0.675,0.693,4.816,0.000,2.966,0.000,0.000,0.000,0.000,0.000,0.000,0.000,0.000,0.000,0.000,0.000,3.142,6.283,0.000,1.004,1.569,1.569,4.085,6.281,1.199,4.712,0.000,0.000,-1.994,-5.962,0.990,4.745,4.566,4.858,5.281,4.711,4.711,2.198,6.282,5.083,1.570,0.000,0.000,-1.338,-5.940,0.990,4.745,4.578,4.846,
12.276,17.830,-1.649,-6.460,1.604,1.013,6.262,3.152,2.142,1.397,0.000,3.005,2.698,0.000,0.677,0.696,4.825,0.000,2.966,0.000,0.000,0.000,0.000,0.000,0.000,0.000,0.000,0.000,0.000,0.000,3.142,6.282,0.000,1.004,1.569,1.569,4.085,6.281,1.199,4.712,0.000,0.000,-1.997,-5.882,0.990,4.746,4.569,4.855,5.281,4.711,4.711,2.198,6.282,5.083,1.570,0.000,0.000,-1.341,-5.860,0.990,4.746,4.580,4.844,
12.380,17.934,-1.653,-6.341,1.605,1.013,6.263,3.033,1.858,1.392,0.000,2.993,2.818,0.000,0.681,1.231,2.229,0.000,2.966,0.000,0.000,0.000,0.000,0.000,0.000,0.000,0.000,0.000,0.000,0.000,3.142,6.282,0.000,1.004,1.569,1.569,4.085,6.281,1.199,4.712,0.000,0.000,-2.001,-5.763,0.990,4.747,4.572,4.852,5.281,4.711,4.711,2.198,6.282,5.083,1.570,0.000,0.000,-1.346,-5.741,0.990,4.747,4.582,4.842,
12.479,18.033,-1.656,-6.261,1.605,1.011,6.263,2.953,1.756,1.389,0.000,2.990,2.898,0.000,0.684,1.234,2.133,0.000,2.966,0.000,0.000,0.000,0.000,0.000,0.000,0.000,0.000,0.000,0.000,0.000,3.142,6.282,0.000,1.004,1.569,1.569,4.085,6.281,1.199,4.712,0.000,0.000,-2.004,-5.684,0.990,4.747,4.574,4.850,5.281,4.711,4.711,2.198,6.282,5.083,1.570,0.000,0.000,-1.349,-5.661,0.990,4.747,4.584,4.840,
12.580,18.134,-1.660,-6.142,1.606,1.011,6.264,2.834,1.603,1.385,0.000,2.985,3.017,0.000,0.688,1.239,2.027,0.000,2.966,0.000,0.000,0.000,0.000,0.000,0.000,0.000,0.000,0.000,0.000,0.000,3.142,6.282,0.000,1.004,1.569,1.569,4.085,6.281,1.199,4.712,0.000,0.000,-2.009,-5.565,0.990,4.748,4.577,4.846,5.281,4.711,4.711,2.198,6.282,5.083,1.570,0.000,0.000,-1.353,-5.541,0.990,4.748,4.586,4.838,
12.677,18.231,-1.663,-6.062,1.606,1.012,6.264,2.754,1.501,1.382,1.552,2.982,3.097,0.000,0.691,1.189,2.034,0.000,2.966,0.000,0.000,0.000,0.000,0.000,0.000,0.000,0.000,0.000,0.000,0.000,3.142,6.282,0.000,1.004,1.569,1.569,4.085,6.281,1.199,4.712,0.000,0.000,-2.012,-5.485,0.990,4.748,4.579,4.844,5.281,4.711,4.711,2.198,6.282,5.083,1.570,0.000,0.000,-1.357,-5.462,0.990,4.748,4.587,4.837,
12.780,18.334,-1.667,-5.943,1.607,1.012,6.264,2.634,1.347,1.377,1.434,2.977,3.216,1.082,0.803,1.194,2.135,0.000,2.966,0.000,0.000,0.000,0.000,0.000,0.000,0.000,0.000,0.000,0.000,0.000,3.142,6.282,0.000,1.004,1.569,1.569,4.085,6.281,1.199,4.712,0.000,0.000,-2.017,-5.366,0.990,4.749,4.582,4.842,5.281,4.711,4.711,2.198,6.282,5.083,1.570,0.000,0.000,-1.361,-5.342,0.990,4.749,4.589,4.835,
12.876,18.430,-1.670,-5.863,1.607,1.011,6.264,2.553,1.245,1.374,1.432,2.973,3.296,1.086,1.101,4.535,2.142,0.000,2.966,0.000,0.000,0.000,0.000,0.000,0.000,0.000,0.000,0.000,0.000,0.000,3.142,6.282,0.000,1.004,1.569,1.569,4.085,6.281,1.199,4.712,0.000,0.000,-2.020,-5.287,0.990,4.749,4.583,4.841,5.281,4.711,4.711,2.198,6.282,5.083,1.570,0.000,0.000,-1.364,-5.263,0.990,4.750,4.590,4.834,
12.980,18.534,-1.674,-5.744,1.608,1.011,6.265,2.433,1.091,1.369,1.427,2.968,3.415,1.092,1.218,0.000,2.152,0.000,3.001,0.000,0.000,0.000,0.000,0.000,0.000,0.000,0.000,0.000,0.000,0.000,3.142,6.282,0.000,1.004,1.569,1.569,4.085,6.281,1.199,4.712,0.000,0.000,-2.025,-5.168,0.990,4.750,4.585,4.838,5.281,4.711,4.711,2.198,6.282,5.083,1.570,0.000,0.000,-1.369,-5.143,0.990,4.750,4.592,4.832,
13.077,18.631,-1.677,-5.665,1.608,1.012,6.265,2.352,1.061,1.366,1.424,2.964,3.495,1.097,1.221,4.723,2.158,0.000,3.001,0.000,0.000,0.000,0.000,0.000,0.000,0.000,0.000,0.000,0.000,0.000,3.142,6.282,0.000,1.004,1.569,1.569,4.085,6.281,1.199,4.712,0.000,0.000,-2.028,-5.088,0.990,4.750,4.587,4.837,5.281,4.711,4.711,2.198,6.282,5.083,1.570,0.000,0.000,-1.372,-5.063,0.990,4.750,4.593,4.831,
13.180,18.734,-1.682,-5.545,1.609,1.012,6.265,2.231,1.053,1.361,1.420,3.013,3.615,1.103,1.226,4.380,2.169,0.000,3.001,0.000,0.000,0.000,0.000,0.000,0.000,0.000,0.000,0.000,0.000,0.000,3.142,6.282,0.000,1.004,1.569,1.569,4.085,6.281,1.199,4.712,0.000,0.000,-2.033,-4.969,0.990,4.751,4.588,4.835,5.281,4.711,4.711,2.198,6.282,5.083,1.570,0.000,0.000,-1.377,-4.944,0.990,4.751,4.594,4.830,
13.278,18.832,-1.685,-5.466,1.609,1.012,6.265,2.150,1.048,1.358,1.416,3.106,3.694,1.108,1.229,4.152,2.175,0.000,3.001,0.000,0.000,0.000,0.000,0.000,0.000,0.000,0.000,0.000,0.000,0.000,3.142,6.282,0.000,1.004,1.569,1.569,4.085,6.281,1.199,4.712,0.000,0.000,-2.036,-4.890,0.990,4.751,4.590,4.834,5.281,4.711,4.711,2.198,6.282,5.083,1.570,0.000,0.000,-1.380,-4.864,0.990,4.751,4.595,4.829,
13.380,18.934,-1.689,-5.346,1.607,1.012,6.102,2.019,1.043,1.354,1.410,3.251,3.813,1.118,1.183,4.133,1.968,0.000,3.001,0.000,0.000,0.000,0.000,0.000,0.000,0.000,0.000,0.000,0.000,0.000,3.142,6.281,0.001,1.004,1.568,1.568,4.084,6.281,1.199,4.712,0.000,0.000,-2.040,-4.770,0.990,4.751,4.597,4.827,5.281,4.710,4.710,2.197,6.282,5.083,1.570,0.000,0.000,-1.385,-4.745,0.990,4.751,4.580,4.844,
13.474,19.027,-1.692,-5.267,1.569,1.012,5.329,1.801,1.091,1.366,1.387,3.430,3.890,1.181,1.199,4.080,2.062,0.000,3.036,0.000,0.000,0.000,0.000,0.000,0.000,0.000,0.000,0.000,0.000,0.000,3.142,6.280,0.001,1.005,1.567,1.565,4.084,6.282,1.199,4.711,0.000,0.000,-2.022,-4.677,0.990,4.718,3.699,5.724,5.281,4.710,4.708,2.197,6.282,5.083,1.570,0.000,0.000,-1.366,-4.678,0.990,4.718,3.531,5.892,
13.580,19.134,-1.688,-5.147,1.483,1.014,5.931,1.768,2.463,0.712,1.355,0.000,0.000,1.336,1.233,4.887,1.840,0.000,3.142,0.000,0.000,0.000,0.000,0.000,0.000,0.000,0.000,0.000,0.000,0.000,3.142,6.282,0.000,1.004,1.570,1.571,4.085,6.281,1.199,4.712,0.000,0.000,-1.963,-4.531,0.990,4.802,1.626,1.515,5.282,4.712,4.713,2.198,6.281,5.083,1.571,0.000,0.000,-1.310,-4.589,0.991,4.802,1.616,1.525,
13.680,19.234,-1.681,-5.068,1.479,1.011,6.260,1.694,2.492,0.720,1.361,0.000,0.000,1.331,1.228,0.000,1.821,0.000,3.142,0.000,0.000,0.000,0.000,0.000,0.000,0.000,0.000,0.000,0.000,0.000,3.142,6.283,0.000,1.003,1.569,1.569,4.085,6.281,1.199,4.712,0.000,0.000,-1.955,-4.451,0.990,4.804,1.624,1.517,5.281,4.711,4.711,2.198,6.282,5.083,1.570,0.000,0.000,-1.301,-4.511,0.990,4.804,1.619,1.522,
13.762,19.316,-1.671,-4.949,1.480,1.010,6.261,1.575,2.508,0.732,1.373,0.000,0.000,1.410,1.454,4.130,1.356,0.000,3.142,0.000,0.000,0.000,0.000,0.000,0.000,0.000,0.000,0.000,0.000,0.000,3.142,6.283,0.000,1.004,1.569,1.569,4.085,6.281,1.199,4.712,0.000,0.000,-1.944,-4.333,0.990,4.803,1.624,1.517,5.281,4.711,4.711,2.198,6.282,5.083,1.570,0.000,0.000,-1.291,-4.392,0.990,4.803,1.620,1.522,
13.880,19.434,-1.662,-4.850,1.481,1.013,6.262,1.476,2.522,0.741,1.382,2.111,0.000,1.527,4.007,3.947,1.511,0.000,3.142,0.000,0.000,0.000,0.000,0.000,0.000,0.000,0.000,0.000,0.000,0.000,3.142,6.283,0.000,1.004,1.569,1.569,4.085,6.281,1.199,4.712,0.000,0.000,-1.936,-4.234,0.990,4.802,1.624,1.516,5.281,4.711,4.711,2.198,6.282,5.083,1.570,0.000,0.000,-1.283,-4.292,0.990,4.802,1.620,1.521,
13.980,19.534,-1.653,-4.751,1.481,1.013,6.263,1.377,2.536,0.751,1.392,2.127,0.000,1.643,4.271,1.176,1.380,0.000,3.142,0.000,0.000,0.000,0.000,0.000,0.000,0.000,0.000,0.000,0.000,0.000,3.142,6.282,0.000,1.004,1.569,1.569,4.085,6.281,1.199,4.712,0.000,0.000,-1.928,-4.135,0.990,4.802,1.625,1.516,5.281,4.711,4.711,2.198,6.282,5.083,1.570,0.000,0.000,-1.274,-4.193,0.990,4.802,1.621,1.520,
14.076,19.630,-1.646,-4.671,1.482,1.011,6.263,1.298,2.548,0.758,0.728,2.139,0.000,1.736,4.481,1.127,1.276,0.000,3.142,0.000,0.000,0.000,0.000,0.000,0.000,0.000,0.000,0.000,0.000,0.000,3.142,6.282,0.000,1.004,1.569,1.569,4.085,6.281,1.199,4.712,0.000,0.000,-1.921,-4.055,0.990,4.801,1.625,1.516,5.281,4.711,4.711,2.198,6.282,5.083,1.570,0.000,0.000,-1.267,-4.113,0.990,4.801,1.621,1.520,
14.180,19.734,-1.635,-4.553,1.483,1.011,6.263,1.179,2.565,0.769,0.739,2.158,0.000,1.876,4.798,1.168,1.119,0.000,3.142,0.000,0.000,0.000,0.000,0.000,0.000,0.000,0.000,0.000,0.000,0.000,3.142,6.282,0.000,1.004,1.569,1.569,4.085,6.281,1.199,4.712,0.000,0.000,-1.911,-3.937,0.990,4.800,1.625,1.515,5.281,4.711,4.711,2.198,6.282,5.083,1.570,0.000,0.000,-1.257,-3.994,0.990,4.800,1.622,1.519,
14.280,19.834,-1.629,-4.480,1.486,0.737,0.212,1.105,2.565,0.775,0.746,2.175,0.000,1.964,0.000,1.162,1.022,0.000,3.142,0.000,0.000,0.000,0.000,0.000,0.000,0.000,0.000,0.000,0.000,0.000,3.142,0.003,0.001,1.001,1.571,1.572,4.091,6.281,1.200,4.712,0.000,0.000,-1.904,-3.863,0.989,4.802,1.657,1.484,5.280,4.713,4.714,2.199,6.281,5.083,1.570,0.000,0.000,-1.250,-3.921,0.990,4.801,1.617,1.525,
14.376,19.930,-1.625,-4.438,1.542,0.204,1.167,1.026,2.363,0.763,0.762,2.348,4.721,1.984,0.000,1.177,1.048,0.000,3.071,0.000,0.000,0.000,0.000,0.000,0.000,0.000,0.000,0.000,0.000,0.000,3.142,0.003,0.001,1.001,1.572,1.574,4.090,6.281,1.199,4.712,0.000,0.000,-1.934,-3.838,0.990,4.747,1.766,1.375,5.281,4.714,4.716,2.199,6.281,5.083,1.571,0.000,0.000,-1.278,-3.859,0.991,4.746,1.672,1.469,
14.460,20.014,-1.626,-4.407,1.645,0.481,0.439,0.942,2.076,0.741,0.791,0.000,4.490,1.737,0.000,1.222,1.223,0.000,2.966,0.000,0.000,0.000,0.000,0.000,0.000,0.000,0.000,0.000,0.000,0.000,3.142,6.281,0.000,1.006,1.567,1.564,4.081,6.282,1.199,4.711,0.000,0.000,-2.001,-3.845,0.990,4.793,4.679,4.744,5.282,4.710,4.707,2.197,6.283,5.083,1.570,0.000,0.000,-1.346,-3.795,0.991,4.792,4.663,4.761,
14.580,20.134,-1.631,-4.345,1.650,0.729,6.274,0.878,2.057,0.735,0.787,0.000,4.520,1.658,0.000,1.230,1.243,0.000,2.966,0.000,0.000,0.000,0.000,0.000,0.000,0.000,0.000,0.000,0.000,0.000,3.142,6.281,0.000,1.004,1.569,1.569,4.084,6.281,1.199,4.712,0.000,0.000,-2.006,-3.784,0.990,4.792,4.660,4.764,5.281,4.711,4.711,2.197,6.282,5.083,1.570,0.000,0.000,-1.352,-3.731,0.990,4.792,4.652,4.772,
14.662,20.216,-1.636,-4.280,1.649,0.564,6.272,0.813,2.049,0.730,0.782,0.000,4.585,1.666,0.000,0.926,1.253,0.000,2.966,0.000,0.000,0.000,0.000,0.000,0.000,0.000,0.000,0.000,0.000,0.000,3.142,6.283,0.001,1.003,1.570,1.570,4.087,6.281,1.199,4.712,0.000,0.000,-2.010,-3.718,0.990,4.791,4.639,4.785,5.281,4.711,4.712,2.197,6.282,5.083,1.570,0.000,0.000,-1.356,-3.667,0.990,4.791,4.650,4.774,
14.780,20.334,-1.640,-4.233,1.650,0.442,6.270,0.767,2.044,1.391,0.778,0.000,4.632,1.680,0.000,1.240,1.260,0.000,2.966,0.000,0.000,0.000,0.000,0.000,0.000,0.000,0.000,0.000,0.000,0.000,3.142,6.282,0.001,1.004,1.569,1.569,4.085,6.281,1.199,4.712,0.000,0.000,-2.014,-3.672,0.990,4.792,4.650,4.774,5.281,4.711,4.711,2.197,6.282,5.083,1.570,0.000,0.000,-1.360,-3.620,0.990,4.792,4.652,4.772,
14.866,20.420,-1.644,-4.187,1.650,0.530,6.270,0.721,2.038,0.939,0.774,0.000,4.678,1.741,1.123,1.244,1.267,0.000,2.966,0.000,0.000,0.000,0.000,0.000,0.000,0.000,0.000,0.000,0.000,0.000,3.142,6.282,0.000,1.004,1.569,1.568,4.084,6.281,1.199,4.712,0.000,0.000,-2.018,-3.627,0.990,4.793,4.660,4.763,5.281,4.711,4.711,2.197,6.282,5.083,1.570,0.000,0.000,-1.364,-3.574,0.990,4.793,4.653,4.771,
14.980,20.534,-1.648,-4.132,1.650,0.590,6.269,0.666,2.031,0.935,0.769,0.000,4.733,1.814,1.127,1.105,1.554,0.000,3.106,0.000,0.000,0.000,0.000,0.000,0.000,0.000,0.000,0.000,0.000,0.000,3.142,6.282,0.000,1.004,1.569,1.569,4.085,6.281,1.199,4.712,0.000,0.000,-2.022,-3.571,0.990,4.792,4.654,4.770,5.281,4.711,4.711,2.198,6.282,5.083,1.570,0.000,0.000,-1.369,-3.519,0.990,4.792,4.653,4.771,
15.070,20.624,-1.652,-4.077,1.650,0.544,6.268,0.611,2.024,1.378,0.764,2.723,4.787,1.887,1.132,0.964,1.490,0.000,3.106,0.000,0.000,0.000,0.000,0.000,0.000,0.000,0.000,0.000,0.000,0.000,3.142,6.282,0.000,1.004,1.569,1.569,4.085,6.281,1.199,4.712,0.000,0.000,-2.027,-3.516,0.990,4.792,4.649,4.775,5.281,4.711,4.711,2.198,6.282,5.083,1.570,0.000,0.000,-1.373,-3.464,0.990,4.792,4.653,4.771,
15.180,20.734,-1.656,-4.026,1.650,0.514,6.268,0.561,2.018,1.374,0.760,2.715,4.837,1.954,1.187,0.835,1.431,0.000,3.106,0.000,0.000,0.000,0.000,0.000,0.000,0.000,0.000,0.000,0.000,0.000,3.142,6.282,0.000,1.004,1.569,1.569,4.085,6.281,1.199,4.712,0.000,0.000,-2.031,-3.465,0.990,4.792,4.652,4.772,5.281,4.711,4.711,2.198,6.282,5.083,1.570,0.000,0.000,-1.377,-3.413,0.990,4.792,4.653,4.771,
15.276,20.830,-1.660,-3.986,1.650,0.532,6.268,0.521,2.013,1.371,0.757,2.710,4.876,2.028,1.190,0.733,1.384,0.000,3.106,0.000,0.000,0.000,0.000,0.000,0.000,0.000,0.000,0.000,0.000,0.000,3.142,6.282,0.000,1.004,1.569,1.569,4.085,6.281,1.199,4.712,0.000,0.000,-2.034,-3.425,0.990,4.792,4.655,4.769,5.281,4.711,4.711,2.198,6.282,5.083,1.570,0.000,0.000,-1.380,-3.373,0.990,4.793,4.654,4.770,
15.380,20.934,-1.665,-3.923,1.650,0.553,6.267,0.458,2.005,1.365,0.751,2.701,4.938,2.148,1.196,0.726,1.310,0.000,3.106,0.000,0.000,0.000,0.000,0.000,0.000,0.000,0.000,0.000,0.000,0.000,3.142,6.282,0.000,1.004,1.569,1.569,4.085,6.281,1.199,4.712,0.000,0.000,-2.039,-3.362,0.990,4.793,4.653,4.771,5.281,4.711,4.711,2.198,6.282,5.083,1.570,0.000,0.000,-1.386,-3.309,0.990,4.793,4.654,4.770,
15.480,21.034,-1.668,-3.880,1.651,0.543,6.267,0.415,1.999,1.362,0.747,2.695,4.979,2.256,1.199,0.730,1.261,0.000,3.106,0.000,0.000,0.000,0.000,0.000,0.000,0.000,0.000,0.000,0.000,0.000,3.142,6.282,0.000,1.004,1.569,1.569,4.085,6.281,1.199,4.712,0.000,0.000,-2.043,-3.319,0.990,4.793,4.652,4.772,5.281,4.711,4.711,2.198,6.282,5.083,1.570,0.000,0.000,-1.389,-3.267,0.990,4.793,4.654,4.770,
15.580,21.134,-1.673,-3.818,1.651,0.533,6.267,0.354,1.991,1.357,0.742,2.686,0.000,2.414,1.204,0.736,0.656,0.000,3.142,0.000,0.000,0.000,0.000,0.000,0.000,0.000,0.000,0.000,0.000,0.000,3.142,6.282,0.000,1.004,1.569,1.569,4.085,6.281,1.199,4.712,0.000,0.000,-2.048,-3.257,0.990,4.793,4.653,4.771,5.281,4.711,4.711,2.198,6.282,5.083,1.570,0.000,0.000,-1.394,-3.204,0.990,4.793,4.655,4.769,
15.680,21.234,-1.676,-3.777,1.648,0.508,6.115,0.319,1.992,1.354,0.792,2.668,0.000,2.499,1.208,0.738,0.595,0.000,3.142,0.000,0.000,0.000,0.000,0.000,0.000,0.000,0.000,0.000,0.000,0.000,3.142,6.282,0.000,1.004,1.569,1.568,4.084,6.282,1.199,4.712,0.000,0.000,-2.051,-3.216,0.990,4.792,4.663,4.760,5.277,4.712,4.711,2.209,0.001,5.078,1.570,0.000,0.000,-1.396,-3.168,0.991,4.793,4.689,4.735,
15.760,21.314,-1.681,-3.718,1.644,0.537,0.019,0.319,1.994,1.351,0.946,1.339,0.000,2.617,1.214,0.742,0.599,0.000,3.142,0.000,0.000,0.000,0.000,0.000,0.000,0.000,0.000,0.000,0.000,0.000,3.142,6.282,0.000,1.004,1.569,1.568,4.084,6.281,1.199,4.712,0.000,0.000,-2.053,-3.155,0.990,4.787,4.659,4.765,5.279,4.710,4.709,2.204,6.278,5.080,1.572,0.000,0.000,-1.398,-3.108,0.991,4.786,4.667,4.757,
15.880,21.434,-1.684,-3.674,1.644,0.271,0.029,0.318,1.990,1.347,1.056,1.332,0.000,2.723,0.904,0.745,0.597,0.000,3.142,0.000,0.000,0.000,0.000,0.000,0.000,0.000,0.000,0.000,0.000,0.000,3.142,0.001,0.000,1.002,1.570,1.570,4.087,6.281,1.199,4.712,0.000,0.000,-2.054,-3.109,0.990,4.784,4.629,4.794,5.280,4.710,4.709,2.207,6.274,5.074,1.573,0.000,0.000,-1.400,-3.065,0.991,4.781,4.632,4.792,
15.971,21.525,-1.685,-3.663,1.644,0.059,0.018,0.318,1.990,1.347,1.085,1.329,0.000,2.747,1.218,0.746,0.597,0.000,3.142,0.000,0.000,0.000,0.000,0.000,0.000,0.000,0.000,0.000,0.000,0.000,3.142,6.283,0.000,1.003,1.569,1.569,4.086,6.281,1.199,4.712,0.000,0.000,-2.056,-3.099,0.990,4.785,4.641,4.782,5.280,4.712,4.712,2.205,0.003,5.076,1.569,0.000,0.000,-1.401,-3.054,0.991,4.788,4.642,4.782,
16.080,21.634,-1.682,-3.709,1.638,-0.883,6.135,0.365,2.007,1.351,0.982,1.322,0.000,2.591,1.217,0.741,0.691,0.000,3.142,0.000,0.000,0.000,0.000,0.000,0.000,0.000,0.000,0.000,0.000,0.000,3.142,0.005,0.001,0.999,1.570,1.572,4.095,6.280,1.200,4.712,0.000,0.000,-2.047,-3.140,0.989,4.776,4.554,4.869,5.280,4.712,4.714,2.200,6.281,5.083,1.570,0.000,0.000,-1.393,-3.100,0.990,4.776,4.648,4.776,
16.179,21.733,-1.676,-3.802,1.633,-1.409,6.276,0.459,2.029,1.359,0.757,2.598,0.000,2.330,1.212,0.733,1.183,0.000,3.142,0.000,0.000,0.000,0.000,0.000,0.000,0.000,0.000,0.000,0.000,0.000,3.142,0.002,0.001,1.001,1.571,1.573,4.090,6.281,1.200,4.712,0.000,0.000,-2.038,-3.233,0.989,4.771,4.582,4.842,5.280,4.713,4.714,2.199,6.281,5.083,1.570,0.000,0.000,-1.383,-3.194,0.990,4.771,4.639,4.786,
16.261,21.815,-1.666,-3.959,1.633,-1.088,6.276,0.615,2.043,1.369,0.744,2.619,0.000,2.013,1.202,0.722,1.367,0.000,3.142,0.000,0.000,0.000,0.000,0.000,0.000,0.000,0.000,0.000,0.000,0.000,3.142,6.281,6.283,1.005,1.568,1.568,4.082,6.281,1.199,4.712,0.000,0.000,-2.032,-3.393,0.990,4.777,4.668,4.756,5.281,4.711,4.710,2.199,6.282,5.083,1.570,0.000,0.000,-1.377,-3.351,0.991,4.776,4.651,4.773,
16.380,21.934,-1.661,-4.047,1.633,-0.790,6.276,0.702,2.051,1.375,0.750,2.630,4.946,1.899,1.175,0.925,1.470,0.000,3.106,0.000,0.000,0.000,0.000,0.000,0.000,0.000,0.000,0.000,0.000,0.000,3.142,6.283,0.000,1.004,1.569,1.569,4.085,6.281,1.199,4.712,0.000,0.000,-2.025,-3.480,0.990,4.775,4.638,4.785,5.281,4.711,4.711,2.199,6.282,5.083,1.570,0.000,0.000,-1.370,-3.439,0.990,4.775,4.648,4.776,
16.475,22.029,-1.655,-4.132,1.634,-0.978,6.274,0.785,2.058,1.380,0.756,2.642,4.858,1.790,1.139,1.248,1.256,0.000,3.106,0.000,0.000,0.000,0.000,0.000,0.000,0.000,0.000,0.000,0.000,0.000,3.142,0.001,0.001,1.002,1.570,1.571,4.088,6.281,1.200,4.712,0.000,0.000,-2.019,-3.563,0.990,4.774,4.606,4.817,5.280,4.712,4.713,2.199,6.282,5.083,1.570,0.000,0.000,-1.364,-3.523,0.990,4.774,4.645,4.779,
16.580,22.134,-1.649,-4.237,1.634,-1.127,6.274,0.890,2.067,1.387,0.763,0.000,4.750,1.716,0.000,0.899,1.245,0.000,3.001,0.000,0.000,0.000,0.000,0.000,0.000,0.000,0.000,0.000,0.000,0.000,3.142,0.000,0.000,1.003,1.570,1.570,4.086,6.281,1.199,4.712,0.000,0.000,-2.013,-3.669,0.990,4.775,4.624,4.800,5.280,4.712,4.712,2.199,6.282,5.083,1.570,0.000,0.000,-1.359,-3.629,0.990,4.775,4.647,4.777,
16.680,22.234,-1.642,-4.344,1.634,-1.026,6.275,0.996,2.077,0.727,0.771,0.000,4.640,1.704,0.000,1.234,1.232,0.000,2.966,0.000,0.000,0.000,0.000,0.000,0.000,0.000,0.000,0.000,0.000,0.000,3.142,6.283,0.000,1.004,1.569,1.569,4.085,6.281,1.199,4.712,0.000,0.000,-2.007,-3.777,0.990,4.776,4.640,4.783,5.281,4.711,4.711,2.199,6.282,5.083,1.570,0.000,0.000,-1.353,-3.735,0.990,4.776,4.649,4.775,
16.780,22.334,-1.636,-4.440,1.635,-0.952,6.275,1.091,2.085,0.733,0.778,0.000,4.541,1.772,0.000,1.227,1.221,0.000,2.966,0.000,0.000,0.000,0.000,0.000,0.000,0.000,0.000,0.000,0.000,0.000,3.142,6.283,0.000,1.003,1.570,1.570,4.086,6.281,1.199,4.712,0.000,0.000,-2.001,-3.873,0.990,4.776,4.632,4.791,5.281,4.712,4.712,2.199,6.282,5.083,1.570,0.000,0.000,-1.346,-3.831,0.990,4.776,4.648,4.776,
16.879,22.433,-1.631,-4.516,1.635,-0.991,6.275,1.166,2.092,0.738,0.783,4.160,4.463,1.764,0.000,1.222,1.213,0.000,2.966,0.000,0.000,0.000,0.000,0.000,0.000,0.000,0.000,0.000,0.000,0.000,3.142,0.000,0.000,1.003,1.570,1.570,4.086,6.281,1.199,4.712,0.000,0.000,-1.996,-3.948,0.990,4.776,4.625,4.799,5.280,4.712,4.712,2.199,6.282,5.083,1.570,0.000,0.000,-1.341,-3.907,0.990,4.776,4.648,4.776,
16.980,22.534,-1.623,-4.636,1.635,-1.042,6.275,1.286,2.103,0.746,1.499,4.019,4.339,1.751,0.000,1.214,1.199,0.000,2.966,0.000,0.000,0.000,0.000,0.000,0.000,0.000,0.000,0.000,0.000,0.000,3.142,0.000,0.000,1.003,1.570,1.570,4.086,6.281,1.199,4.712,0.000,0.000,-1.989,-4.069,0.990,4.777,4.630,4.794,5.280,4.712,4.712,2.199,6.282,5.083,1.570,0.000,0.000,-1.334,-4.027,0.990,4.777,4.649,4.776,
17.080,22.634,-1.618,-4.718,1.636,-1.022,6.275,1.367,2.110,0.751,1.505,3.924,4.256,1.742,0.000,1.208,1.195,0.000,2.966,0.000,0.000,0.000,0.000,0.000,0.000,0.000,0.000,0.000,0.000,0.000,3.142,6.283,0.000,1.003,1.570,1.570,4.086,6.281,1.199,4.712,0.000,0.000,-1.984,-4.151,0.990,4.777,4.634,4.790,5.281,4.712,4.712,2.199,6.282,5.083,1.570,0.000,0.000,-1.329,-4.109,0.990,4.777,4.649,4.775,
17.180,22.734,-1.610,-4.836,1.636,-0.996,6.275,1.484,2.121,0.759,1.514,3.786,4.135,1.729,0.000,1.146,1.334,0.000,2.966,0.000,0.000,0.000,0.000,0.000,0.000,0.000,0.000,0.000,0.000,0.000,3.142,0.000,0.000,1.003,1.570,1.570,4.086,6.281,1.199,4.712,0.000,0.000,-1.976,-4.269,0.990,4.778,4.632,4.791,5.281,4.712,4.712,2.199,6.282,5.083,1.570,0.000,0.000,-1.322,-4.227,0.990,4.778,4.649,4.775,
17.280,22.834,-1.606,-4.901,1.636,-0.578,6.277,1.549,2.127,0.763,1.519,3.711,4.069,1.722,0.000,1.142,1.409,0.000,2.966,0.000,0.000,0.000,0.000,0.000,0.000,0.000,0.000,0.000,0.000,0.000,3.142,6.280,6.283,1.006,1.568,1.567,4.080,6.281,1.199,4.712,0.000,0.000,-1.974,-4.336,0.990,4.781,4.681,4.743,5.281,4.710,4.709,2.199,6.282,5.083,1.570,0.000,0.000,-1.319,-4.291,0.991,4.781,4.656,4.768,
17.380,22.934,-1.606,-4.899,1.638,0.533,0.127,1.552,2.123,0.763,1.520,3.709,4.061,1.719,0.000,1.142,1.406,0.000,2.966,0.000,0.000,0.000,0.000,0.000,0.000,0.000,0.000,0.000,0.000,0.000,3.142,6.277,6.283,1.009,1.567,1.566,4.076,6.282,1.199,4.712,0.000,0.000,-1.976,-4.337,0.991,4.785,4.716,4.708,5.282,4.710,4.708,2.197,6.283,5.083,1.571,0.000,0.000,-1.321,-4.289,0.990,4.784,4.648,4.776,
17.480,23.034,-1.612,-4.813,1.638,1.083,6.264,1.464,2.113,0.757,1.514,3.808,4.145,1.727,0.000,1.149,1.305,0.000,2.966,0.000,0.000,0.000,0.000,0.000,0.000,0.000,0.000,0.000,0.000,0.000,3.142,6.281,0.000,1.005,1.568,1.568,4.083,6.281,1.199,4.712,0.000,0.000,-1.980,-4.248,0.990,4.782,4.663,4.761,5.281,4.711,4.710,2.198,6.282,5.083,1.570,0.000,0.000,-1.326,-4.203,0.990,4.782,4.648,4.776,
17.563,23.116,-1.618,-4.720,1.639,0.731,6.264,1.369,2.102,0.750,1.507,3.915,4.235,1.736,0.000,1.210,1.195,0.000,2.966,0.000,0.000,0.000,0.000,0.000,0.000,0.000,0.000,0.000,0.000,0.000,3.142,0.001,0.001,1.001,1.570,1.571,4.089,6.281,1.200,4.712,0.000,0.000,-1.985,-4.153,0.989,4.778,4.603,4.820,5.281,4.712,4.713,2.198,6.282,5.083,1.570,0.000,0.000,-1.330,-4.109,0.990,4.779,4.642,4.782,
17.680,23.234,-1.622,-4.668,1.639,0.432,6.265,1.316,2.096,0.747,1.504,3.974,4.284,1.740,0.000,1.214,1.203,0.000,2.966,0.000,0.000,0.000,0.000,0.000,0.000,0.000,0.000,0.000,0.000,0.000,3.142,6.283,0.001,1.003,1.570,1.570,4.086,6.281,1.199,4.712,0.000,0.000,-1.990,-4.102,0.990,4.781,4.633,4.791,5.281,4.711,4.712,2.198,6.282,5.083,1.570,0.000,0.000,-1.335,-4.057,0.990,4.781,4.644,4.780,
17.780,23.334,-1.624,-4.630,1.640,0.567,6.266,1.278,2.091,0.744,1.501,4.016,4.319,1.743,0.000,1.217,1.209,0.000,2.966,0.000,0.000,0.000,0.000,0.000,0.000,0.000,0.000,0.000,0.000,0.000,3.142,6.281,0.000,1.005,1.569,1.568,4.083,6.281,1.199,4.712,0.000,0.000,-1.993,-4.066,0.990,4.783,4.660,4.763,5.281,4.711,4.710,2.198,6.282,5.083,1.570,0.000,0.000,-1.339,-4.020,0.990,4.783,4.648,4.776,
17.880,23.434,-1.630,-4.549,1.640,0.769,6.265,1.196,2.081,0.738,0.786,4.109,4.398,1.751,0.000,1.223,1.221,0.000,2.966,0.000,0.000,0.000,0.000,0.000,0.000,0.000,0.000,0.000,0.000,0.000,3.142,6.282,0.000,1.004,1.569,1.569,4.084,6.281,1.199,4.712,0.000,0.000,-1.999,-3.984,0.990,4.783,4.648,4.776,5.281,4.711,4.711,2.198,6.282,5.083,1.570,0.000,0.000,-1.344,-3.938,0.990,4.783,4.647,4.777,
17.980,23.534,-1.634,-4.491,1.641,0.696,6.266,1.138,2.074,0.734,0.782,4.175,4.453,1.757,0.000,1.228,1.229,0.000,2.966,0.000,0.000,0.000,0.000,0.000,0.000,0.000,0.000,0.000,0.000,0.000,3.142,6.283,0.001,1.003,1.570,1.570,4.086,6.281,1.199,4.712,0.000,0.000,-2.002,-3.926,0.990,4.782,4.635,4.789,5.281,4.711,4.712,2.198,6.282,5.083,1.570,0.000,0.000,-1.348,-3.880,0.990,4.782,4.646,4.778,
18.080,23.634,-1.639,-4.418,1.641,0.595,6.266,1.065,2.065,0.729,0.776,0.000,4.523,1.763,0.000,1.234,1.241,0.000,2.966,0.000,0.000,0.000,0.000,0.000,0.000,0.000,0.000,0.000,0.000,0.000,3.142,6.282,0.000,1.004,1.569,1.569,4.085,6.281,1.199,4.712,0.000,0.000,-2.008,-3.853,0.990,4.783,4.643,4.781,5.281,4.711,4.711,2.198,6.282,5.083,1.570,0.000,0.000,-1.354,-3.807,0.990,4.783,4.647,4.777,
18.180,23.734,-1.643,-4.358,1.642,0.648,6.266,1.005,2.057,0.724,0.772,0.000,4.580,1.692,0.000,1.239,1.250,0.000,2.966,0.000,0.000,0.000,0.000,0.000,0.000,0.000,0.000,0.000,0.000,0.000,3.142,6.282,0.000,1.004,1.569,1.569,4.084,6.281,1.199,4.712,0.000,0.000,-2.013,-3.794,0.990,4.784,4.650,4.774,5.281,4.711,4.711,2.198,6.282,5.083,1.570,0.000,0.000,-1.359,-3.747,0.990,4.784,4.648,4.776,
18.264,23.818,-1.648,-4.292,1.642,0.685,6.266,0.940,2.050,0.719,0.767,0.000,4.643,1.698,0.000,1.244,1.259,0.000,2.966,0.000,0.000,0.000,0.000,0.000,0.000,0.000,0.000,0.000,0.000,0.000,3.142,6.282,0.000,1.004,1.569,1.569,4.085,6.281,1.199,4.712,0.000,0.000,-2.018,-3.728,0.990,4.784,4.646,4.777,5.281,4.711,4.711,2.198,6.282,5.083,1.570,0.000,0.000,-1.363,-3.681,0.990,4.784,4.648,4.776,
18.380,23.934,-1.653,-4.227,1.642,0.656,6.266,0.875,2.041,1.001,0.762,0.000,4.706,1.705,0.000,1.249,1.269,0.000,2.966,0.000,0.000,0.000,0.000,0.000,0.000,0.000,0.000,0.000,0.000,0.000,3.142,6.282,0.000,1.004,1.569,1.569,4.085,6.281,1.199,4.712,0.000,0.000,-2.023,-3.663,0.990,4.784,4.643,4.781,5.281,4.711,4.711,2.198,6.282,5.083,1.570,0.000,0.000,-1.368,-3.616,0.990,4.784,4.648,4.776,
18.469,24.023,-1.657,-4.164,1.643,0.638,6.265,0.812,2.034,0.927,0.757,2.680,4.766,1.761,1.138,1.254,1.279,0.000,3.001,0.000,0.000,0.000,0.000,0.000,0.000,0.000,0.000,0.000,0.000,0.000,3.142,6.282,0.000,1.004,1.569,1.569,4.085,6.281,1.199,4.712,0.000,0.000,-2.027,-3.601,0.990,4.785,4.646,4.778,5.281,4.711,4.711,2.198,6.282,5.083,1.570,0.000,0.000,-1.373,-3.553,0.990,4.785,4.649,4.775,
18.580,24.134,-1.662,-4.102,1.643,0.653,6.266,0.750,2.026,1.371,0.752,2.673,4.826,1.844,1.143,1.044,1.525,0.000,3.106,0.000,0.000,0.000,0.000,0.000,0.000,0.000,0.000,0.000,0.000,0.000,3.142,6.282,0.000,1.004,1.569,1.569,4.085,6.281,1.199,4.712,0.000,0.000,-2.032,-3.538,0.990,4.785,4.648,4.776,5.281,4.711,4.711,2.198,6.282,5.083,1.570,0.000,0.000,-1.378,-3.490,0.990,4.785,4.649,4.775,
18.680,24.234,-1.666,-4.038,1.643,0.662,6.266,0.686,2.018,1.366,0.747,2.665,4.888,1.929,1.199,0.877,1.450,0.000,3.106,0.000,0.000,0.000,0.000,0.000,0.000,0.000,0.000,0.000,0.000,0.000,3.142,6.282,0.000,1.004,1.569,1.569,4.085,6.281,1.199,4.712,0.000,0.000,-2.037,-3.474,0.990,4.786,4.647,4.777,5.281,4.711,4.711,2.198,6.282,5.083,1.570,0.000,0.000,-1.383,-3.426,0.990,4.786,4.650,4.774,
18.780,24.334,-1.671,-3.974,1.644,0.654,6.266,0.622,2.010,1.361,0.742,2.658,4.949,2.013,1.204,0.731,1.375,0.000,3.106,0.000,0.000,0.000,0.000,0.000,0.000,0.000,0.000,0.000,0.000,0.000,3.142,6.282,0.000,1.004,1.569,1.569,4.085,6.281,1.199,4.712,0.000,0.000,-2.042,-3.410,0.990,4.786,4.646,4.777,5.281,4.711,4.711,2.198,6.282,5.083,1.570,0.000,0.000,-1.388,-3.362,0.990,4.786,4.650,4.774,
18.880,24.434,-1.675,-3.923,1.644,0.650,6.266,0.572,2.004,1.357,0.738,2.652,4.998,2.095,1.207,0.735,1.315,0.000,3.106,0.000,0.000,0.000,0.000,0.000,0.000,0.000,0.000,0.000,0.000,0.000,3.142,6.282,0.000,1.004,1.569,1.569,4.085,6.281,1.199,4.712,0.000,0.000,-2.046,-3.360,0.990,4.786,4.647,4.776,5.281,4.711,4.711,2.198,6.282,5.083,1.570,0.000,0.000,-1.392,-3.311,0.990,4.786,4.650,4.774,
18.980,24.534,-1.680,-3.851,1.645,0.444,6.266,0.501,1.995,1.351,0.733,2.643,0.000,2.276,1.213,0.741,1.231,0.000,3.142,0.000,0.000,0.000,0.000,0.000,0.000,0.000,0.000,0.000,0.000,0.000,3.142,0.001,0.001,1.002,1.570,1.571,4.089,6.281,1.200,4.712,0.000,0.000,-2.050,-3.287,0.989,4.785,4.616,4.808,5.281,4.712,4.713,2.198,6.282,5.083,1.570,0.000,0.000,-1.396,-3.240,0.990,4.785,4.647,4.777,
19.080,24.634,-1.682,-3.826,1.645,0.142,6.265,0.475,1.991,1.349,0.731,2.642,0.000,2.343,1.215,0.743,1.201,0.000,3.142,0.000,0.000,0.000,0.000,0.000,0.000,0.000,0.000,0.000,0.000,0.000,3.142,0.000,0.001,1.003,1.570,1.570,4.087,6.281,1.200,4.712,0.000,0.000,-2.053,-3.262,0.990,4.786,4.632,4.792,5.281,4.712,4.712,2.198,6.282,5.083,1.570,0.000,0.000,-1.399,-3.214,0.990,4.786,4.649,4.775,
19.162,24.716,-1.682,-3.821,1.646,0.003,6.270,0.470,1.989,1.349,0.730,2.644,0.000,2.359,1.215,0.744,1.195,0.000,3.142,0.000,0.000,0.000,0.000,0.000,0.000,0.000,0.000,0.000,0.000,0.000,3.142,6.283,0.001,1.003,1.569,1.569,4.086,6.281,1.199,4.712,0.000,0.000,-2.054,-3.257,0.990,4.787,4.641,4.783,5.281,4.711,4.712,2.198,6.282,5.083,1.570,0.000,0.000,-1.400,-3.208,0.990,4.787,4.650,4.774,
19.280,24.834,-1.682,-3.821,1.646,0.000,6.274,0.470,1.989,1.349,0.730,2.644,0.000,2.359,1.215,0.744,1.195,0.000,3.142,0.000,0.000,0.000,0.000,0.000,0.000,0.000,0.000,0.000,0.000,0.000,3.142,6.283,0.000,1.003,1.569,1.569,4.085,6.281,1.199,4.712,0.000,0.000,-2.054,-3.258,0.990,4.787,4.646,4.778,5.281,4.711,4.712,2.198,6.282,5.083,1.570,0.000,0.000,-1.400,-3.209,0.990,4.788,4.655,4.769,
19.380,24.934,-1.682,-3.821,1.646,0.000,6.274,0.470,1.989,1.349,0.730,2.644,0.000,2.359,1.215,0.744,1.195,0.000,3.142,0.000,0.000,0.000,0.000,0.000,0.000,0.000,0.000,0.000,0.000,0.000,3.142,6.283,0.000,1.003,1.569,1.569,4.085,6.281,1.199,4.712,0.000,0.000,-2.054,-3.258,0.990,4.787,4.646,4.778,5.281,4.711,4.711,2.198,6.282,5.083,1.570,0.000,0.000,-1.400,-3.209,0.990,4.788,4.655,4.769,
19.480,25.034,-1.682,-3.821,1.646,0.000,6.274,0.470,1.989,1.349,0.730,2.644,0.000,2.359,1.215,0.744,1.195,0.000,3.142,0.000,0.000,0.000,0.000,0.000,0.000,0.000,0.000,0.000,0.000,0.000,3.142,6.283,0.000,1.003,1.569,1.569,4.085,6.281,1.199,4.712,0.000,0.000,-2.054,-3.258,0.990,4.787,4.646,4.778,5.281,4.711,4.711,2.198,6.282,5.083,1.570,0.000,0.000,-1.400,-3.209,0.990,4.788,4.655,4.769,
19.580,25.134,-1.682,-3.821,1.646,0.000,6.274,0.470,1.989,1.349,0.730,2.644,0.000,2.359,1.215,0.744,1.195,0.000,3.142,0.000,0.000,0.000,0.000,0.000,0.000,0.000,0.000,0.000,0.000,0.000,3.142,6.283,0.000,1.003,1.569,1.569,4.085,6.281,1.199,4.712,0.000,0.000,-2.054,-3.258,0.990,4.787,4.646,4.778,5.281,4.711,4.711,2.198,6.282,5.083,1.570,0.000,0.000,-1.400,-3.209,0.990,4.788,4.655,4.769,
19.667,25.220,-1.682,-3.821,1.646,0.000,6.274,0.470,1.989,1.349,0.730,2.644,0.000,2.359,1.215,0.744,1.195,0.000,3.142,0.000,0.000,0.000,0.000,0.000,0.000,0.000,0.000,0.000,0.000,0.000,3.142,6.283,0.000,1.003,1.569,1.569,4.085,6.281,1.199,4.712,0.000,0.000,-2.054,-3.258,0.990,4.787,4.646,4.778,5.281,4.711,4.712,2.198,6.282,5.083,1.570,0.000,0.000,-1.400,-3.209,0.990,4.788,4.655,4.769,
19.780,25.334,-1.682,-3.831,1.645,-0.396,6.189,0.480,1.991,1.349,0.731,2.643,0.000,2.330,1.214,0.743,1.207,0.000,3.142,0.000,0.000,0.000,0.000,0.000,0.000,0.000,0.000,0.000,0.000,0.000,3.142,0.004,0.001,0.999,1.572,1.573,4.093,6.281,1.200,4.712,0.000,0.000,-2.051,-3.265,0.989,4.783,4.581,4.843,5.280,4.714,4.715,2.199,6.282,5.083,1.570,0.000,0.000,-1.396,-3.219,0.990,4.783,4.653,4.771,
19.879,25.433,-1.675,-3.914,1.636,-1.244,6.148,0.565,2.022,1.359,0.735,2.612,0.000,2.091,1.211,0.733,1.311,0.000,3.142,0.000,0.000,0.000,0.000,0.000,0.000,0.000,0.000,0.000,0.000,0.000,3.142,0.004,0.001,0.999,1.571,1.572,4.093,6.280,1.200,4.712,0.000,0.000,-2.039,-3.344,0.989,4.774,4.561,4.862,5.280,4.713,4.714,2.200,6.281,5.083,1.570,0.000,0.000,-1.385,-3.305,0.990,4.774,4.645,4.779,
19.965,25.519,-1.666,-4.051,1.635,-1.361,6.274,0.702,2.037,1.368,0.744,2.629,4.935,1.898,1.170,0.930,1.473,0.000,3.106,0.000,0.000,0.000,0.000,0.000,0.000,0.000,0.000,0.000,0.000,0.000,3.142,6.282,0.000,1.004,1.569,1.569,4.084,6.281,1.199,4.712,0.000,0.000,-2.033,-3.485,0.990,4.778,4.648,4.776,5.281,4.711,4.711,2.199,6.282,5.083,1.570,0.000,0.000,-1.378,-3.442,0.990,4.778,4.650,4.774,
20.080,25.634,-1.659,-4.161,1.636,-0.885,6.276,0.811,2.047,0.926,0.752,2.644,4.823,1.755,1.143,1.253,1.268,0.000,3.036,0.000,0.000,0.000,0.000,0.000,0.000,0.000,0.000,0.000,0.000,0.000,3.142,6.281,6.283,1.005,1.569,1.568,4.082,6.281,1.199,4.712,0.000,0.000,-2.026,-3.596,0.990,4.779,4.665,4.759,5.281,4.711,4.710,2.199,6.282,5.083,1.570,0.000,0.000,-1.371,-3.552,0.991,4.779,4.653,4.771,
20.180,25.734,-1.654,-4.241,1.636,-0.835,6.274,0.890,2.054,1.381,0.758,0.000,4.742,1.720,0.000,0.905,1.259,0.000,3.001,0.000,0.000,0.000,0.000,0.000,0.000,0.000,0.000,0.000,0.000,0.000,3.142,0.001,0.000,1.003,1.570,1.570,4.087,6.281,1.200,4.712,0.000,0.000,-2.020,-3.673,0.990,4.776,4.621,4.802,5.280,4.712,4.712,2.199,6.282,5.083,1.570,0.000,0.000,-1.365,-3.632,0.990,4.777,4.649,4.775,
20.267,25.821,-1.649,-4.314,1.636,-1.040,6.274,0.962,2.061,0.719,0.763,0.000,4.666,1.712,0.000,1.243,1.250,0.000,2.966,0.000,0.000,0.000,0.000,0.000,0.000,0.000,0.000,0.000,0.000,0.000,3.142,0.001,0.001,1.002,1.570,1.571,4.088,6.281,1.200,4.712,0.000,0.000,-2.015,-3.746,0.990,4.776,4.611,4.813,5.280,4.712,4.713,2.199,6.282,5.083,1.570,0.000,0.000,-1.360,-3.705,0.990,4.776,4.648,4.776,
20.380,25.934,-1.642,-4.423,1.637,-1.119,6.274,1.070,2.071,0.726,0.771,0.000,4.554,1.778,0.000,1.235,1.237,0.000,2.966,0.000,0.000,0.000,0.000,0.000,0.000,0.000,0.000,0.000,0.000,0.000,3.142,0.000,0.000,1.003,1.570,1.570,4.086,6.281,1.199,4.712,0.000,0.000,-2.008,-3.856,0.990,4.778,4.633,4.790,5.281,4.712,4.712,2.199,6.282,5.083,1.570,0.000,0.000,-1.354,-3.813,0.990,4.778,4.650,4.774,
20.463,26.017,-1.634,-4.546,1.637,-0.974,6.275,1.193,2.082,0.734,0.780,4.121,4.428,1.764,0.000,1.226,1.223,0.000,2.966,0.000,0.000,0.000,0.000,0.000,0.000,0.000,0.000,0.000,0.000,0.000,3.142,6.283,0.000,1.004,1.569,1.569,4.085,6.281,1.199,4.712,0.000,0.000,-2.001,-3.980,0.990,4.779,4.641,4.782,5.281,4.711,4.712,2.199,6.282,5.083,1.570,0.000,0.000,-1.346,-3.937,0.990,4.779,4.651,4.773,
20.580,26.134,-1.628,-4.640,1.637,-0.967,6.275,1.291,2.091,0.741,1.496,4.011,4.331,1.754,0.000,1.220,1.211,0.000,2.966,0.000,0.000,0.000,0.000,0.000,0.000,0.000,0.000,0.000,0.000,0.000,3.142,0.000,0.000,1.003,1.570,1.570,4.086,6.281,1.199,4.712,0.000,0.000,-1.994,-4.074,0.990,4.778,4.630,4.793,5.280,4.712,4.712,2.199,6.282,5.083,1.570,0.000,0.000,-1.340,-4.030,0.990,4.778,4.650,4.774,
20.672,26.225,-1.621,-4.738,1.638,-1.032,6.275,1.394,2.100,0.747,1.503,3.896,4.230,1.743,0.000,1.213,1.218,0.000,2.966,0.000,0.000,0.000,0.000,0.000,0.000,0.000,0.000,0.000,0.000,0.000,3.142,0.000,0.000,1.003,1.570,1.570,4.086,6.281,1.199,4.712,0.000,0.000,-1.988,-4.172,0.990,4.779,4.629,4.794,5.280,4.712,4.712,2.199,6.282,5.083,1.570,0.000,0.000,-1.333,-4.128,0.990,4.779,4.650,4.774,
20.780,26.334,-1.614,-4.840,1.638,-1.034,6.275,1.501,2.109,0.754,1.511,3.777,4.126,1.731,0.000,1.152,1.337,0.000,2.966,0.000,0.000,0.000,0.000,0.000,0.000,0.000,0.000,0.000,0.000,0.000,3.142,6.283,0.000,1.003,1.570,1.570,4.086,6.281,1.199,4.712,0.000,0.000,-1.982,-4.274,0.990,4.779,4.636,4.788,5.281,4.712,4.712,2.199,6.282,5.083,1.570,0.000,0.000,-1.327,-4.230,0.990,4.779,4.651,4.773,
20.878,26.432,-1.610,-4.907,1.638,-0.596,6.277,1.571,2.116,0.759,1.516,3.699,4.058,1.724,0.000,1.147,1.415,0.000,2.966,0.000,0.000,0.000,0.000,0.000,0.000,0.000,0.000,0.000,0.000,0.000,3.142,6.280,6.283,1.006,1.568,1.567,4.080,6.281,1.199,4.712,0.000,0.000,-1.979,-4.343,0.990,4.783,4.683,4.741,5.281,4.710,4.709,2.199,6.282,5.083,1.570,0.000,0.000,-1.324,-4.297,0.991,4.783,4.658,4.766,
20.980,26.534,-1.607,-4.947,1.638,-0.164,6.276,1.613,2.120,0.762,1.519,3.653,4.017,1.720,0.000,1.230,1.461,0.000,2.966,0.000,0.000,0.000,0.000,0.000,0.000,0.000,0.000,0.000,0.000,0.000,3.142,6.282,0.000,1.004,1.569,1.569,4.084,6.281,1.199,4.712,0.000,0.000,-1.975,-4.382,0.990,4.781,4.655,4.769,5.281,4.711,4.711,2.199,6.282,5.083,1.570,0.000,0.000,-1.321,-4.337,0.990,4.781,4.654,4.770,
21.080,26.634,-1.607,-4.953,1.638,-0.035,6.269,1.619,1.131,0.762,1.519,3.646,4.011,1.719,0.000,1.246,1.469,0.000,2.966,0.000,0.000,0.000,0.000,0.000,0.000,0.000,0.000,0.000,0.000,0.000,3.142,6.283,0.000,1.004,1.569,1.569,4.085,6.281,1.199,4.712,0.000,0.000,-1.974,-4.387,0.990,4.780,4.646,4.778,5.281,4.711,4.711,2.199,6.282,5.083,1.570,0.000,0.000,-1.320,-4.343,0.990,4.780,4.654,4.770,
21.180,26.734,-1.607,-4.953,1.639,-0.001,6.266,1.620,1.131,0.762,1.519,3.645,4.010,1.719,0.000,1.246,1.469,0.000,2.966,0.000,0.000,0.000,0.000,0.000,0.000,0.000,0.000,0.000,0.000,0.000,3.142,6.283,0.000,1.003,1.569,1.569,4.085,6.281,1.199,4.712,0.000,0.000,-1.974,-4.387,0.990,4.780,4.639,4.785,5.281,4.711,4.711,2.198,6.282,5.083,1.570,0.000,0.000,-1.320,-4.343,0.990,4.780,4.649,4.775,
21.280,26.834,-1.607,-4.953,1.639,-0.001,6.266,1.620,1.131,0.762,1.519,3.645,4.010,1.719,0.000,1.246,1.469,0.000,2.966,0.000,0.000,0.000,0.000,0.000,0.000,0.000,0.000,0.000,0.000,0.000,3.142,6.283,0.000,1.003,1.569,1.569,4.085,6.281,1.199,4.712,0.000,0.000,-1.974,-4.387,0.990,4.780,4.639,4.785,5.281,4.711,4.711,2.198,6.282,5.083,1.570,0.000,0.000,-1.320,-4.343,0.990,4.780,4.649,4.775,
21.380,26.934,-1.607,-4.953,1.639,-0.001,6.266,1.620,1.131,0.762,1.519,3.645,4.010,1.719,0.000,1.246,1.469,0.000,2.966,0.000,0.000,0.000,0.000,0.000,0.000,0.000,0.000,0.000,0.000,0.000,3.142,6.283,0.000,1.003,1.569,1.569,4.085,6.281,1.199,4.712,0.000,0.000,-1.974,-4.387,0.990,4.780,4.639,4.785,5.281,4.711,4.711,2.198,6.282,5.083,1.570,0.000,0.000,-1.320,-4.343,0.990,4.780,4.649,4.775,
21.480,27.034,-1.607,-4.953,1.639,-0.001,6.266,1.620,1.131,0.762,1.519,3.645,4.010,1.719,0.000,1.246,1.469,0.000,2.966,0.000,0.000,0.000,0.000,0.000,0.000,0.000,0.000,0.000,0.000,0.000,3.142,6.283,0.000,1.003,1.569,1.569,4.085,6.281,1.199,4.712,0.000,0.000,-1.974,-4.387,0.990,4.780,4.639,4.785,5.281,4.711,4.711,2.198,6.282,5.083,1.570,0.000,0.000,-1.320,-4.343,0.990,4.780,4.649,4.775,
21.566,27.119,-1.607,-4.953,1.639,-0.001,6.266,1.620,1.131,0.762,1.519,3.645,4.010,1.719,0.000,1.246,1.469,0.000,2.966,0.000,0.000,0.000,0.000,0.000,0.000,0.000,0.000,0.000,0.000,0.000,3.142,6.283,0.000,1.003,1.569,1.569,4.085,6.281,1.199,4.712,0.000,0.000,-1.974,-4.387,0.990,4.780,4.639,4.785,5.281,4.711,4.711,2.198,6.282,5.083,1.570,0.000,0.000,-1.320,-4.343,0.990,4.780,4.649,4.775,
21.680,27.234,-1.607,-4.953,1.639,-0.001,6.266,1.620,1.131,0.762,1.519,3.645,4.010,1.719,0.000,1.246,1.469,0.000,2.966,0.000,0.000,0.000,0.000,0.000,0.000,0.000,0.000,0.000,0.000,0.000,3.142,6.283,0.000,1.003,1.569,1.569,4.085,6.281,1.199,4.712,0.000,0.000,-1.974,-4.387,0.990,4.780,4.639,4.785,5.281,4.711,4.711,2.198,6.282,5.083,1.570,0.000,0.000,-1.320,-4.343,0.990,4.780,4.649,4.775,
21.771,27.325,-1.607,-4.953,1.639,-0.001,6.266,1.620,1.131,0.762,1.519,3.645,4.010,1.719,0.000,1.246,1.469,0.000,2.966,0.000,0.000,0.000,0.000,0.000,0.000,0.000,0.000,0.000,0.000,0.000,3.142,6.283,0.000,1.003,1.569,1.569,4.085,6.281,1.199,4.712,0.000,0.000,-1.974,-4.387,0.990,4.780,4.639,4.785,5.281,4.711,4.711,2.198,6.282,5.083,1.570,0.000,0.000,-1.320,-4.343,0.990,4.780,4.649,4.775,
21.880,27.434,-1.607,-4.953,1.639,-0.001,6.266,1.620,1.131,0.762,1.519,3.645,4.010,1.719,0.000,1.246,1.469,0.000,2.966,0.000,0.000,0.000,0.000,0.000,0.000,0.000,0.000,0.000,0.000,0.000,3.142,6.283,0.000,1.003,1.569,1.569,4.085,6.281,1.199,4.712,0.000,0.000,-1.974,-4.387,0.990,4.780,4.639,4.785,5.281,4.711,4.711,2.198,6.282,5.083,1.570,0.000,0.000,-1.320,-4.343,0.990,4.780,4.649,4.775,
21.978,27.531,-1.607,-4.953,1.639,-0.001,6.266,1.620,1.131,0.762,1.519,3.645,4.010,1.719,0.000,1.246,1.469,0.000,2.966,0.000,0.000,0.000,0.000,0.000,0.000,0.000,0.000,0.000,0.000,0.000,3.142,6.283,0.000,1.003,1.569,1.569,4.085,6.281,1.199,4.712,0.000,0.000,-1.974,-4.387,0.990,4.780,4.639,4.785,5.281,4.711,4.711,2.198,6.282,5.083,1.570,0.000,0.000,-1.320,-4.343,0.990,4.780,4.649,4.775,
22.063,27.616,-1.607,-4.953,1.639,-0.001,6.266,1.620,1.131,0.762,1.519,3.645,4.010,1.719,0.000,1.246,1.469,0.000,2.966,0.000,0.000,0.000,0.000,0.000,0.000,0.000,0.000,0.000,0.000,0.000,3.142,6.283,0.000,1.003,1.569,1.569,4.085,6.281,1.199,4.712,0.000,0.000,-1.974,-4.387,0.990,4.780,4.639,4.785,5.281,4.711,4.711,2.198,6.282,5.083,1.570,0.000,0.000,-1.320,-4.343,0.990,4.780,4.649,4.775,
22.180,27.734,-1.607,-4.953,1.639,-0.001,6.266,1.620,1.131,0.762,1.519,3.645,4.010,1.719,0.000,1.246,1.469,0.000,2.966,0.000,0.000,0.000,0.000,0.000,0.000,0.000,0.000,0.000,0.000,0.000,3.142,6.283,0.000,1.003,1.569,1.569,4.085,6.281,1.199,4.712,0.000,0.000,-1.974,-4.387,0.990,4.780,4.639,4.785,5.281,4.711,4.711,2.198,6.282,5.083,1.570,0.000,0.000,-1.320,-4.343,0.990,4.780,4.649,4.775,
22.268,27.822,-1.607,-4.953,1.639,-0.001,6.266,1.620,1.131,0.762,1.519,3.645,4.010,1.719,0.000,1.246,1.469,0.000,2.966,0.000,0.000,0.000,0.000,0.000,0.000,0.000,0.000,0.000,0.000,0.000,3.142,6.283,0.000,1.003,1.569,1.569,4.085,6.281,1.199,4.712,0.000,0.000,-1.974,-4.387,0.990,4.780,4.639,4.785,5.281,4.711,4.711,2.198,6.282,5.083,1.570,0.000,0.000,-1.320,-4.343,0.990,4.780,4.649,4.775,
22.380,27.934,-1.607,-4.953,1.639,-0.001,6.266,1.620,1.131,0.762,1.519,3.645,4.010,1.719,0.000,1.246,1.469,0.000,2.966,0.000,0.000,0.000,0.000,0.000,0.000,0.000,0.000,0.000,0.000,0.000,3.142,6.283,0.000,1.003,1.569,1.569,4.085,6.281,1.199,4.712,0.000,0.000,-1.974,-4.387,0.990,4.780,4.639,4.785,5.281,4.711,4.711,2.198,6.282,5.083,1.570,0.000,0.000,-1.320,-4.343,0.990,4.780,4.649,4.775,
22.475,28.029,-1.607,-4.953,1.639,-0.001,6.266,1.620,1.131,0.762,1.519,3.645,4.010,1.719,0.000,1.246,1.469,0.000,2.966,0.000,0.000,0.000,0.000,0.000,0.000,0.000,0.000,0.000,0.000,0.000,3.142,6.283,0.000,1.003,1.569,1.569,4.085,6.281,1.199,4.712,0.000,0.000,-1.974,-4.387,0.990,4.780,4.639,4.785,5.281,4.711,4.711,2.198,6.282,5.083,1.570,0.000,0.000,-1.320,-4.343,0.990,4.780,4.649,4.775,
22.580,28.134,-1.607,-4.953,1.639,-0.001,6.266,1.620,1.131,0.762,1.519,3.645,4.010,1.719,0.000,1.246,1.469,0.000,2.966,0.000,0.000,0.000,0.000,0.000,0.000,0.000,0.000,0.000,0.000,0.000,3.142,6.283,0.000,1.003,1.569,1.569,4.085,6.281,1.199,4.712,0.000,0.000,-1.974,-4.387,0.990,4.780,4.639,4.785,5.281,4.711,4.711,2.198,6.282,5.083,1.570,0.000,0.000,-1.320,-4.343,0.990,4.780,4.649,4.775,
22.680,28.234,-1.607,-4.953,1.639,-0.001,6.266,1.620,1.131,0.762,1.519,3.645,4.010,1.719,0.000,1.246,1.469,0.000,2.966,0.000,0.000,0.000,0.000,0.000,0.000,0.000,0.000,0.000,0.000,0.000,3.142,6.283,0.000,1.003,1.569,1.569,4.085,6.281,1.199,4.712,0.000,0.000,-1.974,-4.387,0.990,4.780,4.639,4.785,5.281,4.711,4.711,2.198,6.282,5.083,1.570,0.000,0.000,-1.320,-4.343,0.990,4.780,4.649,4.775,
22.780,28.334,-1.607,-4.953,1.639,-0.001,6.266,1.620,1.131,0.762,1.519,3.645,4.010,1.719,0.000,1.246,1.469,0.000,2.966,0.000,0.000,0.000,0.000,0.000,0.000,0.000,0.000,0.000,0.000,0.000,3.142,6.283,0.000,1.003,1.569,1.569,4.085,6.281,1.199,4.712,0.000,0.000,-1.974,-4.387,0.990,4.780,4.639,4.785,5.281,4.711,4.711,2.198,6.282,5.083,1.570,0.000,0.000,-1.320,-4.343,0.990,4.780,4.649,4.775,
22.880,28.434,-1.607,-4.953,1.639,-0.001,6.266,1.620,1.131,0.762,1.519,3.645,4.010,1.719,0.000,1.246,1.469,0.000,2.966,0.000,0.000,0.000,0.000,0.000,0.000,0.000,0.000,0.000,0.000,0.000,3.142,6.283,0.000,1.003,1.569,1.569,4.085,6.281,1.199,4.712,0.000,0.000,-1.974,-4.387,0.990,4.780,4.639,4.785,5.281,4.711,4.711,2.198,6.282,5.083,1.570,0.000,0.000,-1.320,-4.343,0.990,4.780,4.649,4.775,
22.980,28.534,-1.607,-4.953,1.639,-0.001,6.266,1.620,1.131,0.762,1.519,3.645,4.010,1.719,0.000,1.246,1.469,0.000,2.966,0.000,0.000,0.000,0.000,0.000,0.000,0.000,0.000,0.000,0.000,0.000,3.142,6.283,0.000,1.003,1.569,1.569,4.085,6.281,1.199,4.712,0.0