deveshdatwani/Gopher/Assets/Data/07-21 07-47-05/Obstacle Handling_robot_value.csv
game_time,true_time,x,y,az,vx,vaz,dis_to_obs_0,dis_to_obs_36,dis_to_obs_72,dis_to_obs_108,dis_to_obs_144,dis_to_obs_180,dis_to_obs_-144,dis_to_obs_-108,dis_to_obs_-72,dis_to_obs_-36,dis_to_min_obs,direction_to_min_obs,dis_to_human_0,dis_to_human_36,dis_to_human_72,dis_to_human_108,dis_to_human_144,dis_to_human_180,dis_to_human_-144,dis_to_human_-108,dis_to_human_-72,dis_to_human_-36,dis_to_min_human,direction_to_min_human,main_cam_yaw,main_cam_pitch,left_joint_1,left_joint_2,left_joint_3,left_joint_4,left_joint_5,left_joint_6,left_joint_7,left_joint_gripper,left_is_grasping,left_end_x,left_end_y,left_end_z,left_end_ax,left_end_ay,left_end_az,right_joint_1,right_joint_2,right_joint_3,right_joint_4,right_joint_5,right_joint_6,right_joint_7,right_joint_gripper,right_is_grasping,right_end_x,right_end_y,right_end_z,right_end_ax,right_end_ay,right_end_az,
6.900,28.402,0.995,-9.902,1.600,1.006,0.746,3.406,0.000,2.072,1.266,2.195,0.000,3.266,2.085,1.713,3.551,0.000,3.142,0.000,2.743,0.000,0.000,0.000,0.000,0.000,0.000,0.000,0.000,0.000,3.142,0.001,0.000,1.003,1.571,1.572,4.086,6.281,1.199,4.712,0.000,0.000,0.652,-9.322,0.990,4.738,4.508,4.916,5.281,4.713,4.714,2.199,6.281,5.083,1.571,0.000,0.000,1.307,-9.304,0.991,4.738,4.584,4.841,
7.000,28.502,0.990,-9.803,1.703,0.999,1.438,3.341,0.000,1.879,1.321,2.623,0.000,2.905,2.041,0.000,3.728,0.000,3.142,0.000,2.806,0.000,0.000,0.000,0.000,0.000,0.000,0.000,0.000,0.000,3.142,0.002,0.000,1.003,1.571,1.571,4.086,6.282,1.199,4.712,0.000,0.000,0.588,-9.263,0.990,4.843,4.677,4.747,5.282,4.713,4.713,2.198,6.282,5.083,1.571,0.000,0.000,1.239,-9.176,0.991,4.843,4.690,4.734,
7.093,28.595,0.978,-9.725,1.800,1.014,1.220,3.325,0.000,1.737,1.382,3.234,0.000,2.666,2.028,0.000,3.480,0.000,3.142,0.000,0.000,0.000,0.000,0.000,0.000,0.000,0.000,0.000,0.000,0.000,3.142,0.001,0.000,1.003,1.570,1.569,4.085,6.282,1.199,4.712,0.000,0.000,0.524,-9.226,0.990,4.942,4.693,4.730,5.282,4.712,4.712,2.198,6.283,5.083,1.570,0.000,0.000,1.164,-9.077,0.991,4.941,4.698,4.726,
7.200,28.702,0.947,-9.608,1.889,1.026,0.383,3.291,0.000,1.667,1.433,0.000,4.684,2.525,1.655,0.000,3.250,0.000,3.106,0.000,0.000,0.000,0.000,0.000,0.000,0.000,0.000,0.000,0.000,0.000,3.142,6.283,0.000,1.004,1.569,1.567,4.085,6.282,1.199,4.712,0.000,0.000,0.449,-9.152,0.990,5.033,4.697,4.725,5.281,4.711,4.710,2.198,6.283,5.083,1.570,0.000,0.000,1.073,-8.946,0.991,5.033,4.699,4.724,
7.285,28.787,0.916,-9.513,1.893,1.007,6.269,3.196,0.000,1.722,1.398,4.059,4.697,2.555,1.686,4.999,3.146,0.000,3.106,0.000,0.000,0.000,0.000,0.000,0.000,0.000,0.000,0.000,0.000,0.000,3.142,6.282,0.000,1.004,1.569,1.569,4.085,6.281,1.199,4.712,0.000,0.000,0.417,-9.059,0.990,5.035,4.697,4.726,5.281,4.711,4.711,2.198,6.282,5.083,1.570,0.000,0.000,1.039,-8.850,0.990,5.035,4.698,4.726,
7.400,28.902,0.884,-9.419,1.893,1.004,6.269,3.097,0.000,1.782,1.358,3.945,4.794,2.593,1.718,4.843,3.048,0.000,3.106,0.000,2.901,0.000,0.000,0.000,0.000,0.000,0.000,0.000,0.000,0.000,3.142,6.282,0.000,1.004,1.569,1.569,4.085,6.281,1.199,4.712,0.000,0.000,0.386,-8.965,0.990,5.035,4.698,4.725,5.281,4.711,4.711,2.198,6.282,5.083,1.570,0.000,0.000,1.008,-8.757,0.990,5.035,4.698,4.726,
7.493,28.995,0.853,-9.325,1.893,1.014,6.268,2.997,0.000,1.508,1.355,3.831,4.891,2.632,1.749,4.686,2.950,0.000,3.106,0.000,2.863,0.000,0.000,0.000,0.000,0.000,0.000,0.000,0.000,0.000,3.142,6.282,0.000,1.004,1.569,1.569,4.085,6.281,1.199,4.712,0.000,0.000,0.354,-8.871,0.990,5.036,4.698,4.725,5.281,4.711,4.711,2.198,6.282,5.083,1.570,0.000,0.000,0.976,-8.663,0.990,5.036,4.698,4.726,
7.600,29.102,0.821,-9.231,1.893,1.015,6.268,2.897,0.000,1.420,1.400,3.717,4.989,2.670,1.781,4.528,2.851,0.000,3.106,0.000,2.858,0.000,0.000,0.000,0.000,0.000,0.000,0.000,0.000,0.000,3.142,6.282,0.000,1.004,1.569,1.569,4.085,6.281,1.199,4.712,0.000,0.000,0.322,-8.776,0.990,5.036,4.698,4.726,5.281,4.711,4.711,2.198,6.282,5.083,1.570,0.000,0.000,0.944,-8.568,0.990,5.036,4.698,4.726,
7.698,29.200,0.796,-9.155,1.895,1.011,0.110,2.818,0.000,1.351,1.435,3.645,0.000,2.698,2.204,4.393,2.771,0.000,3.142,0.000,2.806,0.000,0.000,0.000,0.000,0.000,0.000,0.000,0.000,0.000,3.142,0.000,0.000,1.003,1.570,1.570,4.086,6.281,1.199,4.712,0.000,0.000,0.297,-8.701,0.990,5.036,4.696,4.727,5.281,4.712,4.712,2.199,6.282,5.083,1.570,0.000,0.000,0.919,-8.492,0.990,5.036,4.700,4.724,
7.800,29.302,0.757,-9.043,1.964,1.009,1.258,2.774,0.000,1.305,1.479,0.000,4.031,2.624,0.000,3.863,2.153,0.000,3.071,0.000,2.704,0.000,0.000,0.000,0.000,0.000,0.000,0.000,0.000,0.000,3.142,0.002,0.000,1.003,1.571,1.572,4.086,6.281,1.199,4.712,0.000,0.000,0.229,-8.624,0.990,5.103,4.700,4.724,5.282,4.713,4.714,2.199,6.282,5.083,1.571,0.000,0.000,0.835,-8.372,0.991,5.103,4.705,4.719,
7.900,29.402,0.716,-8.952,2.088,1.013,1.344,2.340,0.000,1.334,1.516,0.000,4.293,2.504,0.000,3.288,2.463,0.000,2.931,0.000,0.000,0.000,0.000,0.000,0.000,0.000,0.000,0.000,0.000,0.000,3.142,0.001,0.000,1.003,1.570,1.570,4.085,6.282,1.199,4.712,0.000,0.000,0.139,-8.602,0.990,5.230,4.703,4.719,5.282,4.713,4.712,2.198,6.283,5.083,1.571,0.000,0.000,0.710,-8.277,0.991,5.229,4.706,4.718,
8.000,29.502,0.675,-8.883,2.168,1.021,0.956,2.552,0.000,1.343,1.551,0.000,4.134,2.045,0.000,2.990,2.383,0.000,2.861,0.000,0.000,0.000,0.000,0.000,0.000,0.000,0.000,0.000,0.000,0.000,3.142,0.001,0.000,1.003,1.570,1.569,4.085,6.282,1.199,4.712,0.000,0.000,0.071,-8.581,0.990,5.311,4.704,4.718,5.282,4.712,4.711,2.198,6.283,5.083,1.570,0.000,0.000,0.614,-8.211,0.991,5.310,4.706,4.717,
8.100,29.602,0.604,-8.785,2.254,1.016,0.859,0.000,0.000,1.308,1.598,0.000,3.793,2.064,0.000,2.701,2.290,0.000,2.791,0.000,0.000,0.000,0.000,0.000,0.000,0.000,0.000,0.000,0.000,0.000,3.142,0.001,0.000,1.003,1.570,1.570,4.086,6.281,1.199,4.712,0.000,0.000,-0.022,-8.535,0.990,5.395,4.704,4.718,5.282,4.712,4.712,2.198,6.282,5.083,1.570,0.000,0.000,0.487,-8.121,0.991,5.395,4.707,4.716,
8.200,29.702,0.540,-8.709,2.338,1.008,1.063,0.000,3.835,1.300,1.645,0.000,3.545,2.462,4.977,2.489,2.235,0.000,2.720,0.000,0.000,0.000,0.000,0.000,0.000,0.000,0.000,0.000,0.000,0.000,3.142,0.001,0.000,1.003,1.570,1.570,4.086,6.282,1.199,4.712,0.000,0.000,-0.105,-8.512,0.990,5.479,4.705,4.716,5.282,4.712,4.713,2.198,6.282,5.083,1.571,0.000,0.000,0.367,-8.057,0.991,5.478,4.708,4.715,
8.294,29.797,0.484,-8.653,2.413,1.010,1.077,4.598,3.746,1.316,1.774,0.000,3.372,3.598,4.221,1.865,2.210,0.000,2.650,0.000,0.000,0.000,0.000,0.000,0.000,0.000,0.000,0.000,0.000,0.000,3.142,0.001,0.000,1.003,1.570,1.570,4.085,6.282,1.199,4.712,0.000,0.000,-0.174,-8.505,0.990,5.554,4.706,4.715,5.282,4.712,4.712,2.198,6.282,5.083,1.570,0.000,0.000,0.263,-8.016,0.991,5.554,4.708,4.715,
8.400,29.902,0.392,-8.576,2.520,1.016,0.993,0.000,1.456,1.342,2.094,0.000,3.207,0.000,3.464,2.171,2.198,0.000,2.545,2.271,0.000,0.000,0.000,0.000,0.000,0.000,0.000,0.000,0.000,0.000,3.142,0.001,0.000,1.003,1.570,1.570,4.085,6.282,1.199,4.712,0.000,0.000,-0.278,-8.500,0.990,5.662,4.707,4.715,5.282,4.712,4.712,2.198,6.282,5.083,1.570,0.000,0.000,0.103,-7.966,0.991,5.662,4.708,4.714,
8.500,30.002,0.326,-8.530,2.589,1.016,0.991,0.000,1.325,1.537,2.441,4.640,3.142,0.000,3.112,2.084,2.348,0.000,2.475,2.120,0.000,0.000,0.000,0.000,0.000,0.000,0.000,0.000,0.000,0.000,3.142,0.001,0.000,1.003,1.570,1.570,4.085,6.282,1.199,4.712,0.000,0.000,-0.348,-8.500,0.990,5.730,4.707,4.714,5.282,4.712,4.712,2.198,6.282,5.083,1.570,0.000,0.000,-0.003,-7.942,0.991,5.730,4.708,4.714,
8.600,30.102,0.222,-8.471,2.693,1.013,1.014,4.713,1.162,1.505,3.819,4.870,2.642,0.000,2.709,1.986,1.914,0.000,2.404,0.000,0.000,0.000,0.000,0.000,0.000,0.000,0.000,0.000,0.000,0.000,3.142,0.001,0.000,1.003,1.570,1.570,4.086,6.281,1.199,4.712,0.000,0.000,-0.451,-8.511,0.990,5.834,4.707,4.714,5.282,4.712,4.712,2.198,6.282,5.083,1.570,0.000,0.000,-0.166,-7.919,0.991,5.833,4.709,4.713,
8.687,30.189,0.150,-8.437,2.763,1.013,1.019,0.000,1.069,1.486,0.000,0.000,2.639,0.000,2.503,1.940,1.957,0.000,2.545,0.000,0.000,0.000,0.000,0.000,0.000,0.000,0.000,0.000,0.000,0.000,3.142,0.001,0.000,1.003,1.570,1.570,4.085,6.282,1.199,4.712,0.000,0.000,-0.519,-8.524,0.990,5.904,4.707,4.713,5.282,4.712,4.712,2.198,6.282,5.083,1.570,0.000,0.000,-0.277,-7.914,0.991,5.904,4.709,4.713,
8.800,30.302,0.043,-8.398,2.819,0.895,0.029,0.000,0.989,1.450,0.000,4.875,2.698,4.803,2.348,1.898,4.342,0.000,2.510,0.000,0.000,0.000,0.000,0.000,0.000,0.000,0.000,0.000,0.000,0.000,3.142,6.283,0.001,1.003,1.569,1.567,4.086,6.281,1.199,4.712,0.000,0.000,-0.620,-8.524,0.990,5.963,4.707,4.713,5.281,4.711,4.710,2.198,6.282,5.083,1.570,0.000,0.000,-0.412,-7.902,0.990,5.963,4.708,4.713,
8.900,30.402,-0.037,-8.371,2.819,0.864,6.270,0.000,0.966,0.729,0.000,0.000,2.783,4.888,2.314,1.871,4.309,0.000,2.545,0.000,0.000,0.000,0.000,0.000,0.000,0.000,0.000,0.000,0.000,0.000,3.142,6.282,0.000,1.004,1.569,1.569,4.085,6.281,1.199,4.712,0.000,0.000,-0.700,-8.496,0.990,5.961,4.708,4.713,5.281,4.711,4.711,2.198,6.282,5.083,1.570,0.000,0.000,-0.493,-7.874,0.990,5.962,4.707,4.713,
8.998,30.500,-0.103,-8.349,2.819,0.910,6.269,0.000,0.947,0.715,0.000,0.000,2.852,0.000,2.287,1.849,4.282,0.000,2.545,0.000,0.000,0.000,0.000,0.000,0.000,0.000,0.000,0.000,0.000,0.000,3.142,6.282,0.000,1.004,1.569,1.569,4.084,6.281,1.199,4.712,0.000,0.000,-0.766,-8.475,0.990,5.962,4.708,4.713,5.281,4.711,4.711,2.198,6.282,5.083,1.570,0.000,0.000,-0.559,-7.852,0.990,5.962,4.707,4.713,
9.100,30.602,-0.208,-8.314,2.820,0.936,6.268,0.000,0.918,0.693,0.000,0.000,2.962,0.000,2.244,1.814,4.239,0.000,2.580,0.000,0.000,0.000,0.000,0.000,0.000,0.000,0.000,0.000,0.000,0.000,3.142,6.282,0.000,1.004,1.569,1.569,4.085,6.281,1.199,4.712,0.000,0.000,-0.870,-8.440,0.990,5.962,4.707,4.713,5.281,4.711,4.711,2.198,6.282,5.083,1.570,0.000,0.000,-0.663,-7.817,0.990,5.962,4.707,4.713,
9.200,30.702,-0.293,-8.285,2.820,0.906,6.268,0.000,2.858,0.675,1.834,0.000,3.052,0.000,2.208,1.785,4.204,0.000,2.580,0.000,0.000,0.000,0.000,0.000,0.000,0.000,0.000,0.000,0.000,0.000,3.142,6.282,0.000,1.004,1.569,1.569,4.085,6.281,1.199,4.712,0.000,0.000,-0.956,-8.411,0.990,5.962,4.707,4.713,5.281,4.711,4.711,2.198,6.282,5.083,1.570,0.000,0.000,-0.749,-7.789,0.990,5.962,4.707,4.713,
9.280,30.782,-0.381,-8.256,2.802,0.998,5.664,0.000,2.750,0.657,1.742,0.000,3.164,0.000,2.201,1.756,4.115,0.000,2.650,0.000,0.000,0.000,0.000,0.000,0.000,0.000,0.000,0.000,0.000,0.000,3.142,6.280,0.001,1.005,1.567,1.565,4.083,6.282,1.199,4.711,0.000,0.000,-1.046,-8.373,0.990,5.949,4.708,4.712,5.282,4.710,4.708,2.197,6.282,5.083,1.570,0.000,0.000,-0.829,-7.753,0.990,5.948,4.707,4.713,
9.400,30.902,-0.478,-8.220,2.708,1.066,4.913,4.132,2.838,0.649,0.701,0.000,3.394,0.000,2.331,1.731,3.832,0.000,2.755,0.000,0.000,0.000,0.000,0.000,0.000,0.000,0.000,0.000,0.000,0.000,3.142,6.280,0.001,1.005,1.568,1.566,4.084,6.281,1.199,4.712,0.000,0.000,-1.151,-8.273,0.990,5.854,4.707,4.713,5.282,4.710,4.709,2.197,6.282,5.083,1.570,0.000,0.000,-0.876,-7.677,0.991,5.853,4.708,4.713,
9.500,31.002,-0.570,-8.175,2.589,1.013,5.074,0.000,2.693,0.663,0.662,0.000,4.193,0.000,2.565,1.719,0.000,0.000,2.896,1.351,0.000,0.000,0.000,0.000,0.000,0.000,0.000,0.000,0.000,0.000,3.142,6.281,0.001,1.004,1.569,1.568,4.086,6.281,1.199,4.712,0.000,0.000,-1.244,-8.146,0.989,5.732,4.706,4.714,5.282,4.711,4.711,2.198,6.282,5.083,1.570,0.000,0.000,-0.900,-7.587,0.991,5.732,4.708,4.714,
9.599,31.101,-0.631,-8.136,2.527,0.736,5.793,0.000,2.621,1.652,0.653,0.000,4.445,0.000,2.708,1.708,0.000,0.000,2.966,1.191,0.000,0.000,0.000,0.000,0.000,0.000,0.000,0.000,0.000,0.000,3.142,0.001,0.001,1.002,1.571,1.572,4.090,6.280,1.199,4.712,0.000,0.000,-1.302,-8.062,0.989,5.664,4.703,4.717,5.281,4.713,4.714,2.198,6.281,5.083,1.571,0.000,0.000,-0.922,-7.527,0.990,5.664,4.707,4.715,
9.700,31.202,-0.672,-8.107,2.520,0.250,6.281,0.000,2.579,2.946,0.657,0.000,4.517,0.000,2.685,1.681,0.000,0.000,3.001,1.136,0.000,0.000,0.000,0.000,0.000,0.000,0.000,0.000,0.000,0.000,3.142,0.000,0.001,1.003,1.570,1.570,4.087,6.281,1.199,4.712,0.000,0.000,-1.342,-8.031,0.990,5.661,4.705,4.715,5.281,4.712,4.712,2.198,6.282,5.083,1.570,0.000,0.000,-0.960,-7.498,0.990,5.661,4.707,4.715,
9.800,31.302,-0.697,-8.089,2.521,0.464,6.261,0.000,2.554,2.916,0.660,0.000,4.545,0.000,2.651,1.662,0.000,0.000,3.001,1.109,0.000,0.000,0.000,0.000,0.000,0.000,0.000,0.000,0.000,0.000,3.142,6.281,0.000,1.005,1.569,1.568,4.083,6.281,1.199,4.712,0.000,0.000,-1.367,-8.015,0.990,5.664,4.708,4.714,5.281,4.711,4.710,2.198,6.282,5.083,1.570,0.000,0.000,-0.987,-7.481,0.990,5.664,4.707,4.715,
9.900,31.402,-0.733,-8.064,2.521,0.638,6.261,0.000,2.518,2.872,0.664,0.000,4.587,0.000,2.607,1.635,0.000,0.000,3.001,1.065,0.000,0.000,0.000,0.000,0.000,0.000,0.000,0.000,0.000,0.000,3.142,6.282,0.000,1.004,1.569,1.569,4.084,6.281,1.199,4.712,0.000,0.000,-1.403,-7.989,0.990,5.664,4.707,4.714,5.281,4.711,4.711,2.198,6.282,5.083,1.570,0.000,0.000,-1.022,-7.455,0.990,5.664,4.707,4.715,
10.000,31.502,-0.791,-8.022,2.522,0.531,6.263,0.000,2.580,2.801,0.671,1.020,4.655,0.000,2.535,1.133,0.000,0.000,3.036,1.007,0.000,0.000,0.000,0.000,0.000,0.000,0.000,0.000,0.000,0.000,3.142,0.000,0.001,1.003,1.570,1.570,4.087,6.281,1.199,4.712,0.000,0.000,-1.461,-7.948,0.990,5.663,4.705,4.715,5.281,4.712,4.712,2.198,6.282,5.083,1.570,0.000,0.000,-1.080,-7.414,0.990,5.663,4.707,4.715,
10.087,31.589,-0.821,-8.001,2.523,0.444,6.264,0.000,0.000,2.764,0.675,1.026,4.691,0.000,2.497,1.111,0.000,0.000,3.036,0.970,0.000,0.000,0.000,0.000,0.000,0.000,0.000,0.000,0.000,0.000,3.142,6.283,0.000,1.003,1.569,1.569,4.086,6.281,1.199,4.712,0.000,0.000,-1.492,-7.927,0.990,5.664,4.706,4.715,5.281,4.711,4.712,2.198,6.282,5.083,1.570,0.000,0.000,-1.111,-7.392,0.990,5.664,4.707,4.715,
10.200,31.702,-0.857,-7.976,2.524,0.485,6.263,0.000,0.000,2.720,0.680,1.033,4.732,0.000,2.453,1.541,0.000,0.000,3.036,0.932,0.000,0.000,0.000,0.000,0.000,0.000,0.000,0.000,0.000,0.000,3.142,6.282,0.000,1.004,1.569,1.569,4.084,6.281,1.199,4.712,0.000,0.000,-1.527,-7.902,0.990,5.666,4.707,4.715,5.281,4.711,4.711,2.198,6.282,5.083,1.570,0.000,0.000,-1.148,-7.368,0.990,5.666,4.707,4.715,
10.300,31.802,-0.906,-7.941,2.524,0.501,6.241,0.000,0.000,2.658,0.685,1.042,4.792,0.000,2.394,1.505,0.000,0.000,3.071,0.898,0.000,0.000,0.000,0.000,0.000,0.000,0.000,0.000,0.000,0.000,3.142,6.282,0.001,1.004,1.569,1.569,4.085,6.281,1.199,4.712,0.000,0.000,-1.577,-7.868,0.990,5.666,4.706,4.715,5.281,4.711,4.711,2.197,6.282,5.083,1.570,0.000,0.000,-1.197,-7.333,0.990,5.666,4.706,4.715,
10.397,31.899,-0.932,-7.922,2.503,0.322,5.602,0.000,0.000,2.584,0.738,1.022,4.896,0.000,2.430,1.495,0.000,0.000,3.106,0.875,0.000,0.000,0.000,0.000,0.000,0.000,0.000,0.000,0.000,0.000,3.142,6.282,0.001,1.003,1.568,1.567,4.086,6.281,1.199,4.712,0.000,0.000,-1.602,-7.837,0.990,5.648,4.706,4.715,5.281,4.710,4.709,2.197,6.282,5.083,1.570,0.000,0.000,-1.211,-7.309,0.990,5.648,4.705,4.715,
10.500,32.002,-0.954,-7.905,2.430,0.234,5.841,0.000,0.000,2.430,1.343,0.950,0.000,0.000,2.680,1.517,0.000,0.000,3.142,0.857,0.000,0.000,0.000,0.000,0.000,0.000,0.000,0.000,0.000,0.000,3.142,6.281,0.000,1.004,1.570,1.570,4.085,6.281,1.199,4.712,0.000,0.000,-1.614,-7.769,0.990,5.570,4.706,4.716,5.282,4.712,4.712,2.197,6.282,5.083,1.571,0.000,0.000,-1.186,-7.272,0.991,5.570,4.707,4.716,
10.593,32.095,-0.969,-7.892,2.421,0.316,6.261,0.000,0.000,2.250,1.362,0.947,0.000,0.000,2.694,1.508,0.000,0.000,3.142,0.876,0.000,0.000,0.000,0.000,0.000,0.000,0.000,0.000,0.000,0.000,3.142,6.282,0.000,1.004,1.569,1.569,4.084,6.281,1.199,4.712,0.000,0.000,-1.628,-7.750,0.990,5.563,4.707,4.715,5.281,4.711,4.711,2.198,6.282,5.083,1.570,0.000,0.000,-1.196,-7.257,0.990,5.563,4.706,4.716,
10.700,32.202,-1.000,-7.865,2.421,0.359,6.264,2.621,0.000,2.363,1.390,0.959,0.000,0.000,2.640,1.479,0.000,0.000,3.142,0.000,0.000,0.000,0.000,0.000,0.000,0.000,0.000,0.000,0.000,0.000,3.142,6.282,0.000,1.004,1.569,1.569,4.085,6.281,1.199,4.712,0.000,0.000,-1.659,-7.724,0.990,5.563,4.706,4.716,5.281,4.711,4.711,2.198,6.282,5.083,1.570,0.000,0.000,-1.227,-7.230,0.990,5.563,4.706,4.716,
10.783,32.285,-1.022,-7.845,2.422,0.210,6.277,2.591,0.000,2.337,1.411,0.967,0.000,0.000,2.600,1.458,0.000,0.000,3.142,0.000,0.000,0.000,0.000,0.000,0.000,0.000,0.000,0.000,0.000,0.000,3.142,0.000,0.001,1.002,1.570,1.570,4.087,6.281,1.200,4.712,0.000,0.000,-1.682,-7.703,0.990,5.563,4.704,4.717,5.281,4.712,4.712,2.198,6.282,5.083,1.570,0.000,0.000,-1.249,-7.210,0.990,5.563,4.706,4.716,
10.900,32.402,-1.029,-7.839,2.422,0.035,6.268,2.581,0.000,2.329,1.418,0.970,0.000,0.000,2.586,1.451,0.000,0.000,3.142,0.000,0.000,0.000,0.000,0.000,0.000,0.000,0.000,0.000,0.000,0.000,3.142,6.283,0.001,1.003,1.570,1.569,4.086,6.281,1.199,4.712,0.000,0.000,-1.689,-7.698,0.990,5.564,4.705,4.716,5.281,4.711,4.712,2.198,6.282,5.083,1.570,0.000,0.000,-1.257,-7.204,0.990,5.564,4.706,4.716,
11.000,32.502,-1.006,-7.859,2.422,-0.674,6.227,2.611,0.000,2.356,1.396,0.962,0.000,0.000,2.625,1.472,0.000,0.000,3.142,0.000,0.000,0.000,0.000,0.000,0.000,0.000,0.000,0.000,1.204,0.000,3.142,0.004,0.001,0.999,1.572,1.573,4.094,6.281,1.200,4.712,0.000,0.000,-1.666,-7.714,0.989,5.559,4.700,4.720,5.280,4.713,4.715,2.199,6.282,5.083,1.570,0.000,0.000,-1.232,-7.223,0.990,5.560,4.707,4.716,
11.100,32.602,-0.927,-7.928,2.419,-1.374,6.282,2.721,0.000,2.444,1.119,0.930,0.000,0.000,2.773,1.076,0.000,0.000,3.142,0.000,0.000,0.000,0.000,0.000,0.000,0.000,0.000,0.000,0.000,0.000,3.142,0.003,0.001,1.001,1.571,1.572,4.091,6.281,1.200,4.712,0.000,0.000,-1.587,-7.782,0.989,5.557,4.702,4.718,5.280,4.713,4.714,2.199,6.282,5.083,1.570,0.000,0.000,-1.151,-7.292,0.990,5.557,4.707,4.716,
11.200,32.702,-0.830,-8.014,2.419,-0.989,6.279,2.848,0.000,2.559,0.646,0.895,0.000,0.000,2.937,1.642,0.000,0.000,3.142,0.000,0.000,0.000,0.000,0.000,0.000,0.000,0.000,0.000,0.000,0.000,3.142,6.279,6.283,1.007,1.568,1.566,4.078,6.281,1.199,4.712,0.000,0.000,-1.489,-7.874,0.991,5.565,4.711,4.712,5.281,4.710,4.709,2.198,6.282,5.083,1.570,0.000,0.000,-1.057,-7.380,0.991,5.564,4.707,4.715,
11.300,32.802,-0.789,-8.050,2.419,-0.473,6.277,2.902,0.000,2.608,0.635,0.880,0.000,0.000,3.008,1.681,0.000,0.000,3.142,0.000,0.000,0.000,0.000,0.000,0.000,0.000,0.000,0.000,1.709,0.000,3.142,6.281,6.283,1.006,1.568,1.568,4.081,6.281,1.199,4.712,0.000,0.000,-1.448,-7.909,0.990,5.563,4.709,4.714,5.281,4.711,4.710,2.198,6.282,5.083,1.570,0.000,0.000,-1.015,-7.416,0.991,5.563,4.707,4.715,
11.400,32.902,-0.766,-8.070,2.420,-0.116,6.276,2.931,0.000,2.635,0.629,0.871,0.000,0.000,2.283,1.703,0.000,0.000,3.142,0.000,0.000,0.000,0.000,0.000,0.000,0.000,0.000,0.000,1.769,0.000,3.142,6.282,0.000,1.004,1.569,1.569,4.084,6.281,1.199,4.712,0.000,0.000,-1.426,-7.928,0.990,5.562,4.707,4.715,5.281,4.711,4.711,2.199,6.282,5.083,1.570,0.000,0.000,-0.992,-7.435,0.990,5.562,4.707,4.715,
11.500,33.002,-0.778,-8.060,2.420,0.523,0.064,2.915,0.000,2.622,0.631,0.876,0.000,0.000,2.297,1.692,0.000,0.000,3.142,0.000,0.000,0.000,0.000,0.000,0.000,0.000,0.000,0.000,1.798,0.000,3.142,6.278,6.283,1.008,1.568,1.566,4.076,6.283,1.199,4.712,0.000,0.000,-1.437,-7.922,0.991,5.566,4.712,4.711,5.282,4.710,4.709,2.197,6.283,5.083,1.571,0.000,0.000,-1.006,-7.426,0.991,5.566,4.707,4.716,
11.580,33.082,-0.849,-7.998,2.422,1.325,0.056,2.817,0.000,2.542,0.651,0.904,0.000,0.000,2.892,1.622,0.000,0.000,3.142,0.000,0.000,0.000,0.000,0.000,0.000,0.000,0.000,0.000,1.845,0.000,3.142,6.279,6.283,1.007,1.567,1.566,4.078,6.281,1.199,4.712,0.000,0.000,-1.508,-7.860,0.990,5.568,4.711,4.712,5.282,4.710,4.709,2.197,6.282,5.083,1.570,0.000,0.000,-1.078,-7.364,0.991,5.567,4.707,4.716,
11.700,33.202,-0.953,-7.907,2.423,1.301,6.266,2.680,0.000,2.420,1.345,0.942,0.000,0.000,2.714,1.523,0.000,0.000,3.142,0.000,0.000,0.000,0.000,0.000,0.000,0.000,0.000,0.000,1.873,0.000,3.142,0.001,0.001,1.002,1.570,1.570,4.088,6.281,1.200,4.712,0.000,0.000,-1.612,-7.765,0.990,5.563,4.704,4.717,5.281,4.712,4.712,2.198,6.282,5.083,1.570,0.000,0.000,-1.180,-7.272,0.990,5.564,4.706,4.716,
11.785,33.287,-1.031,-7.838,2.423,0.843,6.265,2.576,0.000,2.329,1.418,0.971,0.000,0.000,2.580,1.126,0.000,0.000,3.142,0.000,0.000,0.000,0.000,0.000,0.000,0.000,0.000,0.000,0.000,0.000,3.142,0.001,0.001,1.002,1.570,1.571,4.088,6.281,1.200,4.712,0.000,0.000,-1.691,-7.697,0.989,5.563,4.704,4.717,5.281,4.712,4.712,2.198,6.282,5.083,1.570,0.000,0.000,-1.259,-7.203,0.990,5.564,4.706,4.716,
11.900,33.402,-1.091,-7.786,2.424,0.868,6.266,2.497,0.000,2.273,1.474,0.993,0.000,0.000,2.477,1.069,0.000,0.000,3.142,0.000,0.000,0.000,0.000,0.000,0.000,0.000,0.000,0.000,0.000,0.000,3.142,6.282,0.000,1.005,1.569,1.568,4.083,6.281,1.199,4.712,0.000,0.000,-1.751,-7.647,0.990,5.567,4.707,4.715,5.281,4.711,4.711,2.198,6.282,5.083,1.570,0.000,0.000,-1.320,-7.152,0.990,5.567,4.706,4.716,
12.000,33.502,-1.148,-7.736,2.424,1.069,6.266,2.421,0.000,2.366,1.528,1.014,0.000,0.000,2.379,1.015,0.000,0.000,3.142,0.000,0.000,0.000,0.000,0.000,0.000,0.000,0.000,0.000,0.000,0.000,3.142,6.281,0.000,1.005,1.569,1.568,4.083,6.281,1.199,4.712,0.000,0.000,-1.808,-7.597,0.990,5.567,4.708,4.715,5.281,4.711,4.710,2.198,6.282,5.083,1.570,0.000,0.000,-1.378,-7.102,0.990,5.567,4.706,4.716,
12.100,33.602,-1.247,-7.650,2.425,1.083,6.266,2.291,0.000,2.525,1.620,1.050,0.000,0.000,2.211,0.921,0.000,0.000,3.142,0.000,0.000,0.000,0.000,0.000,0.000,0.000,0.000,0.000,0.000,0.000,3.142,6.283,0.000,1.003,1.569,1.569,4.086,6.281,1.199,4.712,0.000,0.000,-1.907,-7.510,0.990,5.566,4.705,4.716,5.281,4.711,4.711,2.198,6.282,5.083,1.570,0.000,0.000,-1.476,-7.016,0.990,5.566,4.706,4.716,
12.200,33.702,-1.323,-7.584,2.425,0.963,6.266,2.191,0.000,2.282,1.690,1.078,0.000,0.000,2.083,0.853,0.000,0.000,3.142,0.000,0.000,0.000,0.000,0.000,0.000,0.000,0.000,0.000,0.000,0.000,3.142,6.283,0.000,1.003,1.569,1.569,4.086,6.281,1.199,4.712,0.000,0.000,-1.983,-7.445,0.990,5.567,4.705,4.716,5.281,4.711,4.711,2.198,6.282,5.083,1.570,0.000,0.000,-1.552,-6.950,0.990,5.567,4.706,4.716,
12.283,33.785,-1.390,-7.525,2.413,0.863,5.763,2.125,4.825,2.185,3.644,1.096,0.000,0.000,2.012,1.000,0.000,0.000,3.142,0.000,0.000,0.000,0.000,0.000,0.000,0.000,0.000,0.000,0.000,0.000,3.142,6.281,0.001,1.004,1.568,1.566,4.085,6.281,1.199,4.712,0.000,0.000,-2.050,-7.380,0.990,5.558,4.706,4.715,5.281,4.710,4.709,2.197,6.282,5.083,1.570,0.000,0.000,-1.613,-6.890,0.990,5.558,4.705,4.716,
12.400,33.902,-1.452,-7.468,2.323,0.862,4.897,2.224,4.817,2.010,3.377,1.343,0.000,0.000,2.249,0.960,4.705,0.000,3.142,0.000,0.000,0.000,0.000,0.000,0.000,0.000,0.000,0.000,0.000,0.000,3.142,6.280,0.001,1.005,1.568,1.565,4.084,6.281,1.199,4.711,0.000,0.000,-2.096,-7.265,0.990,5.469,4.706,4.715,5.282,4.710,4.708,2.197,6.282,5.083,1.570,0.000,0.000,-1.617,-6.816,0.991,5.468,4.706,4.716,
12.500,34.002,-1.499,-7.417,2.223,0.907,4.958,2.418,4.860,1.925,2.756,1.743,0.000,0.000,2.709,0.897,3.986,0.000,3.142,0.000,0.000,0.000,0.000,0.000,0.000,0.000,0.000,0.000,0.000,0.000,3.142,6.280,0.001,1.005,1.568,1.567,4.085,6.281,1.199,4.712,0.000,0.000,-2.118,-7.149,0.990,5.367,4.705,4.717,5.282,4.711,4.710,2.197,6.282,5.083,1.570,0.000,0.000,-1.597,-6.750,0.991,5.366,4.706,4.716,
12.600,34.102,-1.561,-7.329,2.110,0.917,5.417,2.721,1.779,4.732,2.263,1.832,1.783,4.633,3.597,0.870,4.777,0.000,1.211,0.000,0.000,0.000,0.000,0.000,0.000,0.000,0.000,0.000,0.000,0.000,3.142,6.281,0.001,1.004,1.569,1.568,4.085,6.281,1.199,4.712,0.000,0.000,-2.147,-6.992,0.990,5.253,4.703,4.719,5.282,4.711,4.711,2.197,6.282,5.083,1.570,0.000,0.000,-1.584,-6.655,0.991,5.252,4.704,4.719,
12.700,34.202,-1.598,-7.267,2.052,0.896,5.433,2.934,1.667,0.000,2.363,1.903,1.681,4.682,4.437,0.867,4.512,0.000,1.281,0.000,0.000,0.000,0.000,0.000,0.000,0.000,0.000,0.000,0.000,0.000,3.142,6.281,0.001,1.004,1.569,1.568,4.085,6.281,1.199,4.712,0.000,0.000,-2.162,-6.897,0.990,5.195,4.702,4.720,5.282,4.711,4.710,2.197,6.282,5.083,1.570,0.000,0.000,-1.581,-6.593,0.990,5.195,4.703,4.720,
12.800,34.302,-1.644,-7.173,1.951,0.885,5.234,2.465,1.583,0.000,2.141,3.816,1.552,0.000,0.000,0.849,3.572,0.000,1.562,0.000,0.000,0.000,0.000,0.000,0.000,0.000,0.000,0.000,0.000,0.000,3.142,6.280,0.001,1.004,1.568,1.567,4.085,6.281,1.199,4.712,0.000,0.000,-2.169,-6.749,0.990,5.095,4.700,4.723,5.282,4.711,4.710,2.197,6.282,5.083,1.570,0.000,0.000,-1.559,-6.505,0.991,5.094,4.701,4.722,
12.900,34.402,-1.674,-7.091,1.858,0.900,5.243,2.297,1.646,4.526,1.949,3.999,1.690,0.000,0.000,0.828,3.656,0.000,1.527,0.000,0.000,0.000,0.000,0.000,0.000,0.000,0.000,0.000,0.000,0.000,3.142,6.280,0.001,1.004,1.569,1.567,4.085,6.281,1.199,4.712,0.000,0.000,-2.158,-6.620,0.990,5.002,4.696,4.727,5.282,4.711,4.710,2.197,6.282,5.083,1.570,0.000,0.000,-1.528,-6.433,0.991,5.001,4.697,4.726,
12.981,34.483,-1.698,-7.005,1.770,0.905,5.300,0.000,1.735,0.000,2.124,3.365,1.947,0.000,0.000,0.809,2.847,0.000,2.791,0.000,0.000,0.000,0.000,0.000,0.000,0.000,0.000,0.000,0.000,0.000,3.142,6.281,0.001,1.004,1.569,1.568,4.085,6.281,1.199,4.712,0.000,0.000,-2.138,-6.493,0.990,4.914,4.688,4.735,5.282,4.711,4.710,2.197,6.282,5.083,1.570,0.000,0.000,-1.494,-6.363,0.991,4.913,4.691,4.733,
13.100,34.602,-1.714,-6.918,1.685,0.896,5.305,4.818,1.860,1.446,4.725,2.772,2.254,0.000,0.000,0.792,2.782,0.000,1.878,0.000,0.000,0.000,0.000,0.000,0.000,0.000,0.000,0.000,0.000,0.000,3.142,6.281,0.001,1.004,1.568,1.567,4.085,6.281,1.199,4.712,0.000,0.000,-2.108,-6.370,0.990,4.829,4.671,4.753,5.282,4.711,4.710,2.197,6.282,5.083,1.570,0.000,0.000,-1.456,-6.295,0.991,4.828,4.674,4.750,
13.200,34.702,-1.722,-6.830,1.602,0.925,5.510,3.681,2.032,1.322,4.769,2.571,2.328,0.000,0.000,0.773,4.941,0.000,2.966,0.000,0.000,0.000,0.000,0.000,0.000,0.000,0.000,0.000,0.000,0.000,3.142,6.281,0.000,1.004,1.569,1.568,4.084,6.281,1.199,4.712,0.000,0.000,-2.069,-6.252,0.990,4.744,4.570,4.854,5.282,4.711,4.711,2.198,6.282,5.083,1.570,0.000,0.000,-1.413,-6.231,0.991,4.744,4.581,4.843,
13.300,34.802,-1.724,-6.732,1.577,1.053,0.002,3.416,2.093,1.329,4.938,2.730,2.425,0.000,0.000,0.769,4.769,0.000,3.001,0.000,0.000,0.000,0.000,0.000,0.000,0.000,0.000,0.000,0.000,0.000,3.142,6.282,0.000,1.004,1.569,1.570,4.084,6.281,1.199,4.712,0.000,0.000,-2.056,-6.146,0.990,4.720,4.093,5.331,5.281,4.711,4.712,2.198,6.282,5.083,1.570,0.000,0.000,-1.400,-6.141,0.990,4.720,4.117,5.308,
13.385,34.887,-1.725,-6.628,1.578,1.053,6.261,3.313,2.089,1.328,0.000,2.854,2.530,0.000,0.000,0.770,4.776,0.000,3.001,0.000,0.000,0.000,0.000,0.000,0.000,0.000,0.000,0.000,0.000,0.000,3.142,6.283,0.000,1.003,1.569,1.569,4.085,6.281,1.199,4.712,0.000,0.000,-2.057,-6.041,0.990,4.721,4.098,5.326,5.281,4.711,4.711,2.198,6.282,5.083,1.570,0.000,0.000,-1.401,-6.036,0.990,4.721,4.165,5.259,
13.500,35.002,-1.725,-6.527,1.579,0.989,6.263,3.214,2.086,1.327,0.000,2.745,2.630,0.000,0.762,0.771,4.783,0.000,3.001,0.000,0.000,0.000,0.000,0.000,0.000,0.000,0.000,0.000,0.000,0.000,3.142,6.283,0.000,1.003,1.569,1.569,4.086,6.281,1.199,4.712,0.000,0.000,-2.059,-5.941,0.990,4.722,4.136,5.287,5.281,4.711,4.712,2.198,6.282,5.083,1.570,0.000,0.000,-1.403,-5.935,0.990,4.722,4.202,5.222,
13.581,35.084,-1.726,-6.431,1.579,0.991,6.263,3.118,2.083,1.326,0.000,2.747,2.727,0.000,0.763,0.772,2.377,0.000,3.001,0.000,0.000,0.000,0.000,0.000,0.000,0.000,0.000,0.000,0.000,0.000,3.142,6.282,0.000,1.004,1.569,1.569,4.085,6.281,1.199,4.712,0.000,0.000,-2.060,-5.844,0.990,4.722,4.227,5.196,5.281,4.711,4.711,2.198,6.282,5.083,1.570,0.000,0.000,-1.404,-5.838,0.990,4.722,4.253,5.171,
13.700,35.202,-1.727,-6.331,1.580,1.024,6.263,3.019,1.810,1.325,0.000,2.747,2.826,0.000,0.764,1.299,2.255,0.000,3.001,0.000,0.000,0.000,0.000,0.000,0.000,0.000,0.000,0.000,0.000,0.000,3.142,6.282,0.000,1.004,1.569,1.569,4.085,6.281,1.199,4.712,0.000,0.000,-2.061,-5.745,0.990,4.723,4.259,5.165,5.281,4.711,4.711,2.198,6.282,5.083,1.570,0.000,0.000,-1.405,-5.739,0.990,4.723,4.279,5.146,
13.796,35.298,-1.728,-6.251,1.580,1.025,6.263,2.938,1.708,1.324,0.000,2.748,2.907,0.000,0.765,1.300,2.156,0.000,3.001,0.000,0.000,0.000,0.000,0.000,0.000,0.000,0.000,0.000,0.000,0.000,3.142,6.282,0.000,1.004,1.569,1.569,4.085,6.281,1.199,4.712,0.000,0.000,-2.062,-5.665,0.990,4.723,4.259,5.165,5.281,4.711,4.711,2.198,6.282,5.083,1.570,0.000,0.000,-1.406,-5.658,0.990,4.723,4.290,5.134,
13.900,35.402,-1.729,-6.131,1.581,1.005,6.264,2.818,1.558,1.322,1.466,2.748,3.026,0.000,0.766,1.301,2.076,0.000,3.036,0.000,0.000,0.000,0.000,0.000,0.000,0.000,0.000,0.000,0.000,0.000,3.142,6.282,0.000,1.004,1.569,1.569,4.085,6.281,1.199,4.712,0.000,0.000,-2.064,-5.545,0.990,4.724,4.280,5.143,5.281,4.711,4.711,2.198,6.282,5.083,1.570,0.000,0.000,-1.408,-5.538,0.990,4.724,4.312,5.112,
14.000,35.502,-1.730,-6.032,1.582,1.006,6.264,2.719,1.433,1.321,1.466,2.749,3.125,0.000,0.767,1.250,2.168,0.000,3.036,0.000,0.000,0.000,0.000,0.000,0.000,0.000,0.000,0.000,0.000,0.000,3.142,6.282,0.000,1.004,1.569,1.569,4.085,6.281,1.199,4.712,0.000,0.000,-2.065,-5.447,0.990,4.725,4.310,5.114,5.281,4.711,4.711,2.198,6.282,5.083,1.570,0.000,0.000,-1.409,-5.439,0.990,4.725,4.331,5.093,
14.100,35.602,-1.731,-5.933,1.582,1.015,6.264,2.619,1.308,1.319,1.352,2.749,3.225,0.000,0.772,1.251,2.171,0.000,3.036,0.000,0.000,0.000,0.000,0.000,0.000,0.000,0.000,0.000,0.000,0.000,3.142,6.282,0.000,1.004,1.569,1.569,4.085,6.281,1.199,4.712,0.000,0.000,-2.067,-5.347,0.990,4.725,4.326,5.097,5.281,4.711,4.711,2.198,6.282,5.083,1.570,0.000,0.000,-1.411,-5.340,0.990,4.725,4.346,5.079,
14.200,35.702,-1.732,-5.833,1.569,1.015,5.748,2.454,1.169,1.324,1.345,2.745,3.324,0.000,1.068,4.585,2.131,0.000,3.036,0.000,0.000,0.000,0.000,0.000,0.000,0.000,0.000,0.000,0.000,0.000,3.142,6.281,0.001,1.004,1.568,1.566,4.084,6.281,1.199,4.712,0.000,0.000,-2.062,-5.243,0.990,4.717,3.533,5.891,5.281,4.710,4.708,2.197,6.282,5.083,1.570,0.000,0.000,-1.406,-5.244,0.990,4.718,3.429,5.995,
14.300,35.802,-1.732,-5.753,1.503,1.011,5.024,2.343,1.125,1.354,1.318,2.981,3.412,0.000,1.106,4.574,1.954,0.000,3.106,0.000,0.000,0.000,0.000,0.000,0.000,0.000,0.000,0.000,0.000,0.000,3.142,6.280,0.001,1.005,1.568,1.565,4.084,6.281,1.199,4.711,0.000,0.000,-2.023,-5.143,0.990,4.775,1.646,1.494,5.282,4.710,4.708,2.197,6.282,5.083,1.570,0.000,0.000,-1.367,-5.187,0.990,4.776,1.644,1.496,
14.398,35.901,-1.723,-5.654,1.417,1.010,5.808,2.389,1.320,1.414,1.300,0.000,0.000,0.000,1.132,0.000,1.687,0.000,3.142,0.000,0.000,0.000,0.000,0.000,0.000,0.000,0.000,3.367,0.000,0.000,3.142,6.282,0.000,1.004,1.570,1.571,4.085,6.280,1.199,4.712,0.000,0.000,-1.956,-5.022,0.990,4.869,1.603,1.538,5.282,4.712,4.713,2.198,6.281,5.083,1.571,0.000,0.000,-1.308,-5.122,0.991,4.869,1.595,1.546,
14.500,36.002,-1.704,-5.536,1.411,1.012,6.269,2.281,1.374,1.439,1.318,0.000,0.000,0.000,1.348,4.531,1.651,0.000,3.142,0.000,0.000,0.000,0.000,0.000,0.000,0.000,0.000,0.000,0.000,0.000,3.142,6.283,0.000,1.003,1.569,1.569,4.085,6.281,1.199,4.712,0.000,0.000,-1.935,-4.902,0.990,4.872,1.602,1.539,5.281,4.711,4.711,2.198,6.282,5.083,1.570,0.000,0.000,-1.287,-5.006,0.990,4.872,1.598,1.543,
14.596,36.099,-1.691,-5.457,1.412,1.012,6.265,2.201,1.398,1.285,1.331,0.000,0.000,0.000,1.333,4.491,1.706,0.000,3.142,0.000,0.000,0.000,0.000,0.000,0.000,0.000,0.000,0.000,0.000,0.000,3.142,6.283,0.000,1.003,1.569,1.569,4.085,6.281,1.199,4.712,0.000,0.000,-1.922,-4.824,0.990,4.871,1.602,1.539,5.281,4.711,4.711,2.198,6.282,5.083,1.570,0.000,0.000,-1.275,-4.927,0.990,4.871,1.598,1.543,
14.700,36.202,-1.672,-5.339,1.413,1.011,6.260,2.082,2.812,1.016,1.351,0.000,0.000,1.480,1.312,4.431,1.681,0.000,3.142,0.000,0.000,0.000,0.000,0.000,0.000,0.000,0.000,0.000,0.000,0.000,3.142,6.283,0.000,1.003,1.569,1.569,4.085,6.281,1.199,4.712,0.000,0.000,-1.904,-4.706,0.990,4.870,1.602,1.539,5.281,4.711,4.711,2.198,6.282,5.083,1.570,0.000,0.000,-1.257,-4.809,0.990,4.870,1.599,1.543,
14.800,36.302,-1.660,-5.261,1.414,1.012,6.261,2.002,2.835,0.835,1.363,0.000,0.000,1.451,1.297,4.391,1.664,0.000,3.142,0.000,0.000,0.000,0.000,0.000,0.000,0.000,0.000,0.000,0.000,0.000,3.142,6.283,0.000,1.003,1.569,1.569,4.085,6.281,1.199,4.712,0.000,0.000,-1.892,-4.628,0.990,4.870,1.602,1.539,5.281,4.711,4.711,2.198,6.282,5.083,1.570,0.000,0.000,-1.244,-4.730,0.990,4.869,1.599,1.542,
14.887,36.389,-1.641,-5.143,1.415,1.012,6.262,1.883,2.870,0.785,1.383,0.000,0.000,1.407,1.276,4.332,1.639,0.000,3.142,0.000,0.000,0.000,0.000,0.000,0.000,0.000,0.000,0.000,0.000,0.000,3.142,6.283,0.000,1.004,1.569,1.569,4.085,6.281,1.199,4.712,0.000,0.000,-1.874,-4.510,0.990,4.869,1.602,1.539,5.281,4.711,4.711,2.198,6.282,5.083,1.570,0.000,0.000,-1.226,-4.612,0.990,4.868,1.599,1.542,
15.000,36.502,-1.626,-5.045,1.415,1.012,6.262,1.784,2.899,0.802,1.398,2.165,0.000,1.372,1.202,4.282,1.618,0.000,3.142,0.000,0.000,0.000,0.000,0.000,0.000,0.000,0.000,0.000,0.000,0.000,3.142,6.282,0.000,1.004,1.569,1.569,4.085,6.281,1.199,4.712,0.000,0.000,-1.859,-4.412,0.990,4.868,1.602,1.539,5.281,4.711,4.711,2.198,6.282,5.083,1.570,0.000,0.000,-1.211,-4.513,0.990,4.868,1.600,1.542,
15.100,36.602,-1.614,-4.966,1.423,1.011,0.401,1.696,2.885,0.813,1.413,2.045,0.000,1.346,1.231,4.238,1.612,0.000,3.142,0.000,0.000,0.000,0.000,0.000,0.000,0.000,0.000,0.000,0.000,0.000,3.142,0.001,0.000,1.003,1.570,1.571,4.086,6.281,1.199,4.712,0.000,0.000,-1.850,-4.335,0.990,4.863,1.605,1.537,5.281,4.712,4.713,2.199,6.281,5.083,1.570,0.000,0.000,-1.202,-4.432,0.991,4.863,1.595,1.546,
15.200,36.702,-1.599,-4.852,1.526,0.763,1.299,1.473,2.466,0.795,1.465,0.000,4.309,1.568,4.488,3.929,1.460,0.000,3.071,0.000,0.000,0.000,0.000,0.000,0.000,0.000,0.000,0.000,0.000,0.000,3.142,0.005,0.001,1.000,1.572,1.573,4.091,6.281,1.200,4.712,0.000,0.000,-1.898,-4.247,0.989,4.763,1.728,1.413,5.281,4.714,4.715,2.199,6.282,5.083,1.570,0.000,0.000,-1.242,-4.279,0.991,4.762,1.638,1.503,
15.300,36.802,-1.598,-4.809,1.593,0.248,0.274,1.376,2.253,0.780,1.501,3.919,4.349,1.803,0.000,1.114,1.339,0.000,3.001,0.000,0.000,0.000,0.000,0.000,0.000,0.000,0.000,0.000,0.000,0.000,3.142,0.001,0.001,1.002,1.569,1.568,4.088,6.281,1.199,4.711,0.000,0.000,-1.941,-4.227,0.990,4.738,4.464,4.959,5.281,4.711,4.710,2.198,6.282,5.083,1.570,0.000,0.000,-1.284,-4.213,0.990,4.737,4.533,4.891,
15.398,36.901,-1.598,-4.798,1.596,0.080,6.266,1.363,2.245,0.779,1.503,3.925,4.360,1.797,0.000,1.115,1.323,0.000,3.001,0.000,0.000,0.000,0.000,0.000,0.000,0.000,0.000,0.000,0.000,0.000,3.142,0.000,0.001,1.003,1.570,1.570,4.087,6.281,1.199,4.712,0.000,0.000,-1.941,-4.217,0.990,4.738,4.485,4.939,5.281,4.711,4.712,2.198,6.282,5.083,1.570,0.000,0.000,-1.285,-4.201,0.990,4.738,4.530,4.894,
15.500,37.002,-1.598,-4.806,1.596,-0.386,6.205,1.371,2.245,0.779,1.503,3.916,4.352,1.797,0.000,1.115,1.333,0.000,3.001,0.000,0.000,0.000,0.000,0.000,0.000,0.000,0.000,0.000,0.000,0.000,3.142,0.004,0.001,0.999,1.572,1.573,4.093,6.281,1.200,4.712,0.000,0.000,-1.939,-4.223,0.989,4.735,4.297,5.126,5.280,4.713,4.715,2.199,6.282,5.083,1.570,0.000,0.000,-1.283,-4.209,0.990,4.734,4.520,4.904,
15.598,37.100,-1.596,-4.865,1.590,-1.061,6.116,1.434,2.267,0.783,1.501,3.863,4.293,1.625,0.000,1.153,1.409,0.000,3.001,0.000,0.000,0.000,0.000,0.000,0.000,0.000,0.000,0.000,0.000,0.000,3.142,0.005,0.001,0.999,1.572,1.573,4.094,6.281,1.200,4.712,0.000,0.000,-1.933,-4.279,0.989,4.730,4.115,5.308,5.280,4.714,4.715,2.200,6.282,5.083,1.570,0.000,0.000,-1.277,-4.270,0.990,4.728,4.439,4.985,
15.700,37.202,-1.593,-5.024,1.586,-1.365,6.274,1.594,2.280,0.786,1.502,3.681,4.134,1.422,4.789,4.000,1.378,0.000,3.001,0.000,0.000,0.000,0.000,0.000,0.000,0.000,0.000,0.000,0.000,0.000,3.142,6.283,0.000,1.004,1.569,1.569,4.084,6.281,1.199,4.712,0.000,0.000,-1.931,-4.440,0.990,4.729,4.446,4.978,5.281,4.711,4.711,2.199,6.282,5.083,1.570,0.000,0.000,-1.275,-4.430,0.990,4.729,4.464,4.960,
15.800,37.302,-1.592,-5.116,1.587,-0.979,6.276,1.686,1.229,0.800,1.504,3.569,4.041,1.306,4.468,3.998,1.717,0.000,3.001,0.000,0.000,0.000,0.000,0.000,0.000,0.000,0.000,0.000,0.000,0.000,3.142,6.281,6.283,1.005,1.568,1.568,4.082,6.281,1.199,4.712,0.000,0.000,-1.931,-4.534,0.990,4.730,4.551,4.873,5.281,4.711,4.710,2.199,6.282,5.083,1.570,0.000,0.000,-1.275,-4.522,0.991,4.730,4.491,4.934,
15.883,37.386,-1.590,-5.215,1.587,-0.833,6.274,1.783,1.231,1.166,1.505,3.451,3.943,1.182,1.086,3.997,1.936,0.000,3.001,0.000,0.000,0.000,0.000,0.000,0.000,0.000,0.000,0.000,0.000,0.000,3.142,0.001,0.000,1.003,1.570,1.570,4.087,6.281,1.200,4.712,0.000,0.000,-1.927,-4.631,0.990,4.728,4.344,5.080,5.280,4.712,4.712,2.199,6.282,5.083,1.570,0.000,0.000,-1.272,-4.621,0.990,4.728,4.448,4.976,
16.000,37.502,-1.589,-5.309,1.587,-1.075,6.274,1.876,1.233,1.466,1.507,3.337,3.849,1.065,1.084,3.996,1.934,0.000,3.001,0.000,0.000,0.000,0.000,0.000,0.000,0.000,0.000,0.000,0.000,0.000,3.142,0.001,0.000,1.002,1.570,1.571,4.088,6.281,1.200,4.712,0.000,0.000,-1.926,-4.724,0.990,4.728,4.308,5.116,5.280,4.712,4.713,2.199,6.282,5.083,1.570,0.000,0.000,-1.270,-4.715,0.990,4.728,4.444,4.980,
16.100,37.602,-1.587,-5.418,1.588,-1.102,6.274,1.984,1.235,1.467,1.510,3.206,3.739,0.976,1.134,4.260,1.932,0.000,3.001,0.000,0.000,0.000,0.000,0.000,0.000,0.000,0.000,0.000,0.000,0.000,3.142,6.283,0.000,1.003,1.570,1.570,4.085,6.281,1.199,4.712,0.000,0.000,-1.925,-4.835,0.990,4.730,4.422,5.001,5.281,4.711,4.712,2.199,6.282,5.083,1.570,0.000,0.000,-1.269,-4.824,0.990,4.730,4.472,4.952,
16.200,37.702,-1.585,-5.501,1.588,-0.998,6.275,2.065,1.237,1.469,1.511,3.106,3.656,0.974,1.133,4.505,1.930,0.000,3.001,0.000,0.000,0.000,0.000,0.000,0.000,0.000,0.000,0.000,0.000,0.000,3.142,6.283,0.000,1.004,1.569,1.569,4.085,6.281,1.199,4.712,0.000,0.000,-1.924,-4.918,0.990,4.730,4.449,4.974,5.281,4.711,4.711,2.199,6.282,5.083,1.570,0.000,0.000,-1.268,-4.907,0.990,4.730,4.481,4.943,
16.300,37.802,-1.583,-5.615,1.588,-0.966,6.275,2.178,1.239,1.471,1.513,3.044,3.543,0.970,1.131,0.000,1.928,0.000,3.001,0.000,0.000,0.000,0.000,0.000,0.000,0.000,0.000,0.000,0.000,0.000,3.142,0.000,0.000,1.003,1.570,1.570,4.086,6.281,1.199,4.712,0.000,0.000,-1.922,-5.031,0.990,4.730,4.400,5.023,5.280,4.712,4.712,2.199,6.282,5.083,1.570,0.000,0.000,-1.266,-5.020,0.990,4.730,4.474,4.950,
16.399,37.901,-1.582,-5.693,1.589,-1.020,6.275,2.255,1.241,1.472,1.515,3.048,3.465,0.967,1.129,4.394,1.926,0.000,2.966,0.000,0.000,0.000,0.000,0.000,0.000,0.000,0.000,0.000,0.000,0.000,3.142,0.000,0.000,1.003,1.570,1.570,4.086,6.281,1.199,4.712,0.000,0.000,-1.921,-5.109,0.990,4.730,4.394,5.030,5.280,4.712,4.712,2.199,6.282,5.083,1.570,0.000,0.000,-1.265,-5.098,0.990,4.730,4.476,4.949,
16.500,38.002,-1.580,-5.815,1.589,-1.035,6.275,2.375,1.244,1.474,1.518,3.054,3.342,0.963,1.127,4.434,1.923,0.000,2.966,0.000,0.000,0.000,0.000,0.000,0.000,0.000,0.000,0.000,0.000,0.000,3.142,0.000,0.000,1.003,1.570,1.570,4.086,6.281,1.199,4.712,0.000,0.000,-1.919,-5.232,0.990,4.731,4.430,4.993,5.281,4.712,4.712,2.199,6.282,5.083,1.570,0.000,0.000,-1.263,-5.220,0.990,4.731,4.487,4.937,
16.591,38.093,-1.578,-5.896,1.589,-1.007,6.275,2.454,1.268,1.476,1.519,3.059,3.262,0.960,0.922,1.092,1.833,0.000,2.966,0.000,0.000,0.000,0.000,0.000,0.000,0.000,0.000,0.000,0.000,0.000,3.142,6.283,0.000,1.003,1.570,1.570,4.086,6.281,1.199,4.712,0.000,0.000,-1.918,-5.312,0.990,4.731,4.440,4.984,5.281,4.712,4.712,2.199,6.282,5.083,1.570,0.000,0.000,-1.262,-5.301,0.990,4.731,4.491,4.933,
16.700,38.202,-1.576,-6.013,1.590,-1.000,6.275,2.570,1.418,1.478,1.635,3.065,3.144,0.956,0.604,1.090,1.856,0.000,2.966,0.000,0.000,0.000,0.000,0.000,0.000,0.000,0.000,0.000,0.000,0.000,3.142,0.000,0.000,1.003,1.570,1.570,4.086,6.281,1.199,4.712,0.000,0.000,-1.916,-5.430,0.990,4.731,4.433,4.991,5.280,4.712,4.712,2.199,6.282,5.083,1.570,0.000,0.000,-1.260,-5.418,0.990,4.731,4.494,4.930,
16.795,38.297,-1.575,-6.093,1.590,-1.014,6.275,2.649,1.520,1.479,0.000,3.069,3.065,0.000,0.603,1.142,1.951,0.000,2.966,0.000,0.000,0.000,0.000,0.000,0.000,0.000,0.000,0.000,0.000,0.000,3.142,0.000,0.000,1.003,1.570,1.570,4.086,6.281,1.199,4.712,0.000,0.000,-1.914,-5.510,0.990,4.732,4.434,4.989,5.280,4.712,4.712,2.199,6.282,5.083,1.570,0.000,0.000,-1.258,-5.497,0.990,4.732,4.497,4.927,
16.900,38.402,-1.572,-6.213,1.590,-1.018,6.275,2.767,1.673,1.481,0.000,3.075,2.945,0.000,0.600,1.139,2.096,0.000,2.966,0.000,0.000,0.000,0.000,0.000,0.000,0.000,0.000,0.000,0.000,0.000,3.142,0.000,0.000,1.003,1.570,1.570,4.086,6.281,1.199,4.712,0.000,0.000,-1.912,-5.630,0.990,4.732,4.447,4.976,5.281,4.712,4.712,2.199,6.282,5.083,1.570,0.000,0.000,-1.256,-5.617,0.990,4.732,4.503,4.921,
16.991,38.493,-1.571,-6.292,1.591,-1.010,6.275,2.846,1.776,1.483,0.000,3.079,2.865,0.000,0.598,1.138,4.591,0.000,2.966,0.000,0.000,0.000,0.000,0.000,0.000,0.000,0.000,0.000,0.000,0.000,3.142,0.000,0.000,1.003,1.570,1.570,4.086,6.281,1.199,4.712,0.000,0.000,-1.911,-5.710,0.990,4.733,4.452,4.972,5.281,4.712,4.712,2.199,6.282,5.083,1.570,0.000,0.000,-1.255,-5.697,0.990,4.732,4.506,4.918,
17.100,38.602,-1.568,-6.411,1.591,-1.009,6.275,2.963,1.928,1.485,0.000,3.087,2.746,0.000,0.596,0.607,4.590,0.000,2.194,0.000,0.000,0.000,0.000,0.000,0.000,0.000,0.000,0.000,0.000,0.000,3.142,0.000,0.000,1.003,1.570,1.570,4.086,6.281,1.199,4.712,0.000,0.000,-1.909,-5.829,0.990,4.733,4.454,4.969,5.281,4.712,4.712,2.199,6.282,5.083,1.570,0.000,0.000,-1.253,-5.816,0.990,4.733,4.509,4.915,
17.180,38.683,-1.566,-6.511,1.592,-1.013,6.275,3.061,2.055,1.487,0.000,2.968,2.647,0.000,0.594,0.605,4.588,0.000,2.159,0.000,0.000,0.000,0.000,0.000,0.000,0.000,0.000,0.000,0.000,0.000,3.142,0.000,0.000,1.003,1.570,1.570,4.086,6.281,1.199,4.712,0.000,0.000,-1.907,-5.928,0.990,4.733,4.459,4.965,5.281,4.712,4.712,2.199,6.282,5.083,1.570,0.000,0.000,-1.251,-5.915,0.990,4.733,4.513,4.911,
17.300,38.802,-1.565,-6.591,1.592,-1.014,6.275,3.139,2.310,1.489,0.000,2.872,2.567,0.000,0.592,0.603,4.587,0.000,2.018,0.000,0.000,0.000,0.000,0.000,0.000,0.000,0.000,0.000,0.000,0.000,3.142,0.000,0.000,1.003,1.570,1.570,4.086,6.281,1.199,4.712,0.000,0.000,-1.905,-6.008,0.990,4.734,4.463,4.961,5.281,4.712,4.712,2.199,6.282,5.083,1.570,0.000,0.000,-1.249,-5.995,0.990,4.733,4.516,4.908,
17.400,38.902,-1.563,-6.662,1.592,-0.324,6.277,3.210,2.312,1.490,0.000,2.786,2.495,0.000,0.000,0.602,4.598,0.000,2.018,0.000,0.000,0.000,0.000,0.000,0.000,0.000,0.000,0.000,0.000,0.000,3.142,6.281,6.283,1.005,1.569,1.568,4.082,6.281,1.199,4.712,0.000,0.000,-1.905,-6.081,0.990,4.735,4.570,4.854,5.281,4.711,4.711,2.199,6.282,5.083,1.570,0.000,0.000,-1.249,-6.067,0.991,4.735,4.538,4.886,
17.500,39.002,-1.563,-6.680,1.592,-0.087,6.276,3.227,2.313,1.491,0.000,2.765,2.478,0.000,0.000,0.601,4.618,0.000,2.018,0.000,0.000,0.000,0.000,0.000,0.000,0.000,0.000,0.000,0.000,0.000,3.142,6.282,0.000,1.004,1.569,1.569,4.084,6.281,1.199,4.712,0.000,0.000,-1.904,-6.098,0.990,4.734,4.518,4.906,5.281,4.711,4.711,2.199,6.282,5.083,1.570,0.000,0.000,-1.248,-6.084,0.990,4.734,4.531,4.893,
17.600,39.102,-1.563,-6.651,1.592,0.665,0.025,3.199,2.313,1.490,0.000,2.801,2.507,0.000,0.000,0.602,4.584,0.000,2.018,0.000,0.000,0.000,0.000,0.000,0.000,0.000,0.000,0.000,0.000,0.000,3.142,6.278,6.283,1.008,1.567,1.565,4.077,6.281,1.199,4.712,0.000,0.000,-1.907,-6.071,0.991,4.738,4.699,4.725,5.282,4.709,4.708,2.197,6.282,5.083,1.570,0.000,0.000,-1.251,-6.054,0.991,4.738,4.539,4.884,
17.700,39.202,-1.566,-6.545,1.591,1.387,6.272,3.095,2.311,1.488,0.000,2.928,2.612,0.000,0.593,0.604,4.585,0.000,2.159,0.000,0.000,0.000,0.000,0.000,0.000,0.000,0.000,0.000,0.000,0.000,3.142,6.280,6.283,1.006,1.568,1.567,4.080,6.281,1.199,4.712,0.000,0.000,-1.908,-5.965,0.990,4.736,4.625,4.799,5.281,4.710,4.709,2.198,6.282,5.083,1.570,0.000,0.000,-1.252,-5.949,0.991,4.736,4.530,4.894,
17.800,39.302,-1.568,-6.410,1.591,1.217,6.249,2.961,1.926,1.485,0.000,3.089,2.748,0.000,0.596,0.607,4.590,0.000,2.194,0.000,0.000,0.000,0.000,0.000,0.000,0.000,0.000,0.000,0.000,0.000,3.142,0.000,0.001,1.002,1.570,1.570,4.088,6.281,1.200,4.712,0.000,0.000,-1.908,-5.827,0.989,4.733,4.387,5.037,5.281,4.712,4.712,2.197,6.282,5.083,1.570,0.000,0.000,-1.253,-5.814,0.990,4.733,4.462,4.962,
17.900,39.402,-1.570,-6.329,1.570,0.859,5.582,2.915,1.793,1.493,0.000,2.985,2.828,0.000,0.601,1.129,4.453,0.000,2.966,0.000,0.000,0.000,0.000,0.000,0.000,0.000,0.000,0.000,0.000,0.000,3.142,6.282,0.001,1.003,1.568,1.567,4.087,6.281,1.199,4.712,0.000,0.000,-1.900,-5.739,0.990,4.719,3.412,6.011,5.281,4.711,4.709,2.197,6.282,5.083,1.570,0.000,0.000,-1.243,-5.740,0.990,4.718,3.425,5.999,
18.000,39.502,-1.567,-6.231,1.495,0.915,5.851,2.950,1.585,1.534,1.594,2.700,2.934,0.000,0.615,1.101,4.385,0.000,2.334,0.000,0.000,0.000,0.000,0.000,0.000,0.000,0.000,0.000,0.000,0.000,3.142,6.280,0.000,1.005,1.569,1.569,4.083,6.281,1.199,4.712,0.000,0.000,-1.851,-5.620,0.990,4.788,1.622,1.519,5.282,4.711,4.711,2.197,6.282,5.083,1.571,0.000,0.000,-1.196,-5.668,0.991,4.788,1.624,1.517,
18.100,39.602,-1.561,-6.152,1.487,1.092,6.263,2.887,1.483,1.545,1.597,2.684,3.016,0.000,0.610,1.093,4.310,0.000,3.071,0.000,0.000,0.000,0.000,0.000,0.000,0.000,0.000,0.000,0.000,0.000,3.142,6.281,0.000,1.004,1.569,1.569,4.083,6.281,1.199,4.712,0.000,0.000,-1.840,-5.538,0.990,4.796,1.617,1.524,5.281,4.711,4.711,2.198,6.282,5.083,1.570,0.000,0.000,-1.186,-5.592,0.990,4.796,1.624,1.517,
18.200,39.702,-1.552,-6.043,1.487,1.083,6.263,2.778,1.488,1.555,1.498,2.700,3.125,0.000,0.600,1.083,4.166,0.000,3.071,0.000,0.000,0.000,0.000,0.000,0.000,0.000,0.000,0.000,0.000,0.000,3.142,6.283,0.000,1.003,1.569,1.569,4.086,6.281,1.199,4.712,0.000,0.000,-1.830,-5.429,0.990,4.796,1.633,1.508,5.281,4.711,4.712,2.198,6.282,5.083,1.570,0.000,0.000,-1.177,-5.483,0.990,4.796,1.625,1.516,
18.300,39.802,-1.542,-5.924,1.488,0.959,6.265,2.659,1.504,1.565,1.508,2.797,3.244,0.000,0.615,1.066,4.009,0.000,3.071,0.000,0.000,0.000,0.000,0.000,0.000,0.000,0.000,0.000,0.000,0.000,3.142,6.283,0.000,1.003,1.569,1.569,4.086,6.281,1.199,4.712,0.000,0.000,-1.821,-5.310,0.990,4.795,1.632,1.508,5.281,4.711,4.711,2.198,6.282,5.083,1.570,0.000,0.000,-1.167,-5.364,0.990,4.795,1.626,1.515,
18.400,39.902,-1.534,-5.830,1.489,0.989,6.264,2.564,1.518,1.573,1.517,2.917,3.339,1.029,0.865,1.014,1.764,0.000,3.071,0.000,0.000,0.000,0.000,0.000,0.000,0.000,0.000,0.000,0.000,0.000,3.142,6.282,0.000,1.004,1.569,1.569,4.084,6.281,1.199,4.712,0.000,0.000,-1.814,-5.216,0.990,4.794,1.626,1.515,5.281,4.711,4.711,2.198,6.282,5.083,1.570,0.000,0.000,-1.160,-5.269,0.990,4.794,1.626,1.515,
18.487,39.989,-1.526,-5.730,1.489,1.039,6.264,2.464,1.532,1.581,1.525,3.044,3.439,1.012,1.109,4.379,1.633,0.000,3.071,0.000,0.000,0.000,0.000,0.000,0.000,0.000,0.000,0.000,0.000,0.000,3.142,6.282,0.000,1.004,1.569,1.569,4.085,6.281,1.199,4.712,0.000,0.000,-1.806,-5.116,0.990,4.794,1.628,1.513,5.281,4.711,4.711,2.198,6.282,5.083,1.570,0.000,0.000,-1.152,-5.169,0.990,4.793,1.627,1.515,
18.600,40.102,-1.518,-5.628,1.490,1.022,6.264,2.363,1.546,1.590,1.534,3.173,3.541,0.996,1.100,4.336,1.511,0.000,3.071,0.000,0.000,0.000,0.000,0.000,0.000,0.000,0.000,0.000,0.000,0.000,3.142,6.283,0.000,1.004,1.569,1.569,4.085,6.281,1.199,4.712,0.000,0.000,-1.798,-5.014,0.990,4.793,1.632,1.509,5.281,4.711,4.711,2.198,6.282,5.083,1.570,0.000,0.000,-1.144,-5.067,0.990,4.793,1.627,1.514,
18.700,40.202,-1.510,-5.529,1.490,0.997,6.265,2.264,1.559,1.598,1.542,3.299,3.639,0.980,1.091,4.294,1.500,0.000,3.071,0.000,0.000,0.000,0.000,0.000,0.000,0.000,0.000,0.000,0.000,0.000,3.142,6.282,0.000,1.004,1.569,1.569,4.085,6.281,1.199,4.712,0.000,0.000,-1.790,-4.916,0.990,4.793,1.631,1.510,5.281,4.711,4.711,2.198,6.282,5.083,1.570,0.000,0.000,-1.137,-4.968,0.990,4.793,1.628,1.514,
18.800,40.302,-1.502,-5.431,1.491,1.006,0.038,2.165,1.571,1.606,1.551,3.421,3.737,0.963,1.082,4.252,1.567,0.000,3.071,0.000,0.000,0.000,0.000,0.000,0.000,0.000,0.000,0.000,0.000,0.000,3.142,6.283,0.000,1.003,1.570,1.570,4.085,6.281,1.199,4.712,0.000,0.000,-1.783,-4.818,0.990,4.792,1.633,1.508,5.281,4.711,4.712,2.199,6.282,5.083,1.570,0.000,0.000,-1.129,-4.870,0.990,4.792,1.623,1.519,
18.900,40.402,-1.496,-5.352,1.515,1.017,0.766,2.055,2.690,1.334,1.568,3.460,3.811,0.961,1.066,4.210,1.603,0.000,3.036,0.000,0.000,0.000,0.000,0.000,0.000,0.000,0.000,0.000,0.000,0.000,3.142,0.001,0.000,1.003,1.571,1.572,4.086,6.281,1.199,4.712,0.000,0.000,-1.789,-4.745,0.990,4.772,1.656,1.486,5.281,4.712,4.714,2.199,6.281,5.083,1.571,0.000,0.000,-1.134,-4.782,0.991,4.772,1.626,1.515,
18.980,40.483,-1.493,-5.232,1.640,0.999,1.191,1.806,1.302,1.544,1.644,3.489,3.576,1.211,1.167,3.974,1.915,0.000,2.931,0.000,0.000,0.000,0.000,0.000,0.000,0.000,0.000,0.000,0.000,0.000,3.142,0.001,0.000,1.003,1.570,1.569,4.086,6.282,1.199,4.712,0.000,0.000,-1.862,-4.667,0.990,4.782,4.646,4.778,5.282,4.713,4.712,2.198,6.283,5.083,1.570,0.000,0.000,-1.207,-4.621,0.991,4.781,4.663,4.761,
19.100,40.602,-1.502,-5.137,1.684,0.940,0.005,1.688,1.229,1.349,1.668,3.760,3.476,1.477,0.000,4.062,1.425,0.000,2.896,0.000,0.000,0.000,0.000,0.000,0.000,0.000,0.000,0.000,0.000,0.000,3.142,6.282,0.001,1.004,1.568,1.567,4.085,6.282,1.199,4.712,0.000,0.000,-1.896,-4.589,0.990,4.829,4.669,4.754,5.281,4.710,4.709,2.198,6.283,5.083,1.570,0.000,0.000,-1.244,-4.515,0.990,4.829,4.672,4.751,
19.190,40.692,-1.510,-5.064,1.683,0.930,6.276,1.610,1.217,0.933,1.659,3.739,3.548,1.490,0.000,0.000,1.558,0.000,2.896,0.000,0.000,0.000,0.000,0.000,0.000,0.000,0.000,0.000,0.000,0.000,3.142,6.282,0.000,1.004,1.569,1.569,4.084,6.281,1.199,4.712,0.000,0.000,-1.903,-4.516,0.990,4.826,4.672,4.752,5.281,4.711,4.711,2.197,6.282,5.083,1.570,0.000,0.000,-1.251,-4.442,0.990,4.826,4.669,4.755,
19.300,40.802,-1.522,-4.953,1.683,0.965,6.274,1.495,2.141,0.841,1.645,3.710,3.658,1.509,0.000,1.127,1.432,0.000,2.896,0.000,0.000,0.000,0.000,0.000,0.000,0.000,0.000,0.000,0.000,0.000,3.142,6.282,0.000,1.004,1.569,1.569,4.084,6.281,1.199,4.712,0.000,0.000,-1.915,-4.405,0.990,4.826,4.673,4.751,5.281,4.711,4.711,2.197,6.282,5.083,1.570,0.000,0.000,-1.264,-4.331,0.990,4.826,4.670,4.754,
19.389,40.891,-1.531,-4.878,1.683,0.970,6.272,1.419,2.129,0.832,1.635,3.690,3.734,1.522,0.000,1.082,1.346,0.000,2.896,0.000,0.000,0.000,0.000,0.000,0.000,0.000,0.000,0.000,0.000,0.000,3.142,6.282,0.000,1.004,1.569,1.569,4.085,6.281,1.199,4.712,0.000,0.000,-1.924,-4.329,0.990,4.825,4.671,4.752,5.281,4.711,4.711,2.197,6.282,5.083,1.570,0.000,0.000,-1.272,-4.255,0.990,4.825,4.670,4.754,
19.500,41.002,-1.544,-4.765,1.683,0.952,6.271,1.307,2.111,0.819,1.621,3.769,3.847,1.541,0.000,1.152,1.217,0.000,2.896,0.000,0.000,0.000,0.000,0.000,0.000,0.000,0.000,0.000,0.000,0.000,3.142,6.282,0.000,1.004,1.569,1.569,4.085,6.281,1.199,4.712,0.000,0.000,-1.936,-4.217,0.990,4.825,4.670,4.753,5.281,4.711,4.711,2.197,6.282,5.083,1.570,0.000,0.000,-1.284,-4.143,0.990,4.825,4.670,4.754,
19.600,41.102,-1.554,-4.672,1.683,0.951,6.270,1.214,2.096,0.809,1.609,3.874,3.940,1.557,0.000,1.163,1.157,0.000,2.896,0.000,0.000,0.000,0.000,0.000,0.000,0.000,0.000,0.000,0.000,0.000,3.142,6.282,0.000,1.004,1.569,1.569,4.085,6.281,1.199,4.712,0.000,0.000,-1.947,-4.124,0.990,4.825,4.671,4.753,5.281,4.711,4.711,2.197,6.282,5.083,1.570,0.000,0.000,-1.295,-4.050,0.990,4.825,4.670,4.754,
19.684,41.187,-1.564,-4.579,1.683,0.959,6.269,1.121,2.081,0.798,1.598,3.979,4.034,1.572,0.000,1.175,1.179,0.000,2.931,0.000,0.000,0.000,0.000,0.000,0.000,0.000,0.000,0.000,0.000,0.000,3.142,6.282,0.000,1.004,1.569,1.569,4.085,6.281,1.199,4.712,0.000,0.000,-1.957,-4.031,0.990,4.825,4.671,4.753,5.281,4.711,4.711,2.198,6.282,5.083,1.570,0.000,0.000,-1.305,-3.957,0.990,4.825,4.671,4.753,
19.800,41.302,-1.573,-4.504,1.683,0.960,6.269,1.046,2.068,0.789,0.865,4.064,4.110,1.511,0.000,1.184,1.197,0.000,2.931,0.000,0.000,0.000,0.000,0.000,0.000,0.000,0.000,0.000,0.000,0.000,3.142,6.282,0.000,1.004,1.569,1.569,4.085,6.281,1.199,4.712,0.000,0.000,-1.966,-3.956,0.990,4.825,4.671,4.753,5.281,4.711,4.711,2.198,6.282,5.083,1.570,0.000,0.000,-1.314,-3.882,0.990,4.825,4.671,4.753,
19.884,41.386,-1.580,-4.439,1.683,0.183,6.246,0.981,2.057,0.782,0.857,4.137,4.176,1.521,0.000,1.192,1.212,0.000,2.931,0.000,0.000,0.000,0.000,0.000,0.000,0.000,0.000,0.000,0.000,0.000,3.142,0.002,0.001,1.001,1.570,1.571,4.090,6.281,1.200,4.712,0.000,0.000,-1.972,-3.888,0.989,4.823,4.641,4.782,5.281,4.712,4.713,2.197,6.282,5.083,1.570,0.000,0.000,-1.320,-3.817,0.990,4.823,4.666,4.758,
20.000,41.502,-1.580,-4.438,1.674,-0.006,6.270,0.984,2.076,0.783,0.853,4.157,4.208,1.536,0.000,1.188,1.194,0.000,2.931,0.000,0.000,0.000,0.000,0.000,0.000,0.000,0.000,0.000,0.000,0.000,3.142,6.283,0.000,1.003,1.570,1.570,4.085,6.281,1.199,4.712,0.000,0.000,-1.968,-3.886,0.990,4.815,4.669,4.755,5.281,4.712,4.712,2.198,6.282,5.083,1.570,0.000,0.000,-1.315,-3.818,0.990,4.815,4.672,4.752,
20.086,41.588,-1.580,-4.438,1.675,0.000,6.275,0.984,2.076,0.783,0.853,4.157,4.208,1.536,0.000,1.188,1.194,0.000,2.931,0.000,0.000,0.000,0.000,0.000,0.000,0.000,0.000,0.000,0.000,0.000,3.142,6.283,0.000,1.003,1.569,1.569,4.085,6.281,1.199,4.712,0.000,0.000,-1.968,-3.886,0.990,4.816,4.664,4.759,5.281,4.711,4.711,2.198,6.282,5.083,1.570,0.000,0.000,-1.316,-3.818,0.990,4.816,4.671,4.753,
20.200,41.702,-1.580,-4.438,1.675,0.000,6.275,0.984,2.076,0.783,0.853,4.157,4.208,1.536,0.000,1.188,1.194,0.000,2.931,0.000,0.000,0.000,0.000,0.000,0.000,0.000,0.000,0.000,0.000,0.000,3.142,6.283,0.000,1.003,1.569,1.569,4.085,6.281,1.199,4.712,0.000,0.000,-1.968,-3.886,0.990,4.816,4.664,4.759,5.281,4.711,4.712,2.198,6.282,5.083,1.570,0.000,0.000,-1.316,-3.818,0.990,4.816,4.671,4.753,
20.288,41.790,-1.577,-4.472,1.672,-0.751,6.142,1.018,2.086,0.787,0.855,4.124,4.190,1.535,0.000,1.183,1.182,0.000,2.931,0.000,0.000,0.000,0.000,0.000,0.000,0.000,0.000,0.000,0.000,0.000,3.142,0.005,0.001,0.999,1.572,1.573,4.095,6.281,1.200,4.712,0.000,0.000,-1.961,-3.916,0.989,4.809,4.609,4.814,5.280,4.714,4.715,2.199,6.282,5.083,1.570,0.000,0.000,-1.309,-3.853,0.990,4.810,4.669,4.755,
20.400,41.902,-1.566,-4.584,1.666,-1.422,6.277,1.133,2.116,0.799,1.583,4.010,4.112,1.604,0.000,1.167,1.147,0.000,2.931,0.000,0.000,0.000,0.000,0.000,0.000,0.000,0.000,0.000,0.000,0.000,3.142,0.002,0.001,1.001,1.571,1.572,4.090,6.281,1.200,4.712,0.000,0.000,-1.947,-4.027,0.989,4.804,4.632,4.792,5.280,4.713,4.714,2.199,6.282,5.083,1.570,0.000,0.000,-1.294,-3.967,0.990,4.804,4.666,4.758,
20.497,41.999,-1.556,-4.693,1.666,-1.266,6.275,1.242,2.131,0.810,1.595,3.885,4.000,1.588,0.000,1.156,1.146,0.000,2.931,0.000,0.000,0.000,0.000,0.000,0.000,0.000,0.000,0.000,0.000,0.000,3.142,6.282,0.000,1.005,1.569,1.568,4.083,6.281,1.199,4.712,0.000,0.000,-1.940,-4.139,0.990,4.809,4.676,4.747,5.281,4.711,4.711,2.199,6.282,5.083,1.570,0.000,0.000,-1.286,-4.076,0.990,4.809,4.671,4.753,
20.600,42.102,-1.544,-4.810,1.666,-0.797,6.276,1.358,2.147,0.821,1.607,3.752,3.882,1.571,0.000,1.089,1.280,0.000,2.931,0.000,0.000,0.000,0.000,0.000,0.000,0.000,0.000,0.000,0.000,0.000,3.142,6.282,0.000,1.004,1.569,1.569,4.084,6.281,1.199,4.712,0.000,0.000,-1.928,-4.255,0.990,4.809,4.669,4.755,5.281,4.711,4.711,2.199,6.282,5.083,1.570,0.000,0.000,-1.275,-4.192,0.990,4.809,4.671,4.753,
20.694,42.196,-1.538,-4.873,1.667,-0.885,6.274,1.421,2.155,0.827,1.614,3.678,3.817,1.561,0.000,1.083,1.353,0.000,2.931,0.000,0.000,0.000,0.000,0.000,0.000,0.000,0.000,0.000,0.000,0.000,3.142,0.001,0.000,1.002,1.570,1.571,4.088,6.281,1.200,4.712,0.000,0.000,-1.921,-4.318,0.990,4.807,4.647,4.777,5.280,4.712,4.713,2.199,6.282,5.083,1.570,0.000,0.000,-1.268,-4.256,0.990,4.807,4.669,4.755,
20.800,42.302,-1.527,-4.994,1.667,-1.124,6.274,1.541,1.213,0.839,1.627,3.592,3.693,1.543,0.000,1.266,1.492,0.000,2.896,0.000,0.000,0.000,0.000,0.000,0.000,0.000,0.000,0.000,0.000,0.000,3.142,0.001,0.000,1.003,1.570,1.570,4.087,6.281,1.200,4.712,0.000,0.000,-1.910,-4.439,0.990,4.808,4.652,4.772,5.280,4.712,4.712,2.199,6.282,5.083,1.570,0.000,0.000,-1.257,-4.376,0.990,4.808,4.669,4.755,
20.900,42.402,-1.516,-5.102,1.668,-1.047,6.275,1.648,1.228,1.054,1.639,3.617,3.583,1.526,0.000,4.047,1.615,0.000,2.896,0.000,0.000,0.000,0.000,0.000,0.000,0.000,0.000,0.000,0.000,0.000,3.142,6.283,0.000,1.004,1.569,1.569,4.085,6.281,1.199,4.712,0.000,0.000,-1.900,-4.547,0.990,4.809,4.665,4.759,5.281,4.711,4.711,2.199,6.282,5.083,1.570,0.000,0.000,-1.247,-4.484,0.990,4.809,4.671,4.753,
21.000,42.502,-1.507,-5.199,1.668,-0.953,6.275,1.745,1.242,1.521,1.650,3.638,3.484,1.286,0.000,4.038,1.726,0.000,2.896,0.000,0.000,0.000,0.000,0.000,0.000,0.000,0.000,0.000,0.000,0.000,3.142,6.283,0.000,1.003,1.570,1.570,4.085,6.281,1.199,4.712,0.000,0.000,-1.891,-4.644,0.990,4.809,4.661,4.763,5.281,4.711,4.712,2.199,6.282,5.083,1.570,0.000,0.000,-1.238,-4.581,0.990,4.809,4.670,4.754,
21.100,42.602,-1.499,-5.274,1.668,-0.981,6.275,1.819,1.252,1.529,1.658,3.656,3.407,1.185,1.119,4.030,1.813,0.000,2.896,0.000,0.000,0.000,0.000,0.000,0.000,0.000,0.000,0.000,0.000,0.000,3.142,0.000,0.000,1.003,1.570,1.570,4.086,6.281,1.199,4.712,0.000,0.000,-1.883,-4.719,0.990,4.809,4.655,4.768,5.280,4.712,4.712,2.199,6.282,5.083,1.570,0.000,0.000,-1.230,-4.656,0.990,4.809,4.670,4.754,
21.200,42.702,-1.488,-5.394,1.669,-1.042,6.275,1.938,1.269,1.541,1.672,3.683,3.285,1.025,0.959,4.018,2.000,0.000,2.896,0.000,0.000,0.000,0.000,0.000,0.000,0.000,0.000,0.000,0.000,0.000,3.142,0.000,0.000,1.003,1.570,1.570,4.086,6.281,1.199,4.712,0.000,0.000,-1.872,-4.839,0.990,4.810,4.657,4.766,5.280,4.712,4.712,2.199,6.282,5.083,1.570,0.000,0.000,-1.219,-4.775,0.990,4.810,4.670,4.754,
21.300,42.802,-1.480,-5.475,1.669,-1.027,6.275,2.019,1.280,1.549,1.681,3.702,3.202,0.917,1.002,4.010,1.985,0.000,2.896,0.000,0.000,0.000,0.000,0.000,0.000,0.000,0.000,0.000,0.000,0.000,3.142,6.283,0.000,1.003,1.570,1.570,4.086,6.281,1.199,4.712,0.000,0.000,-1.864,-4.921,0.990,4.810,4.660,4.763,5.281,4.712,4.712,2.199,6.282,5.083,1.570,0.000,0.000,-1.211,-4.857,0.990,4.810,4.671,4.753,
21.400,42.902,-1.469,-5.587,1.669,-0.698,6.279,2.131,1.296,1.560,1.693,3.728,3.087,0.766,0.990,3.999,1.964,0.000,2.861,0.000,0.000,0.000,0.000,0.000,0.000,0.000,0.000,0.000,0.000,0.000,3.142,6.280,6.283,1.006,1.568,1.567,4.080,6.281,1.199,4.712,0.000,0.000,-1.855,-5.035,0.990,4.814,4.693,4.731,5.281,4.710,4.710,2.198,6.282,5.083,1.570,0.000,0.000,-1.202,-4.969,0.991,4.813,4.674,4.750,
21.500,43.002,-1.465,-5.625,1.669,-0.319,6.277,2.168,1.301,1.563,1.697,3.842,3.049,0.716,0.986,3.995,1.957,0.000,2.861,0.000,0.000,0.000,0.000,0.000,0.000,0.000,0.000,0.000,0.000,0.000,3.142,6.281,6.283,1.005,1.569,1.568,4.082,6.281,1.199,4.712,0.000,0.000,-1.851,-5.072,0.990,4.812,4.680,4.744,5.281,4.711,4.711,2.199,6.282,5.083,1.570,0.000,0.000,-1.198,-5.006,0.991,4.812,4.673,4.751,
21.600,43.102,-1.463,-5.643,1.669,-0.056,6.271,2.187,1.304,1.565,1.699,3.821,3.030,0.699,0.984,4.019,1.954,0.000,2.861,0.000,0.000,0.000,0.000,0.000,0.000,0.000,0.000,0.000,0.000,0.000,3.142,6.283,0.000,1.004,1.569,1.569,4.084,6.281,1.199,4.712,0.000,0.000,-1.848,-5.089,0.990,4.811,4.668,4.756,5.281,4.711,4.711,2.199,6.282,5.083,1.570,0.000,0.000,-1.195,-5.024,0.990,4.811,4.672,4.752,
21.700,43.202,-1.463,-5.644,1.670,-0.001,6.265,2.188,1.304,1.565,1.700,3.820,3.029,0.699,0.984,4.020,1.954,0.000,2.861,0.000,0.000,0.000,0.000,0.000,0.000,0.000,0.000,0.000,0.000,0.000,3.142,6.283,0.000,1.003,1.569,1.569,4.085,6.281,1.199,4.712,0.000,0.000,-1.848,-5.090,0.990,4.811,4.662,4.761,5.281,4.711,4.712,2.198,6.282,5.083,1.570,0.000,0.000,-1.195,-5.025,0.990,4.811,4.670,4.754,
21.800,43.302,-1.462,-5.647,1.670,-0.238,0.012,2.193,1.304,1.566,1.701,3.815,3.024,0.697,0.984,4.026,1.953,0.000,2.861,0.000,0.000,0.000,0.000,0.000,0.000,0.000,0.000,0.000,0.000,0.000,3.142,0.003,0.001,1.000,1.571,1.571,4.091,6.281,1.200,4.712,0.000,0.000,-1.846,-5.091,0.989,4.809,4.629,4.794,5.280,4.712,4.713,2.199,6.282,5.083,1.570,0.000,0.000,-1.193,-5.029,0.990,4.809,4.670,4.753,
21.900,43.402,-1.458,-5.694,1.666,-0.914,6.130,2.241,1.318,1.572,1.702,3.772,2.995,0.693,0.980,4.179,1.929,0.000,2.861,0.000,0.000,0.000,0.000,0.000,0.000,0.000,0.000,0.000,0.000,0.000,3.142,0.005,0.001,0.999,1.571,1.573,4.095,6.280,1.200,4.712,0.000,0.000,-1.838,-5.135,0.989,4.803,4.602,4.821,5.280,4.713,4.714,2.199,6.281,5.083,1.570,0.000,0.000,-1.185,-5.076,0.990,4.803,4.666,4.758,
22.000,43.502,-1.444,-5.837,1.660,-1.037,0.002,2.389,1.345,1.587,1.829,3.618,2.872,0.677,0.967,4.584,1.885,0.000,2.861,0.000,0.000,0.000,0.000,0.000,0.000,0.000,0.000,0.000,0.000,0.000,3.142,6.279,6.283,1.007,1.568,1.567,4.078,6.281,1.199,4.712,0.000,0.000,-1.826,-5.282,0.991,4.806,4.702,4.722,5.281,4.710,4.709,2.198,6.282,5.083,1.570,0.000,0.000,-1.173,-5.221,0.991,4.805,4.671,4.753,
22.100,43.602,-1.439,-5.895,1.660,-0.499,6.278,2.447,1.352,1.593,1.835,3.552,2.814,0.669,0.962,0.000,1.775,0.000,2.861,0.000,0.000,0.000,0.000,0.000,0.000,0.000,0.000,0.000,0.000,0.000,3.142,6.281,6.283,1.006,1.568,1.568,4.081,6.281,1.199,4.712,0.000,0.000,-1.820,-5.339,0.990,4.804,4.685,4.738,5.281,4.710,4.710,2.198,6.282,5.083,1.570,0.000,0.000,-1.167,-5.279,0.991,4.804,4.670,4.754,
22.200,43.702,-1.436,-5.927,1.661,-0.126,6.276,2.478,1.390,1.596,0.000,3.515,2.781,0.665,0.959,0.968,1.770,0.000,2.861,0.000,0.000,0.000,0.000,0.000,0.000,0.000,0.000,0.000,0.000,0.000,3.142,6.282,0.000,1.004,1.569,1.569,4.084,6.281,1.199,4.712,0.000,0.000,-1.817,-5.370,0.990,4.803,4.667,4.757,5.281,4.711,4.711,2.199,6.282,5.083,1.570,0.000,0.000,-1.163,-5.311,0.990,4.803,4.668,4.756,
22.293,43.796,-1.436,-5.931,1.661,-0.014,6.268,2.482,1.395,1.596,0.000,3.510,2.776,0.664,0.958,0.968,1.769,0.000,2.861,0.000,0.000,0.000,0.000,0.000,0.000,0.000,0.000,0.000,0.000,0.000,3.142,6.283,0.000,1.004,1.569,1.569,4.085,6.281,1.199,4.712,0.000,0.000,-1.816,-5.374,0.990,4.802,4.662,4.762,5.281,4.711,4.711,2.199,6.282,5.083,1.570,0.000,0.000,-1.163,-5.315,0.990,4.802,4.668,4.756,
22.400,43.902,-1.436,-5.931,1.661,-0.001,6.265,2.482,1.395,1.596,0.000,3.510,2.776,0.664,0.958,0.968,1.769,0.000,2.861,0.000,0.000,0.000,0.000,0.000,0.000,0.000,0.000,0.000,0.000,0.000,3.142,6.283,0.000,1.003,1.569,1.569,4.085,6.281,1.199,4.712,0.000,0.000,-1.816,-5.374,0.990,4.802,4.657,4.767,5.281,4.711,4.711,2.198,6.282,5.083,1.570,0.000,0.000,-1.163,-5.315,0.990,4.802,4.665,4.759,
22.484,43.987,-1.438,-5.898,1.661,0.741,0.117,2.448,1.352,1.593,0.000,3.547,2.807,0.668,0.961,0.000,1.777,0.000,2.861,0.000,0.000,0.000,0.000,0.000,0.000,0.000,0.000,0.000,0.000,0.000,3.142,6.277,6.283,1.008,1.566,1.565,4.076,6.281,1.198,4.711,0.000,0.000,-1.822,-5.344,0.991,4.808,4.712,4.711,5.282,4.708,4.707,2.197,6.281,5.083,1.570,0.000,0.000,-1.169,-5.281,0.991,4.808,4.667,4.757,
22.600,44.102,-1.449,-5.786,1.666,1.420,6.272,2.333,1.330,1.581,1.828,3.666,2.902,0.680,0.971,4.405,1.911,0.000,2.861,0.000,0.000,0.000,0.000,0.000,0.000,0.000,0.000,0.000,0.000,0.000,3.142,6.280,6.283,1.006,1.568,1.567,4.081,6.281,1.199,4.712,0.000,0.000,-1.834,-5.232,0.990,4.811,4.686,4.737,5.281,4.710,4.709,2.198,6.282,5.083,1.570,0.000,0.000,-1.180,-5.168,0.991,4.810,4.669,4.755,
22.682,44.184,-1.462,-5.652,1.666,1.174,6.265,2.199,1.311,1.568,1.698,3.818,3.034,0.699,0.984,4.073,1.938,0.000,2.861,0.000,0.000,0.000,0.000,0.000,0.000,0.000,0.000,0.000,0.000,0.000,3.142,0.001,0.001,1.002,1.570,1.571,4.089,6.281,1.200,4.712,0.000,0.000,-1.844,-5.096,0.989,4.806,4.638,4.786,5.281,4.712,4.713,2.198,6.282,5.083,1.570,0.000,0.000,-1.191,-5.035,0.990,4.806,4.663,4.761,
22.800,44.302,-1.471,-5.559,1.667,0.798,6.265,2.106,1.297,1.559,1.689,3.705,3.126,0.801,0.993,3.996,1.958,0.000,2.861,0.000,0.000,0.000,0.000,0.000,0.000,0.000,0.000,0.000,0.000,0.000,3.142,0.000,0.001,1.003,1.570,1.570,4.087,6.281,1.199,4.712,0.000,0.000,-1.854,-5.004,0.990,4.807,4.651,4.773,5.281,4.712,4.712,2.198,6.282,5.083,1.570,0.000,0.000,-1.201,-4.941,0.990,4.808,4.664,4.760,
22.883,44.386,-1.478,-5.478,1.667,0.934,6.266,2.024,1.285,1.551,1.681,3.691,3.206,0.911,1.001,4.005,1.975,0.000,2.896,0.000,0.000,0.000,0.000,0.000,0.000,0.000,0.000,0.000,0.000,0.000,3.142,6.281,0.000,1.005,1.569,1.568,4.083,6.281,1.199,4.712,0.000,0.000,-1.863,-4.924,0.990,4.810,4.676,4.748,5.281,4.711,4.710,2.198,6.282,5.083,1.570,0.000,0.000,-1.210,-4.860,0.990,4.810,4.666,4.758,
23.000,44.502,-1.488,-5.375,1.667,1.123,6.266,1.922,1.270,1.540,1.670,3.673,3.307,1.049,0.960,4.017,1.997,0.000,2.896,0.000,0.000,0.000,0.000,0.000,0.000,0.000,0.000,0.000,0.000,0.000,3.142,6.282,0.000,1.004,1.569,1.569,4.084,6.281,1.199,4.712,0.000,0.000,-1.873,-4.821,0.990,4.810,4.669,4.755,5.281,4.711,4.711,2.198,6.282,5.083,1.570,0.000,0.000,-1.220,-4.757,0.990,4.810,4.666,4.758,
23.085,44.588,-1.497,-5.288,1.668,1.076,6.266,1.835,1.257,1.532,1.661,3.658,3.393,1.166,1.049,4.026,2.015,0.000,2.896,0.000,0.000,0.000,0.000,0.000,0.000,0.000,0.000,0.000,0.000,0.000,3.142,6.283,0.000,1.003,1.569,1.569,4.086,6.281,1.199,4.712,0.000,0.000,-1.881,-4.733,0.990,4.809,4.658,4.765,5.281,4.711,4.711,2.198,6.282,5.083,1.570,0.000,0.000,-1.228,-4.670,0.990,4.809,4.665,4.759,
23.200,44.702,-1.508,-5.170,1.668,0.953,6.266,1.717,1.239,1.520,1.648,3.638,3.509,1.324,0.000,4.040,1.442,0.000,2.896,0.000,0.000,0.000,0.000,0.000,0.000,0.000,0.000,0.000,0.000,0.000,3.142,6.283,0.000,1.003,1.569,1.569,4.085,6.281,1.199,4.712,0.000,0.000,-1.893,-4.616,0.990,4.810,4.661,4.763,5.281,4.711,4.711,2.198,6.282,5.083,1.570,0.000,0.000,-1.240,-4.552,0.990,4.810,4.665,4.759,
23.284,44.787,-1.517,-5.082,1.669,0.673,6.267,1.629,1.226,0.957,1.639,3.622,3.595,1.525,0.000,4.050,1.592,0.000,2.896,0.000,0.000,0.000,0.000,0.000,0.000,0.000,0.000,0.000,0.000,0.000,3.142,0.002,0.001,1.001,1.571,1.571,4.091,6.281,1.200,4.712,0.000,0.000,-1.900,-4.526,0.989,4.808,4.630,4.793,5.281,4.712,4.713,2.198,6.282,5.083,1.570,0.000,0.000,-1.247,-4.464,0.990,4.808,4.663,4.761,
23.400,44.902,-1.519,-5.053,1.669,-0.103,0.019,1.600,1.223,0.847,1.638,3.624,3.619,1.527,0.000,4.053,1.558,0.000,2.896,0.000,0.000,0.000,0.000,0.000,0.000,0.000,0.000,0.000,0.000,0.000,3.142,0.004,0.001,0.999,1.570,1.572,4.095,6.279,1.200,4.712,0.000,0.000,-1.902,-4.496,0.989,4.807,4.606,4.818,5.280,4.712,4.714,2.199,6.280,5.083,1.570,0.000,0.000,-1.249,-4.435,0.990,4.808,4.666,4.758,
23.487,44.990,-1.505,-5.115,1.671,-1.031,6.217,1.664,1.240,1.139,1.654,3.661,3.540,1.505,0.000,4.042,1.400,0.000,2.896,0.000,0.000,0.000,0.000,0.000,0.000,0.000,0.000,0.000,0.000,0.000,3.142,0.005,0.001,0.999,1.572,1.574,4.094,6.281,1.200,4.712,0.000,0.000,-1.888,-4.558,0.989,4.807,4.611,4.813,5.280,4.714,4.715,2.199,6.282,5.083,1.570,0.000,0.000,-1.236,-4.496,0.990,4.808,4.668,4.756,
23.600,45.102,-1.493,-5.243,1.671,-1.419,6.275,1.792,1.259,1.535,1.668,3.688,3.410,1.229,0.000,4.027,1.775,0.000,2.896,0.000,0.000,0.000,0.000,0.000,0.000,0.000,0.000,0.000,0.000,0.000,3.142,0.000,0.000,1.003,1.570,1.570,4.086,6.281,1.199,4.712,0.000,0.000,-1.878,-4.690,0.990,4.811,4.657,4.767,5.281,4.712,4.712,2.199,6.282,5.083,1.570,0.000,0.000,-1.225,-4.625,0.990,4.812,4.670,4.754,
23.696,45.198,-1.480,-5.364,1.671,-0.997,6.277,1.913,1.276,1.547,1.682,3.714,3.288,1.067,0.951,4.014,1.993,0.000,2.896,0.000,0.000,0.000,0.000,0.000,0.000,0.000,0.000,0.000,0.000,0.000,3.142,6.281,6.283,1.005,1.568,1.568,4.082,6.281,1.199,4.712,0.000,0.000,-1.867,-4.812,0.990,4.815,4.684,4.740,5.281,4.711,4.710,2.198,6.282,5.083,1.570,0.000,0.000,-1.214,-4.746,0.991,4.814,4.673,4.751,
23.800,45.302,-1.472,-5.448,1.671,-0.803,6.276,1.996,1.289,1.556,1.691,3.732,3.204,0.955,0.942,4.005,1.977,0.000,2.896,0.000,0.000,0.000,0.000,0.000,0.000,0.000,0.000,0.000,0.000,0.000,3.142,6.283,0.000,1.003,1.570,1.570,4.086,6.281,1.199,4.712,0.000,0.000,-1.858,-4.894,0.990,4.812,4.661,4.763,5.280,4.712,4.712,2.199,6.282,5.083,1.570,0.000,0.000,-1.205,-4.829,0.990,4.812,4.672,4.752,
23.887,45.389,-1.463,-5.536,1.671,-1.024,6.275,2.083,1.301,1.565,1.701,3.753,3.114,0.837,0.984,3.996,1.960,0.000,2.861,0.000,0.000,0.000,0.000,0.000,0.000,0.000,0.000,0.000,0.000,0.000,3.142,0.001,0.001,1.002,1.570,1.571,4.088,6.281,1.200,4.712,0.000,0.000,-1.848,-4.981,0.990,4.811,4.647,4.776,5.280,4.712,4.713,2.199,6.282,5.083,1.570,0.000,0.000,-1.196,-4.917,0.990,4.812,4.670,4.754,
24.000,45.502,-1.452,-5.643,1.672,-1.119,6.275,2.190,1.317,1.576,1.713,3.817,3.005,0.693,0.973,4.000,1.939,0.000,2.861,0.000,0.000,0.000,0.000,0.000,0.000,0.000,0.000,0.000,0.000,0.000,3.142,0.000,0.000,1.003,1.570,1.570,4.086,6.281,1.199,4.712,0.000,0.000,-1.838,-5.090,0.990,4.813,4.660,4.763,5.281,4.712,4.712,2.199,6.282,5.083,1.570,0.000,0.000,-1.186,-5.024,0.990,4.813,4.671,4.753,
24.084,45.586,-1.442,-5.747,1.672,-1.003,6.276,2.294,1.332,1.586,1.725,3.698,2.899,0.665,0.962,4.251,1.918,0.000,2.861,0.000,0.000,0.000,0.000,0.000,0.000,0.000,0.000,0.000,0.000,0.000,3.142,6.283,0.000,1.004,1.569,1.569,4.085,6.281,1.199,4.712,0.000,0.000,-1.828,-5.195,0.990,4.814,4.667,4.757,5.281,4.711,4.711,2.199,6.282,5.083,1.570,0.000,0.000,-1.175,-5.128,0.990,4.814,4.672,4.752,
24.200,45.702,-1.432,-5.842,1.672,-0.957,6.275,2.388,1.345,1.596,1.853,3.589,2.802,0.650,0.952,4.476,1.900,0.000,2.861,0.000,0.000,0.000,0.000,0.000,0.000,0.000,0.000,0.000,0.000,0.000,3.142,0.000,0.000,1.003,1.570,1.570,4.086,6.281,1.199,4.712,0.000,0.000,-1.818,-5.289,0.990,4.813,4.661,4.763,5.281,4.712,4.712,2.199,6.282,5.083,1.570,0.000,0.000,-1.166,-5.223,0.990,4.814,4.672,4.752,
24.281,45.783,-1.422,-5.938,1.673,-1.018,6.275,2.488,1.421,1.606,0.000,3.479,2.704,0.635,0.942,0.958,1.779,0.000,2.826,0.000,0.000,0.000,0.000,0.000,0.000,0.000,0.000,0.000,0.000,0.000,3.142,0.000,0.000,1.003,1.570,1.570,4.086,6.281,1.199,4.712,0.000,0.000,-1.809,-5.385,0.990,4.813,4.657,4.766,5.280,4.712,4.712,2.199,6.282,5.083,1.570,0.000,0.000,-1.156,-5.319,0.990,4.814,4.672,4.752,
24.400,45.902,-1.412,-6.040,1.673,-1.040,6.275,2.596,1.560,1.616,0.000,3.363,2.601,0.620,0.581,0.947,1.793,0.000,2.791,0.000,0.000,0.000,0.000,0.000,0.000,0.000,0.000,0.000,0.000,0.000,3.142,0.000,0.000,1.003,1.570,1.570,4.086,6.281,1.199,4.712,0.000,0.000,-1.799,-5.487,0.990,4.814,4.661,4.762,5.281,4.712,4.712,2.199,6.282,5.083,1.570,0.000,0.000,-1.146,-5.420,0.990,4.814,4.672,4.752,
24.500,46.002,-1.402,-6.140,1.673,-1.008,6.275,2.703,1.698,1.627,0.000,3.370,2.499,0.604,0.413,0.991,1.908,0.000,2.720,0.000,0.000,0.000,0.000,0.000,0.000,0.000,0.000,0.000,0.000,0.000,3.142,6.283,0.000,1.003,1.570,1.570,4.086,6.281,1.199,4.712,0.000,0.000,-1.789,-5.587,0.990,4.815,4.663,4.761,5.281,4.711,4.712,2.199,6.282,5.083,1.570,0.000,0.000,-1.136,-5.520,0.990,4.815,4.672,4.752,
24.600,46.102,-1.392,-6.238,1.674,-0.997,6.275,2.808,1.832,1.637,0.000,3.227,2.400,0.589,0.403,0.980,2.019,0.000,2.826,0.000,0.000,0.000,0.000,0.000,0.000,0.000,0.000,0.000,0.000,0.000,3.142,0.000,0.000,1.003,1.570,1.570,4.086,6.281,1.199,4.712,0.000,0.000,-1.779,-5.685,0.990,4.815,4.661,4.762,5.281,4.712,4.712,2.199,6.282,5.083,1.570,0.000,0.000,-1.126,-5.618,0.990,4.815,4.672,4.752,
24.700,46.202,-1.381,-6.336,1.674,-1.014,6.275,2.913,1.967,1.647,0.000,3.153,2.300,0.573,0.393,0.423,4.856,0.000,2.089,0.000,0.000,0.000,0.000,0.000,0.000,0.000,0.000,0.000,0.000,0.000,3.142,0.000,0.000,1.003,1.570,1.570,4.086,6.281,1.199,4.712,0.000,0.000,-1.769,-5.783,0.990,4.815,4.661,4.763,5.280,4.712,4.712,2.199,6.282,5.083,1.570,0.000,0.000,-1.116,-5.716,0.990,4.815,4.672,4.752,
24.800,46.302,-1.371,-6.435,1.674,-1.019,6.275,3.020,2.104,1.658,0.000,3.441,2.198,0.000,0.382,0.411,4.970,0.000,2.053,0.000,0.000,0.000,0.000,0.000,0.000,0.000,0.000,0.000,0.000,0.000,3.142,0.000,0.000,1.003,1.570,1.570,4.086,6.281,1.199,4.712,0.000,0.000,-1.759,-5.883,0.990,4.816,4.662,4.762,5.281,4.712,4.712,2.199,6.282,5.083,1.570,0.000,0.000,-1.106,-5.816,0.990,4.816,4.673,4.751,
24.897,46.400,-1.363,-6.515,1.675,-1.012,6.275,3.105,2.394,1.666,0.000,3.460,2.118,0.000,0.374,0.402,0.000,0.000,1.948,0.000,0.000,0.000,0.000,0.000,0.000,0.000,0.000,0.000,0.000,0.000,3.142,0.000,0.000,1.003,1.570,1.570,4.086,6.281,1.199,4.712,0.000,0.000,-1.750,-5.963,0.990,4.816,4.662,4.761,5.281,4.712,4.712,2.199,6.282,5.083,1.570,0.000,0.000,-1.098,-5.895,0.990,4.816,4.673,4.751,
25.000,46.502,-1.351,-6.630,1.698,-0.676,2.382,3.414,2.353,1.671,0.000,3.645,1.983,0.000,0.360,0.394,0.000,0.000,1.913,0.000,0.000,0.000,0.000,0.000,0.000,0.000,0.000,0.000,0.000,0.000,3.142,6.281,0.004,1.005,1.569,1.574,4.093,6.275,1.199,4.712,0.000,0.000,-1.748,-6.084,0.986,4.831,4.602,4.822,5.293,4.697,4.718,2.183,6.275,5.082,1.570,0.000,0.000,-1.102,-5.999,0.991,4.836,4.641,4.797,
25.088,46.590,-1.346,-6.684,1.850,-0.648,2.223,0.000,2.065,1.766,2.432,4.438,2.207,0.000,0.349,0.424,2.422,0.000,1.738,0.000,0.000,0.000,0.000,0.000,0.000,0.000,0.000,0.000,0.000,0.000,3.142,6.283,0.004,1.004,1.562,1.561,4.094,6.276,1.198,4.710,0.000,0.000,-1.830,-6.207,0.987,4.998,4.668,4.752,5.290,4.700,4.706,2.188,6.277,5.082,1.568,0.000,0.000,-1.200,-6.025,0.992,4.998,4.690,4.736,
25.200,46.702,-1.336,-6.725,1.973,-0.156,0.449,2.488,1.917,0.000,2.603,2.479,0.000,4.705,0.340,0.454,3.096,0.000,3.142,0.000,0.000,0.000,0.000,0.000,0.000,0.000,0.000,0.000,0.000,0.000,3.142,6.281,0.001,1.007,1.561,1.560,4.086,6.274,1.197,4.709,0.000,0.000,-1.875,-6.314,0.988,5.122,4.694,4.725,5.282,4.697,4.704,2.198,6.275,5.082,1.568,0.000,0.000,-1.272,-6.057,0.991,5.123,4.701,4.725,
25.300,46.802,-1.335,-6.730,1.988,0.007,6.281,2.411,1.902,0.000,2.641,2.467,0.000,4.817,0.340,0.458,3.091,0.000,3.142,0.000,0.000,0.000,0.000,0.000,0.000,0.000,0.000,0.000,0.000,0.000,3.142,6.282,0.001,1.006,1.564,1.564,4.087,6.275,1.198,4.710,0.000,0.000,-1.877,-6.325,0.988,5.132,4.694,4.725,5.280,4.698,4.705,2.198,6.277,5.082,1.568,0.000,0.000,-1.280,-6.061,0.989,5.137,4.697,4.730,
25.400,46.902,-1.335,-6.730,1.988,-0.002,0.019,2.412,1.902,0.000,2.641,2.467,0.000,4.815,0.340,0.458,3.091,0.000,3.142,0.000,0.000,0.000,0.000,0.000,0.000,0.000,0.000,0.000,0.000,0.000,3.142,6.282,0.001,1.005,1.566,1.567,4.087,6.277,1.198,4.711,0.000,0.000,-1.875,-6.325,0.989,5.130,4.696,4.725,5.281,4.699,4.709,2.197,6.278,5.083,1.569,0.000,0.000,-1.279,-6.060,0.990,5.135,4.699,4.731,
25.500,47.002,-1.335,-6.730,1.988,-0.002,0.019,2.412,1.902,0.000,2.641,2.467,0.000,4.815,0.340,0.458,3.091,0.000,3.142,0.000,0.000,0.000,0.000,0.000,0.000,0.000,0.000,0.000,0.000,0.000,3.142,6.282,0.001,1.005,1.566,1.566,4.087,6.277,1.198,4.711,0.000,0.000,-1.875,-6.325,0.989,5.130,4.696,4.725,5.281,4.699,4.709,2.198,6.278,5.083,1.569,0.000,0.000,-1.279,-6.060,0.990,5.135,4.699,4.731,
25.599,47.101,-1.335,-6.730,1.988,-0.002,0.019,2.412,1.902,0.000,2.641,2.467,0.000,4.815,0.340,0.458,3.091,0.000,3.142,0.000,0.000,0.000,0.000,0.000,0.000,0.000,0.000,0.000,0.000,0.000,3.142,6.282,0.001,1.005,1.566,1.566,4.087,6.277,1.198,4.711,0.000,0.000,-1.875,-6.325,0.989,5.130,4.696,4.725,5.281,4.699,4.709,2.198,6.278,5.083,1.569,0.000,0.000,-1.279,-6.060,0.990,5.135,4.699,4.731,
25.700,47.202,-1.335,-6.730,1.988,-0.002,0.019,2.412,1.902,0.000,2.641,2.467,0.000,4.815,0.340,0.458,3.091,0.000,3.142,0.000,0.000,0.000,0.000,0.000,0.000,0.000,0.000,0.000,0.000,0.000,3.142,6.282,0.001,1.005,1.566,1.566,4.087,6.277,1.198,4.711,0.000,0.000,-1.875,-6.325,0.989,5.130,4.696,4.725,5.281,4.699,4.709,2.198,6.278,5.083,1.569,0.000,0.000,-1.279,-6.060,0.990,5.135,4.699,4.731,
25.800,47.302,-1.335,-6.730,1.988,-0.002,0.019,2.412,1.902,0.000,2.641,2.467,0.000,4.815,0.340,0.458,3.091,0.000,3.142,0.000,0.000,0.000,0.000,0.000,0.000,0.000,0.000,0.000,0.000,0.000,3.142,6.282,0.001,1.005,1.566,1.566,4.087,6.277,1.198,4.711,0.000,0.000,-1.875,-6.325,0.989,5.130,4.696,4.725,5.281,4.699,4.709,2.198,6.278,5.083,1.569,0.000,0.000,-1.279,-6.060,0.990,5.135,4.699,4.731,
25.900,47.402,-1.335,-6.730,1.988,-0.002,0.019,2.412,1.902,0.000,2.641,2.467,0.000,4.815,0.340,0.458,0.000,0.000,3.142,0.000,0.000,0.000,0.000,0.000,0.000,0.000,0.000,0.000,1.568,0.000,3.142,6.282,0.001,1.005,1.566,1.566,4.087,6.277,1.198,4.711,0.000,0.000,-1.875,-6.325,0.989,5.130,4.696,4.725,5.281,4.699,4.709,2.198,6.278,5.083,1.569,0.000,0.000,-1.279,-6.060,0.990,5.135,4.699,4.731,
25.998,47.500,-1.335,-6.730,1.989,-0.012,0.062,2.408,1.901,0.000,2.642,2.467,0.000,4.821,0.340,0.458,0.000,0.000,3.142,0.000,0.000,0.000,0.000,0.000,0.000,0.000,0.000,0.000,1.518,0.000,3.142,0.000,0.000,1.004,1.567,1.568,4.087,6.278,1.198,4.711,0.000,0.000,-1.875,-6.325,0.989,5.130,4.697,4.724,5.279,4.700,4.710,2.200,6.278,5.083,1.569,0.000,0.000,-1.278,-6.061,0.990,5.135,4.701,4.728,
26.100,47.602,-1.333,-6.733,2.001,-0.094,0.217,2.347,1.890,0.000,2.677,2.458,0.000,4.924,0.339,0.462,0.000,0.000,3.142,0.000,0.000,0.000,0.000,0.000,0.000,0.000,0.000,0.000,1.508,0.000,3.142,0.002,6.282,1.005,1.567,1.569,4.085,6.276,1.198,4.710,0.000,0.000,-1.877,-6.335,0.990,5.140,4.701,4.720,5.275,4.698,4.711,2.205,6.276,5.083,1.569,0.000,0.000,-1.284,-6.065,0.990,5.146,4.706,4.726,
26.197,47.699,-1.331,-6.738,2.064,-0.005,1.774,2.107,1.834,0.000,2.861,2.433,0.000,0.000,0.340,0.489,0.000,0.000,3.142,0.000,0.000,0.000,0.000,0.000,0.000,0.000,0.000,0.000,1.497,0.000,3.142,0.003,6.283,1.003,1.572,1.575,4.086,6.280,1.199,4.712,0.000,0.000,-1.896,-6.372,0.990,5.199,4.703,4.721,5.281,4.713,4.718,2.200,6.280,5.083,1.571,0.000,0.000,-1.318,-6.062,0.991,5.198,4.708,4.718,
26.300,47.802,-1.334,-6.733,2.256,0.042,0.969,2.577,1.713,0.000,3.223,1.931,0.000,0.000,0.363,0.634,0.000,0.000,3.142,0.000,0.000,0.000,0.000,0.000,0.000,4.363,0.000,0.000,1.525,0.000,3.142,0.001,0.001,1.003,1.567,1.564,4.086,6.282,1.199,4.711,0.000,0.000,-1.965,-6.487,0.990,5.405,4.705,4.715,5.281,4.710,4.708,2.198,6.283,5.083,1.570,0.000,0.000,-1.456,-6.071,0.991,5.403,4.706,4.715,
26.397,47.899,-1.335,-6.731,2.283,0.007,0.059,2.497,1.702,0.000,3.371,1.865,0.000,0.847,0.368,0.665,0.000,0.000,3.142,0.000,0.000,0.000,0.000,0.000,0.000,0.000,0.000,0.000,1.515,0.000,3.142,0.000,0.000,1.003,1.568,1.568,4.086,6.281,1.199,4.712,0.000,0.000,-1.970,-6.501,0.990,5.427,4.704,4.717,5.281,4.711,4.710,2.198,6.282,5.083,1.570,0.000,0.000,-1.473,-6.072,0.990,5.427,4.706,4.716,
26.500,48.002,-1.335,-6.731,2.283,0.000,6.272,2.497,1.702,0.000,3.371,1.865,0.000,0.847,0.368,0.665,0.000,0.000,3.142,0.000,0.000,0.000,0.000,0.000,0.000,0.000,0.000,0.000,1.488,0.000,3.142,6.283,0.000,1.003,1.569,1.569,4.085,6.281,1.199,4.712,0.000,0.000,-1.969,-6.500,0.990,5.424,4.705,4.717,5.281,4.711,4.712,2.198,6.282,5.083,1.570,0.000,0.000,-1.473,-6.071,0.990,5.425,4.706,4.717,
26.592,48.094,-1.335,-6.731,2.283,0.000,6.272,2.497,1.702,0.000,3.371,1.865,0.000,0.847,0.368,0.665,0.000,0.000,3.142,0.000,0.000,0.000,0.000,0.000,0.000,0.000,0.000,0.000,1.486,0.000,3.142,6.283,0.000,1.003,1.569,1.569,4.085,6.281,1.199,4.712,0.000,0.000,-1.969,-6.500,0.990,5.424,4.705,4.717,5.281,4.711,4.711,2.198,6.282,5.083,1.570,0.000,0.000,-1.473,-6.071,0.990,5.425,4.706,4.717,
26.700,48.202,-1.335,-6.731,2.283,0.000,6.272,2.497,1.702,0.000,3.371,1.865,0.000,0.847,0.368,0.665,0.000,0.000,3.142,0.000,0.000,0.000,0.000,0.000,0.000,0.000,0.000,0.000,1.492,0.000,3.142,6.283,0.000,1.003,1.569,1.569,4.085,6.281,1.199,4.712,0.000,0.000,-1.969,-6.500,0.990,5.424,4.705,4.717,5.281,4.711,4.711,2.198,6.282,5.083,1.570,0.000,0.000,-1.473,-6.071,0.990,5.425,4.706,4.717,
26.797,48.299,-1.335,-6.731,2.283,0.000,6.272,2.497,1.702,0.000,3.371,1.865,0.000,0.847,0.368,0.665,0.000,0.000,3.142,0.000,0.000,0.000,0.000,0.000,0.000,0.000,0.000,0.000,1.497,0.000,3.142,6.283,0.000,1.003,1.569,1.569,4.085,6.281,1.199,4.712,0.000,0.000,-1.969,-6.500,0.990,5.424,4.705,4.717,5.281,4.711,4.711,2.198,6.282,5.083,1.570,0.000,0.000,-1.473,-6.071,0.990,5.425,4.706,4.717,
26.900,48.402,-1.335,-6.731,2.283,0.000,6.272,2.497,1.702,0.000,3.371,1.865,0.000,0.847,0.368,0.665,0.000,0.000,3.142,0.000,0.000,0.000,0.000,0.000,0.000,0.000,0.000,0.000,1.502,0.000,3.142,6.283,0.000,1.003,1.569,1.569,4.085,6.281,1.199,4.712,0.000,0.000,-1.969,-6.500,0.990,5.424,4.705,4.717,5.281,4.711,4.711,2.198,6.282,5.083,1.570,0.000,0.000,-1.473,-6.071,0.990,5.425,4.706,4.717,
26.982,48.484,-1.335,-6.731,2.283,0.000,6.272,2.497,1.702,0.000,3.371,1.865,0.000,0.847,0.368,0.665,0.000,0.000,3.142,0.000,0.000,0.000,0.000,0.000,0.000,0.000,0.000,0.000,1.498,0.000,3.142,6.283,0.000,1.003,1.569,1.569,4.085,6.281,1.199,4.712,0.000,0.000,-1.969,-6.500,0.990,5.424,4.705,4.717,5.281,4.711,4.711,2.198,6.282,5.083,1.570,0.000,0.000,-1.473,-6.071,0.990,5.425,4.706,4.717,
27.100,48.602,-1.335,-6.731,2.283,0.000,6.272,2.497,1.702,0.000,3.371,1.865,0.000,0.847,0.368,0.665,0.000,0.000,3.142,0.000,0.000,0.000,0.000,0.000,0.000,0.000,0.000,0.000,1.492,0.000,3.142,6.283,0.000,1.003,1.569,1.569,4.085,6.281,1.199,4.712,0.000,0.000,-1.969,-6.500,0.990,5.424,4.705,4.717,5.281,4.711,4.711,2.198,6.282,5.083,1.570,0.000,0.000,-1.473,-6.071,0.990,5.425,4.706,4.717,
27.200,48.702,-1.335,-6.731,2.283,0.000,6.272,2.497,1.702,0.000,3.371,1.865,0.000,0.847,0.368,0.665,0.000,0.000,3.142,0.000,0.000,0.000,0.000,0.000,0.000,0.000,0.000,0.000,1.476,0.000,3.142,6.283,0.000,1.003,1.569,1.569,4.085,6.281,1.199,4.712,0.000,0.000,-1.969,-6.500,0.990,5.424,4.705,4.717,5.281,4.711,4.711,2.198,6.282,5.083,1.570,0.000,0.000,-1.473,-6.071,0.990,5.425,4.706,4.717,
27.300,48.802,-1.335,-6.731,2.283,0.000,6.272,2.497,1.702,0.000,3.371,1.865,0.000,0.847,0.368,0.665,0.000,0.000,3.142,0.000,0.000,0.000,0.000,0.000,0.000,0.000,0.000,0.000,1.468,0.000,3.142,6.283,0.000,1.003,1.569,1.569,4.085,6.281,1.199,4.712,0.000,0.000,-1.969,-6.500,0.990,5.424,4.705,4.717,5.281,4.711,4.711,2.198,6.282,5.083,1.570,0.000,0.000,-1.473,-6.071,0.990,5.425,4.706,4.717,
27.400,48.902,-1.335,-6.731,2.283,0.000,6.272,2.497,1.702,0.000,3.371,1.865,0.000,0.847,0.368,0.665,0.000,0.000,3.142,0.000,0.000,0.000,0.000,0.000,0.000,0.000,0.000,0.000,1.457,0.000,3.142,6.283,0.000,1.003,1.569,1.569,4.085,6.281,1.199,4.712,0.000,0.000,-1.969,-6.500,0.990,5.424,4.705,4.717,5.281,4.711,4.711,2.198,6.282,5.083,1.570,0.000,0.000,-1.473,-6.071,0.990,5.425,4.706,4.717,
27.500,49.002,-1.335,-6.731,2.283,0.000,6.272,2.497,1.702,0.000,3.371,1.865,0.000,0.847,0.368,0.665,0.000,0.000,3.142,0.000,0.000,0.000,0.000,0.000,0.000,0.000,0.000,0.000,1.460,0.000,3.142,6.283,0.000,1.003,1.569,1.569,4.085,6.281,1.199,4.712,0.000,0.000,-1.969,-6.500,0.990,5.424,4.705,4.717,5.281,4.711,4.711,2.198,6.282,5.083,1.570,0.000,0.000,-1.473,-6.071,0.990,5.425,4.706,4.717,
27.600,49.102,-1.335,-6.731,2.283,0.000,6.272,2.497,1.702,0.000,3.371,1.865,0.000,0.847,0.368,0.665,0.000,0.000,3.142,0.000,0.000,0.000,0.000,0.000,0.000,0.000,0.000,0.000,1.511,0.000,3.142,6.283,0.000,1.003,1.569,1.569,4.085,6.281,1.199,4.712,0.000,0.000,-1.969,-6.500,0.990,5.424,4.705,4.717,5.281,4.711,4.711,2.198,6.282,5.083,1.570,0.000,0.000,-1.473,-6.071,0.990,5.425,4.706,4.717,
27.700,49.202,-1.335,-6.731,2.283,0.000,6.272,2.497,1.702,0.000,3.371,1.865,0.000,0.847,0.368,0.665,0.000,0.000,3.142,0.000,0.000,0.000,0.000,0.000,0.000,0.000,0.000,0.000,1.580,0.000,3.142,6.283,0.000,1.003,1.569,1.569,4.085,6.281,1.199,4.712,0.000,0.000,-1.969,-6.500,0.990,5.424,4.705,4.717,5.281,4.711,4.711,2.198,6.282,5.083,1.570,0.000,0.000,-1.473,-6.071,0.990,5.425,4.706,4.717,
27.800,49.302,-1.335,-6.731,2.283,0.000,6.272,2.497,1.702,0.000,3.371,1.865,0.000,0.847,0.368,0.665,3.309,0.000,3.142,0.000,0.000,0.000,0.000,0.000,0.000,0.000,0.000,0.000,0.000,0.000,3.142,6.283,0.000,1.003,1.569,1.569,4.085,6.281,1.199,4.712,0.000,0.000,-1.969,-6.500,0.990,5.424,4.705,4.717,5.281,4.711,4.711,2.198,6.282,5.083,1.570,0.000,0.000,-1.473,-6.071,0.990,5.425,4.706,4.717,
27.900,49.402,-1.335,-6.731,2.283,0.000,6.272,2.497,1.702,0.000,3.371,1.865,0.000,0.847,0.368,0.665,3.309,0.000,3.142,0.000,0.000,0.000,0.000,0.000,0.000,0.000,0.000,0.000,0.000,0.000,3.142,6.283,0.000,1.003,1.569,1.569,4.085,6.281,1.199,4.712,0.000,0.000,-1.969,-6.500,0.990,5.424,4.705,4.717,5.281,4.711,4.711,2.198,6.282,5.083,1.570,0.000,0.000,-1.473,-6.071,0.990,5.425,4.706,4.717,
28.000,49.502,-1.335,-6.731,2.283,0.000,6.272,2.497,1.702,0.000,3.371,1.865,0.000,0.847,0.368,0.665,3.309,0.000,3.142,0.000,0.000,0.000,0.000,0.000,0.000,0.000,0.000,0.000,0.000,0.000,3.142,6.283,0.000,1.003,1.569,1.569,4.085,6.281,1.199,4.712,0.000,0.000,-1.969,-6.500,0.990,5.424,4.705,4.717,5.281,4.711,4.711,2.198,6.282,5.083,1.570,0.000,0.000,-1.473,-6.071,0.990,5.425,4.706,4.717,
28.097,49.599,-1.335,-6.731,2.283,0.000,6.272,2.497,1.702,0.000,3.371,1.865,0.000,0.847,0.368,0.665,3.309,0.000,3.142,0.000,0.000,0.000,0.000,0.000,0.000,0.000,0.000,0.000,0.000,0.000,3.142,6.283,0.000,1.003,1.569,1.569,4.085,6.281,1.199,4.712,0.000,0.000,-1.969,-6.500,0.990,5.424,4.705,4.717,5.281,4.711,4.711,2.198,6.282,5.083,1.570,0.000,0.000,-1.473,-6.071,0.990,5.425,4.706,4.717,
28.200,49.702,-1.335,-6.731,2.283,0.000,6.272,2.497,1.702,0.000,3.371,1.865,0.000,0.847,0.368,0.665,3.309,0.000,3.142,0.000,0.000,0.000,0.000,0.000,0.000,0.000,0.000,0.000,0.000,0.000,3.142,6.283,0.000,1.003,1.569,1.569,4.085,6.281,1.199,4.712,0.000,0.000,-1.969,-6.500,0.990,5.424,4.705,4.717,5.281,4.711,4.711,2.198,6.282,5.083,1.570,0.000,0.000,-1.473,-6.071,0.990,5.425,4.706,4.717,
28.293,49.795,-1.335,-6.731,2.283,0.000,6.272,2.497,1.702,0.000,3.371,1.865,0.000,0.847,0.368,0.665,3.309,0.000,3.142,0.000,0.000,0.000,0.000,0.000,0.000,0.000,0.000,0.000,0.000,0.000,3.142,6.283,0.000,1.003,1.569,1.569,4.085,6.281,1.199,4.712,0.000,0.000,-1.969,-6.500,0.990,5.424,4.705,4.717,5.281,4.711,4.711,2.198,6.282,5.083,1.570,0.000,0.000,-1.473,-6.071,0.990,5.425,4.706,4.717,
28.400,49.902,-1.335,-6.731,2.283,0.000,6.272,2.497,1.702,0.000,3.371,1.865,0.000,0.847,0.368,0.665,3.309,0.000,3.142,0.000,0.000,0.000,0.000,0.000,0.000,0.000,0.000,0.000,0.000,0.000,3.142,6.283,0.000,1.003,1.569,1.569,4.085,6.281,1.199,4.712,0.000,0.000,-1.969,-6.500,0.990,5.424,4.705,4.717,5.281,4.711,4.711,2.198,6.282,5.083,1.570,0.000,0.000,-1.473,-6.071,0.990,5.425,4.706,4.717,
28.490,49.992,-1.335,-6.731,2.283,0.000,6.272,2.497,1.702,0.000,3.371,1.865,0.000,0.847,0.368,0.665,3.309,0.000,3.142,0.000,0.000,0.000,0.000,0.000,0.000,0.000,0.000,0.000,0.000,0.000,3.142,6.283,0.000,1.003,1.569,1.569,4.085,6.281,1.199,4.712,0.000,0.000,-1.969,-6.500,0.990,5.424,4.705,4.717,5.281,4.711,4.711,2.198,6.282,5.083,1.570,0.000,0.000,-1.473,-6.071,0.990,5.425,4.706,4.717,
28.600,50.102,-1.335,-6.731,2.283,0.000,6.272,2.497,1.702,0.000,3.371,1.865,0.000,0.847,0.368,0.665,3.309,0.000,3.142,0.000,0.000,0.000,0.000,0.000,0.000,0.000,0.000,0.000,0.000,0.000,3.142,6.283,0.000,1.003,1.569,1.569,4.085,6.281,1.199,4.712,0.000,0.000,-1.969,-6.500,0.990,5.424,4.705,4.717,5.281,4.711,4.711,2.198,6.282,5.083,1.570,0.000,0.000,-1.473,-6.071,0.990,5.425,4.706,4.717,
28.684,50.186,-1.335,-6.731,2.283,0.000,6.272,2.497,1.702,0.000,3.371,1.865,0.000,0.847,0.368,0.665,3.309,0.000,3.142,0.000,0.000,0.000,0.000,0.000,0.000,0.000,0.000,0.000,0.000,0.000,3.142,6.283,0.000,1.003,1.569,1.569,4.085,6.281,1.199,4.712,0.000,0.000,-1.969,-6.500,0.990,5.424,4.705,4.717,5.281,4.711,4.711,2.198,6.282,5.083,1.570,0.000,0.000,-1.473,-6.071,0.990,5.425,4.706,4.717,
28.800,50.302,-1.335,-6.731,2.283,0.000,6.272,2.497,1.702,0.000,3.371,1.865,0.000,0.847,0.368,0.665,3.309,0.000,3.142,0.000,0.000,0.000,0.000,0.000,0.000,0.000,0.000,0.000,0.000,0.000,3.142,6.283,0.000,1.003,1.569,1.569,4.085,6.281,1.199,4.712,0.000,0.000,-1.969,-6.500,0.990,5.424,4.705,4.717,5.281,4.711,4.711,2.198,6.282,5.083,1.570,0.000,0.000,-1.473,-6.071,0.990,5.425,4.706,4.717,
28.891,50.393,-1.335,-6.731,2.283,0.000,6.272,2.497,1.702,0.000,3.371,1.865,0.000,0.847,0.368,0.665,3.309,0.000,3.142,0.000,0.000,0.000,0.000,0.000,1.269,0.000,0.000,0.000,0.000,0.000,3.106,6.283,0.000,1.003,1.569,1.569,4.085,6.281,1.199,4.712,0.000,0.000,-1.969,-6.500,0.990,5.424,4.705,4.717,5.281,4.711,4.711,2.198,6.282,5.083,1.570,0.000,0.000,-1.473,-6.071,0.990,5.425,4.706,4.717,
29.000,50.502,-1.335,-6.731,2.283,0.000,6.272,2.497,1.702,0.000,3.371,1.865,0.000,0.847,0.368,0.665,3.309,0.000,3.142,0.000,0.000,0.000,0.000,0.000,1.120,0.000,0.000,0.000,0.000,0.000,3.071,6.283,0.000,1.003,1.569,1.569,4.085,6.281,1.199,4.712,0.000,0.000,-1.969,-6.500,0.990,5.424,4.705,4.717,5.281,4.711,4.711,2.198,6.282,5.083,1.570,0.000,0.000,-1.473,-6.071,0.990,5.425,4.706,4.717,
29.099,50.601,-1.335,-6.731,2.283,0.000,6.272,2.497,1.702,0.000,3.371,1.865,0.000,0.847,0.368,0.665,3.309,0.000,3.142,0.000,0.000,0.000,0.000,0.000,1.015,0.000,0.000,0.000,0.000,0.000,3.001,6.283,0.000,1.003,1.569,1.569,4.085,6.281,1.199,4.712,0.000,0.000,-1.969,-6.500,0.990,5.424,4.705,4.717,5.281,4.711,4.711,2.198,6.282,5.083,1.570,0.000,0.000,-1.473,-6.071,0.990,5.425,4.706,4.717,
29.200,50.702,-1.335,-6.731,2.283,0.000,6.272,2.497,1.702,0.000,3.371,1.865,0.000,0.847,0.368,0.665,3.309,0.000,3.142,0.000,0.000,0.000,0.000,0.000,0.872,0.000,0.000,0.000,0.000,0.000,2.861,6.283,0.000,1.003,1.569,1.569,4.085,6.281,1.199,4.712,0.000,0.000,-1.969,-6.500,0.990,5.424,4.705,4.717,5.281,4.711,4.711,2.198,6.282,5.083,1.570,0.000,0.000,-1.473,-6.071,0.990,5.425,4.706,4.717,
29.300,50.802,-1.335,-6.731,2.283,0.000,6.272,2.497,1.702,0.000,3.371,1.865,0.000,0.847,0.368,0.665,3.309,0.000,3.142,0.000,0.000,0.000,0.000,0.000,0.830,0.000,0.000,0.000,0.000,0.000,2.791,6.283,0.000,1.003,1.569,1.569,4.085,6.281,1.199,4.712,0.000,0.000,-1.969,-6.500,0.990,5.424,4.705,4.717,5.281,4.711,4.711,2.198,6.282,5.083,1.570,0.000,0.000,-1.473,-6.071,0.990,5.425,4.706,4.717,
29.400,50.902,-1.335,-6.731,2.283,0.000,6.272,2.497,1.702,0.000,3.371,1.865,0.000,0.847,0.368,0.665,3.309,0.000,3.142,0.000,0.000,0.000,0.000,0.000,0.817,0.000,0.000,0.000,0.000,0.000,2.615,6.283,0.000,1.003,1.569,1.569,4.085,6.281,1.199,4.712,0.000,0.000,-1.969,-6.500,0.990,5.424,4.705,4.717,5.281,4.711,4.711,2.198,6.282,5.083,1.570,0.000,0.000,-1.473,-6.071,0.990,5.425,4.706,4.717,
29.496,50.998,-1.335,-6.731,2.283,0.000,6.272,2.497,1.702,0.000,3.371,1.865,0.000,0.847,0.368,0.665,3.309,0.000,3.142,0.000,0.000,0.000,0.000,0.000,0.000,0.000,0.000,0.000,0.000,0.000,3.142,6.283,0.000,1.003,1.569,1.569,4.085,6.281,1.199,4.712,0.000,0.000,-1.969,-6.500,0.990,5.424,4.705,4.717,5.281,4.711,4.711,2.198,6.282,5.083,1.570,0.000,0.000,-1.473,-6.071,0.990,5.425,4.706,4.717,
29.600,51.102,-1.335,-6.731,2.283,0.000,6.272,2.497,1.702,0.000,3.371,0.000,0.000,0.847,0.368,0.665,3.309,0.000,3.142,0.000,0.000,0.000,0.000,0.617,0.000,0.000,0.000,0.000,0.000,0.000,3.142,6.283,0.000,1.003,1.569,1.569,4.085,6.281,1.199,4.712,0.000,0.000,-1.969,-6.500,0.990,5.424,4.705,4.717,5.281,4.711,4.711,2.198,6.282,5.083,1.570,0.000,0.000,-1.473,-6.071,0.990,5.425,4.706,4.717,
29.694,51.196,-1.335,-6.731,2.283,0.000,6.272,2.497,1.702,0.000,3.371,0.000,0.000,0.847,0.368,0.665,3.309,0.000,3.142,0.000,0.000,0.000,0.000,0.580,0.000,0.000,0.000,0.000,0.000,0.000,3.142,6.283,0.000,1.003,1.569,1.569,4.085,6.281,1.199,4.712,0.000,0.000,-1.969,-6.500,0.990,5.424,4.705,4.717,5.281,4.711,4.711,2.198,6.282,5.083,1.570,0.000,0.000,-1.473,-6.071,0.990,5.425,4.706,4.717,
29.800,51.302,-1.335,-6.731,2.283,0.000,6.272,2.497,1.702,0.000,3.371,0.000,0.000,0.847,0.368,0.665,3.309,0.000,3.142,0.000,0.000,0.000,0.000,0.604,0.000,0.000,0.000,0.000,0.000,0.000,3.142,6.283,0.000,1.003,1.569,1.569,4.085,6.281,1.199,4.712,0.000,0.000,-1.969,-6.500,0.990,5.424,4.705,4.717,5.281,4.711,4.711,2.198,6.282,5.083,1.570,0.000,0.000,-1.473,-6.071,0.990,5.425,4.706,4.717,
29.891,51.393,-1.335,-6.731,2.283,0.000,6.272,2.497,1.702,0.000,3.371,0.000,0.000,0.847,0.368,0.665,3.309,0.000,3.142,0.000,0.000,0.000,0.000,0.719,0.000,0.000,0.000,0.000,0.000,0.000,3.142,6.283,0.000,1.003,1.569,1.569,4.085,6.281,1.199,4.712,0.000,0.000,-1.969,-6.500,0.990,5.424,4.705,4.717,5.281,4.711,4.711,2.198,6.282,5.083,1.570,0.000,0.000,-1.473,-6.071,0.990,5.425,4.706,4.717,
30.000,51.502,-1.335,-6.731,2.283,0.000,6.272,2.497,1.702,0.000,0.000,1.865,0.000,0.847,0.368,0.665,3.309,0.000,3.142,0.000,0.000,0.000,0.626,0.000,0.000,0.000,0.000,0.000,0.000,0.000,3.142,6.283,0.000,1.003,1.569,1.569,4.085,6.281,1.199,4.712,0.000,0.000,-1.969,-6.500,0.990,5.424,4.705,4.717,5.281,4.711,4.711,2.198,6.282,5.083,1.570,0.000,0.000,-1.473,-6.071,0.990,5.425,4.706,4.717,
30.081,51.583,-1.335,-6.731,2.283,0.000,6.272,2.497,1.702,0.000,0.000,1.865,0.000,0.847,0.368,0.665,3.309,0.000,3.142,0.000,0.000,0.000,0.626,0.000,0.000,0.000,0.000,0.000,0.000,0.000,3.142,6.283,0.000,1.003,1.569,1.569,4.085,6.281,1.199,4.712,0.000,0.000,-1.969,-6.500,0.990,5.424,4.705,4.717,5.281,4.711,4.711,2.198,6.282,5.083,1.570,0.000,0.000,-1.473,-6.071,0.990,5.425,4.706,4.717,
30.200,51.702,-1.335,-6.731,2.283,0.000,6.272,2.497,1.702,0.000,0.000,1.865,0.000,0.847,0.368,0.665,3.309,0.000,3.142,0.000,0.000,0.000,0.626,0.000,0.000,0.000,0.000,0.000,0.000,0.000,3.142,6.283,0.000,1.003,1.569,1.569,4.085,6.281,1.199,4.712,0.000,0.000,-1.969,-6.500,0.990,5.424,4.705,4.717,5.281,4.711,4.711,2.198,6.282,5.083,1.570,0.000,0.000,-1.473,-6.071,0.990,5.425,4.706,4.717,
30.300,51.802,-1.335,-6.731,2.283,0.000,6.272,2.497,1.702,0.000,0.000,1.865,0.000,0.847,0.368,0.665,3.309,0.000,3.142,0.000,0.000,0.000,0.621,0.000,0.000,0.000,0.000,0.000,0.000,0.000,3.142,6.283,0.000,1.003,1.569,1.569,4.085,6.281,1.199,4.712,0.000,0.000,-1.969,-6.500,0.990,5.424,4.705,4.717,5.281,4.711,4.711,2.198,6.282,5.083,1.570,0.000,0.000,-1.473,-6.071,0.990,5.425,4.706,4.717,
30.400,51.902,-1.335,-6.731,2.283,0.000,6.272,2.497,1.702,0.000,0.000,1.865,0.000,0.847,0.368,0.665,3.309,0.000,3.142,0.000,0.000,0.000,0.599,0.000,0.000,0.000,0.000,0.000,0.000,0.000,3.142,6.283,0.000,1.003,1.569,1.569,4.085,6.281,1.199,4.712,0.000,0.000,-1.969,-6.500,0.990,5.424,4.705,4.717,5.281,4.711,4.711,2.198,6.282,5.083,1.570,0.000,0.000,-1.473,-6.071,0.990,5.425,4.706,4.717,
30.500,52.002,-1.335,-6.731,2.283,0.000,6.272,2.497,1.702,0.000,0.000,1.865,0.000,0.847,0.368,0.665,3.309,0.000,3.142,0.000,0.000,0.000,0.565,0.000,0.000,0.000,0.000,0.000,0.000,0.000,3.142,6.283,0.000,1.003,1.569,1.569,4.085,6.281,1.199,4.712,0.000,0.000,-1.969,-6.500,0.990,5.424,4.705,4.717,5.281,4.711,4.711,2.198,6.282,5.083,1.570,0.000,0.000,-1.473,-6.071,0.990,5.425,4.706,4.717,
30.600,52.102,-1.335,-6.731,2.283,0.000,6.272,2.497,1.702,0.000,0.000,1.865,0.000,0.847,0.368,0.665,3.309,0.000,3.142,0.000,0.000,0.000,0.548,0.000,0.000,0.000,0.000,0.000,0.000,0.000,3.142,6.283,0.000,1.003,1.569,1.569,4.085,6.281,1.199,4.712,0.000,0.000,-1.969,-6.500,0.990,5.424,4.705,4.717,5.281,4.711,4.711,2.198,6.282,5.083,1.570,0.000,0.000,-1.473,-6.071,0.990,5.425,4.706,4.717,
30.700,52.202,-1.335,-6.731,2.283,0.000,6.272,2.497,1.702,0.000,0.000,1.865,0.000,0.847,0.368,0.665,3.309,0.000,3.142,0.000,0.000,0.000,0.518,0.000,0.000,0.000,0.000,0.000,0.000,0.000,3.142,6.283,0.000,1.003,1.569,1.569,4.085,6.281,1.199,4.712,0.000,0.000,-1.969,-6.500,0.990,5.424,4.705,4.717,5.281,4.711,4.711,2.198,6.282,5.083,1.570,0.000,0.000,-1.473,-6.071,0.990,5.425,4.706,4.717,
30.798,52.300,-1.335,-6.731,2.283,0.000,6.272,2.497,1.702,0.000,0.000,1.865,0.000,0.847,0.368,0.665,3.309,0.000,3.142,0.000,0.000,0.000,0.512,0.000,0.000,0.000,0.000,0.000,0.000,0.000,3.142,6.283,0.000,1.003,1.569,1.569,4.085,6.281,1.199,4.712,0.000,0.000,-1.969,-6.500,0.990,5.424,4.705,4.717,5.281,4.711,4.711,2.198,6.282,5.083,1.570,0.000,0.000,-1.473,-6.071,0.990,5.425,4.706,4.717,
30.900,52.402,-1.335,-6.731,2.283,0.000,6.272,2.497,1.702,0.000,0.000,1.865,0.000,0.847,0.368,0.665,3.309,0.000,3.142,0.000,0.000,0.636,0.545,0.000,0.000,0.000,0.000,0.000,0.000,0.000,3.142,6.283,0.000,1.003,1.569,1.569,4.085,6.281,1.199,4.712,0.000,0.000,-1.969,-6.500,0.990,5.424,4.705,4.717,5.281,4.711,4.711,2.198,6.282,5.083,1.570,0.000,0.000,-1.473,-6.071,0.990,5.425,4.706,4.717,
30.992,52.494,-1.335,-6.731,2.283,0.000,6.272,2.497,1.702,0.000,3.371,1.865,0.000,0.847,0.368,0.665,3.309,0.000,3.142,0.000,0.000,0.523,0.000,0.000,0.000,0.000,0.000,0.000,0.000,0.000,3.142,6.283,0.000,1.003,1.569,1.569,4.085,6.281,1.199,4.712,0.000,0.000,-1.969,-6.500,0.990,5.424,4.705,4.717,5.281,4.711,4.711,2.198,6.282,5.083,1.570,0.000,0.000,-1.473,-6.071,0.990,5.425,4.706,4.717,
31.100,52.602,-1.335,-6.731,2.283,0.000,6.272,2.497,1.702,0.000,3.371,1.865,0.000,0.847,0.368,0.665,3.309,0.000,3.142,0.000,0.000,0.468,0.000,0.000,0.000,0.000,0.000,0.000,0.000,0.000,3.142,6.283,0.000,1.003,1.569,1.569,4.085,6.281,1.199,4.712,0.000,0.000,-1.969,-6.500,0.990,5.424,4.705,4.717,5.281,4.711,4.711,2.198,6.282,5.083,1.570,0.000,0.000,-1.473,-6.071,0.990,5.425,4.706,4.717,
31.192,52.694,-1.335,-6.731,2.283,0.000,6.272,2.497,1.702,0.000,3.371,1.865,0.000,0.847,0.368,0.665,3.309,0.000,3.142,0.000,0.000,0.478,0.000,0.000,0.000,0.000,0.000,0.000,0.000,0.000,3.142,6.283,0.000,1.003,1.569,1.569,4.085,6.281,1.199,4.712,0.000,0.000,-1.969,-6.500,0.990,5.424,4.705,4.717,5.281,4.711,4.711,2.198,6.282,5.083,1.570,0.000,0.000,-1.473,-6.071,0.990,5.425,4.706,4.717,
31.300,52.802,-1.335,-6.731,2.283,0.000,6.272,2.497,1.702,0.000,3.371,1.865,0.000,0.847,0.368,0.665,3.309,0.000,3.142,0.000,0.000,0.619,0.000,0.000,0.000,0.000,0.000,0.000,0.000,0.000,3.142,6.283,0.000,1.003,1.569,1.569,4.085,6.281,1.199,4.712,0.000,0.000,-1.969,-6.500,0.990,5.424,4.705,4.717,5.281,4.711,4.711,2.198,6.282,5.083,1.570,0.000,0.000,-1.473,-6.071,0.990,5.425,4.706,4.717,
31.385,52.887,-1.335,-6.731,2.283,0.000,6.272,2.497,0.000,0.000,3.371,1.865,0.000,0.847,0.368,0.665,3.309,0.000,3.142,0.000,0.633,0.000,0.000,0.000,0.000,0.000,0.000,0.000,0.000,0.000,3.142,6.283,0.000,1.003,1.570,1.571,4.085,6.278,1.199,4.713,0.008,0.000,-1.968,-6.499,0.990,5.421,4.705,4.718,5.281,4.711,4.711,2.198,6.282,5.083,1.570,0.000,0.000,-1.473,-6.071,0.990,5.425,4.706,4.717,
31.500,53.002,-1.335,-6.731,2.283,0.000,6.271,2.497,0.000,0.000,3.371,1.865,0.000,0.847,0.368,0.665,3.309,0.000,3.142,0.000,0.660,0.000,0.000,0.000,0.000,0.000,0.000,0.000,0.000,0.000,3.142,6.283,0.000,1.004,1.570,1.572,4.085,6.274,1.200,4.715,0.017,0.000,-1.966,-6.498,0.990,5.416,4.705,4.719,5.281,4.711,4.711,2.198,6.282,5.083,1.570,0.000,0.000,-1.473,-6.071,0.990,5.425,4.706,4.717,
31.600,53.102,-1.335,-6.731,2.283,0.000,6.272,2.497,0.000,0.000,3.371,1.865,0.000,0.847,0.368,0.665,3.309,0.000,3.142,0.000,0.757,0.000,0.000,0.000,0.000,0.000,0.000,0.000,0.000,0.000,3.142,6.283,0.000,1.003,1.569,1.569,4.085,6.281,1.199,4.712,0.000,0.000,-1.969,-6.500,0.990,5.425,4.705,4.717,5.281,4.711,4.712,2.198,6.282,5.083,1.570,0.000,0.000,-1.473,-6.071,0.990,5.425,4.706,4.717,
31.695,53.198,-1.335,-6.731,2.283,0.000,6.272,2.497,0.000,0.000,3.371,1.865,0.000,0.847,0.368,0.665,3.309,0.000,3.142,0.000,0.822,0.000,0.000,0.000,0.000,0.000,0.000,0.000,0.000,0.000,3.142,6.283,0.000,1.003,1.569,1.569,4.085,6.281,1.199,4.712,0.000,0.000,-1.969,-6.500,0.990,5.424,4.705,4.717,5.281,4.711,4.711,2.198,6.282,5.083,1.570,0.000,0.000,-1.473,-6.071,0.990,5.425,4.706,4.717,
31.800,53.302,-1.335,-6.731,2.283,0.000,6.272,2.497,0.000,0.000,3.371,1.865,0.000,0.847,0.368,0.665,3.309,0.000,3.142,0.000,1.027,0.000,0.000,0.000,0.000,0.000,0.000,0.000,0.000,0.000,3.142,6.283,0.000,1.003,1.569,1.569,4.085,6.281,1.199,4.712,0.000,0.000,-1.969,-6.500,0.990,5.424,4.705,4.717,5.281,4.711,4.711,2.198,6.282,5.083,1.570,0.000,0.000,-1.473,-6.071,0.990,5.425,4.706,4.717,
31.883,53.385,-1.335,-6.731,2.283,0.000,6.272,2.497,1.702,0.000,3.371,1.865,0.000,0.847,0.368,0.665,3.309,0.000,3.142,0.000,0.000,0.000,0.000,0.000,0.000,0.000,0.000,0.000,0.000,0.000,3.142,6.283,0.000,1.003,1.569,1.569,4.085,6.281,1.199,4.712,0.000,0.000,-1.969,-6.500,0.990,5.424,4.705,4.717,5.281,4.711,4.711,2.198,6.282,5.083,1.570,0.000,0.000,-1.473,-6.071,0.990,5.425,4.706,4.717,
32.000,53.502,-1.335,-6.731,2.283,0.000,6.272,2.497,1.702,0.000,3.371,1.865,0.000,0.847,0.368,0.665,3.309,0.000,3.142,0.000,0.000,0.000,0.000,0.000,0.000,0.000,0.000,0.000,0.000,0.000,3.142,6.283,0.000,1.003,1.569,1.569,4.085,6.281,1.199,4.712,0.000,0.000,-1.969,-6.500,0.990,5.424,4.705,4.717,5.281,4.711,4.711,2.198,6.282,5.083,1.570,0.000,0.000,-1.473,-6.071,0.990,5.425,4.706,4.717,
32.100,53.602,-1.335,-6.731,2.283,0.000,6.272,2.497,1.702,0.000,3.371,1.865,0.000,0.847,0.368,0.665,3.309,0.000,3.142,0.000,0.000,0.000,0.000,0.000,0.000,0.000,0.000,0.000,0.000,0.000,3.142,6.283,0.000,1.003,1.569,1.569,4.085,6.281,1.199,4.712,0.000,0.000,-1.969,-6.500,0.990,5.424,4.705,4.717,5.281,4.711,4.711,2.198,6.282,5.083,1.570,0.000,0.000,-1.473,-6.071,0.990,5.425,4.706,4.717,
32.200,53.702,-1.335,-6.731,2.283,0.000,6.272,2.497,1.702,0.000,3.371,1.865,0.000,0.847,0.368,0.665,3.309,0.000,3.142,0.000,0.000,0.000,0.000,0.000,0.000,0.000,0.000,0.000,0.000,0.000,3.142,6.283,0.000,1.003,1.569,1.569,4.085,6.281,1.199,4.712,0.000,0.000,-1.969,-6.500,0.990,5.424,4.705,4.717,5.281,4.711,4.711,2.198,6.282,5.083,1.570,0.000,0.000,-1.473,-6.071,0.990,5.425,4.706,4.717,
32.300,53.802,-1.335,-6.731,2.283,0.000,6.272,0.000,1.702,0.000,3.371,1.865,0.000,0.847,0.368,0.665,3.309,0.000,3.142,1.386,0.000,0.000,0.000,0.000,0.000,0.000,0.000,0.000,0.000,0.000,3.142,6.283,0.000,1.003,1.569,1.569,4.085,6.281,1.199,4.712,0.000,0.000,-1.969,-6.500,0.990,5.424,4.705,4.717,5.281,4.711,4.711,2.198,6.282,5.083,1.570,0.000,0.000,-1.473,-6.071,0.990,5.425,4.706,4.717,
32.394,53.896,-1.335,-6.731,2.283,0.000,6.272,0.000,1.702,0.000,3.371,1.865,0.000,0.847,0.368,0.665,3.309,0.000,3.142,1.338,0.000,0.000,0.000,0.000,0.000,0.000,0.000,0.000,0.000,0.000,3.142,6.283,0.000,1.003,1.569,1.569,4.085,6.281,1.199,4.712,0.000,0.000,-1.969,-6.500,0.990,5.424,4.705,4.717,5.281,4.711,4.711,2.198,6.282,5.083,1.570,0.000,0.000,-1.473,-6.071,0.990,5.425,4.706,4.717,
