deveshdatwani/Gopher/Assets/Data/07-21 11-02-36/Obstacle Handling_robot_value.csv
game_time,true_time,x,y,az,vx,vaz,dis_to_obs_0,dis_to_obs_36,dis_to_obs_72,dis_to_obs_108,dis_to_obs_144,dis_to_obs_180,dis_to_obs_-144,dis_to_obs_-108,dis_to_obs_-72,dis_to_obs_-36,dis_to_min_obs,direction_to_min_obs,dis_to_human_0,dis_to_human_36,dis_to_human_72,dis_to_human_108,dis_to_human_144,dis_to_human_180,dis_to_human_-144,dis_to_human_-108,dis_to_human_-72,dis_to_human_-36,dis_to_min_human,direction_to_min_human,main_cam_yaw,main_cam_pitch,left_joint_1,left_joint_2,left_joint_3,left_joint_4,left_joint_5,left_joint_6,left_joint_7,left_joint_gripper,left_is_grasping,left_end_x,left_end_y,left_end_z,left_end_ax,left_end_ay,left_end_az,right_joint_1,right_joint_2,right_joint_3,right_joint_4,right_joint_5,right_joint_6,right_joint_7,right_joint_gripper,right_is_grasping,right_end_x,right_end_y,right_end_z,right_end_ax,right_end_ay,right_end_az,
7.338,12.759,1.048,-9.868,1.232,1.000,5.662,3.550,3.537,0.000,1.550,1.531,3.707,4.694,2.445,1.952,0.000,0.000,1.351,0.000,0.000,0.000,0.000,0.000,0.000,0.000,0.000,0.000,0.000,0.000,3.142,6.281,0.000,1.004,1.569,1.569,4.085,6.281,1.199,4.712,0.000,0.000,0.934,-9.203,0.990,5.052,1.586,1.556,5.282,4.711,4.711,2.198,6.281,5.083,1.570,0.000,0.000,1.553,-9.421,0.991,5.052,1.583,1.558,
7.440,12.860,1.082,-9.775,1.216,1.008,6.264,3.471,3.422,0.000,1.704,1.555,3.641,4.839,2.433,1.919,0.000,0.000,1.422,0.000,0.000,3.321,0.000,0.000,0.000,0.000,0.000,0.000,0.000,0.000,3.142,6.282,0.000,1.004,1.569,1.570,4.085,6.281,1.199,4.712,0.000,0.000,0.979,-9.108,0.990,5.068,1.584,1.557,5.281,4.711,4.712,2.198,6.282,5.083,1.570,0.000,0.000,1.594,-9.336,0.990,5.068,1.584,1.558,
7.540,12.960,1.109,-9.700,1.216,1.016,6.262,3.391,3.344,0.000,1.807,1.589,3.726,4.728,2.397,1.891,0.000,0.000,1.457,0.000,0.000,3.282,0.000,0.000,0.000,0.000,0.000,0.000,0.000,0.000,3.142,6.282,0.000,1.004,1.569,1.569,4.085,6.281,1.199,4.712,0.000,0.000,1.006,-9.034,0.990,5.067,1.585,1.557,5.281,4.711,4.711,2.198,6.282,5.083,1.570,0.000,0.000,1.621,-9.261,0.990,5.067,1.584,1.558,
7.627,13.047,1.151,-9.588,1.217,1.014,6.263,3.271,3.228,0.000,1.961,1.641,3.854,4.564,2.342,1.451,0.000,0.000,1.492,0.000,0.000,3.345,0.000,0.000,0.000,0.000,0.000,0.000,0.000,0.000,3.142,6.282,0.000,1.004,1.569,1.569,4.085,6.281,1.199,4.712,0.000,0.000,1.047,-8.921,0.990,5.066,1.585,1.557,5.281,4.711,4.711,2.198,6.282,5.083,1.570,0.000,0.000,1.662,-9.148,0.990,5.066,1.584,1.558,
7.738,13.159,1.185,-9.495,1.217,1.009,6.263,3.172,3.131,0.000,2.089,1.684,3.960,3.707,2.298,1.417,0.000,0.000,1.527,0.000,0.000,3.383,0.000,0.000,0.000,0.000,0.000,0.000,0.000,0.000,3.142,6.282,0.000,1.004,1.569,1.569,4.085,6.281,1.199,4.712,0.000,0.000,1.081,-8.828,0.990,5.066,1.585,1.557,5.281,4.711,4.711,2.198,6.282,5.083,1.570,0.000,0.000,1.696,-9.055,0.990,5.065,1.584,1.558,
7.840,13.260,1.220,-9.401,1.218,1.010,6.263,3.072,3.034,0.000,1.878,1.727,4.065,3.575,2.253,1.383,0.000,0.000,1.562,0.000,0.000,0.000,0.000,0.000,0.000,0.000,0.000,0.000,0.000,0.000,3.142,6.282,0.000,1.004,1.569,1.569,4.085,6.281,1.199,4.712,0.000,0.000,1.115,-8.735,0.990,5.065,1.585,1.557,5.281,4.711,4.711,2.198,6.282,5.083,1.570,0.000,0.000,1.730,-8.961,0.990,5.065,1.584,1.558,
7.940,13.360,1.247,-9.327,1.218,1.013,6.264,2.993,2.956,0.000,1.863,1.761,4.149,3.577,2.218,1.355,4.199,0.000,1.597,0.000,0.000,0.000,0.000,0.000,0.000,0.000,0.000,0.000,0.000,0.000,3.142,6.282,0.000,1.004,1.569,1.569,4.085,6.281,1.199,4.712,0.000,0.000,1.142,-8.660,0.990,5.064,1.585,1.557,5.281,4.711,4.711,2.198,6.282,5.083,1.570,0.000,0.000,1.758,-8.887,0.990,5.064,1.584,1.558,
8.040,13.460,1.282,-9.233,1.217,1.013,6.119,2.896,2.857,0.000,1.842,1.802,4.229,3.672,2.177,1.321,4.050,0.000,1.632,0.000,0.000,0.000,0.000,0.000,0.000,0.000,0.000,0.000,0.000,0.000,3.142,6.281,0.001,1.004,1.569,1.568,4.084,6.281,1.199,4.712,0.000,0.000,1.176,-8.567,0.990,5.064,1.584,1.557,5.281,4.711,4.710,2.197,6.282,5.083,1.570,0.000,0.000,1.792,-8.793,0.990,5.064,1.586,1.556,
8.140,13.560,1.317,-9.140,1.162,1.013,5.173,2.856,2.718,0.000,1.771,1.849,3.776,4.016,2.231,1.290,0.000,0.000,1.738,0.000,0.000,0.000,0.000,0.000,0.000,0.000,0.000,0.000,0.000,0.000,3.142,6.280,0.001,1.005,1.568,1.565,4.084,6.282,1.199,4.711,0.000,0.000,1.247,-8.468,0.990,5.116,1.582,1.558,5.281,4.710,4.708,2.197,6.282,5.083,1.570,0.000,0.000,1.849,-8.728,0.990,5.117,1.583,1.558,
8.240,13.660,1.358,-9.050,1.044,1.009,4.908,2.920,2.569,3.089,2.517,2.012,3.068,0.000,2.443,1.269,0.000,0.000,1.878,0.000,0.000,0.000,0.000,0.000,0.000,0.000,0.000,0.000,0.000,0.000,3.142,6.280,0.001,1.004,1.568,1.567,4.085,6.281,1.199,4.712,0.000,0.000,1.369,-8.374,0.990,5.237,1.581,1.561,5.282,4.711,4.710,2.197,6.282,5.083,1.570,0.000,0.000,1.937,-8.704,0.991,5.238,1.578,1.563,
8.340,13.760,1.411,-8.965,0.937,1.008,5.254,2.558,2.465,3.090,0.000,2.210,2.693,0.000,2.699,1.251,0.000,0.000,2.018,0.000,0.000,0.000,0.000,0.000,0.000,0.000,0.000,0.000,0.000,0.000,3.142,6.281,0.001,1.004,1.569,1.568,4.085,6.281,1.199,4.712,0.000,0.000,1.494,-8.295,0.990,5.345,1.579,1.563,5.282,4.711,4.711,2.197,6.281,5.083,1.570,0.000,0.000,2.023,-8.684,0.991,5.346,1.577,1.565,
8.440,13.860,1.471,-8.886,0.857,1.018,5.423,3.108,2.391,2.830,0.000,2.418,2.530,0.000,2.923,1.222,0.000,0.000,2.089,0.000,0.000,0.000,0.000,0.000,0.000,0.000,0.000,0.000,0.000,0.000,3.142,6.281,0.001,1.004,1.569,1.568,4.085,6.281,1.199,4.712,0.000,0.000,1.607,-8.225,0.990,5.424,1.578,1.564,5.282,4.711,4.710,2.197,6.282,5.083,1.570,0.000,0.000,2.104,-8.654,0.991,5.424,1.578,1.565,
8.527,13.947,1.552,-8.797,0.761,1.014,5.275,3.272,2.327,2.577,0.000,2.099,2.397,0.000,3.306,1.187,0.000,0.000,2.229,0.000,0.000,0.000,3.351,0.000,0.000,0.000,0.000,0.000,0.000,0.000,3.142,6.281,0.001,1.004,1.568,1.567,4.085,6.281,1.199,4.712,0.000,0.000,1.751,-8.152,0.990,5.520,1.577,1.565,5.282,4.711,4.710,2.197,6.282,5.083,1.570,0.000,0.000,2.204,-8.627,0.991,5.521,1.577,1.565,
8.640,14.060,1.610,-8.743,0.688,1.009,5.226,3.459,2.305,2.433,0.000,2.130,2.323,0.000,3.740,1.169,0.000,0.000,2.299,0.000,0.000,0.000,0.000,0.000,0.000,0.000,0.000,0.000,0.000,0.000,3.142,6.280,0.001,1.004,1.569,1.567,4.085,6.281,1.199,4.712,0.000,0.000,1.856,-8.114,0.990,5.593,1.577,1.565,5.282,4.711,4.710,2.197,6.282,5.083,1.570,0.000,0.000,2.273,-8.621,0.991,5.594,1.576,1.566,
8.737,14.158,1.705,-8.670,0.579,1.013,5.276,3.860,2.303,2.264,3.095,2.761,2.463,0.000,4.168,1.141,0.000,0.000,2.440,0.000,0.000,0.000,0.000,0.000,0.000,0.000,0.000,0.000,0.000,0.000,3.142,6.281,0.001,1.004,1.569,1.567,4.085,6.281,1.199,4.712,0.000,0.000,2.017,-8.071,0.990,5.702,1.577,1.566,5.282,4.711,4.710,2.197,6.282,5.083,1.570,0.000,0.000,2.377,-8.620,0.991,5.702,1.576,1.567,
8.822,14.243,1.790,-8.616,0.493,1.016,5.305,4.331,2.327,2.161,3.217,0.000,2.620,4.577,4.139,1.113,3.843,0.000,2.615,0.000,0.000,0.000,0.000,0.000,0.000,0.000,0.000,0.000,0.000,0.000,3.142,6.281,0.001,1.004,1.568,1.567,4.085,6.281,1.199,4.712,0.000,0.000,2.152,-8.047,0.990,5.788,1.576,1.567,5.282,4.711,4.710,2.197,6.282,5.083,1.570,0.000,0.000,2.463,-8.625,0.991,5.789,1.576,1.567,
8.940,14.360,1.860,-8.579,0.424,1.014,5.290,4.868,2.366,2.098,2.885,0.000,2.764,4.151,4.214,1.089,2.222,0.000,2.685,0.000,0.000,0.000,0.000,0.000,0.000,0.000,0.000,0.000,0.000,0.000,3.142,6.281,0.001,1.004,1.568,1.567,4.085,6.281,1.199,4.712,0.000,0.000,2.262,-8.036,0.990,5.857,1.576,1.567,5.282,4.711,4.710,2.197,6.282,5.083,1.570,0.000,0.000,2.532,-8.635,0.991,5.858,1.576,1.568,
9.023,14.444,1.971,-8.533,0.318,1.011,5.275,0.000,2.469,2.034,2.574,0.000,2.781,3.705,0.000,1.053,1.599,0.000,2.826,0.000,0.000,0.000,0.000,0.000,0.000,0.000,0.000,0.000,0.000,0.000,3.142,6.280,0.001,1.004,1.568,1.567,4.085,6.281,1.199,4.712,0.000,0.000,2.427,-8.036,0.990,5.963,1.576,1.568,5.282,4.711,4.710,2.197,6.282,5.083,1.570,0.000,0.000,2.633,-8.659,0.991,5.964,1.575,1.568,
9.140,14.560,2.047,-8.509,0.247,1.013,5.283,0.000,2.572,2.011,2.417,0.000,2.658,3.499,0.000,1.025,1.368,0.000,2.896,0.000,0.000,0.000,0.000,0.000,0.000,0.000,0.000,0.000,0.000,0.000,3.142,6.280,0.001,1.004,1.568,1.567,4.085,6.281,1.199,4.712,0.000,0.000,2.537,-8.045,0.990,6.034,1.576,1.568,5.282,4.711,4.710,2.197,6.282,5.083,1.570,0.000,0.000,2.698,-8.681,0.991,6.034,1.575,1.569,
9.220,14.641,2.164,-8.483,0.193,1.013,6.283,0.000,2.657,1.992,1.791,0.000,2.645,3.459,0.000,0.886,1.265,0.000,2.966,0.000,0.000,0.000,0.000,0.000,0.000,0.000,0.000,0.000,0.000,0.000,3.142,6.282,0.000,1.004,1.570,1.571,4.085,6.281,1.199,4.712,0.000,0.000,2.679,-8.048,0.990,6.092,1.576,1.569,5.282,4.712,4.713,2.198,6.281,5.083,1.571,0.000,0.000,2.805,-8.692,0.991,6.092,1.575,1.570,
9.326,14.746,2.261,-8.463,0.194,1.009,6.262,0.000,2.630,1.973,2.283,0.000,2.746,3.606,0.000,0.768,1.314,0.000,2.966,0.000,0.000,0.000,0.000,0.000,0.000,0.000,0.000,0.000,0.000,0.000,3.142,6.283,0.000,1.004,1.569,1.569,4.085,6.281,1.199,4.712,0.000,0.000,2.776,-8.028,0.990,6.089,1.576,1.569,5.281,4.711,4.711,2.198,6.282,5.083,1.570,0.000,0.000,2.902,-8.671,0.990,6.089,1.575,1.569,
9.440,14.860,2.339,-8.448,0.194,1.010,6.263,0.000,2.608,1.957,2.266,0.000,2.826,3.723,0.000,0.785,1.353,0.000,2.966,0.000,0.000,0.000,0.000,0.000,0.000,0.000,0.000,0.000,0.000,0.000,3.142,6.283,0.000,1.004,1.569,1.569,4.085,6.281,1.199,4.712,0.000,0.000,2.854,-8.012,0.990,6.089,1.576,1.569,5.281,4.711,4.711,2.198,6.282,5.083,1.570,0.000,0.000,2.980,-8.656,0.990,6.089,1.575,1.569,
9.540,14.960,2.437,-8.429,0.195,1.013,6.264,0.000,2.581,1.938,2.245,0.000,2.928,3.870,0.000,0.808,1.402,0.000,2.966,0.000,0.000,0.000,0.000,0.000,0.000,0.000,0.000,0.000,0.000,0.000,3.142,6.282,0.000,1.004,1.569,1.569,4.085,6.281,1.199,4.712,0.000,0.000,2.951,-7.992,0.990,6.088,1.576,1.569,5.281,4.711,4.711,2.198,6.282,5.083,1.570,0.000,0.000,3.078,-8.636,0.990,6.088,1.575,1.569,
9.620,15.041,2.554,-8.406,0.195,1.012,6.263,0.000,2.548,1.914,2.219,0.000,3.049,4.046,0.000,0.835,1.461,0.000,2.966,0.000,0.000,0.000,0.000,0.000,0.000,0.000,0.000,0.000,0.000,0.000,3.142,6.282,0.000,1.004,1.569,1.569,4.085,6.281,1.199,4.712,0.000,0.000,3.068,-7.969,0.990,6.087,1.576,1.569,5.281,4.711,4.711,2.198,6.282,5.083,1.570,0.000,0.000,3.196,-8.612,0.990,6.087,1.575,1.569,
9.740,15.160,2.632,-8.390,0.196,1.011,6.264,0.000,2.526,1.899,2.201,0.000,3.130,4.164,0.000,0.739,1.501,0.000,2.966,0.000,0.000,0.000,0.000,0.000,0.000,0.000,0.000,0.000,0.000,0.000,3.142,6.282,0.000,1.004,1.569,1.569,4.085,6.281,1.199,4.712,0.000,0.000,3.146,-7.953,0.990,6.087,1.576,1.569,5.281,4.711,4.711,2.198,6.282,5.083,1.570,0.000,0.000,3.274,-8.596,0.990,6.087,1.575,1.569,
9.832,15.252,2.749,-8.367,0.197,1.012,6.264,0.000,2.494,1.875,2.175,4.027,3.251,4.340,0.768,0.730,1.561,0.000,2.966,0.000,0.000,0.000,0.000,0.000,0.000,0.000,0.000,0.000,0.000,0.000,3.142,6.282,0.000,1.004,1.569,1.569,4.085,6.281,1.199,4.712,0.000,0.000,3.263,-7.929,0.990,6.086,1.576,1.569,5.281,4.711,4.711,2.198,6.282,5.083,1.570,0.000,0.000,3.391,-8.573,0.990,6.086,1.575,1.569,
9.940,15.360,2.827,-8.351,0.197,1.012,6.264,0.000,2.472,1.416,2.158,3.991,3.332,4.457,0.784,0.748,1.532,0.000,3.001,0.000,0.000,0.000,0.000,0.000,0.000,0.000,0.000,0.000,0.000,0.000,3.142,6.282,0.000,1.004,1.569,1.569,4.085,6.281,1.199,4.712,0.000,0.000,3.341,-7.914,0.990,6.086,1.576,1.569,5.281,4.711,4.711,2.198,6.282,5.083,1.570,0.000,0.000,3.469,-8.557,0.990,6.086,1.575,1.569,
10.040,15.460,2.925,-8.332,0.198,1.012,6.264,0.000,2.445,1.840,2.135,3.641,3.433,4.604,0.803,0.771,1.527,0.000,3.001,0.000,0.000,0.000,0.000,0.000,0.000,0.000,0.000,0.000,0.000,0.000,3.142,6.282,0.000,1.004,1.569,1.569,4.085,6.281,1.199,4.712,0.000,0.000,3.438,-7.894,0.990,6.085,1.576,1.569,5.281,4.711,4.711,2.198,6.282,5.083,1.570,0.000,0.000,3.567,-8.537,0.990,6.085,1.575,1.569,
10.123,15.543,3.042,-8.308,0.198,1.011,6.264,0.000,2.413,1.816,2.109,3.948,3.554,4.781,0.827,0.798,3.436,0.000,3.001,0.000,0.000,0.000,0.000,0.000,0.000,0.000,0.000,0.000,0.000,0.000,3.142,6.282,0.000,1.004,1.569,1.569,4.085,6.281,1.199,4.712,0.000,0.000,3.555,-7.870,0.990,6.085,1.576,1.569,5.281,4.711,4.711,2.198,6.282,5.083,1.570,0.000,0.000,3.684,-8.513,0.990,6.085,1.575,1.569,
10.238,15.659,3.120,-8.293,0.198,1.012,6.265,0.000,2.391,1.800,2.091,4.032,3.635,4.898,0.711,0.816,3.350,0.000,3.001,0.000,0.000,0.000,0.000,0.000,0.000,0.000,0.000,0.000,0.000,0.000,3.142,6.282,0.000,1.004,1.569,1.569,4.085,6.281,1.199,4.712,0.000,0.000,3.633,-7.854,0.990,6.084,1.576,1.569,5.281,4.711,4.711,2.198,6.282,5.083,1.570,0.000,0.000,3.762,-8.497,0.990,6.084,1.575,1.569,
10.340,15.760,3.218,-8.273,0.192,1.012,5.936,0.000,2.378,1.782,2.060,4.149,3.716,0.000,0.732,0.836,3.252,0.000,3.001,0.000,0.000,0.000,0.000,0.000,0.000,0.000,0.000,0.000,0.000,0.000,3.142,6.281,0.001,1.004,1.568,1.567,4.084,6.281,1.199,4.712,0.000,0.000,3.732,-7.836,0.990,6.088,1.575,1.569,5.281,4.710,4.709,2.197,6.282,5.083,1.570,0.000,0.000,3.859,-8.480,0.990,6.088,1.576,1.569,
10.440,15.860,3.316,-8.255,0.119,1.013,5.019,0.000,1.891,1.781,1.960,3.814,4.179,4.786,0.758,0.824,3.353,0.000,3.071,0.000,0.000,0.000,0.000,0.000,0.000,0.000,0.000,0.000,0.000,0.000,3.142,6.280,0.001,1.005,1.568,1.565,4.084,6.281,1.199,4.711,0.000,0.000,3.861,-7.856,0.990,6.160,1.576,1.568,5.282,4.710,4.708,2.197,6.282,5.083,1.570,0.000,0.000,3.940,-8.508,0.990,6.161,1.576,1.569,
10.540,15.960,3.415,-8.246,0.032,1.012,5.809,0.000,2.772,1.805,1.405,2.491,0.000,4.569,0.784,0.805,0.000,0.000,3.142,0.000,0.000,0.000,0.000,0.000,0.000,0.000,0.000,0.000,0.000,0.000,3.142,6.282,0.000,1.004,1.570,1.571,4.085,6.280,1.199,4.712,0.000,0.000,3.993,-7.900,0.990,6.253,1.576,1.570,5.282,4.712,4.713,2.198,6.281,5.083,1.571,0.000,0.000,4.014,-8.555,0.991,6.253,1.575,1.570,
10.624,16.044,3.534,-8.242,0.026,1.011,6.269,0.000,2.786,1.805,1.453,3.227,0.000,4.701,0.788,0.807,0.000,0.000,3.142,0.000,0.000,0.000,0.000,0.000,0.000,0.000,0.000,0.000,0.000,0.000,3.142,6.283,0.000,1.003,1.569,1.569,4.085,6.281,1.199,4.712,0.000,0.000,4.115,-7.898,0.990,6.257,1.576,1.570,5.281,4.711,4.711,2.198,6.282,5.083,1.570,0.000,0.000,4.132,-8.554,0.990,6.257,1.575,1.570,
10.725,16.145,3.634,-8.240,0.027,1.011,6.266,0.000,2.778,1.801,1.866,3.227,0.000,4.830,0.791,0.810,3.160,0.000,3.142,0.000,0.000,0.000,0.000,0.000,0.000,0.000,0.000,0.000,0.000,0.000,3.142,6.283,0.000,1.003,1.569,1.569,4.085,6.281,1.199,4.712,0.000,0.000,4.214,-7.895,0.990,6.256,1.576,1.570,5.281,4.711,4.711,2.198,6.282,5.083,1.570,0.000,0.000,4.232,-8.551,0.990,6.256,1.575,1.570,
10.821,16.242,3.733,-8.237,0.028,1.012,6.260,0.000,2.771,1.798,1.863,3.226,0.000,4.959,0.794,0.813,3.039,0.000,3.142,0.000,0.000,0.000,0.000,0.000,0.000,0.000,0.000,0.000,0.000,0.000,3.142,6.283,0.000,1.003,1.569,1.569,4.085,6.281,1.199,4.712,0.000,0.000,4.313,-7.892,0.990,6.255,1.576,1.570,5.281,4.711,4.711,2.198,6.282,5.083,1.570,0.000,0.000,4.331,-8.548,0.990,6.255,1.575,1.570,
10.940,16.360,3.813,-8.235,0.029,1.012,6.261,0.000,2.765,1.795,1.861,3.225,0.000,1.459,0.796,0.816,2.942,0.000,3.142,0.000,0.000,0.000,0.000,0.000,0.000,0.000,0.000,0.000,0.000,0.000,3.142,6.283,0.000,1.003,1.569,1.569,4.085,6.281,1.199,4.712,0.000,0.000,4.392,-7.889,0.990,6.254,1.576,1.570,5.281,4.711,4.711,2.198,6.282,5.083,1.570,0.000,0.000,4.411,-8.545,0.990,6.254,1.575,1.570,
11.040,16.460,3.912,-8.232,0.030,1.012,6.262,0.000,2.758,1.792,1.859,3.224,0.000,1.463,0.799,0.819,2.724,0.000,3.142,0.000,0.000,0.000,0.000,0.000,0.000,0.000,0.000,0.000,0.000,0.000,3.142,6.283,0.000,1.004,1.569,1.569,4.085,6.281,1.199,4.712,0.000,0.000,4.492,-7.886,0.990,6.253,1.576,1.570,5.281,4.711,4.711,2.198,6.282,5.083,1.570,0.000,0.000,4.511,-8.542,0.990,6.253,1.575,1.570,
11.140,16.560,4.012,-8.229,0.030,1.011,6.263,4.994,2.751,1.789,1.856,3.222,0.000,1.254,0.802,0.769,2.604,0.000,3.142,0.000,0.000,0.000,0.000,0.000,0.000,0.000,0.000,0.000,0.000,0.000,3.142,6.283,0.000,1.004,1.569,1.569,4.085,6.281,1.199,4.712,0.000,0.000,4.591,-7.882,0.990,6.253,1.576,1.570,5.281,4.711,4.711,2.198,6.282,5.083,1.570,0.000,0.000,4.611,-8.538,0.990,6.253,1.575,1.570,
11.240,16.660,4.111,-8.226,0.031,1.012,6.263,4.894,2.744,1.785,1.853,3.219,0.000,1.258,0.805,0.773,2.484,0.000,3.142,0.000,0.000,0.000,0.000,0.000,0.000,0.000,0.000,0.000,0.000,0.000,3.142,6.282,0.000,1.004,1.569,1.569,4.085,6.281,1.199,4.712,0.000,0.000,4.690,-7.879,0.990,6.252,1.576,1.570,5.281,4.711,4.711,2.198,6.282,5.083,1.570,0.000,0.000,4.710,-8.535,0.990,6.252,1.575,1.570,
11.340,16.760,4.211,-8.223,0.031,1.012,6.263,4.795,2.737,1.782,1.850,3.216,0.000,1.262,0.808,0.000,1.669,0.000,3.142,0.000,0.000,0.000,0.000,0.000,0.000,0.000,0.000,0.000,0.000,0.000,3.142,6.282,0.000,1.004,1.569,1.569,4.085,6.281,1.199,4.712,0.000,0.000,4.789,-7.876,0.990,6.251,1.576,1.570,5.281,4.711,4.711,2.198,6.282,5.083,1.570,0.000,0.000,4.810,-8.531,0.990,6.251,1.575,1.570,
11.440,16.860,4.310,-8.220,0.032,1.012,6.264,4.695,2.730,1.322,1.847,3.213,0.000,1.267,0.811,0.000,1.549,0.000,3.142,0.000,0.000,0.000,0.000,0.000,0.000,0.000,0.000,0.000,0.000,0.000,3.142,6.282,0.000,1.004,1.569,1.569,4.085,6.281,1.199,4.712,0.000,0.000,4.889,-7.872,0.990,6.251,1.576,1.570,5.281,4.711,4.711,2.198,6.282,5.083,1.570,0.000,0.000,4.910,-8.528,0.990,6.251,1.575,1.570,
11.540,16.960,4.410,-8.216,0.033,1.012,6.265,4.596,0.000,1.775,1.844,3.210,0.000,1.271,0.814,0.000,1.430,0.000,3.142,0.000,0.000,0.000,0.000,0.000,0.000,0.000,0.000,0.000,0.000,0.000,3.142,6.282,0.000,1.004,1.569,1.569,4.085,6.281,1.199,4.712,0.000,0.000,4.988,-7.869,0.990,6.250,1.576,1.570,5.281,4.711,4.711,2.198,6.282,5.083,1.570,0.000,0.000,5.009,-8.524,0.990,6.250,1.575,1.570,
11.640,17.060,4.509,-8.213,0.033,1.012,6.265,4.497,3.423,1.771,1.841,3.206,0.000,1.275,0.765,0.000,1.342,0.000,3.142,0.000,0.000,0.000,0.000,0.000,0.000,0.000,0.000,0.000,0.000,0.000,3.142,6.282,0.000,1.004,1.569,1.569,4.085,6.281,1.199,4.712,0.000,0.000,5.087,-7.865,0.990,6.250,1.576,1.570,5.281,4.711,4.711,2.198,6.282,5.083,1.570,0.000,0.000,5.109,-8.521,0.990,6.250,1.575,1.570,
11.740,17.160,4.609,-8.210,0.034,1.012,6.265,4.397,3.343,1.767,1.838,3.203,0.000,1.280,0.769,0.000,1.349,0.000,3.142,0.000,0.000,0.000,0.000,0.000,0.000,0.000,0.000,0.000,0.000,0.000,3.142,6.282,0.000,1.004,1.569,1.569,4.085,6.281,1.199,4.712,0.000,0.000,5.186,-7.861,0.990,6.249,1.576,1.570,5.281,4.711,4.711,2.198,6.282,5.083,1.570,0.000,0.000,5.209,-8.517,0.990,6.249,1.575,1.570,
11.833,17.253,4.728,-8.206,0.034,1.012,6.265,4.278,2.116,1.763,1.834,3.198,0.000,1.286,4.117,0.000,1.449,0.000,3.142,0.000,0.000,0.000,0.000,0.000,0.000,0.000,0.000,0.000,0.000,0.000,3.142,6.282,0.000,1.004,1.569,1.569,4.085,6.281,1.199,4.712,0.000,0.000,5.306,-7.857,0.990,6.249,1.576,1.570,5.281,4.711,4.711,2.198,6.282,5.083,1.570,0.000,0.000,5.328,-8.513,0.990,6.249,1.575,1.570,
11.940,17.360,4.808,-8.203,0.034,1.011,6.265,4.198,2.014,1.760,1.831,3.195,0.000,1.289,4.418,0.000,1.455,0.000,3.142,0.000,0.000,0.000,0.000,0.000,0.000,0.000,0.000,0.000,0.000,0.000,3.142,6.282,0.000,1.004,1.569,1.569,4.085,6.281,1.199,4.712,0.000,0.000,5.385,-7.854,0.990,6.248,1.576,1.570,5.281,4.711,4.711,2.198,6.282,5.083,1.570,0.000,0.000,5.408,-8.510,0.990,6.248,1.575,1.570,
12.040,17.460,4.907,-8.200,0.032,1.012,6.104,4.098,1.996,1.757,1.826,2.352,0.000,1.298,4.752,0.000,1.457,0.000,3.142,0.000,0.000,0.000,0.000,0.000,0.000,0.000,0.000,0.000,0.000,0.000,3.142,6.281,0.001,1.004,1.568,1.568,4.084,6.281,1.199,4.712,0.000,0.000,5.485,-7.851,0.990,6.249,1.575,1.569,5.281,4.710,4.710,2.197,6.282,5.083,1.570,0.000,0.000,5.507,-8.506,0.990,6.249,1.576,1.570,
12.140,17.560,5.007,-8.197,6.260,1.013,5.243,3.993,4.927,1.784,1.787,2.920,0.000,1.405,4.278,0.000,1.349,0.000,3.142,0.000,0.000,0.000,0.000,0.000,0.000,0.000,0.000,0.000,0.000,0.000,3.142,6.280,0.001,1.005,1.568,1.566,4.084,6.281,1.199,4.712,0.000,0.000,5.603,-7.880,0.990,0.019,1.575,1.569,5.281,4.710,4.708,2.197,6.282,5.083,1.570,0.000,0.000,5.589,-8.536,0.990,0.020,1.576,1.569,
12.225,17.645,5.126,-8.203,6.188,1.014,6.135,2.682,4.555,1.838,1.756,2.669,0.000,1.559,3.850,0.000,1.223,0.000,3.142,0.000,0.000,0.000,0.000,0.000,0.000,0.000,0.000,0.000,0.000,0.000,3.142,6.282,0.000,1.004,1.570,1.571,4.085,6.281,1.199,4.712,0.000,0.000,5.744,-7.933,0.990,0.097,1.576,1.571,5.282,4.712,4.713,2.198,6.281,5.083,1.571,0.000,0.000,5.682,-8.586,0.991,0.097,1.575,1.571,
12.340,17.760,5.206,-8.211,6.188,1.010,6.259,2.602,4.462,1.846,1.764,2.681,0.000,1.544,4.054,0.000,1.212,0.000,3.142,0.000,0.000,0.000,0.000,0.000,0.000,0.000,0.000,0.000,0.000,0.000,3.142,6.283,0.000,1.003,1.569,1.569,4.085,6.281,1.199,4.712,0.000,0.000,5.823,-7.939,0.990,0.095,1.576,1.570,5.281,4.711,4.711,2.198,6.282,5.083,1.570,0.000,0.000,5.761,-8.592,0.990,0.095,1.575,1.571,
12.440,17.860,5.304,-8.220,6.189,1.010,6.262,2.503,4.348,1.855,1.774,2.698,0.000,1.524,4.314,0.000,1.198,0.000,3.142,0.000,0.000,0.000,0.000,0.000,0.000,0.000,0.000,0.000,0.000,0.000,3.142,6.283,0.000,1.004,1.569,1.569,4.085,6.281,1.199,4.712,0.000,0.000,5.922,-7.948,0.990,0.094,1.576,1.570,5.281,4.711,4.711,2.198,6.282,5.083,1.570,0.000,0.000,5.860,-8.602,0.990,0.094,1.575,1.571,
12.540,17.960,5.404,-8.229,6.189,1.013,6.262,2.403,4.233,1.865,1.784,2.715,0.000,1.504,4.575,0.878,1.185,0.000,3.142,0.000,0.000,0.000,0.000,0.000,0.000,0.000,0.000,0.000,0.000,0.000,3.142,6.283,0.000,1.004,1.569,1.569,4.085,6.281,1.199,4.712,0.000,0.000,6.021,-7.957,0.990,0.094,1.576,1.570,5.281,4.711,4.711,2.198,6.282,5.083,1.570,0.000,0.000,5.960,-8.610,0.990,0.094,1.575,1.571,
12.640,18.060,5.503,-8.239,6.193,1.012,0.219,2.303,4.125,1.872,1.795,2.741,0.000,1.380,4.868,0.731,1.175,0.000,3.142,0.000,0.000,0.000,0.000,0.000,0.000,0.000,0.000,0.000,0.000,0.000,3.142,0.000,0.000,1.003,1.570,1.570,4.086,6.281,1.199,4.712,0.000,0.000,6.119,-7.965,0.990,0.092,1.576,1.570,5.281,4.712,4.712,2.199,6.282,5.083,1.570,0.000,0.000,6.060,-8.619,0.991,0.092,1.575,1.571,
12.740,18.160,5.602,-8.247,6.254,1.010,1.211,3.398,4.175,1.839,1.836,2.981,0.000,1.441,4.276,0.787,1.255,0.000,3.142,0.000,0.000,0.000,0.000,0.000,0.000,0.000,0.000,0.000,0.000,0.000,3.142,0.002,0.000,1.003,1.571,1.572,4.086,6.281,1.199,4.712,0.000,0.000,6.201,-7.938,0.990,0.033,1.576,1.570,5.282,4.713,4.714,2.199,6.282,5.083,1.571,0.000,0.000,6.181,-8.593,0.991,0.033,1.574,1.571,
12.840,18.260,5.702,-8.247,0.058,1.017,0.534,3.308,4.341,1.795,1.897,3.408,0.000,1.872,3.963,0.812,1.427,0.000,3.142,0.000,0.000,0.000,0.000,0.000,0.000,0.000,0.000,0.000,0.000,0.000,3.142,0.000,0.000,1.004,1.569,1.567,4.085,6.282,1.199,4.712,0.000,0.000,6.270,-7.883,0.990,6.221,1.575,1.569,5.282,4.711,4.709,2.198,6.283,5.083,1.570,0.000,0.000,6.309,-8.538,0.991,6.222,1.575,1.569,
12.925,18.345,5.822,-8.239,0.066,1.013,6.274,3.190,4.211,1.784,1.895,3.436,0.000,2.203,0.732,0.823,1.459,0.000,3.142,0.000,0.000,0.000,0.000,0.000,0.000,0.000,0.000,0.000,0.000,0.000,3.142,6.282,0.000,1.004,1.569,1.569,4.085,6.281,1.199,4.712,0.000,0.000,6.388,-7.872,0.990,6.217,1.575,1.570,5.281,4.711,4.711,2.197,6.282,5.083,1.570,0.000,0.000,6.431,-8.527,0.990,6.217,1.576,1.570,
13.040,18.460,5.901,-8.234,0.066,1.008,6.272,3.110,4.105,1.778,1.889,3.425,0.000,2.395,0.737,0.828,1.469,0.000,3.142,0.000,0.000,0.000,0.000,0.000,0.000,0.000,0.000,0.000,0.000,0.000,3.142,6.282,0.000,1.004,1.569,1.569,4.085,6.281,1.199,4.712,0.000,0.000,6.467,-7.867,0.990,6.217,1.575,1.569,5.281,4.711,4.711,2.197,6.282,5.083,1.570,0.000,0.000,6.511,-8.522,0.990,6.216,1.576,1.570,
13.140,18.560,6.000,-8.228,0.066,1.010,6.271,3.011,3.974,1.772,1.882,3.412,0.000,2.635,0.795,0.835,1.481,0.000,3.142,0.000,0.000,0.000,0.000,0.000,0.000,0.000,0.000,0.000,0.000,0.000,3.142,6.282,0.000,1.004,1.569,1.569,4.085,6.281,1.199,4.712,0.000,0.000,6.566,-7.861,0.990,6.217,1.575,1.569,5.281,4.711,4.711,2.197,6.282,5.083,1.570,0.000,0.000,6.610,-8.515,0.990,6.217,1.576,1.570,
13.240,18.660,6.099,-8.221,0.066,1.014,6.270,2.911,3.842,1.312,1.875,3.399,0.000,2.877,0.802,0.842,1.494,0.000,3.142,0.000,0.000,0.000,0.000,0.000,0.000,0.000,0.000,0.000,0.000,0.000,3.142,6.282,0.000,1.004,1.569,1.569,4.085,6.281,1.199,4.712,0.000,0.000,6.665,-7.854,0.990,6.217,1.575,1.569,5.281,4.711,4.711,2.198,6.282,5.083,1.570,0.000,0.000,6.709,-8.509,0.990,6.217,1.576,1.570,
13.340,18.760,6.199,-8.215,0.066,1.013,6.269,2.811,3.710,1.929,1.868,3.386,0.000,3.119,0.809,0.849,1.506,0.000,3.142,0.000,0.000,0.000,0.000,0.000,0.000,0.000,0.000,0.000,0.000,0.000,3.142,6.282,0.000,1.004,1.569,1.569,4.085,6.281,1.199,4.712,0.000,0.000,6.765,-7.848,0.990,6.217,1.576,1.569,5.281,4.711,4.711,2.198,6.282,5.083,1.570,0.000,0.000,6.808,-8.502,0.990,6.217,1.576,1.570,
13.439,18.860,6.298,-8.208,0.066,1.011,6.268,2.711,3.579,0.000,1.861,3.374,0.000,4.173,0.816,0.856,1.519,0.000,3.142,0.000,0.000,0.000,0.000,0.000,0.000,0.000,0.000,0.000,0.000,0.000,3.142,6.282,0.000,1.004,1.569,1.569,4.085,6.281,1.199,4.712,0.000,0.000,6.864,-7.841,0.990,6.217,1.576,1.569,5.281,4.711,4.711,2.198,6.282,5.083,1.570,0.000,0.000,6.908,-8.496,0.990,6.217,1.575,1.570,
13.540,18.960,6.397,-8.201,0.066,1.011,6.270,2.612,3.448,0.000,1.854,3.361,0.000,4.303,0.822,0.864,1.532,0.000,3.142,0.000,0.000,0.000,0.000,0.000,0.000,0.000,0.000,0.000,0.000,0.000,3.142,6.282,0.000,1.004,1.569,1.569,4.085,6.281,1.199,4.712,0.000,0.000,6.963,-7.834,0.990,6.217,1.576,1.570,5.281,4.711,4.711,2.198,6.282,5.083,1.570,0.000,0.000,7.007,-8.489,0.990,6.217,1.575,1.570,
13.634,19.054,6.496,-8.195,0.066,1.012,6.269,2.512,3.317,0.000,1.847,3.349,0.000,4.433,0.829,0.871,1.545,0.000,3.142,0.000,0.000,0.000,0.000,0.000,0.000,0.000,0.000,0.000,0.000,0.000,3.142,6.282,0.000,1.004,1.569,1.569,4.085,6.281,1.199,4.712,0.000,0.000,7.062,-7.828,0.990,6.217,1.576,1.569,5.281,4.711,4.711,2.198,6.282,5.083,1.570,0.000,0.000,7.106,-8.482,0.990,6.216,1.575,1.570,
13.724,19.145,6.616,-8.187,0.086,1.011,0.693,2.397,3.215,0.000,1.854,3.451,0.000,1.160,0.833,0.887,1.613,0.000,3.142,0.000,0.000,0.000,0.000,0.000,0.000,0.000,0.000,0.000,0.000,0.000,3.142,0.001,0.000,1.003,1.571,1.572,4.086,6.281,1.199,4.712,0.000,0.000,7.175,-7.811,0.990,6.201,1.576,1.570,5.281,4.712,4.714,2.199,6.281,5.083,1.571,0.000,0.000,7.231,-8.464,0.991,6.200,1.574,1.571,
13.824,19.245,6.715,-8.176,0.186,1.010,1.432,2.333,3.405,0.000,1.940,4.194,0.000,1.129,0.830,0.944,1.193,0.000,3.142,0.000,0.000,0.000,0.000,0.000,0.000,0.000,0.000,0.000,0.000,0.000,3.142,0.002,0.000,1.003,1.571,1.571,4.086,6.281,1.199,4.712,0.000,0.000,7.233,-7.746,0.990,6.099,1.576,1.569,5.282,4.713,4.714,2.198,6.282,5.083,1.571,0.000,0.000,7.354,-8.391,0.991,6.100,1.574,1.570,
13.940,19.360,6.793,-8.160,0.283,1.014,1.251,0.000,3.706,0.000,2.048,3.975,3.003,1.059,0.840,1.023,1.065,0.000,3.071,0.000,0.000,0.000,0.000,0.000,0.000,0.000,0.000,0.000,0.000,0.000,3.142,0.001,0.000,1.003,1.570,1.569,4.085,6.282,1.199,4.712,0.000,0.000,7.267,-7.680,0.990,5.999,1.575,1.568,5.282,4.712,4.712,2.198,6.283,5.083,1.570,0.000,0.000,7.450,-8.310,0.991,6.000,1.574,1.569,
14.040,19.460,6.889,-8.130,0.371,1.021,0.834,0.000,4.038,0.000,2.155,0.000,2.655,1.032,0.872,1.134,0.939,0.000,2.966,0.000,0.000,0.000,0.000,0.000,0.000,0.000,0.000,0.000,0.000,0.000,3.142,0.001,0.000,1.003,1.570,1.569,4.085,6.282,1.199,4.712,0.000,0.000,7.318,-7.610,0.990,5.911,1.576,1.568,5.282,4.712,4.711,2.198,6.282,5.083,1.570,0.000,0.000,7.556,-8.221,0.991,5.912,1.575,1.569,
14.140,19.560,6.981,-8.092,0.442,1.014,0.899,0.000,4.377,3.170,2.248,0.000,2.961,1.033,0.917,1.261,1.507,0.000,2.896,0.000,0.000,0.000,0.000,0.000,0.000,0.000,0.000,0.000,0.000,0.000,3.142,0.001,0.000,1.003,1.570,1.570,4.086,6.281,1.199,4.712,0.000,0.000,7.374,-7.543,0.990,5.842,1.576,1.568,5.282,4.712,4.712,2.198,6.282,5.083,1.570,0.000,0.000,7.654,-8.136,0.991,5.842,1.575,1.569,
14.220,19.640,7.088,-8.037,0.548,1.009,1.093,4.735,0.000,1.772,2.443,0.000,3.655,1.041,0.991,0.930,1.917,0.000,2.791,0.000,0.000,0.000,0.000,0.000,0.000,0.000,0.000,0.000,0.000,0.000,3.142,0.001,0.000,1.003,1.570,1.570,4.085,6.282,1.199,4.712,0.000,0.000,7.420,-7.450,0.990,5.736,1.576,1.567,5.282,4.712,4.713,2.198,6.282,5.083,1.571,0.000,0.000,7.762,-8.010,0.991,5.736,1.575,1.568,
14.327,19.747,7.171,-7.983,0.641,1.015,1.035,2.463,0.000,1.952,2.675,0.000,1.701,1.064,1.076,0.764,1.829,0.000,2.720,0.000,0.000,0.000,0.000,0.000,0.000,0.000,0.000,0.000,0.000,0.000,3.142,0.001,0.000,1.003,1.570,1.569,4.085,6.281,1.199,4.712,0.000,0.000,7.447,-7.368,0.990,5.642,1.577,1.566,5.282,4.712,4.712,2.198,6.282,5.083,1.570,0.000,0.000,7.840,-7.894,0.991,5.643,1.575,1.567,
14.440,19.860,7.235,-7.935,0.710,1.016,0.986,2.296,0.000,1.802,2.892,0.000,1.635,1.094,1.158,0.813,1.773,0.000,2.650,0.000,0.000,0.000,0.000,0.000,0.000,0.000,0.000,0.000,0.000,0.000,3.142,0.001,0.000,1.003,1.570,1.570,4.085,6.281,1.199,4.712,0.000,0.000,7.468,-7.302,0.990,5.574,1.577,1.566,5.282,4.712,4.712,2.198,6.282,5.083,1.570,0.000,0.000,7.896,-7.799,0.991,5.574,1.575,1.567,
14.521,19.941,7.323,-7.854,0.812,1.014,1.010,2.483,0.000,1.650,3.345,0.000,1.580,1.156,0.986,1.180,1.659,0.000,2.580,0.000,0.000,0.000,0.000,0.000,0.000,0.000,0.000,0.000,0.000,0.000,3.142,0.001,0.000,1.003,1.570,1.570,4.086,6.281,1.199,4.712,0.000,0.000,7.491,-7.200,0.990,5.472,1.578,1.565,5.282,4.712,4.712,2.198,6.282,5.083,1.570,0.000,0.000,7.967,-7.652,0.991,5.472,1.576,1.567,
14.640,20.060,7.377,-7.795,0.882,1.013,1.029,2.609,0.000,1.571,3.813,4.281,1.561,1.207,0.777,1.736,0.000,0.000,2.510,0.000,0.000,0.000,0.000,0.000,0.000,0.000,0.000,0.000,0.000,0.000,3.142,0.001,0.000,1.003,1.570,1.570,4.086,6.281,1.199,4.712,0.000,0.000,7.499,-7.131,0.990,5.401,1.578,1.564,5.282,4.712,4.712,2.198,6.282,5.083,1.570,0.000,0.000,8.005,-7.548,0.991,5.402,1.576,1.566,
14.740,20.160,7.439,-7.716,0.971,1.014,1.022,2.836,0.000,1.565,4.767,3.378,1.556,1.284,0.804,1.622,0.000,0.000,2.440,0.000,0.000,0.000,0.000,0.000,0.000,0.000,0.000,0.000,0.000,0.000,3.142,0.001,0.000,1.003,1.570,1.570,4.085,6.282,1.199,4.712,0.000,0.000,7.501,-7.045,0.990,5.313,1.579,1.563,5.282,4.712,4.712,2.198,6.282,5.083,1.570,0.000,0.000,8.043,-7.415,0.991,5.313,1.577,1.565,
14.840,20.260,7.494,-7.633,1.058,1.014,1.016,3.171,0.000,1.576,0.000,3.435,1.569,1.377,0.981,1.533,0.000,0.000,2.369,0.000,0.000,0.000,0.000,0.000,0.000,0.000,0.000,0.000,0.000,0.000,3.142,0.001,0.000,1.003,1.570,1.570,4.085,6.281,1.199,4.712,0.000,0.000,7.496,-6.958,0.990,5.225,1.580,1.561,5.282,4.712,4.712,2.198,6.282,5.083,1.570,0.000,0.000,8.068,-7.280,0.991,5.226,1.578,1.564,
14.940,20.360,7.543,-7.539,1.218,0.850,1.571,3.100,1.260,1.735,0.000,4.587,1.557,0.934,1.323,1.408,1.871,0.000,2.229,0.000,0.000,0.000,0.000,0.000,0.000,0.000,0.000,0.000,0.000,0.000,3.142,6.283,6.282,1.038,1.648,1.504,4.076,0.002,1.199,4.713,0.000,0.000,7.433,-6.877,0.969,5.050,1.675,1.373,5.283,4.711,4.712,2.197,6.282,5.083,1.570,0.000,0.000,8.054,-7.099,0.991,5.065,1.581,1.561,
15.024,20.445,7.572,-7.450,1.316,1.108,0.706,0.000,2.789,1.835,0.000,2.352,1.602,0.968,1.687,0.000,1.869,0.000,2.475,0.000,0.000,0.000,0.000,0.000,0.000,0.000,0.000,0.000,0.000,0.000,3.142,6.282,6.283,1.039,1.652,1.521,4.077,6.281,1.199,4.713,0.000,0.000,7.409,-6.804,0.969,4.972,1.705,1.346,5.283,4.710,4.709,2.197,6.283,5.083,1.570,0.000,0.000,8.036,-6.961,0.991,4.963,1.586,1.555,
15.134,20.554,7.600,-7.339,1.361,1.168,0.540,0.000,2.584,1.752,0.000,2.400,1.698,1.108,1.611,0.000,1.908,0.000,2.440,0.000,0.000,0.000,0.000,0.000,0.000,0.000,0.000,0.000,0.000,0.000,3.142,0.001,0.000,1.014,1.604,1.539,4.084,6.281,1.199,4.713,0.000,0.000,7.399,-6.695,0.983,4.916,1.642,1.455,5.282,4.711,4.711,2.198,6.282,5.083,1.570,0.000,0.000,8.042,-6.830,0.991,4.922,1.589,1.552,
15.240,20.660,7.620,-7.236,1.431,0.963,1.131,0.000,2.296,1.768,0.000,2.381,1.782,1.264,1.530,0.000,2.016,0.000,2.404,0.000,0.000,0.000,0.000,0.000,0.000,0.000,0.000,0.000,0.000,0.000,3.142,0.002,0.000,1.012,1.592,1.542,4.087,6.282,1.199,4.712,0.000,0.000,7.372,-6.606,0.983,4.842,1.687,1.421,5.282,4.713,4.714,2.198,6.282,5.083,1.571,0.000,0.000,8.028,-6.698,0.991,4.855,1.594,1.548,
15.340,20.760,7.631,-7.151,1.552,0.759,1.645,0.000,1.918,2.144,0.000,2.265,1.849,1.465,1.393,0.000,2.314,0.000,2.299,0.000,0.000,0.000,0.000,0.000,0.000,0.000,0.000,0.000,0.000,0.000,3.142,6.282,6.282,1.043,1.629,1.485,4.077,0.003,1.199,4.713,0.000,0.000,7.293,-6.562,0.965,4.760,3.685,5.648,5.282,4.713,4.715,2.199,6.281,5.083,1.571,0.000,0.000,7.972,-6.569,0.991,4.737,1.688,1.454,
15.440,20.860,7.631,-7.094,1.662,0.771,0.995,0.000,1.676,3.013,4.539,2.179,1.914,2.069,0.000,1.528,2.741,0.000,2.194,0.000,0.000,0.000,0.000,0.000,0.000,0.000,0.000,0.000,0.000,0.000,3.142,6.280,6.282,1.063,1.674,1.516,4.068,6.260,1.186,4.668,0.000,0.000,7.270,-6.545,0.962,4.784,4.211,5.042,5.283,4.710,4.707,2.196,0.000,5.083,1.570,0.000,0.000,7.900,-6.477,0.991,4.810,4.665,4.758,
15.540,20.960,7.624,-7.028,1.797,0.552,1.902,4.645,1.463,0.000,3.809,2.115,1.357,1.818,0.000,1.616,2.611,0.000,2.089,0.000,0.000,0.000,0.000,0.000,0.000,0.000,0.000,0.000,0.000,0.000,3.142,6.280,6.280,1.096,1.729,1.564,4.041,6.200,1.179,4.444,0.000,0.000,7.251,-6.534,0.963,4.794,4.515,4.464,5.281,4.713,4.714,2.198,6.282,5.083,1.571,0.000,0.000,7.812,-6.380,0.991,4.937,4.695,4.730,
15.640,21.060,7.612,-6.980,1.939,0.432,1.695,2.954,1.307,0.000,0.000,2.073,1.468,1.649,0.000,1.804,0.000,0.000,1.948,0.000,0.000,0.000,0.000,0.000,0.000,0.000,0.000,0.000,0.000,0.000,3.142,6.279,6.280,1.108,1.787,1.591,4.049,6.189,1.157,4.428,0.000,0.000,7.208,-6.533,0.965,4.877,4.709,4.208,5.282,4.712,4.712,2.197,6.283,5.084,1.571,0.000,0.000,7.706,-6.312,0.991,5.081,4.701,4.724,
15.740,21.160,7.594,-6.936,2.084,0.544,2.155,0.769,1.192,0.000,2.736,2.072,1.623,1.490,0.000,2.101,0.000,0.000,1.843,0.000,0.000,0.000,0.000,0.000,0.000,0.000,0.000,0.000,0.000,0.000,3.142,6.279,6.280,1.122,1.853,1.595,4.049,6.187,1.148,4.469,0.000,0.000,7.153,-6.543,0.967,4.989,4.745,4.155,5.282,4.712,4.714,2.197,6.282,5.083,1.571,0.000,0.000,7.591,-6.261,0.991,5.223,4.705,4.720,
15.821,21.241,7.560,-6.878,2.313,0.402,1.552,1.539,2.113,4.858,2.401,1.663,2.132,0.000,1.588,2.981,0.000,0.000,1.632,0.000,0.000,0.000,0.000,0.000,0.000,0.000,0.000,0.000,0.000,0.000,3.142,6.280,6.281,1.150,1.942,1.594,4.050,6.192,1.118,4.639,0.000,0.000,7.065,-6.583,0.968,5.198,4.770,4.222,5.281,4.712,4.711,2.196,0.001,5.084,1.570,0.000,0.000,7.402,-6.222,0.990,5.456,4.704,4.718,
15.940,21.360,7.553,-6.869,2.350,-0.060,6.182,1.472,2.604,4.531,2.366,1.506,2.060,0.000,1.625,3.215,0.000,0.000,1.597,0.000,0.000,0.000,0.000,0.000,0.000,0.000,0.000,0.000,0.000,0.000,3.142,6.278,6.281,1.158,1.957,1.605,4.047,6.192,1.122,4.653,0.000,0.000,7.056,-6.589,0.968,5.219,4.763,4.234,5.281,4.711,4.708,2.197,0.000,5.083,1.570,0.000,0.000,7.370,-6.221,0.990,5.496,4.704,4.717,
16.022,21.443,7.569,-6.887,2.304,-0.200,6.106,1.568,2.064,4.926,2.402,1.698,2.138,0.000,1.571,2.915,0.000,0.000,1.632,0.000,0.000,0.000,0.000,0.000,0.000,0.000,0.000,0.000,0.000,0.000,3.142,6.282,6.282,1.116,1.938,1.570,4.075,6.236,1.139,4.646,0.000,0.000,7.055,-6.589,0.964,5.232,4.704,4.304,5.282,4.712,4.713,2.197,6.281,5.083,1.571,0.000,0.000,7.419,-6.229,0.991,5.443,4.706,4.717,
16.122,21.542,7.585,-6.904,2.285,-0.474,6.052,1.624,1.963,0.000,2.408,1.840,2.161,0.000,1.541,2.790,0.000,0.000,1.632,0.000,0.000,0.000,0.000,0.000,0.000,0.000,0.000,0.000,0.000,0.000,3.142,0.004,0.001,1.066,1.917,1.550,4.095,6.274,1.195,4.698,0.000,0.000,7.055,-6.598,0.962,5.250,4.621,4.460,5.281,4.712,4.713,2.198,6.282,5.083,1.570,0.000,0.000,7.447,-6.244,0.990,5.425,4.705,4.717,
16.234,21.655,7.641,-6.970,2.259,-1.245,6.139,1.760,2.030,0.000,2.368,1.749,2.141,0.000,1.410,2.565,0.000,0.000,1.632,0.000,0.000,0.000,0.000,0.000,0.000,0.000,0.000,0.000,0.000,0.000,3.142,0.004,0.001,1.000,1.789,1.570,4.091,6.278,1.200,4.713,0.000,0.000,7.082,-6.669,0.995,5.277,4.721,4.521,5.281,4.713,4.714,2.198,6.281,5.083,1.570,0.000,0.000,7.521,-6.306,0.990,5.397,4.705,4.718,
16.333,21.753,7.726,-7.074,2.257,-1.307,6.282,1.894,2.462,4.987,2.249,1.281,2.011,0.000,0.000,2.399,0.000,0.000,1.597,0.000,0.000,0.000,0.000,0.000,0.000,0.000,0.000,0.000,0.000,0.000,3.142,6.282,0.000,1.003,1.580,1.565,4.085,6.281,1.199,4.711,0.000,0.000,7.100,-6.825,0.990,5.397,4.706,4.705,5.281,4.711,4.711,2.199,6.282,5.083,1.570,0.000,0.000,7.606,-6.411,0.991,5.399,4.707,4.716,
16.438,21.858,7.794,-7.157,2.257,-0.886,6.275,1.998,2.822,4.767,2.152,1.198,1.903,1.421,0.000,2.273,0.000,0.000,1.562,0.000,0.000,0.000,0.000,0.000,0.000,0.000,0.000,0.000,0.000,0.000,3.142,6.282,6.283,1.005,1.569,1.569,4.083,6.281,1.199,4.712,0.000,0.000,7.166,-6.910,0.990,5.400,4.707,4.716,5.281,4.711,4.711,2.199,6.282,5.083,1.570,0.000,0.000,7.673,-6.494,0.991,5.400,4.706,4.716,
16.540,21.960,7.846,-7.220,2.258,-0.863,6.272,2.077,1.423,4.599,2.077,1.135,1.820,1.152,0.000,2.177,0.000,0.000,1.527,0.000,0.000,0.000,0.000,0.000,0.000,0.000,0.000,0.000,0.000,0.000,3.142,0.001,0.000,1.002,1.570,1.570,4.087,6.281,1.200,4.712,0.000,0.000,7.218,-6.972,0.990,5.398,4.703,4.719,5.280,4.712,4.712,2.199,6.282,5.083,1.570,0.000,0.000,7.726,-6.556,0.990,5.398,4.706,4.717,
16.640,22.060,7.893,-7.278,2.258,-1.046,6.272,2.150,1.472,4.445,2.009,1.077,1.744,1.091,0.000,2.088,0.000,0.000,1.211,0.000,0.000,0.000,0.000,0.000,0.000,0.000,0.000,0.000,0.000,0.000,3.142,0.001,0.000,1.002,1.570,1.571,4.088,6.281,1.200,4.712,0.000,0.000,7.266,-7.030,0.990,5.398,4.702,4.719,5.280,4.712,4.713,2.199,6.282,5.083,1.570,0.000,0.000,7.773,-6.614,0.990,5.398,4.706,4.717,
16.740,22.160,7.962,-7.361,2.246,-1.105,5.762,2.290,3.528,4.362,1.927,0.992,1.662,1.024,0.000,1.920,0.000,0.000,1.211,0.000,0.000,0.000,0.000,0.000,0.000,0.000,0.000,0.000,0.000,0.000,3.142,6.282,0.001,1.004,1.568,1.567,4.085,6.281,1.199,4.712,0.000,0.000,7.336,-7.108,0.990,5.390,4.705,4.717,5.281,4.710,4.709,2.198,6.282,5.083,1.570,0.000,0.000,7.848,-6.698,0.990,5.390,4.705,4.717,
16.840,22.260,8.005,-7.415,2.187,-0.228,5.921,1.350,1.618,4.936,1.937,0.936,1.722,1.050,0.000,1.691,0.000,0.000,1.246,0.000,0.000,0.000,0.000,0.000,0.000,0.000,0.000,0.000,0.000,0.000,3.142,6.277,6.283,1.008,1.567,1.567,4.075,6.281,1.199,4.712,0.000,0.000,7.396,-7.128,0.991,5.332,4.713,4.711,5.282,4.709,4.709,2.197,6.281,5.083,1.571,0.000,0.000,7.929,-6.745,0.991,5.331,4.706,4.718,
16.940,22.360,7.995,-7.400,2.147,0.413,5.520,2.673,2.658,0.000,2.014,0.950,1.710,1.075,0.000,1.618,0.000,0.000,1.316,0.000,0.000,0.000,0.000,0.000,0.000,0.000,0.000,0.000,0.000,0.000,3.142,6.279,0.000,1.006,1.566,1.565,4.081,6.281,1.199,4.711,0.000,0.000,7.396,-7.088,0.990,5.294,4.707,4.716,5.282,4.709,4.707,2.197,6.282,5.083,1.570,0.000,0.000,7.946,-6.729,0.990,5.293,4.703,4.719,
17.023,22.444,7.975,-7.369,2.024,0.269,4.894,3.251,1.926,0.000,2.283,0.991,1.091,1.158,0.000,1.368,0.000,0.000,1.422,0.000,0.000,0.000,0.000,0.000,0.000,0.000,0.000,0.000,0.000,0.000,3.142,6.280,0.001,1.004,1.569,1.567,4.085,6.281,1.199,4.712,0.000,0.000,7.421,-6.984,0.990,5.168,4.702,4.721,5.282,4.711,4.710,2.197,6.282,5.083,1.570,0.000,0.000,8.011,-6.696,0.991,5.168,4.703,4.720,
17.125,22.546,7.960,-7.334,1.908,0.551,5.121,4.629,1.750,0.000,2.653,1.724,1.077,1.262,0.000,1.395,3.800,0.000,1.562,0.000,0.000,0.000,0.000,0.000,0.000,0.000,0.000,0.000,0.000,0.000,3.142,6.279,0.000,1.006,1.568,1.567,4.082,6.281,1.199,4.712,0.000,0.000,7.454,-6.888,0.990,5.052,4.702,4.721,5.283,4.711,4.710,2.197,6.282,5.083,1.570,0.000,0.000,8.073,-6.669,0.991,5.051,4.702,4.721,
17.240,22.660,7.940,-7.273,1.826,0.789,5.652,0.000,1.832,0.000,4.840,1.833,1.113,1.367,0.000,3.238,3.014,0.000,1.667,0.000,0.000,0.000,0.000,0.000,0.000,0.000,0.000,0.000,0.000,0.000,3.142,6.280,0.000,1.006,1.569,1.568,4.082,6.281,1.199,4.712,0.000,0.000,7.473,-6.787,0.990,4.968,4.699,4.725,5.282,4.711,4.711,2.197,6.281,5.083,1.571,0.000,0.000,8.108,-6.620,0.991,4.968,4.697,4.727,
17.340,22.760,7.916,-7.177,1.811,1.168,6.270,0.000,1.824,4.911,4.542,1.945,1.207,1.416,0.000,1.310,2.963,0.000,1.983,0.000,0.000,0.000,0.000,0.000,0.000,0.000,0.000,0.000,0.000,0.000,3.142,6.281,0.000,1.005,1.569,1.568,4.083,6.281,1.199,4.712,0.000,0.000,7.457,-6.684,0.990,4.954,4.698,4.725,5.281,4.711,4.710,2.198,6.282,5.083,1.570,0.000,0.000,8.094,-6.527,0.990,4.954,4.694,4.729,
17.440,22.860,7.889,-7.065,1.811,1.120,6.263,0.000,1.614,3.173,4.369,2.065,1.324,1.451,0.000,1.257,3.044,0.000,2.018,0.000,0.000,0.000,0.000,0.000,0.000,0.000,0.000,0.000,0.000,0.000,3.142,0.000,0.000,1.003,1.570,1.570,4.087,6.281,1.199,4.712,0.000,0.000,7.429,-6.570,0.990,4.952,4.689,4.734,5.281,4.712,4.712,2.198,6.282,5.083,1.570,0.000,0.000,8.067,-6.414,0.990,4.952,4.694,4.730,
17.540,22.960,7.865,-6.968,1.812,0.929,6.263,0.000,1.755,1.405,4.222,2.168,1.423,1.481,0.000,1.345,3.116,0.000,2.018,0.000,0.000,0.000,0.000,0.000,0.000,0.000,0.000,0.000,0.000,0.000,3.142,6.283,0.000,1.003,1.570,1.570,4.086,6.281,1.199,4.712,0.000,0.000,7.405,-6.474,0.990,4.953,4.689,4.734,5.281,4.712,4.712,2.198,6.282,5.083,1.570,0.000,0.000,8.042,-6.317,0.990,4.953,4.694,4.730,
17.640,23.060,7.848,-6.898,1.813,0.937,6.262,0.000,1.732,0.000,4.114,2.242,1.496,1.503,0.000,1.366,3.168,0.000,2.053,0.000,0.000,0.000,0.000,0.000,0.000,0.000,0.000,0.000,0.000,0.000,3.142,6.282,0.000,1.004,1.569,1.569,4.085,6.281,1.199,4.712,0.000,0.000,7.387,-6.405,0.990,4.955,4.693,4.730,5.281,4.711,4.711,2.198,6.282,5.083,1.570,0.000,0.000,8.024,-6.247,0.990,4.955,4.694,4.730,
17.724,23.144,7.819,-6.783,1.791,1.056,5.586,0.000,0.805,4.069,4.065,2.384,1.606,1.569,0.000,1.381,3.074,0.000,2.124,0.000,0.000,0.000,0.000,0.000,0.000,0.000,0.000,0.000,0.000,0.000,3.142,6.280,0.001,1.005,1.567,1.565,4.083,6.282,1.199,4.711,0.000,0.000,7.367,-6.281,0.990,4.938,4.694,4.728,5.281,4.710,4.708,2.197,6.282,5.083,1.570,0.000,0.000,8.008,-6.136,0.990,4.937,4.689,4.734,
17.825,23.245,7.798,-6.681,1.703,1.038,5.336,0.000,0.843,1.315,0.000,2.595,1.684,1.738,0.000,1.339,2.590,0.000,2.229,4.583,0.000,0.000,0.000,0.000,0.000,0.000,0.000,0.000,0.000,0.000,3.142,6.281,0.001,1.004,1.569,1.568,4.085,6.281,1.199,4.712,0.000,0.000,7.395,-6.140,0.989,4.845,4.673,4.750,5.282,4.711,4.711,2.198,6.281,5.083,1.570,0.000,0.000,8.045,-6.053,0.991,4.845,4.681,4.743,
17.925,23.345,7.787,-6.582,1.670,0.989,0.012,0.000,1.891,1.310,0.000,2.752,1.777,1.818,0.000,1.331,2.462,0.000,2.264,4.559,0.000,0.000,0.000,0.000,0.000,0.000,0.000,0.000,0.000,0.000,3.142,6.282,0.000,1.003,1.570,1.571,4.085,6.281,1.199,4.712,0.000,0.000,7.403,-6.028,0.990,4.809,4.661,4.763,5.281,4.712,4.713,2.198,6.281,5.083,1.570,0.000,0.000,8.055,-5.963,0.990,4.810,4.668,4.757,
18.020,23.441,7.777,-6.485,1.670,0.998,6.261,0.000,1.875,1.163,0.000,2.861,1.874,1.831,0.000,1.342,2.485,0.000,2.299,4.588,0.000,0.000,0.000,0.000,0.000,0.000,0.000,0.000,0.000,0.000,3.142,6.282,0.000,1.004,1.569,1.569,4.085,6.281,1.199,4.712,0.000,0.000,7.391,-5.932,0.990,4.812,4.665,4.759,5.281,4.711,4.711,2.198,6.282,5.083,1.570,0.000,0.000,8.044,-5.866,0.990,4.812,4.668,4.756,
18.140,23.560,7.769,-6.406,1.671,1.021,6.261,0.000,1.862,0.575,0.000,2.950,1.954,1.842,0.000,1.351,2.504,0.000,2.334,4.641,0.000,0.000,0.000,0.000,0.000,0.000,0.000,0.000,0.000,0.000,3.142,6.282,0.000,1.004,1.569,1.569,4.085,6.281,1.199,4.712,0.000,0.000,7.383,-5.853,0.990,4.813,4.665,4.758,5.281,4.711,4.711,2.198,6.282,5.083,1.570,0.000,0.000,8.036,-5.787,0.990,4.813,4.668,4.755,
18.240,23.660,7.759,-6.306,1.672,1.022,6.261,0.000,1.846,1.145,1.437,3.063,2.054,1.781,0.000,1.363,2.528,0.000,2.334,4.665,0.000,0.000,0.000,0.000,0.000,0.000,0.000,0.000,0.000,0.000,3.142,6.283,0.000,1.004,1.569,1.569,4.085,6.281,1.199,4.712,0.000,0.000,7.372,-5.753,0.990,4.814,4.664,4.759,5.281,4.711,4.711,2.198,6.282,5.083,1.570,0.000,0.000,8.025,-5.687,0.990,4.814,4.668,4.756,
18.340,23.760,7.749,-6.207,1.672,1.007,6.263,0.000,1.830,0.571,0.000,3.174,2.154,1.794,1.227,1.374,2.551,0.000,2.369,4.697,0.000,0.000,0.000,0.000,0.000,0.000,0.000,0.000,0.000,0.000,3.142,6.283,0.000,1.004,1.569,1.569,4.085,6.281,1.199,4.712,0.000,0.000,7.362,-5.654,0.990,4.814,4.665,4.759,5.281,4.711,4.711,2.198,6.282,5.083,1.570,0.000,0.000,8.015,-5.587,0.990,4.814,4.668,4.755,
18.440,23.860,7.739,-6.108,1.661,1.007,5.792,0.000,1.838,1.264,0.000,3.307,2.251,1.863,1.240,1.378,1.730,0.000,2.404,4.713,0.000,0.000,0.000,0.000,0.000,0.000,0.000,0.000,0.000,0.000,3.142,6.281,0.001,1.004,1.568,1.566,4.084,6.281,1.199,4.712,0.000,0.000,7.356,-5.552,0.990,4.806,4.666,4.757,5.281,4.710,4.709,2.197,6.282,5.083,1.570,0.000,0.000,8.010,-5.492,0.990,4.806,4.656,4.767,
18.536,23.957,7.731,-5.989,1.551,1.015,4.894,0.000,2.089,1.292,1.298,3.628,3.011,2.208,1.287,1.331,2.144,0.000,2.510,0.000,0.000,0.000,0.000,0.000,0.000,0.000,0.000,0.000,0.000,0.000,3.142,6.280,0.001,1.005,1.568,1.566,4.085,6.281,1.199,4.712,0.000,0.000,7.411,-5.394,0.990,4.729,1.871,1.269,5.282,4.710,4.709,2.197,6.282,5.083,1.570,0.000,0.000,8.068,-5.406,0.991,4.730,1.817,1.323,
18.640,24.060,7.733,-5.909,1.475,1.012,5.648,0.000,3.857,1.331,0.545,0.000,3.105,2.480,1.323,1.301,1.943,0.000,2.615,0.000,0.000,0.000,0.000,0.000,0.000,0.000,0.000,0.000,0.000,0.000,3.142,6.281,0.000,1.004,1.570,1.570,4.085,6.280,1.199,4.712,0.000,0.000,7.463,-5.292,0.990,4.810,1.623,1.518,5.282,4.712,4.713,2.198,6.281,5.083,1.571,0.000,0.000,8.116,-5.354,0.991,4.810,1.608,1.533,
18.740,24.160,7.745,-5.791,1.465,1.010,6.271,0.000,3.559,1.350,1.143,0.000,3.228,2.500,1.348,1.285,1.902,0.000,2.650,0.000,0.000,0.000,0.000,0.000,0.000,0.000,0.000,0.000,0.000,0.000,3.142,6.283,0.000,1.003,1.569,1.569,4.085,6.281,1.199,4.712,0.000,0.000,7.481,-5.170,0.990,4.818,1.617,1.524,5.281,4.711,4.711,2.198,6.282,5.083,1.570,0.000,0.000,8.133,-5.239,0.990,4.818,1.611,1.530,
18.840,24.260,7.754,-5.712,1.466,1.011,6.268,0.000,3.415,1.358,1.290,0.000,3.307,2.479,1.360,1.277,1.891,0.000,2.650,0.000,0.000,0.000,0.000,0.000,0.000,0.000,0.000,0.000,0.000,0.000,3.142,6.283,0.000,1.003,1.569,1.569,4.085,6.281,1.199,4.712,0.000,0.000,7.489,-5.091,0.990,4.818,1.617,1.523,5.281,4.711,4.711,2.198,6.282,5.083,1.570,0.000,0.000,8.141,-5.160,0.990,4.817,1.611,1.530,
18.937,24.357,7.766,-5.593,1.467,1.012,6.263,0.000,3.196,1.371,1.303,0.875,3.426,2.349,1.346,1.264,1.304,0.000,2.650,0.000,0.000,0.000,0.000,0.000,0.000,0.000,0.000,0.000,0.000,0.000,3.142,6.283,0.000,1.003,1.569,1.569,4.085,6.281,1.199,4.712,0.000,0.000,7.500,-4.973,0.990,4.816,1.618,1.523,5.281,4.711,4.711,2.198,6.282,5.083,1.570,0.000,0.000,8.153,-5.041,0.990,4.816,1.613,1.529,
19.037,24.457,7.777,-5.494,1.469,1.012,0.103,0.000,3.017,1.381,1.314,0.000,3.525,2.333,1.333,1.255,1.191,0.000,2.650,0.000,0.000,0.000,0.000,0.000,0.000,0.000,0.000,0.000,0.000,0.000,3.142,0.000,0.000,1.003,1.570,1.570,4.086,6.281,1.199,4.712,0.000,0.000,7.510,-4.874,0.990,4.815,1.620,1.521,5.281,4.712,4.712,2.199,6.282,5.083,1.570,0.000,0.000,8.163,-4.941,0.990,4.815,1.610,1.531,
19.137,24.557,7.786,-5.395,1.517,1.011,1.081,0.000,3.103,1.366,1.341,0.000,3.610,2.531,1.298,1.260,1.959,0.000,2.545,0.000,0.000,0.000,0.000,0.000,0.000,0.000,0.000,0.000,0.000,0.000,3.142,0.001,0.000,1.003,1.571,1.572,4.086,6.281,1.199,4.712,0.000,0.000,7.492,-4.789,0.990,4.770,1.658,1.483,5.282,4.713,4.714,2.199,6.282,5.083,1.571,0.000,0.000,8.147,-4.824,0.991,4.770,1.625,1.517,
19.240,24.660,7.789,-5.295,1.636,1.012,1.413,0.000,4.228,1.322,1.403,1.152,3.061,3.576,1.248,1.309,2.319,0.000,2.475,4.950,0.000,0.000,0.000,0.000,0.000,0.000,0.000,0.000,0.000,0.000,3.142,0.001,0.000,1.003,1.570,1.570,4.085,6.282,1.199,4.712,0.000,0.000,7.423,-4.728,0.990,4.777,4.643,4.781,5.282,4.713,4.713,2.198,6.282,5.083,1.571,0.000,0.000,8.078,-4.686,0.991,4.776,4.663,4.761,
19.340,24.760,7.779,-5.195,1.720,1.021,0.339,0.000,4.437,1.292,1.451,4.220,3.190,1.663,1.236,1.372,2.722,0.000,2.440,0.000,0.000,0.000,0.000,0.000,0.000,0.000,0.000,0.000,0.000,0.000,3.142,6.283,0.000,1.004,1.568,1.566,4.085,6.282,1.199,4.711,0.000,0.000,7.365,-4.662,0.990,4.866,4.682,4.740,5.281,4.711,4.709,2.198,6.283,5.083,1.570,0.000,0.000,8.014,-4.564,0.991,4.865,4.685,4.738,
19.440,24.860,7.767,-5.116,1.722,1.016,6.263,0.000,4.331,1.280,1.439,1.306,3.271,1.716,1.248,1.387,2.714,0.000,2.475,0.000,0.000,0.000,0.000,0.000,0.000,0.000,0.000,0.000,0.000,0.000,3.142,6.282,0.000,1.004,1.569,1.569,4.084,6.281,1.199,4.712,0.000,0.000,7.354,-4.583,0.990,4.864,4.682,4.742,5.281,4.711,4.711,2.197,6.282,5.083,1.570,0.000,0.000,8.002,-4.484,0.990,4.864,4.680,4.744,
19.540,24.960,7.752,-5.018,1.722,1.006,6.274,0.000,4.188,1.265,1.422,4.414,3.370,1.769,1.263,0.907,2.678,0.000,2.440,0.000,0.000,0.000,0.000,0.000,0.000,0.000,0.000,0.000,0.000,0.000,3.142,6.282,0.000,1.004,1.569,1.569,4.084,6.281,1.199,4.712,0.000,0.000,7.339,-4.485,0.990,4.864,4.682,4.742,5.281,4.711,4.711,2.197,6.282,5.083,1.570,0.000,0.000,7.987,-4.386,0.990,4.864,4.680,4.744,
19.640,25.060,7.738,-4.920,1.721,1.009,6.273,0.000,4.047,1.250,1.405,1.235,3.469,1.791,1.278,1.420,0.000,0.000,2.475,0.000,0.000,0.000,0.000,0.000,0.000,0.000,0.000,0.000,0.000,0.000,3.142,6.282,0.000,1.004,1.569,1.569,4.084,6.281,1.199,4.712,0.000,0.000,7.324,-4.387,0.990,4.864,4.682,4.741,5.281,4.711,4.711,2.197,6.282,5.083,1.570,0.000,0.000,7.972,-4.288,0.990,4.864,4.681,4.743,
19.733,25.154,7.720,-4.802,1.721,1.014,6.271,0.000,3.877,1.232,1.384,4.599,3.589,1.817,1.296,1.440,0.000,0.000,2.510,0.000,0.000,0.000,0.000,0.000,0.000,0.000,0.000,0.000,0.000,0.000,3.142,6.282,0.000,1.004,1.569,1.569,4.085,6.281,1.199,4.712,0.000,0.000,7.306,-4.269,0.990,4.864,4.682,4.742,5.281,4.711,4.711,2.197,6.282,5.083,1.570,0.000,0.000,7.955,-4.170,0.990,4.864,4.681,4.743,
19.834,25.254,7.705,-4.703,1.721,1.012,6.270,0.000,3.735,1.217,1.367,4.708,3.688,1.838,1.311,1.456,2.050,0.000,2.510,0.000,0.000,0.000,0.000,0.000,0.000,0.000,0.000,0.000,0.000,0.000,3.142,6.282,0.000,1.004,1.569,1.569,4.085,6.281,1.199,4.712,0.000,0.000,7.291,-4.170,0.990,4.863,4.681,4.742,5.281,4.711,4.711,2.197,6.282,5.083,1.570,0.000,0.000,7.940,-4.071,0.990,4.864,4.681,4.743,
19.925,25.345,7.690,-4.605,1.721,1.010,6.270,0.000,2.936,1.202,1.350,4.817,3.788,1.859,1.326,1.473,1.949,0.000,2.510,0.000,0.000,0.000,0.000,0.000,0.000,0.000,0.000,0.000,0.000,0.000,3.142,6.282,0.000,1.004,1.569,1.569,4.085,6.281,1.199,4.712,0.000,0.000,7.276,-4.072,0.990,4.863,4.681,4.742,5.281,4.711,4.711,2.198,6.282,5.083,1.570,0.000,0.000,7.925,-3.973,0.990,4.864,4.681,4.743,
20.021,25.441,7.675,-4.507,1.721,1.012,6.269,0.000,2.620,1.186,1.334,0.000,3.887,1.880,1.341,1.490,0.000,0.000,2.545,0.000,0.000,0.000,0.000,0.000,0.000,0.000,0.000,0.000,0.000,0.000,3.142,6.282,0.000,1.004,1.569,1.569,4.085,6.281,1.199,4.712,0.000,0.000,7.261,-3.974,0.990,4.863,4.681,4.742,5.281,4.711,4.711,2.198,6.282,5.083,1.570,0.000,0.000,7.910,-3.875,0.990,4.864,4.681,4.743,
20.123,25.544,7.660,-4.408,1.721,1.012,6.269,0.000,2.304,1.171,1.317,2.778,3.987,1.901,0.910,1.507,3.256,0.000,0.263,0.000,0.000,0.000,0.000,0.000,0.000,0.000,0.000,0.000,0.000,0.000,3.142,6.282,0.000,1.004,1.569,1.569,4.085,6.281,1.199,4.712,0.000,0.000,7.246,-3.875,0.990,4.864,4.681,4.742,5.281,4.711,4.711,2.198,6.282,5.083,1.570,0.000,0.000,7.895,-3.776,0.990,4.864,4.681,4.742,
20.221,25.641,7.645,-4.310,1.722,1.012,6.268,0.000,1.987,1.106,1.300,2.835,4.086,1.922,1.372,1.524,3.145,0.000,2.615,0.000,0.000,0.000,0.000,0.000,0.000,0.000,0.000,0.000,0.000,0.000,3.142,6.282,0.000,1.004,1.569,1.569,4.085,6.281,1.199,4.712,0.000,0.000,7.231,-3.777,0.990,4.864,4.681,4.742,5.281,4.711,4.711,2.198,6.282,5.083,1.570,0.000,0.000,7.880,-3.678,0.990,4.864,4.682,4.742,
20.340,25.760,7.633,-4.231,1.722,1.011,6.267,0.000,1.778,1.094,1.286,2.316,4.166,1.938,1.384,1.537,3.057,0.000,2.685,2.936,0.000,0.000,0.000,0.000,0.000,0.000,0.000,0.000,0.000,0.000,3.142,6.282,0.000,1.004,1.569,1.569,4.085,6.281,1.199,4.712,0.000,0.000,7.219,-3.698,0.990,4.864,4.681,4.742,5.281,4.711,4.711,2.198,6.282,5.083,1.570,0.000,0.000,7.868,-3.599,0.990,4.864,4.682,4.742,
20.426,25.846,7.615,-4.113,1.722,1.012,6.267,0.000,1.609,3.246,1.266,2.588,4.286,1.963,1.402,1.558,2.988,0.000,2.755,2.644,0.000,0.000,0.000,0.000,0.000,0.000,0.000,0.000,0.000,0.000,3.142,6.282,0.000,1.004,1.569,1.569,4.085,6.281,1.199,4.712,0.000,0.000,7.201,-3.580,0.990,4.864,4.681,4.742,5.281,4.711,4.711,2.198,6.282,5.083,1.570,0.000,0.000,7.850,-3.481,0.990,4.864,4.682,4.742,
20.540,25.960,7.603,-4.035,1.722,1.012,6.267,0.000,1.496,3.264,1.253,2.249,4.365,1.980,1.414,1.572,3.128,0.000,2.861,2.455,0.000,0.000,0.000,0.000,0.000,0.000,0.000,0.000,0.000,0.000,3.142,6.282,0.000,1.004,1.569,1.569,4.085,6.281,1.199,4.712,0.000,0.000,7.189,-3.502,0.990,4.864,4.681,4.742,5.281,4.711,4.711,2.198,6.282,5.083,1.570,0.000,0.000,7.838,-3.403,0.990,4.864,4.682,4.742,
20.640,26.060,7.588,-3.936,1.722,1.012,6.267,0.000,1.446,0.000,1.236,2.527,4.465,2.000,1.429,1.589,3.163,0.000,3.001,2.278,0.000,0.000,0.000,0.000,0.000,0.000,0.000,0.000,0.000,0.000,3.142,6.282,0.000,1.004,1.569,1.569,4.085,6.281,1.199,4.712,0.000,0.000,7.174,-3.404,0.990,4.865,4.681,4.742,5.281,4.711,4.711,2.198,6.282,5.083,1.570,0.000,0.000,7.822,-3.304,0.990,4.865,4.682,4.742,
20.740,26.160,7.573,-3.838,1.723,1.011,6.266,0.000,1.424,0.000,1.219,2.494,4.565,2.021,1.444,1.606,3.199,0.000,3.001,2.112,0.000,0.000,0.000,0.000,0.000,0.000,0.000,0.000,0.000,0.000,3.142,6.282,0.000,1.004,1.569,1.569,4.085,6.281,1.199,4.712,0.000,0.000,7.159,-3.305,0.990,4.865,4.681,4.742,5.281,4.711,4.711,2.198,6.282,5.083,1.570,0.000,0.000,7.807,-3.206,0.990,4.865,4.682,4.742,
20.840,26.260,7.558,-3.739,1.723,1.011,6.266,0.000,1.473,0.000,1.202,2.461,4.665,2.042,1.459,1.623,3.235,0.000,3.036,1.981,0.000,0.000,0.000,0.000,0.000,0.000,0.000,0.000,0.000,0.000,3.142,6.282,0.000,1.004,1.569,1.569,4.085,6.281,1.199,4.712,0.000,0.000,7.144,-3.207,0.990,4.865,4.681,4.742,5.281,4.711,4.711,2.198,6.282,5.083,1.570,0.000,0.000,7.792,-3.107,0.990,4.865,4.682,4.742,
20.939,26.360,7.540,-3.621,1.723,1.012,6.266,0.000,1.447,3.914,1.125,2.420,4.784,2.067,1.478,1.644,3.278,0.000,3.036,1.859,0.000,0.000,0.000,0.000,0.000,0.000,0.000,0.000,0.000,0.000,3.142,6.282,0.000,1.004,1.569,1.569,4.085,6.281,1.199,4.712,0.000,0.000,7.125,-3.089,0.990,4.866,4.681,4.742,5.281,4.711,4.711,2.198,6.282,5.083,1.570,0.000,0.000,7.774,-2.989,0.990,4.866,4.682,4.742,
21.040,26.460,7.525,-3.523,1.724,1.012,6.266,0.000,1.425,3.202,1.108,2.387,4.884,1.463,1.493,1.661,3.314,0.000,3.036,1.745,0.000,0.000,0.000,0.000,0.000,0.000,0.000,0.000,0.000,0.000,3.142,6.282,0.000,1.004,1.569,1.569,4.085,6.281,1.199,4.712,0.000,0.000,7.110,-2.991,0.990,4.866,4.681,4.742,5.281,4.711,4.711,2.198,6.282,5.083,1.570,0.000,0.000,7.758,-2.891,0.990,4.866,4.682,4.741,
21.140,26.560,7.510,-3.425,1.724,1.012,6.266,0.000,1.404,3.043,1.259,2.353,4.984,1.547,1.508,1.206,3.351,0.000,3.036,1.615,0.000,0.000,0.000,0.000,0.000,0.000,0.000,0.000,0.000,0.000,3.142,6.282,0.000,1.004,1.569,1.569,4.085,6.281,1.199,4.712,0.000,0.000,7.095,-2.893,0.990,4.866,4.681,4.742,5.281,4.711,4.711,2.198,6.282,5.083,1.570,0.000,0.000,7.743,-2.792,0.990,4.866,4.682,4.741,
21.240,26.660,7.497,-3.346,1.724,1.012,6.266,0.000,1.386,3.031,0.000,2.326,0.000,2.125,1.521,1.199,3.380,0.000,3.142,1.517,0.000,0.000,0.000,0.000,0.000,0.000,0.000,0.000,0.000,0.000,3.142,6.282,0.000,1.004,1.569,1.569,4.085,6.281,1.199,4.712,0.000,0.000,7.082,-2.814,0.990,4.866,4.681,4.742,5.281,4.711,4.711,2.198,6.282,5.083,1.570,0.000,0.000,7.730,-2.714,0.990,4.867,4.683,4.741,
21.340,26.760,7.479,-3.228,1.725,1.012,6.266,0.000,1.360,3.012,0.000,2.286,0.000,2.150,1.539,0.000,3.424,0.000,3.142,1.318,0.000,0.000,0.000,0.000,0.000,0.000,0.000,0.000,0.000,0.000,3.142,6.282,0.000,1.004,1.569,1.569,4.085,6.281,1.199,4.712,0.000,0.000,7.064,-2.697,0.990,4.867,4.682,4.742,5.281,4.711,4.711,2.198,6.282,5.083,1.570,0.000,0.000,7.712,-2.596,0.990,4.867,4.683,4.741,
21.440,26.860,7.467,-3.149,1.725,1.012,6.266,0.000,1.343,3.000,0.000,2.258,0.000,2.167,1.551,0.000,3.454,0.000,3.142,1.207,0.000,0.000,0.000,0.000,0.000,0.000,0.000,0.000,0.000,0.000,3.142,6.282,0.000,1.004,1.569,1.569,4.085,6.281,1.199,4.712,0.000,0.000,7.051,-2.618,0.990,4.867,4.682,4.742,5.281,4.711,4.711,2.198,6.282,5.083,1.570,0.000,0.000,7.700,-2.517,0.990,4.867,4.683,4.741,
21.540,26.960,7.452,-3.051,1.725,1.012,6.266,0.000,1.321,0.910,0.000,2.224,0.000,2.187,1.567,0.000,3.032,0.000,3.142,1.023,0.000,0.000,0.000,0.000,0.000,0.000,0.000,0.000,0.000,0.000,3.142,6.282,0.000,1.004,1.569,1.569,4.085,6.281,1.199,4.712,0.000,0.000,7.036,-2.520,0.990,4.868,4.682,4.742,5.281,4.711,4.711,2.198,6.282,5.083,1.570,0.000,0.000,7.684,-2.418,0.990,4.868,4.683,4.741,
21.640,27.060,7.435,-2.948,1.720,0.573,6.005,0.000,1.306,0.945,0.000,2.162,0.000,2.222,1.584,0.000,2.966,0.000,3.142,0.790,0.000,0.000,0.000,0.000,0.000,0.000,0.000,0.000,0.000,0.000,3.142,0.001,0.001,1.001,1.570,1.569,4.090,6.281,1.200,4.712,0.000,0.000,7.023,-2.413,0.989,4.861,4.660,4.763,5.281,4.712,4.712,2.197,6.282,5.083,1.570,0.000,0.000,7.672,-2.316,0.990,4.862,4.676,4.748,
21.740,27.160,7.432,-2.921,1.657,0.094,5.040,0.000,1.583,0.951,3.113,1.905,0.000,2.385,1.608,0.000,3.110,0.000,3.142,0.710,0.000,0.000,0.000,0.000,0.000,0.000,0.000,0.000,0.000,0.000,3.142,6.281,0.001,1.003,1.568,1.566,4.087,6.281,1.199,4.712,0.000,0.000,7.052,-2.362,0.990,4.802,4.649,4.774,5.281,4.711,4.709,2.197,6.282,5.083,1.570,0.000,0.000,7.706,-2.306,0.990,4.801,4.651,4.772,
21.839,27.260,7.431,-2.909,1.544,0.180,5.333,0.000,4.014,0.979,3.108,1.510,0.000,1.981,1.661,4.786,2.625,0.000,3.142,0.719,0.000,0.000,0.000,0.000,0.000,0.000,0.000,0.000,0.000,0.000,3.142,6.280,0.000,1.004,1.569,1.570,4.084,6.281,1.199,4.712,0.000,0.000,7.118,-2.312,0.990,4.740,1.727,1.414,5.282,4.711,4.712,2.197,6.281,5.083,1.571,0.000,0.000,7.774,-2.329,0.991,4.740,1.699,1.442,
21.932,27.353,7.432,-2.885,1.519,0.313,6.269,0.000,3.914,0.989,3.121,1.460,0.000,2.056,1.675,4.749,2.538,0.000,3.142,0.709,0.000,0.000,0.000,0.000,0.000,0.000,0.000,0.000,0.000,0.000,3.142,6.282,0.000,1.004,1.570,1.570,4.085,6.281,1.199,4.712,0.000,0.000,7.135,-2.280,0.990,4.765,1.657,1.484,5.281,4.711,4.712,2.198,6.282,5.083,1.570,0.000,0.000,7.790,-2.314,0.990,4.765,1.651,1.490,
22.036,27.456,7.433,-2.856,1.520,0.283,6.275,0.000,3.882,0.990,3.132,1.465,0.000,2.049,1.672,4.749,2.540,0.000,3.142,0.697,0.000,0.000,0.000,0.000,0.000,0.000,0.000,0.000,0.000,0.000,3.142,6.283,0.000,1.003,1.570,1.570,4.086,6.281,1.199,4.712,0.000,0.000,7.135,-2.251,0.990,4.764,1.675,1.466,5.281,4.712,4.712,2.198,6.282,5.083,1.570,0.000,0.000,7.790,-2.284,0.990,4.763,1.656,1.485,
22.124,27.545,7.435,-2.833,1.521,0.216,6.264,0.000,3.857,0.991,3.141,1.491,0.000,2.044,1.671,4.749,2.541,0.000,3.142,0.703,0.000,0.000,0.000,0.000,0.000,0.000,0.000,0.000,0.000,0.000,3.142,6.283,0.000,1.003,1.570,1.570,4.086,6.281,1.199,4.712,0.000,0.000,7.136,-2.229,0.990,4.762,1.675,1.466,5.281,4.711,4.712,2.198,6.282,5.083,1.570,0.000,0.000,7.791,-2.261,0.990,4.762,1.659,1.482,
22.240,27.660,7.435,-2.817,1.522,0.225,6.261,0.000,3.840,0.992,3.147,1.510,0.000,2.040,1.669,4.750,2.542,0.000,3.142,0.730,0.000,0.000,0.000,0.000,0.000,0.000,0.000,0.000,0.000,0.000,3.142,6.283,0.000,1.004,1.569,1.569,4.085,6.281,1.199,4.712,0.000,0.000,7.136,-2.213,0.990,4.761,1.670,1.471,5.281,4.711,4.711,2.198,6.282,5.083,1.570,0.000,0.000,7.791,-2.245,0.990,4.761,1.661,1.480,
22.340,27.760,7.436,-2.795,1.523,0.264,6.259,0.000,3.814,0.992,3.156,1.537,0.000,2.067,1.667,4.750,2.543,0.000,3.142,0.764,0.000,0.000,0.000,0.000,0.000,0.000,0.000,0.000,0.000,0.000,3.142,6.282,0.000,1.004,1.569,1.569,4.085,6.281,1.199,4.712,0.000,0.000,7.136,-2.190,0.990,4.760,1.671,1.470,5.281,4.711,4.711,2.198,6.282,5.083,1.570,0.000,0.000,7.792,-2.222,0.990,4.760,1.664,1.477,
22.440,27.860,7.438,-2.770,1.524,0.262,6.261,0.000,3.786,0.993,3.165,1.568,0.000,2.098,1.666,4.749,2.544,0.000,3.142,0.809,0.000,0.000,0.000,0.000,0.000,0.000,0.000,0.000,0.000,0.000,3.142,6.283,0.000,1.003,1.569,1.569,4.085,6.281,1.199,4.712,0.000,0.000,7.137,-2.166,0.990,4.760,1.677,1.464,5.281,4.711,4.711,2.198,6.282,5.083,1.570,0.000,0.000,7.792,-2.196,0.990,4.759,1.666,1.475,
22.540,27.960,7.439,-2.746,1.525,0.242,6.261,0.000,3.759,0.994,3.174,1.596,0.000,2.127,1.664,4.749,2.545,0.000,3.142,0.894,0.000,0.000,0.000,0.000,0.000,0.000,0.000,0.000,0.000,0.000,3.142,6.283,0.000,1.003,1.569,1.569,4.085,6.281,1.199,4.712,0.000,0.000,7.138,-2.142,0.990,4.759,1.678,1.462,5.281,4.711,4.711,2.198,6.282,5.083,1.570,0.000,0.000,7.793,-2.173,0.990,4.759,1.668,1.473,
22.640,28.060,7.440,-2.724,1.525,0.243,6.262,0.000,3.734,0.995,3.183,1.623,0.000,2.155,1.663,4.749,2.545,0.000,3.142,0.992,0.000,0.000,0.000,0.000,0.000,0.000,0.000,0.000,0.000,0.000,3.142,6.282,0.000,1.004,1.569,1.569,4.085,6.281,1.199,4.712,0.000,0.000,7.138,-2.120,0.990,4.758,1.677,1.463,5.281,4.711,4.711,2.198,6.282,5.083,1.570,0.000,0.000,7.794,-2.150,0.990,4.758,1.670,1.471,
22.740,28.160,7.441,-2.696,1.526,0.254,6.263,0.000,3.702,0.996,0.932,1.657,0.000,2.815,1.661,4.749,2.546,0.000,3.142,0.000,0.000,0.000,0.000,0.000,0.000,0.000,0.000,0.000,0.000,0.000,3.142,6.282,0.000,1.004,1.569,1.569,4.085,6.281,1.199,4.712,0.000,0.000,7.139,-2.093,0.990,4.757,1.679,1.461,5.281,4.711,4.711,2.198,6.282,5.083,1.570,0.000,0.000,7.794,-2.122,0.990,4.757,1.672,1.469,
22.840,28.260,7.442,-2.677,1.526,0.252,6.263,0.000,3.680,0.997,0.933,1.680,0.000,2.811,1.660,4.749,2.546,0.000,3.142,0.000,0.000,0.000,0.000,0.000,0.000,0.000,0.000,0.000,0.000,0.000,3.142,6.282,0.000,1.004,1.569,1.569,4.085,6.281,1.199,4.712,0.000,0.000,7.140,-2.074,0.990,4.757,1.681,1.459,5.281,4.711,4.711,2.198,6.282,5.083,1.570,0.000,0.000,7.795,-2.103,0.990,4.757,1.674,1.467,
22.940,28.360,7.443,-2.653,1.527,0.247,6.263,0.000,0.000,0.998,0.934,1.709,0.000,2.807,1.658,0.000,2.546,0.000,3.142,0.000,2.863,0.000,0.000,0.000,0.000,0.000,0.000,0.000,0.000,0.000,3.142,6.282,0.000,1.004,1.569,1.569,4.085,6.281,1.199,4.712,0.000,0.000,7.140,-2.051,0.990,4.756,1.682,1.458,5.281,4.711,4.711,2.198,6.282,5.083,1.570,0.000,0.000,7.796,-2.079,0.990,4.756,1.676,1.466,
23.038,28.458,7.444,-2.626,1.528,0.248,6.264,0.000,0.000,0.999,0.936,1.742,0.000,2.802,1.656,0.000,2.546,0.000,3.142,0.000,2.786,0.000,0.000,0.000,0.000,0.000,0.000,0.000,0.000,0.000,3.142,6.282,0.000,1.004,1.569,1.569,4.085,6.281,1.199,4.712,0.000,0.000,7.141,-2.023,0.990,4.756,1.683,1.457,5.281,4.711,4.711,2.198,6.282,5.083,1.570,0.000,0.000,7.797,-2.051,0.990,4.755,1.677,1.464,
23.134,28.554,7.445,-2.602,1.528,0.251,6.264,0.000,0.000,1.000,0.937,1.771,0.000,2.798,1.655,0.000,2.546,0.000,3.142,0.000,2.837,0.000,0.000,0.000,0.000,0.000,0.000,0.000,0.000,0.000,3.142,6.282,0.000,1.004,1.569,1.569,4.085,6.281,1.199,4.712,0.000,0.000,7.142,-2.000,0.990,4.755,1.685,1.456,5.281,4.711,4.711,2.198,6.282,5.083,1.570,0.000,0.000,7.797,-2.028,0.990,4.755,1.679,1.462,
23.232,28.652,7.446,-2.579,1.529,0.250,6.264,0.000,3.567,1.001,0.938,1.799,0.000,2.794,1.654,0.000,2.546,0.000,3.142,0.000,0.000,0.000,0.000,0.000,0.000,0.000,0.000,0.000,0.000,0.000,3.142,6.282,0.000,1.004,1.569,1.569,4.085,6.281,1.199,4.712,0.000,0.000,7.143,-1.977,0.990,4.755,1.686,1.454,5.281,4.711,4.711,2.198,6.282,5.083,1.570,0.000,0.000,7.798,-2.004,0.990,4.754,1.680,1.461,
23.328,28.748,7.447,-2.556,1.529,0.249,6.265,0.000,3.539,1.002,0.939,1.828,0.000,2.791,1.652,0.000,2.546,0.000,3.142,0.000,0.000,0.000,0.000,0.000,0.000,0.000,0.000,0.000,0.000,0.000,3.142,6.282,0.000,1.004,1.569,1.569,4.085,6.281,1.199,4.712,0.000,0.000,7.143,-1.954,0.990,4.754,1.687,1.453,5.281,4.711,4.711,2.198,6.282,5.083,1.570,0.000,0.000,7.799,-1.981,0.990,4.754,1.682,1.459,
23.434,28.855,7.448,-2.533,1.529,0.249,6.264,0.000,3.512,1.003,0.993,3.288,0.000,2.787,1.651,0.000,2.546,0.000,3.142,0.000,0.000,0.000,0.000,0.000,0.000,0.000,0.000,0.000,0.000,0.000,3.142,6.282,0.000,1.004,1.569,1.569,4.085,6.281,1.199,4.712,0.000,0.000,7.144,-1.930,0.990,4.754,1.688,1.452,5.281,4.711,4.711,2.198,6.282,5.083,1.570,0.000,0.000,7.799,-1.957,0.990,4.754,1.683,1.458,
23.527,28.948,7.449,-2.509,1.530,0.250,6.265,0.000,3.485,1.003,0.994,3.308,0.000,2.784,1.650,0.000,2.545,0.000,3.142,0.000,0.000,0.000,0.000,0.000,0.000,0.000,0.000,0.000,0.000,0.000,3.142,6.282,0.000,1.004,1.569,1.569,4.085,6.281,1.199,4.712,0.000,0.000,7.145,-1.907,0.990,4.753,1.690,1.451,5.281,4.711,4.711,2.198,6.282,5.083,1.570,0.000,0.000,7.800,-1.934,0.990,4.753,1.684,1.457,
23.623,29.043,7.450,-2.486,1.530,0.249,6.265,0.000,3.457,1.004,0.995,3.329,0.000,2.780,1.648,0.000,2.545,0.000,3.142,0.000,0.000,0.000,0.000,0.000,0.000,0.000,0.000,0.000,0.000,0.000,3.142,6.282,0.000,1.004,1.569,1.569,4.085,6.281,1.199,4.712,0.000,0.000,7.145,-1.884,0.990,4.753,1.691,1.450,5.281,4.711,4.711,2.198,6.282,5.083,1.570,0.000,0.000,7.801,-1.910,0.990,4.753,1.686,1.455,
23.740,29.160,7.452,-2.450,1.532,0.721,6.197,0.000,3.418,1.005,0.997,3.360,0.000,2.769,1.180,0.000,2.550,0.000,3.142,0.000,0.000,0.000,0.000,0.000,0.000,0.000,0.000,0.000,0.000,0.000,3.142,6.280,6.283,1.006,1.568,1.567,4.079,6.281,1.199,4.712,0.000,0.000,7.144,-1.850,0.991,4.748,1.609,1.531,5.281,4.710,4.709,2.198,6.282,5.083,1.570,0.000,0.000,7.800,-1.874,0.991,4.748,1.679,1.462,
23.840,29.260,7.455,-2.345,1.534,1.321,6.269,0.000,3.294,1.009,1.002,3.453,0.000,2.756,1.641,0.000,2.548,0.000,3.142,0.000,0.000,0.000,0.000,0.000,0.000,0.000,0.000,0.000,0.000,0.000,3.142,6.281,6.283,1.005,1.568,1.568,4.082,6.281,1.199,4.712,0.000,0.000,7.147,-1.746,0.990,4.747,1.649,1.491,5.281,4.711,4.710,2.198,6.282,5.083,1.570,0.000,0.000,7.803,-1.769,0.990,4.748,1.687,1.454,
23.940,29.360,7.460,-2.230,1.535,0.810,6.265,0.000,3.155,1.150,1.006,3.555,0.000,2.745,1.636,0.000,2.544,0.000,3.142,0.000,0.000,0.000,0.000,0.000,0.000,0.000,0.000,0.000,0.000,0.000,3.142,0.003,0.001,1.000,1.571,1.573,4.092,6.280,1.200,4.712,0.000,0.000,7.155,-1.627,0.989,4.754,1.784,1.357,5.280,4.713,4.714,2.198,6.282,5.083,1.570,0.000,0.000,7.810,-1.653,0.990,4.752,1.692,1.449,
24.038,29.458,7.462,-2.171,1.535,0.420,6.266,0.000,3.084,1.152,1.009,3.608,0.000,2.739,1.633,0.000,2.543,0.000,3.142,0.000,0.000,0.000,0.000,0.000,0.000,0.000,0.000,0.000,0.000,0.000,3.142,6.282,0.000,1.004,1.569,1.569,4.084,6.281,1.199,4.712,0.000,0.000,7.154,-1.571,0.990,4.747,1.692,1.449,5.281,4.711,4.711,2.198,6.282,5.083,1.570,0.000,0.000,7.809,-1.593,0.990,4.747,1.704,1.437,
24.129,29.550,7.464,-2.097,1.536,1.112,6.266,0.000,2.995,1.155,1.012,3.672,0.000,2.732,1.577,0.000,2.214,0.000,3.142,0.000,0.000,0.000,0.000,0.000,0.000,0.000,0.000,0.000,0.000,0.000,3.142,6.279,6.283,1.007,1.567,1.566,4.079,6.281,1.199,4.712,0.000,0.000,7.154,-1.499,0.990,4.743,1.612,1.528,5.282,4.710,4.709,2.197,6.282,5.083,1.570,0.000,0.000,7.810,-1.520,0.991,4.744,1.710,1.431,
24.237,29.657,7.469,-1.971,1.536,1.314,6.265,0.000,0.000,1.159,1.016,4.658,0.000,2.723,1.661,1.657,2.534,0.000,3.142,0.000,1.831,0.000,0.000,0.000,0.000,0.000,0.000,0.000,0.000,0.000,3.142,6.283,0.000,1.003,1.569,1.569,4.085,6.281,1.199,4.712,0.000,0.000,7.161,-1.370,0.990,4.747,1.717,1.424,5.281,4.711,4.711,2.198,6.282,5.083,1.570,0.000,0.000,7.816,-1.393,0.990,4.747,1.702,1.439,
24.327,29.748,7.472,-1.858,1.537,0.952,0.031,0.000,0.000,0.000,1.021,4.671,0.000,2.712,1.998,1.542,2.205,0.000,3.142,0.000,1.761,0.000,0.000,0.000,0.000,0.000,0.000,0.000,0.000,0.000,3.142,0.002,0.001,1.001,1.570,1.571,4.089,6.281,1.200,4.712,0.000,0.000,7.165,-1.257,0.990,4.749,1.757,1.384,5.280,4.712,4.713,2.199,6.282,5.083,1.570,0.000,0.000,7.821,-1.281,0.990,4.748,1.690,1.451,
24.425,29.845,7.475,-1.773,1.575,0.857,0.973,0.000,0.000,0.000,1.037,3.946,0.000,2.566,2.526,1.612,2.663,0.000,3.142,0.000,1.775,0.000,0.000,0.000,0.000,0.000,0.000,0.000,0.000,0.000,3.142,0.001,0.000,1.003,1.571,1.572,4.086,6.281,1.199,4.712,0.000,0.000,7.146,-1.185,0.990,4.717,3.397,6.027,5.282,4.713,4.714,2.199,6.281,5.083,1.571,0.000,0.000,7.802,-1.183,0.991,4.716,3.579,5.846,
24.540,29.960,7.473,-1.700,1.660,1.011,1.194,0.000,0.000,0.000,1.072,4.000,0.000,2.312,0.000,1.668,3.046,0.000,3.142,0.000,1.781,0.000,0.000,0.000,0.000,0.000,0.000,0.000,0.000,0.000,3.142,0.000,0.000,1.004,1.570,1.569,4.083,6.282,1.199,4.712,0.000,0.000,7.093,-1.143,0.990,4.803,4.674,4.750,5.282,4.712,4.712,2.198,6.283,5.083,1.570,0.000,0.000,7.747,-1.084,0.991,4.802,4.678,4.746,
24.640,30.060,7.462,-1.594,1.709,1.109,6.275,0.000,0.000,0.000,1.084,4.094,0.000,1.665,4.637,1.719,1.681,0.000,3.142,0.000,1.796,0.000,0.000,0.000,0.000,0.000,0.000,0.000,0.000,0.000,3.142,6.282,0.000,1.004,1.568,1.566,4.085,6.282,1.199,4.711,0.000,0.000,7.053,-1.057,0.990,4.855,4.679,4.744,5.281,4.710,4.709,2.198,6.283,5.083,1.570,0.000,0.000,7.703,-0.966,0.990,4.855,4.682,4.742,
24.740,30.160,7.444,-1.471,1.709,0.989,6.274,0.000,2.580,0.000,1.146,4.192,0.000,2.236,4.694,1.738,3.282,0.000,3.142,0.000,0.000,0.000,0.000,0.000,0.000,0.000,0.000,0.000,0.000,0.000,3.142,6.282,0.001,1.004,1.569,1.569,4.085,6.281,1.199,4.712,0.000,0.000,7.038,-0.933,0.990,4.851,4.675,4.748,5.281,4.711,4.711,2.197,6.282,5.083,1.570,0.000,0.000,7.688,-0.842,0.990,4.851,4.677,4.747,
24.837,30.258,7.431,-1.377,1.708,0.968,6.272,0.000,2.446,0.000,1.350,4.268,0.000,2.255,4.776,1.752,0.000,0.000,3.142,0.000,0.000,0.000,0.000,0.000,0.000,0.000,0.000,0.000,0.000,0.000,3.142,6.282,0.000,1.004,1.569,1.569,4.084,6.281,1.199,4.712,0.000,0.000,7.025,-0.839,0.990,4.851,4.680,4.744,5.281,4.711,4.711,2.197,6.282,5.083,1.570,0.000,0.000,7.674,-0.748,0.990,4.851,4.678,4.746,
24.932,30.353,7.418,-1.280,1.708,1.024,6.271,0.000,2.308,0.000,1.182,4.345,0.000,2.274,4.859,1.767,0.000,0.000,3.142,0.000,0.000,4.003,0.000,0.000,0.000,0.000,0.000,0.000,0.000,0.000,3.142,6.282,0.000,1.004,1.569,1.569,4.084,6.281,1.199,4.712,0.000,0.000,7.011,-0.742,0.990,4.851,4.681,4.743,5.281,4.711,4.711,2.197,6.282,5.083,1.570,0.000,0.000,7.661,-0.651,0.990,4.851,4.678,4.746,
25.032,30.452,7.404,-1.179,1.708,1.034,6.270,0.000,2.265,0.000,1.166,1.926,0.000,2.294,1.568,1.783,0.000,0.000,3.142,0.000,0.000,4.043,0.000,0.000,0.000,0.000,0.000,0.000,0.000,0.000,3.142,6.282,0.000,1.004,1.569,1.569,4.085,6.281,1.199,4.712,0.000,0.000,6.997,-0.641,0.990,4.851,4.678,4.745,5.281,4.711,4.711,2.198,6.282,5.083,1.570,0.000,0.000,7.647,-0.550,0.990,4.851,4.678,4.746,
25.128,30.549,7.390,-1.080,1.687,1.005,5.604,0.000,2.295,0.000,1.138,1.926,0.000,2.366,1.588,1.780,0.000,0.000,3.142,0.000,0.000,4.191,0.000,0.000,0.000,0.000,0.000,0.000,0.000,0.000,3.142,6.281,0.001,1.004,1.568,1.566,4.084,6.281,1.199,4.711,0.000,0.000,6.993,-0.533,0.990,4.833,4.675,4.748,5.281,4.710,4.708,2.197,6.282,5.083,1.570,0.000,0.000,7.645,-0.456,0.990,4.833,4.668,4.755,
25.234,30.654,7.381,-0.982,1.593,1.000,5.138,0.000,2.532,0.000,1.459,1.621,0.000,2.661,1.635,1.722,2.813,0.000,3.142,0.000,0.000,2.072,0.000,0.000,0.000,0.000,0.000,0.000,0.000,0.000,3.142,6.280,0.001,1.004,1.568,1.567,4.085,6.281,1.199,4.712,0.000,0.000,7.037,-0.400,0.990,4.738,4.516,4.907,5.282,4.711,4.710,2.197,6.282,5.083,1.570,0.000,0.000,7.694,-0.385,0.991,4.737,4.547,4.876,
25.320,30.741,7.380,-0.882,1.543,1.018,6.267,0.000,2.315,0.000,2.003,1.506,0.000,2.852,1.662,1.694,2.705,0.000,3.142,0.000,0.000,2.263,0.000,0.000,0.000,0.000,0.000,0.000,0.000,0.000,3.142,6.282,0.000,1.004,1.570,1.571,4.085,6.280,1.199,4.712,0.000,0.000,7.070,-0.284,0.990,4.743,1.726,1.415,5.282,4.712,4.713,2.198,6.281,5.083,1.571,0.000,0.000,7.725,-0.302,0.991,4.743,1.707,1.434,
25.421,30.841,7.383,-0.782,1.544,1.016,6.269,0.000,1.989,3.260,2.318,1.513,0.000,2.842,1.711,1.692,2.637,0.000,3.142,0.000,0.000,0.000,0.000,0.000,0.000,0.000,0.000,0.000,0.000,0.000,3.142,6.283,0.000,1.003,1.569,1.569,4.085,6.281,1.199,4.712,0.000,0.000,7.070,-0.184,0.990,4.739,1.755,1.385,5.281,4.711,4.711,2.198,6.282,5.083,1.570,0.000,0.000,7.726,-0.202,0.990,4.739,1.733,1.408,
25.540,30.960,7.385,-0.702,1.545,1.010,6.263,0.000,1.892,3.199,3.353,1.597,0.000,2.835,1.709,1.444,2.620,0.000,3.142,0.000,0.000,0.000,0.000,0.000,0.000,0.000,0.000,0.000,0.000,0.000,3.142,6.283,0.000,1.003,1.569,1.569,4.085,6.281,1.199,4.712,0.000,0.000,7.072,-0.105,0.990,4.739,1.759,1.381,5.281,4.711,4.711,2.198,6.282,5.083,1.570,0.000,0.000,7.727,-0.122,0.990,4.738,1.738,1.403,
25.640,31.060,7.388,-0.603,1.546,1.009,6.261,0.000,1.771,3.124,3.357,1.718,0.000,2.827,1.706,1.688,0.000,0.000,3.142,0.000,0.000,0.000,0.000,0.000,0.000,0.000,0.000,0.000,0.000,0.000,3.142,6.283,0.000,1.003,1.569,1.569,4.085,6.281,1.199,4.712,0.000,0.000,7.074,-0.006,0.990,4.738,1.764,1.377,5.281,4.711,4.711,2.198,6.282,5.083,1.570,0.000,0.000,7.729,-0.022,0.990,4.737,1.747,1.395,
25.740,31.160,7.390,-0.484,1.547,1.013,6.262,0.000,1.678,3.033,3.361,1.864,0.000,2.818,1.702,1.440,0.000,0.000,3.142,0.000,0.000,0.000,0.000,0.000,0.000,0.000,0.000,0.000,0.000,0.000,3.142,6.283,0.000,1.004,1.569,1.569,4.085,6.281,1.199,4.712,0.000,0.000,7.076,0.113,0.990,4.737,1.770,1.370,5.281,4.711,4.711,2.198,6.282,5.083,1.570,0.000,0.000,7.732,0.097,0.990,4.737,1.755,1.386,
25.840,31.260,7.392,-0.404,1.547,1.013,6.262,0.000,1.680,2.450,3.364,1.760,0.000,2.725,1.700,1.683,0.000,0.000,3.142,0.000,0.000,0.000,0.000,0.000,0.000,0.000,0.000,0.000,0.000,0.000,3.142,6.283,0.000,1.004,1.569,1.569,4.085,6.281,1.199,4.712,0.000,0.000,7.078,0.192,0.990,4.736,1.776,1.365,5.281,4.711,4.711,2.198,6.282,5.083,1.570,0.000,0.000,7.733,0.177,0.990,4.736,1.760,1.381,
25.931,31.352,7.395,-0.285,1.548,1.011,6.263,0.000,1.586,2.067,3.536,1.766,0.000,2.734,1.696,0.838,0.000,0.000,3.142,0.000,0.000,0.000,0.000,0.000,0.000,0.000,0.000,0.000,0.000,0.000,3.142,6.282,0.000,1.004,1.569,1.569,4.085,6.281,1.199,4.712,0.000,0.000,7.080,0.312,0.990,4.735,1.782,1.358,5.281,4.711,4.711,2.198,6.282,5.083,1.570,0.000,0.000,7.736,0.297,0.990,4.735,1.768,1.373,
26.035,31.456,7.397,-0.185,1.549,1.011,6.263,0.000,1.529,1.746,3.846,1.772,0.000,2.857,1.694,1.679,0.000,0.000,3.142,0.000,0.000,0.000,0.000,0.000,0.000,0.000,0.000,0.000,0.000,0.000,3.142,6.282,0.000,1.004,1.569,1.569,4.085,6.281,1.199,4.712,0.000,0.000,7.082,0.411,0.990,4.735,1.787,1.353,5.281,4.711,4.711,2.198,6.282,5.083,1.570,0.000,0.000,7.737,0.397,0.990,4.735,1.775,1.366,
26.122,31.543,7.399,-0.086,1.549,1.012,6.264,0.000,1.531,1.680,4.216,1.777,0.000,2.979,1.691,1.677,0.000,0.000,3.142,0.000,0.000,0.000,0.000,0.000,0.000,0.000,0.000,0.000,0.000,0.000,3.142,6.282,0.000,1.004,1.569,1.569,4.085,6.281,1.199,4.712,0.000,0.000,7.083,0.510,0.990,4.734,1.793,1.347,5.281,4.711,4.711,2.198,6.282,5.083,1.570,0.000,0.000,7.739,0.496,0.990,4.734,1.781,1.360,
26.224,31.645,7.402,0.014,1.550,1.012,6.264,0.000,1.533,1.682,4.219,1.859,0.000,3.100,0.855,1.675,4.894,0.000,3.142,0.000,0.000,0.000,0.000,0.000,0.000,0.000,0.000,0.000,0.000,0.000,3.142,6.282,0.000,1.004,1.569,1.569,4.085,6.281,1.199,4.712,0.000,0.000,7.085,0.609,0.990,4.734,1.799,1.342,5.281,4.711,4.711,2.198,6.282,5.083,1.570,0.000,0.000,7.741,0.596,0.990,4.733,1.787,1.354,
26.340,31.760,7.403,0.093,1.550,1.012,6.264,0.000,1.535,1.683,4.393,1.956,0.000,3.199,1.687,1.674,4.794,0.000,3.142,4.976,0.000,0.000,0.000,0.000,0.000,0.000,0.000,0.000,0.000,0.000,3.142,6.282,0.000,1.004,1.569,1.569,4.085,6.281,1.199,4.712,0.000,0.000,7.087,0.689,0.990,4.733,1.803,1.337,5.281,4.711,4.711,2.198,6.282,5.083,1.570,0.000,0.000,7.742,0.676,0.990,4.733,1.792,1.349,
26.440,31.860,7.405,0.193,1.551,1.011,6.265,0.000,1.538,1.685,4.701,2.077,0.000,3.321,0.835,1.672,2.894,0.000,3.142,4.760,0.000,0.000,0.000,0.000,0.000,0.000,0.000,0.000,0.000,0.000,3.142,6.282,0.000,1.004,1.569,1.569,4.085,6.281,1.199,4.712,0.000,0.000,7.088,0.788,0.990,4.733,1.809,1.332,5.281,4.711,4.711,2.198,6.282,5.083,1.570,0.000,0.000,7.744,0.775,0.990,4.732,1.798,1.343,
26.540,31.960,7.407,0.292,1.551,1.012,6.265,0.000,1.540,1.687,0.000,2.198,0.000,3.444,1.682,1.670,2.769,0.000,3.142,4.541,0.000,0.000,0.000,0.000,0.000,0.000,0.000,0.000,0.000,0.000,3.142,6.282,0.000,1.004,1.569,1.569,4.085,6.281,1.199,4.712,0.000,0.000,7.090,0.888,0.990,4.732,1.815,1.326,5.281,4.711,4.711,2.198,6.282,5.083,1.570,0.000,0.000,7.746,0.875,0.990,4.732,1.804,1.337,
26.640,32.060,7.409,0.412,1.552,1.012,6.265,0.000,1.543,1.938,0.000,2.344,0.000,3.591,1.431,1.668,2.620,0.000,3.142,4.275,0.000,0.000,0.000,0.000,0.000,0.000,0.000,0.000,0.000,0.000,3.142,6.282,0.000,1.004,1.569,1.569,4.085,6.281,1.199,4.712,0.000,0.000,7.092,1.007,0.990,4.732,1.821,1.319,5.281,4.711,4.711,2.198,6.282,5.083,1.570,0.000,0.000,7.748,0.995,0.990,4.731,1.811,1.330,
26.734,32.154,7.411,0.511,1.546,1.012,5.936,0.000,1.559,1.055,0.000,2.477,0.000,3.696,1.681,1.663,2.578,0.000,3.142,4.122,0.000,0.000,0.000,0.000,0.000,0.000,0.000,0.000,0.000,0.000,3.142,6.281,0.001,1.004,1.568,1.567,4.084,6.281,1.199,4.712,0.000,0.000,7.096,1.108,0.990,4.735,1.769,1.371,5.281,4.710,4.709,2.197,6.282,5.083,1.570,0.000,0.000,7.752,1.092,0.990,4.735,1.803,1.338,
26.826,32.247,7.415,0.611,1.472,1.013,5.019,0.000,1.749,1.028,0.000,2.752,0.000,3.642,1.725,1.626,2.529,0.000,3.142,0.000,0.000,0.000,4.226,0.000,0.000,0.000,0.000,0.000,0.000,0.000,3.142,6.280,0.001,1.005,1.568,1.565,4.084,6.281,1.199,4.711,0.000,0.000,7.143,1.229,0.990,4.807,1.621,1.519,5.282,4.710,4.708,2.197,6.282,5.083,1.570,0.000,0.000,7.797,1.165,0.990,4.808,1.620,1.520,
26.940,32.360,7.424,0.690,1.375,1.010,4.923,0.000,2.108,1.044,1.641,3.122,4.805,3.614,1.531,1.589,4.733,0.000,3.106,0.000,0.000,0.000,0.000,0.000,0.000,0.000,0.000,0.000,0.000,0.000,3.142,6.280,0.001,1.004,1.568,1.567,4.085,6.281,1.199,4.712,0.000,0.000,7.215,1.332,0.990,4.906,1.597,1.544,5.282,4.711,4.710,2.197,6.282,5.083,1.570,0.000,0.000,7.859,1.205,0.991,4.907,1.591,1.550,
27.040,32.460,7.446,0.787,1.269,1.008,5.266,0.000,2.707,1.139,1.647,4.473,3.184,4.793,1.895,1.555,0.000,0.000,2.299,0.000,0.000,0.000,0.000,0.000,0.000,0.000,0.000,0.000,0.000,0.000,3.142,6.281,0.001,1.004,1.569,1.568,4.085,6.281,1.199,4.712,0.000,0.000,7.306,1.447,0.990,5.013,1.587,1.554,5.282,4.711,4.711,2.197,6.281,5.083,1.570,0.000,0.000,7.933,1.253,0.991,5.013,1.584,1.557,
27.126,32.547,7.484,0.900,1.174,1.018,5.403,4.099,3.732,1.272,1.078,4.205,2.886,0.000,1.988,1.520,0.000,0.000,2.404,0.000,0.000,0.000,0.000,0.000,0.000,0.000,0.000,0.000,0.000,0.000,3.142,6.281,0.001,1.004,1.569,1.567,4.085,6.281,1.199,4.712,0.000,0.000,7.407,1.571,0.990,5.107,1.583,1.558,5.282,4.711,4.710,2.197,6.282,5.083,1.570,0.000,0.000,8.013,1.318,0.990,5.107,1.582,1.559,
27.240,32.660,7.516,0.974,1.109,1.016,5.299,3.455,0.000,1.390,1.023,4.725,2.765,0.000,1.778,1.498,0.000,0.000,2.475,0.000,3.179,0.000,0.000,0.000,0.000,0.000,0.000,0.000,0.000,0.000,3.142,6.281,0.001,1.004,1.568,1.567,4.085,6.281,1.199,4.712,0.000,0.000,7.483,1.648,0.990,5.172,1.582,1.560,5.282,4.711,4.710,2.197,6.282,5.083,1.570,0.000,0.000,8.071,1.356,0.990,5.172,1.581,1.561,
27.321,32.741,7.572,1.080,1.001,1.009,5.238,1.891,0.000,1.643,1.101,0.000,3.066,0.000,2.234,1.472,0.000,0.000,2.615,0.000,0.000,0.000,0.000,0.000,0.000,0.000,0.000,0.000,0.000,0.000,3.142,6.280,0.001,1.004,1.568,1.567,4.085,6.281,1.199,4.712,0.000,0.000,7.612,1.753,0.990,5.280,1.580,1.562,5.282,4.711,4.710,2.197,6.282,5.083,1.570,0.000,0.000,8.165,1.400,0.991,5.281,1.579,1.563,
27.440,32.860,7.615,1.145,0.933,0.966,5.521,2.381,0.000,1.860,1.166,1.923,3.296,0.000,2.365,1.455,0.000,0.000,2.685,0.000,0.000,0.000,0.000,0.000,0.000,0.000,0.000,0.000,0.000,0.000,3.142,6.282,0.001,1.004,1.569,1.569,4.086,6.281,1.199,4.712,0.000,0.000,7.703,1.815,0.990,5.351,1.580,1.562,5.282,4.712,4.712,2.198,6.281,5.083,1.570,0.000,0.000,8.230,1.424,0.991,5.351,1.578,1.564,
27.540,32.960,7.667,1.213,0.912,0.772,0.128,2.229,0.000,2.001,1.228,1.964,3.433,0.000,2.344,1.411,0.000,0.000,2.791,0.000,0.000,0.000,0.000,0.000,0.000,0.000,0.000,0.000,0.000,0.000,3.142,0.001,0.000,1.002,1.570,1.571,4.087,6.281,1.200,4.712,0.000,0.000,7.769,1.880,0.990,5.374,1.580,1.563,5.281,4.712,4.713,2.199,6.281,5.083,1.570,0.000,0.000,8.287,1.478,0.990,5.373,1.578,1.565,
27.640,33.060,7.710,1.270,0.962,0.729,1.079,2.313,0.000,1.943,1.255,2.045,3.566,0.000,2.119,1.344,0.000,0.000,2.720,0.000,0.000,0.000,0.000,0.000,0.000,0.000,0.000,0.000,0.000,0.000,3.142,0.001,0.000,1.003,1.571,1.572,4.086,6.281,1.199,4.712,0.000,0.000,7.779,1.941,0.990,5.325,1.579,1.563,5.282,4.713,4.714,2.199,6.282,5.083,1.571,0.000,0.000,8.317,1.565,0.991,5.325,1.576,1.566,
27.740,33.160,7.752,1.334,1.079,0.829,1.399,2.733,0.000,1.763,1.266,0.000,3.217,0.000,1.789,1.266,0.000,0.000,2.791,0.000,0.000,0.000,0.000,0.000,0.000,0.000,0.000,0.000,0.000,0.000,3.142,0.001,0.000,1.004,1.570,1.569,4.085,6.282,1.199,4.712,0.000,0.000,7.740,2.009,0.990,5.204,1.580,1.562,5.282,4.712,4.712,2.198,6.282,5.083,1.570,0.000,0.000,8.319,1.699,0.991,5.205,1.577,1.564,
27.840,33.260,7.789,1.409,1.184,0.851,0.982,3.355,0.000,1.653,1.290,0.000,3.681,1.722,1.575,1.163,0.000,0.000,2.545,0.000,0.000,0.000,0.000,0.000,0.000,0.000,0.000,0.000,0.000,0.000,3.142,0.001,0.000,1.003,1.570,1.569,4.085,6.282,1.199,4.712,0.000,0.000,7.707,2.079,0.990,5.098,1.583,1.558,5.282,4.712,4.711,2.198,6.282,5.083,1.570,0.000,0.000,8.315,1.831,0.991,5.099,1.580,1.561,
27.940,33.360,7.818,1.485,1.259,0.799,0.853,4.080,3.976,1.598,1.319,4.683,4.301,4.226,1.451,3.315,4.456,0.000,2.650,0.000,0.000,0.000,0.000,0.000,0.000,0.000,0.000,0.000,0.000,0.000,3.142,0.001,0.000,1.003,1.570,1.570,4.086,6.281,1.199,4.712,0.000,0.000,7.686,2.146,0.990,5.024,1.588,1.554,5.282,4.712,4.712,2.198,6.282,5.083,1.570,0.000,0.000,8.311,1.945,0.991,5.025,1.582,1.559,
28.031,33.451,7.844,1.574,1.358,0.792,1.051,0.000,3.236,1.533,1.355,0.000,0.000,2.844,1.333,0.000,1.503,0.000,3.142,0.000,0.000,0.000,0.000,0.000,0.000,0.000,0.000,0.000,0.000,0.000,3.142,0.001,0.000,1.003,1.570,1.570,4.085,6.281,1.199,4.712,0.000,0.000,7.648,2.219,0.990,4.926,1.593,1.548,5.282,4.712,4.712,2.198,6.282,5.083,1.570,0.000,0.000,8.289,2.080,0.991,4.926,1.586,1.555,
28.140,33.560,7.856,1.636,1.432,0.813,1.085,0.000,3.376,1.491,1.384,4.905,0.000,1.923,1.268,0.000,1.672,0.000,3.142,0.000,0.000,0.000,0.000,0.000,0.000,0.000,0.000,0.000,0.000,0.000,3.142,0.001,0.000,1.003,1.570,1.569,4.085,6.281,1.199,4.712,0.000,0.000,7.612,2.265,0.990,4.852,1.604,1.537,5.282,4.712,4.712,2.198,6.282,5.083,1.570,0.000,0.000,8.262,2.174,0.991,4.852,1.594,1.547,
28.221,33.642,7.866,1.732,1.540,0.818,1.015,0.000,3.943,1.439,1.435,3.995,0.000,2.005,1.149,0.000,1.198,0.000,3.142,0.000,0.000,0.000,0.000,0.000,0.000,0.000,0.000,0.000,0.000,0.000,3.142,0.001,0.000,1.003,1.570,1.569,4.086,6.281,1.199,4.712,0.000,0.000,7.556,2.331,0.990,4.744,1.724,1.416,5.282,4.712,4.712,2.198,6.282,5.083,1.570,0.000,0.000,8.212,2.311,0.991,4.744,1.678,1.463,
28.340,33.760,7.867,1.795,1.609,0.807,0.999,0.000,2.076,1.411,1.472,4.144,0.000,1.825,1.138,0.000,2.079,0.000,3.142,0.000,0.000,0.000,0.000,0.000,0.000,0.000,0.000,0.000,0.000,0.000,3.142,0.001,0.000,1.003,1.570,1.570,4.086,6.281,1.199,4.712,0.000,0.000,7.516,2.372,0.990,4.750,4.585,4.838,5.282,4.712,4.712,2.198,6.282,5.083,1.570,0.000,0.000,8.172,2.397,0.991,4.750,4.622,4.802,
28.440,33.860,7.862,1.874,1.695,0.804,1.011,0.000,1.949,1.381,1.525,3.791,0.000,1.658,2.093,0.000,2.419,0.000,3.142,0.000,0.000,0.000,0.000,0.000,0.000,0.000,0.000,0.000,0.000,0.000,3.142,0.001,0.000,1.003,1.570,1.570,4.086,6.281,1.199,4.712,0.000,0.000,7.463,2.418,0.990,4.837,4.674,4.749,5.282,4.712,4.712,2.198,6.282,5.083,1.570,0.000,0.000,8.114,2.500,0.991,4.836,4.685,4.739,
28.540,33.960,7.850,1.952,1.783,0.811,1.033,0.000,1.778,1.354,1.588,3.951,0.000,1.538,3.297,1.280,2.942,0.000,3.142,0.000,0.000,0.000,0.000,0.000,0.000,0.000,0.000,0.000,0.000,0.000,3.142,0.001,0.000,1.003,1.570,1.570,4.085,6.281,1.199,4.712,0.000,0.000,7.405,2.459,0.990,4.925,4.690,4.733,5.282,4.712,4.712,2.198,6.282,5.083,1.570,0.000,0.000,8.046,2.598,0.991,4.925,4.697,4.727,
28.630,34.050,7.824,2.058,1.839,1.055,0.013,0.000,1.668,1.324,1.616,4.288,4.755,1.501,4.374,1.418,3.464,0.000,3.106,0.000,0.000,0.000,0.000,0.000,0.000,0.000,0.000,0.000,0.000,0.000,3.142,6.282,0.000,1.005,1.568,1.566,4.083,6.282,1.199,4.711,0.000,0.000,7.349,2.538,0.990,4.985,4.698,4.725,5.281,4.710,4.709,2.198,6.283,5.083,1.570,0.000,0.000,7.982,2.712,0.991,4.984,4.697,4.726,
28.740,34.160,7.795,2.163,1.839,1.102,6.269,0.000,1.632,1.296,1.581,4.398,4.863,1.538,0.000,0.942,2.367,0.000,3.106,0.000,0.000,0.000,0.000,0.000,0.000,0.000,0.000,0.000,0.000,0.000,3.142,6.282,0.000,1.004,1.569,1.569,4.085,6.281,1.199,4.712,0.000,0.000,7.322,2.644,0.990,4.981,4.694,4.729,5.281,4.711,4.711,2.198,6.282,5.083,1.570,0.000,0.000,7.955,2.818,0.990,4.981,4.695,4.729,
28.840,34.260,7.773,2.243,1.839,1.008,6.268,0.000,1.604,1.274,1.554,4.349,4.947,1.566,0.000,0.947,2.314,0.000,3.106,0.000,0.000,0.000,0.000,0.000,0.000,0.000,0.000,0.000,0.000,0.000,3.142,6.283,0.001,1.003,1.569,1.569,4.086,6.281,1.199,4.712,0.000,0.000,7.300,2.724,0.990,4.980,4.692,4.731,5.281,4.711,4.711,2.198,6.282,5.083,1.570,0.000,0.000,7.933,2.898,0.990,4.981,4.695,4.729,
28.934,34.355,7.743,2.353,1.839,0.966,6.268,0.000,1.565,1.243,1.517,4.258,0.000,1.541,0.000,1.516,3.707,0.000,3.142,0.000,0.000,0.000,0.000,0.000,0.000,0.000,0.000,0.000,0.000,0.000,3.142,6.282,0.000,1.004,1.569,1.569,4.085,6.281,1.199,4.712,0.000,0.000,7.270,2.834,0.990,4.981,4.695,4.728,5.281,4.711,4.711,2.198,6.282,5.083,1.570,0.000,0.000,7.902,3.008,0.990,4.982,4.695,4.729,
29.030,34.450,7.717,2.448,1.838,1.026,6.191,0.000,1.470,1.217,1.485,4.173,0.000,1.575,0.000,1.546,3.776,0.000,3.142,0.000,0.000,0.000,0.000,0.000,0.000,0.000,0.000,0.000,0.000,0.000,3.142,6.281,0.000,1.005,1.569,1.568,4.084,6.281,1.199,4.712,0.000,0.000,7.244,2.928,0.990,4.982,4.697,4.727,5.281,4.711,4.710,2.197,6.282,5.083,1.570,0.000,0.000,7.876,3.103,0.990,4.982,4.694,4.730,
29.140,34.560,7.696,2.526,1.809,1.039,5.454,0.000,1.478,1.197,1.430,4.302,0.000,1.641,0.000,1.542,3.549,0.000,3.142,0.000,0.000,0.000,0.000,0.000,0.000,0.000,0.000,0.000,0.000,0.000,3.142,6.280,0.001,1.005,1.567,1.565,4.084,6.282,1.199,4.711,0.000,0.000,7.235,3.020,0.990,4.955,4.694,4.729,5.281,4.710,4.708,2.197,6.282,5.083,1.570,0.000,0.000,7.872,3.176,0.990,4.955,4.691,4.732,
29.240,34.660,7.674,2.625,1.707,1.008,5.123,0.000,3.924,1.188,1.322,4.607,0.000,1.909,4.337,1.481,1.987,0.000,3.142,0.000,0.000,0.000,0.000,0.000,0.000,0.000,0.000,0.000,0.000,0.000,3.142,6.281,0.001,1.004,1.569,1.568,4.085,6.281,1.199,4.712,0.000,0.000,7.267,3.164,0.990,4.850,4.675,4.748,5.282,4.711,4.710,2.198,6.282,5.083,1.570,0.000,0.000,7.918,3.253,0.991,4.849,4.684,4.739,
29.335,34.755,7.660,2.742,1.659,1.001,0.026,0.000,2.845,1.184,1.277,4.858,0.000,2.031,3.945,1.463,1.904,0.000,3.142,0.000,0.000,0.000,0.000,0.000,0.000,0.000,0.000,0.000,0.000,0.000,3.142,6.283,0.000,1.003,1.570,1.570,4.085,6.281,1.199,4.712,0.000,0.000,7.282,3.300,0.990,4.800,4.657,4.767,5.281,4.712,4.712,2.198,6.282,5.083,1.570,0.000,0.000,7.935,3.358,0.990,4.800,4.665,4.760,
29.422,34.842,7.652,2.841,1.661,1.015,6.268,0.000,2.590,1.175,1.268,4.968,0.000,1.965,1.330,1.473,1.811,0.000,3.142,0.000,0.000,0.000,0.000,0.000,0.000,0.000,0.000,0.000,0.000,0.000,3.142,6.283,0.000,1.003,1.569,1.569,4.085,6.281,1.199,4.712,0.000,0.000,7.271,3.398,0.990,4.802,4.659,4.765,5.281,4.711,4.711,2.198,6.282,5.083,1.570,0.000,0.000,7.925,3.457,0.990,4.802,4.665,4.759,
29.540,34.960,7.644,2.921,1.661,1.018,6.264,0.000,2.380,1.167,1.261,0.000,0.000,1.975,0.936,1.482,1.835,0.000,3.142,0.000,0.000,0.000,0.000,0.000,0.000,0.000,0.000,0.000,0.000,0.000,3.142,6.283,0.000,1.003,1.569,1.569,4.085,6.281,1.199,4.712,0.000,0.000,7.264,3.478,0.990,4.803,4.658,4.765,5.281,4.711,4.711,2.198,6.282,5.083,1.570,0.000,0.000,7.917,3.537,0.990,4.803,4.665,4.759,
29.640,35.060,7.633,3.040,1.662,1.010,6.261,0.000,2.063,1.156,1.249,0.000,0.000,2.064,1.399,1.494,2.738,0.000,3.142,0.000,0.000,0.000,0.000,0.000,0.000,0.000,0.000,0.000,0.000,0.000,3.142,6.283,0.000,1.003,1.569,1.569,4.085,6.281,1.199,4.712,0.000,0.000,7.252,3.597,0.990,4.804,4.659,4.765,5.281,4.711,4.711,2.198,6.282,5.083,1.570,0.000,0.000,7.906,3.657,0.990,4.804,4.665,4.759,
29.735,35.156,7.624,3.139,1.663,1.009,6.262,0.000,1.856,1.096,1.240,2.327,0.000,2.198,1.408,1.505,2.760,0.000,3.142,0.000,0.000,0.000,0.000,0.000,0.000,0.000,0.000,0.000,0.000,0.000,3.142,6.283,0.000,1.004,1.569,1.569,4.085,6.281,1.199,4.712,0.000,0.000,7.243,3.695,0.990,4.805,4.660,4.763,5.281,4.711,4.711,2.198,6.282,5.083,1.570,0.000,0.000,7.896,3.756,0.990,4.805,4.665,4.759,
29.823,35.243,7.615,3.238,1.664,1.013,6.262,0.000,1.722,1.086,1.230,2.311,0.000,2.330,1.417,1.515,2.782,0.000,3.142,0.000,0.000,0.000,0.000,0.000,0.000,0.000,0.000,0.000,0.000,0.000,3.142,6.282,0.000,1.004,1.569,1.569,4.085,6.281,1.199,4.712,0.000,0.000,7.233,3.794,0.990,4.806,4.661,4.763,5.281,4.711,4.711,2.198,6.282,5.083,1.570,0.000,0.000,7.886,3.855,0.990,4.806,4.665,4.759,
29.940,35.360,7.608,3.317,1.664,1.014,6.263,0.000,1.615,3.318,1.222,2.297,0.000,2.437,1.425,1.524,2.799,0.000,3.142,0.000,0.000,0.000,0.000,0.000,0.000,0.000,0.000,0.000,0.000,0.000,3.142,6.282,0.000,1.004,1.569,1.569,4.085,6.281,1.199,4.712,0.000,0.000,7.225,3.873,0.990,4.806,4.661,4.763,5.281,4.711,4.711,2.198,6.282,5.083,1.570,0.000,0.000,7.878,3.935,0.990,4.806,4.665,4.759,
30.040,35.460,7.598,3.417,1.665,1.012,6.263,0.000,1.549,4.251,1.212,2.281,0.000,2.571,1.434,1.534,2.821,0.000,3.142,0.000,0.000,0.000,0.000,0.000,0.000,0.000,0.000,0.000,0.000,0.000,3.142,6.282,0.000,1.004,1.569,1.569,4.085,6.281,1.199,4.712,0.000,0.000,7.216,3.972,0.990,4.807,4.661,4.762,5.281,4.711,4.711,2.198,6.282,5.083,1.570,0.000,0.000,7.869,4.034,0.990,4.807,4.665,4.759,
30.134,35.554,7.587,3.535,1.666,1.011,6.264,0.000,1.531,4.239,1.200,2.260,0.000,2.732,1.445,1.547,2.847,0.000,3.142,0.000,0.000,0.000,0.000,0.000,0.000,0.000,0.000,0.000,0.000,0.000,3.142,6.282,0.000,1.004,1.569,1.569,4.085,6.281,1.199,4.712,0.000,0.000,7.204,4.091,0.990,4.808,4.662,4.762,5.281,4.711,4.711,2.198,6.282,5.083,1.570,0.000,0.000,7.857,4.153,0.990,4.808,4.665,4.759,
30.231,35.651,7.578,3.634,1.666,1.012,6.264,0.000,1.590,4.036,1.190,2.243,0.000,2.866,1.455,1.558,2.869,0.000,3.142,0.000,0.000,0.000,0.000,0.000,0.000,0.000,0.000,0.000,0.000,0.000,3.142,6.282,0.000,1.004,1.569,1.569,4.085,6.281,1.199,4.712,0.000,0.000,7.194,4.190,0.990,4.808,4.662,4.761,5.281,4.711,4.711,2.198,6.282,5.083,1.570,0.000,0.000,7.847,4.252,0.990,4.808,4.665,4.759,
30.324,35.744,7.568,3.734,1.667,1.012,6.265,0.000,1.575,3.531,1.180,2.225,0.000,3.000,1.464,1.569,2.891,0.000,3.142,0.000,0.000,0.000,0.000,0.000,0.000,0.000,0.000,0.000,0.000,0.000,3.142,6.282,0.000,1.004,1.569,1.569,4.085,6.281,1.199,4.712,0.000,0.000,7.184,4.288,0.990,4.809,4.663,4.761,5.281,4.711,4.711,2.198,6.282,5.083,1.570,0.000,0.000,7.837,4.352,0.990,4.809,4.666,4.758,
30.440,35.860,7.560,3.813,1.667,1.012,6.264,0.000,1.563,3.126,1.116,2.210,0.000,1.500,1.472,1.577,2.899,0.000,3.142,0.000,0.000,0.000,0.000,0.000,0.000,0.000,0.000,0.000,0.000,0.000,3.142,6.282,0.000,1.004,1.569,1.569,4.085,6.281,1.199,4.712,0.000,0.000,7.176,4.368,0.990,4.809,4.663,4.761,5.281,4.711,4.711,2.198,6.282,5.083,1.570,0.000,0.000,7.829,4.431,0.990,4.809,4.666,4.758,
30.540,35.960,7.551,3.912,1.668,1.012,6.265,0.000,1.548,3.114,1.106,2.192,0.000,1.515,1.482,1.166,2.829,0.000,3.142,0.000,0.000,0.000,0.000,0.000,0.000,0.000,0.000,0.000,0.000,0.000,3.142,6.282,0.000,1.004,1.569,1.569,4.085,6.281,1.199,4.712,0.000,0.000,7.167,4.466,0.990,4.810,4.663,4.760,5.281,4.711,4.711,2.198,6.282,5.083,1.570,0.000,0.000,7.819,4.530,0.990,4.810,4.666,4.758,
30.640,36.060,7.541,4.011,1.668,1.012,6.265,0.000,1.533,3.104,1.256,2.174,0.000,3.375,1.492,1.115,2.851,0.000,3.142,0.000,0.000,0.000,0.000,0.000,0.000,0.000,0.000,0.000,0.000,0.000,3.142,6.282,0.000,1.004,1.569,1.569,4.085,6.281,1.199,4.712,0.000,0.000,7.157,4.565,0.990,4.810,4.663,4.760,5.281,4.711,4.711,2.198,6.282,5.083,1.570,0.000,0.000,7.809,4.629,0.990,4.810,4.666,4.758,
30.733,36.154,7.529,4.130,1.669,1.012,6.265,4.903,1.515,3.092,0.000,2.152,0.000,2.131,1.503,1.612,0.000,0.000,3.142,0.000,0.000,0.000,2.253,0.000,0.000,0.000,0.000,0.000,0.000,0.000,3.142,6.282,0.000,1.004,1.569,1.569,4.085,6.281,1.199,4.712,0.000,0.000,7.145,4.684,0.990,4.811,4.664,4.760,5.281,4.711,4.711,2.198,6.282,5.083,1.570,0.000,0.000,7.797,4.748,0.990,4.811,4.666,4.758,
30.822,36.243,7.520,4.229,1.669,1.012,6.265,4.803,1.500,3.082,0.000,2.133,0.000,2.144,1.513,1.623,2.186,0.000,3.142,0.000,0.000,0.000,2.302,0.000,0.000,0.000,0.000,0.000,0.000,0.000,3.142,6.282,0.000,1.004,1.569,1.569,4.085,6.281,1.199,4.712,0.000,0.000,7.135,4.783,0.990,4.811,4.664,4.760,5.281,4.711,4.711,2.198,6.282,5.083,1.570,0.000,0.000,7.787,4.847,0.990,4.811,4.666,4.758,
30.940,36.360,7.512,4.308,1.669,1.012,6.266,4.724,1.488,1.049,0.000,2.118,0.000,2.202,1.521,1.632,2.130,0.000,3.142,0.000,0.000,0.000,2.375,0.000,0.000,0.000,0.000,0.000,0.000,0.000,3.142,6.282,0.000,1.004,1.569,1.569,4.085,6.281,1.199,4.712,0.000,0.000,7.127,4.862,0.990,4.812,4.664,4.759,5.281,4.711,4.711,2.198,6.282,5.083,1.570,0.000,0.000,7.779,4.927,0.990,4.812,4.666,4.757,
31.040,36.460,7.502,4.407,1.670,1.012,6.265,4.624,1.472,0.970,0.000,2.099,0.000,2.244,1.531,1.643,4.914,0.000,3.142,0.000,0.000,0.000,2.539,0.000,0.000,0.000,0.000,0.000,0.000,0.000,3.142,6.282,0.000,1.004,1.569,1.569,4.085,6.281,1.199,4.712,0.000,0.000,7.117,4.961,0.990,4.812,4.664,4.759,5.281,4.711,4.711,2.198,6.282,5.083,1.570,0.000,0.000,7.769,5.026,0.990,4.812,4.667,4.757,
31.125,36.545,7.490,4.526,1.670,1.012,6.266,4.505,0.000,1.008,3.154,2.076,0.000,2.260,1.543,1.657,4.776,0.000,3.142,0.000,0.000,0.000,0.000,0.000,0.000,0.000,0.000,0.000,0.000,0.000,3.142,6.282,0.000,1.004,1.569,1.569,4.085,6.281,1.199,4.712,0.000,0.000,7.104,5.079,0.990,4.812,4.665,4.759,5.281,4.711,4.711,2.198,6.282,5.083,1.570,0.000,0.000,7.757,5.145,0.990,4.813,4.667,4.757,
31.220,36.641,7.480,4.625,1.671,1.012,6.266,4.405,0.000,0.998,3.179,2.057,0.000,2.274,1.102,1.668,3.329,0.000,3.142,0.000,0.000,0.000,0.000,0.000,0.000,0.000,0.000,0.000,0.000,0.000,3.142,6.282,0.000,1.004,1.569,1.569,4.085,6.281,1.199,4.712,0.000,0.000,7.094,5.178,0.990,4.813,4.665,4.759,5.281,4.711,4.711,2.198,6.282,5.083,1.570,0.000,0.000,7.747,5.244,0.990,4.813,4.667,4.757,
31.340,36.760,7.472,4.704,1.671,1.012,6.266,4.326,0.000,0.990,3.198,2.041,0.000,2.285,1.110,1.677,3.237,0.000,3.142,0.000,0.000,0.000,0.000,0.000,0.000,0.000,0.000,0.000,0.000,0.000,3.142,6.282,0.000,1.004,1.569,1.569,4.085,6.281,1.199,4.712,0.000,0.000,7.086,5.257,0.990,4.813,4.665,4.758,5.281,4.711,4.711,2.198,6.282,5.083,1.570,0.000,0.000,7.739,5.323,0.990,4.813,4.667,4.757,
31.430,36.851,7.460,4.823,1.672,1.012,6.266,4.206,4.958,0.978,3.228,2.018,0.000,2.302,1.573,1.690,3.100,0.000,3.142,0.000,0.000,0.000,0.000,0.000,0.000,0.000,0.000,0.000,0.000,0.000,3.142,6.282,0.000,1.004,1.569,1.569,4.085,6.281,1.199,4.712,0.000,0.000,7.074,5.376,0.990,4.814,4.665,4.758,5.281,4.711,4.711,2.198,6.282,5.083,1.570,0.000,0.000,7.726,5.442,0.990,4.814,4.667,4.757,
31.540,36.960,7.452,4.902,1.672,1.012,6.266,4.127,4.851,0.969,3.248,2.002,0.000,2.313,1.581,1.699,3.051,0.000,3.142,0.000,0.000,0.000,0.000,0.000,0.000,0.000,0.000,0.000,0.000,0.000,3.142,6.282,0.000,1.004,1.569,1.569,4.085,6.281,1.199,4.712,0.000,0.000,7.066,5.455,0.990,4.814,4.665,4.758,5.281,4.711,4.711,2.198,6.282,5.083,1.570,0.000,0.000,7.718,5.522,0.990,4.814,4.668,4.756,
31.640,37.060,7.442,5.001,1.672,1.012,6.266,4.027,4.717,0.959,0.988,1.877,0.000,2.327,1.591,1.711,3.175,0.000,3.142,0.000,0.000,0.000,0.000,0.000,0.000,0.000,0.000,0.000,0.000,0.000,3.142,6.282,0.000,1.004,1.569,1.569,4.085,6.281,1.199,4.712,0.000,0.000,7.055,5.554,0.990,4.814,4.666,4.758,5.281,4.711,4.711,2.198,6.282,5.083,1.570,0.000,0.000,7.708,5.621,0.990,4.814,4.668,4.756,
31.736,37.157,7.430,5.120,1.673,1.012,6.266,3.908,4.557,0.947,1.030,1.868,0.000,2.344,1.604,1.725,3.203,0.000,3.142,0.000,0.000,0.000,0.000,0.000,0.000,0.000,0.000,0.000,0.000,0.000,3.142,6.282,0.000,1.004,1.569,1.569,4.085,6.281,1.199,4.712,0.000,0.000,7.043,5.673,0.990,4.815,4.666,4.758,5.281,4.711,4.711,2.198,6.282,5.083,1.570,0.000,0.000,7.696,5.740,0.990,4.815,4.668,4.756,
31.824,37.244,7.420,5.219,1.673,1.012,6.266,3.808,4.423,0.936,1.019,1.980,0.000,2.358,1.614,1.736,3.226,0.000,3.142,0.000,0.000,0.000,0.000,0.000,0.000,0.000,0.000,0.000,0.000,0.000,3.142,6.282,0.000,1.004,1.569,1.569,4.085,6.281,1.199,4.712,0.000,0.000,7.033,5.772,0.990,4.815,4.666,4.758,5.281,4.711,4.711,2.198,6.282,5.083,1.570,0.000,0.000,7.685,5.839,0.990,4.815,4.668,4.756,
31.940,37.360,7.412,5.298,1.673,1.012,6.266,3.729,4.316,0.928,1.010,2.069,0.000,2.370,1.622,1.745,3.244,0.000,3.142,0.000,0.000,0.000,0.000,0.000,0.000,0.000,0.000,0.000,0.000,0.000,3.142,6.282,0.000,1.004,1.569,1.569,4.085,6.281,1.199,4.712,0.000,0.000,7.024,5.851,0.990,4.816,4.666,4.757,5.281,4.711,4.711,2.198,6.282,5.083,1.570,0.000,0.000,7.677,5.918,0.990,4.816,4.668,4.756,
32.040,37.460,7.402,5.397,1.674,1.012,6.266,3.629,4.182,1.607,0.999,2.181,0.000,2.384,1.632,1.757,3.267,0.000,3.142,0.000,0.000,0.000,0.000,0.000,0.000,0.000,0.000,0.000,0.000,0.000,3.142,6.282,0.000,1.004,1.569,1.569,4.085,6.281,1.199,4.712,0.000,0.000,7.014,5.949,0.990,4.816,4.666,4.757,5.281,4.711,4.711,2.198,6.282,5.083,1.570,0.000,0.000,7.666,6.017,0.990,4.816,4.668,4.756,
32.129,37.549,7.389,5.516,1.674,1.012,6.266,3.510,4.021,0.000,0.985,4.303,0.000,2.401,1.645,1.771,3.295,0.000,3.142,0.000,0.000,0.000,0.000,0.000,0.000,0.000,0.000,0.000,0.000,0.000,3.142,6.282,0.000,1.004,1.569,1.569,4.085,6.281,1.199,4.712,0.000,0.000,7.001,6.068,0.990,4.816,4.667,4.757,5.281,4.711,4.711,2.198,6.282,5.083,1.570,0.000,0.000,7.654,6.136,0.990,4.817,4.668,4.755,
32.235,37.656,7.379,5.615,1.675,1.012,6.266,3.410,3.916,0.000,0.974,4.415,0.000,2.415,1.655,1.301,3.319,0.000,3.142,0.000,0.000,0.000,0.000,0.000,0.000,0.000,0.000,0.000,0.000,0.000,3.142,6.282,0.000,1.004,1.569,1.569,4.085,6.281,1.199,4.712,0.000,0.000,6.991,6.167,0.990,4.817,4.667,4.757,5.281,4.711,4.711,2.198,6.282,5.083,1.570,0.000,0.000,7.643,6.235,0.990,4.817,4.669,4.755,
32.340,37.760,7.371,5.694,1.675,1.012,6.266,3.330,3.903,0.000,0.965,4.504,0.000,2.427,1.664,1.737,3.338,0.000,3.142,0.000,0.000,0.000,0.000,0.000,0.000,0.000,0.000,0.000,0.000,0.000,3.142,6.282,0.000,1.004,1.569,1.569,4.085,6.281,1.199,4.712,0.000,0.000,6.982,6.246,0.990,4.817,4.667,4.757,5.281,4.711,4.711,2.198,6.282,5.083,1.570,0.000,0.000,7.635,6.315,0.990,4.817,4.669,4.755,
32.440,37.860,7.360,5.793,1.675,1.012,6.266,3.231,3.886,0.000,0.954,4.615,0.000,1.784,1.674,0.000,3.361,0.000,3.142,0.000,0.000,0.000,0.000,0.000,0.000,0.000,0.000,0.000,0.000,0.000,3.142,6.282,0.000,1.004,1.569,1.569,4.085,6.281,1.199,4.712,0.000,0.000,6.972,6.345,0.990,4.818,4.667,4.757,5.281,4.711,4.711,2.198,6.282,5.083,1.570,0.000,0.000,7.624,6.414,0.990,4.818,4.669,4.755,
32.536,37.957,7.348,5.912,1.676,1.012,6.266,3.111,3.866,0.000,0.953,0.000,0.000,1.893,1.687,0.000,3.313,0.000,3.142,0.000,0.000,0.000,0.000,0.000,0.000,0.000,0.000,0.000,0.000,0.000,3.142,6.282,0.000,1.004,1.569,1.569,4.085,6.281,1.199,4.712,0.000,0.000,6.959,6.463,0.990,4.818,4.667,4.756,5.281,4.711,4.711,2.198,6.282,5.083,1.570,0.000,0.000,7.611,6.533,0.990,4.818,4.669,4.755,
32.632,38.052,7.337,6.011,1.676,1.012,6.266,3.012,3.849,1.529,1.181,1.669,0.000,2.473,1.697,0.000,3.199,0.000,3.142,0.000,0.000,0.000,0.000,0.000,0.000,0.000,0.000,0.000,0.000,0.000,3.142,6.282,0.000,1.004,1.569,1.569,4.085,6.281,1.199,4.712,0.000,0.000,6.948,6.562,0.990,4.818,4.667,4.756,5.281,4.711,4.711,2.198,6.282,5.083,1.570,0.000,0.000,7.601,6.632,0.990,4.818,4.669,4.755,
32.740,38.160,7.329,6.090,1.677,1.012,6.266,2.932,3.835,0.000,1.363,1.652,0.000,2.485,1.706,0.000,3.108,0.000,3.142,0.000,0.000,0.000,0.000,0.000,0.000,0.000,0.000,0.000,0.000,0.000,3.142,6.282,0.000,1.004,1.569,1.569,4.085,6.281,1.199,4.712,0.000,0.000,6.940,6.641,0.990,4.819,4.668,4.756,5.281,4.711,4.711,2.198,6.282,5.083,1.570,0.000,0.000,7.592,6.711,0.990,4.819,4.669,4.755,
32.840,38.260,7.318,6.189,1.677,1.012,6.266,2.832,3.861,0.000,1.590,1.724,0.000,2.500,1.716,0.000,3.116,0.000,3.142,0.000,0.000,0.000,0.000,0.000,0.000,0.000,0.000,0.000,0.000,0.000,3.142,6.282,0.000,1.004,1.569,1.569,4.085,6.281,1.199,4.712,0.000,0.000,6.929,6.740,0.990,4.819,4.668,4.756,5.281,4.711,4.711,2.198,6.282,5.083,1.570,0.000,0.000,7.581,6.810,0.990,4.819,4.670,4.754,
32.940,38.360,7.306,6.308,1.670,1.012,5.917,2.710,3.675,0.000,1.891,1.688,0.000,2.538,1.732,0.000,3.093,0.000,3.142,0.000,0.000,0.000,0.000,0.000,0.000,0.000,0.000,0.000,0.000,0.000,3.142,6.281,0.001,1.004,1.568,1.567,4.084,6.281,1.199,4.712,0.000,0.000,6.918,6.861,0.990,4.815,4.669,4.754,5.281,4.710,4.709,2.197,6.282,5.083,1.570,0.000,0.000,7.571,6.927,0.990,4.815,4.661,4.762,
33.031,38.451,7.297,6.407,1.595,1.013,5.007,2.595,3.316,0.000,1.879,1.470,0.000,2.793,1.774,0.000,2.886,0.000,3.142,0.000,0.000,0.000,0.000,0.000,0.000,0.000,0.000,0.000,0.000,0.000,3.142,6.280,0.001,1.005,1.568,1.565,4.084,6.281,1.199,4.711,0.000,0.000,6.951,6.988,0.990,4.741,4.549,4.874,5.282,4.710,4.708,2.197,6.282,5.083,1.570,0.000,0.000,7.608,7.005,0.990,4.740,4.545,4.879,
