deveshdatwani/Gopher/Assets/Data/06-21 17-41-42/Obstacle Handling_robot_value.csv
game_time,true_time,x,y,az,vx,vaz,dis_to_obs_0,dis_to_obs_36,dis_to_obs_72,dis_to_obs_108,dis_to_obs_144,dis_to_obs_180,dis_to_obs_-144,dis_to_obs_-108,dis_to_obs_-72,dis_to_obs_-36,dis_to_min_obs,direction_to_min_obs,dis_to_human_0,dis_to_human_36,dis_to_human_72,dis_to_human_108,dis_to_human_144,dis_to_human_180,dis_to_human_-144,dis_to_human_-108,dis_to_human_-72,dis_to_human_-36,dis_to_min_human,direction_to_min_human,main_cam_yaw,main_cam_pitch,left_joint_1,left_joint_2,left_joint_3,left_joint_4,left_joint_5,left_joint_6,left_joint_7,left_joint_gripper,left_is_grasping,left_end_x,left_end_y,left_end_z,left_end_ax,left_end_ay,left_end_az,right_joint_1,right_joint_2,right_joint_3,right_joint_4,right_joint_5,right_joint_6,right_joint_7,right_joint_gripper,right_is_grasping,right_end_x,right_end_y,right_end_z,right_end_ax,right_end_ay,right_end_az,
53.216,103.649,0.991,-10.006,1.599,1.392,0.015,0.000,0.000,0.000,0.000,0.000,0.000,0.000,0.000,0.000,0.000,0.000,3.142,0.000,0.000,0.000,0.000,0.000,0.000,0.000,0.000,0.000,0.000,0.000,3.142,6.283,0.015,1.216,1.571,1.571,4.112,0.003,1.176,4.711,0.001,0.000,0.646,-9.448,-1.687,4.935,3.279,6.142,5.069,4.712,4.712,2.171,6.280,5.107,1.573,0.000,0.000,1.303,-9.429,-1.686,4.932,3.261,6.161,
53.320,103.753,0.988,-9.859,1.601,1.493,0.015,0.000,0.000,0.000,0.000,0.000,0.000,0.000,0.000,0.000,0.000,0.000,3.142,0.000,0.000,0.000,0.000,0.000,0.000,0.000,0.000,0.000,0.000,0.000,3.142,6.283,0.015,1.216,1.571,1.571,4.112,0.003,1.176,4.711,0.001,0.000,0.643,-9.302,-1.774,4.936,3.285,6.136,5.069,4.712,4.712,2.171,6.280,5.107,1.573,0.000,0.000,1.299,-9.282,-1.773,4.933,3.267,6.155,
53.420,103.853,0.986,-9.703,1.602,1.593,0.014,0.000,0.000,0.000,0.000,0.000,0.000,0.000,0.000,0.000,0.000,0.000,3.142,0.000,0.000,0.000,0.000,0.000,0.000,0.000,0.000,0.000,0.000,0.000,3.142,6.283,0.015,1.216,1.571,1.571,4.112,0.003,1.176,4.711,0.001,0.000,0.640,-9.146,-1.860,4.936,3.291,6.130,5.068,4.712,4.712,2.171,6.280,5.107,1.573,0.000,0.000,1.296,-9.125,-1.859,4.934,3.273,6.149,
53.520,103.953,0.983,-9.536,1.603,1.693,0.014,0.000,0.000,0.000,0.000,0.000,0.000,0.000,0.000,0.000,0.000,0.000,3.142,0.000,0.000,0.000,0.000,0.000,0.000,0.000,0.000,0.000,0.000,0.000,3.142,6.283,0.015,1.216,1.571,1.571,4.112,0.003,1.176,4.711,0.001,0.000,0.636,-8.980,-1.945,4.936,3.297,6.124,5.068,4.712,4.712,2.171,6.280,5.107,1.573,0.000,0.000,1.292,-8.958,-1.944,4.934,3.279,6.143,
53.620,104.053,0.979,-9.359,1.605,1.792,0.014,0.000,0.000,0.000,0.000,0.000,0.000,0.000,0.000,0.000,0.000,0.000,3.142,0.000,0.000,0.000,0.000,0.000,0.000,0.000,0.000,0.000,0.000,0.000,3.142,6.283,0.015,1.216,1.571,1.571,4.112,0.003,1.176,4.711,0.001,0.000,0.632,-8.804,-2.030,4.937,3.303,6.118,5.068,4.712,4.712,2.171,6.280,5.107,1.573,0.000,0.000,1.288,-8.781,-2.029,4.934,3.285,6.137,
53.720,104.153,0.976,-9.173,1.606,1.891,0.013,0.000,0.000,0.000,0.000,0.000,0.000,0.000,0.000,0.000,0.000,0.000,3.142,0.000,0.000,0.000,0.000,0.000,0.000,0.000,0.000,0.000,0.000,0.000,3.142,6.283,0.015,1.216,1.571,1.571,4.112,0.003,1.176,4.711,0.001,0.000,0.627,-8.618,-2.115,4.937,3.308,6.112,5.068,4.712,4.712,2.171,6.280,5.107,1.573,0.000,0.000,1.283,-8.594,-2.114,4.934,3.291,6.131,
53.820,104.253,0.974,-9.111,1.607,-0.020,0.052,0.000,0.000,0.000,0.000,0.000,0.000,0.000,0.000,0.000,0.000,0.000,3.142,0.000,0.000,0.000,0.000,0.000,0.000,0.000,0.000,0.000,0.000,0.000,3.142,0.000,0.016,1.193,1.571,1.571,4.114,0.003,1.175,4.711,0.001,0.000,0.625,-8.551,-2.123,4.915,3.335,6.086,5.098,4.711,4.711,2.169,6.280,5.108,1.572,0.000,0.000,1.280,-8.526,-2.118,4.907,3.324,6.097,
53.915,104.348,0.974,-9.111,1.607,-0.009,0.016,0.000,0.000,0.000,0.000,0.000,0.000,0.000,0.000,0.000,0.000,0.000,3.142,0.000,0.000,0.000,0.000,0.000,0.000,0.000,0.000,0.000,0.000,0.000,3.142,6.283,0.015,1.199,1.571,1.571,4.111,0.003,1.176,4.711,0.001,0.000,0.625,-8.553,-2.128,4.918,3.328,6.093,5.091,4.712,4.712,2.172,6.280,5.107,1.573,0.000,0.000,1.281,-8.528,-2.123,4.911,3.315,6.107,
54.020,104.453,0.974,-9.111,1.607,-0.027,0.059,0.000,0.000,0.000,0.000,0.000,0.000,0.000,0.000,0.000,0.000,0.000,3.142,0.000,0.000,0.000,0.000,0.000,0.000,0.000,0.000,0.000,0.000,0.000,3.142,0.000,0.015,1.205,1.571,1.571,4.112,0.003,1.176,4.711,0.001,0.000,0.625,-8.554,-2.134,4.925,3.321,6.099,5.086,4.712,4.712,2.172,6.280,5.107,1.573,0.000,0.000,1.281,-8.529,-2.129,4.917,3.308,6.114,
54.120,104.553,0.974,-9.111,1.607,-0.067,6.251,0.000,0.000,0.000,0.000,0.000,0.000,0.000,0.000,0.000,0.000,0.000,3.142,0.000,0.000,0.000,0.000,0.000,0.000,0.000,0.000,0.000,0.000,0.000,3.142,0.000,0.015,1.204,1.572,1.571,4.113,0.003,1.176,4.711,0.001,0.000,0.625,-8.553,-2.135,4.925,3.320,6.100,5.081,4.712,4.712,2.171,6.281,5.107,1.573,0.000,0.000,1.281,-8.529,-2.133,4.921,3.302,6.120,
54.220,104.653,0.974,-9.111,1.606,0.003,0.228,0.000,0.000,0.000,0.000,0.000,0.000,0.000,0.000,0.000,0.000,0.000,3.142,0.000,0.000,0.000,0.000,0.000,0.000,0.000,0.000,0.000,0.000,0.000,3.142,6.283,0.015,1.199,1.571,1.571,4.112,0.003,1.176,4.710,0.001,0.000,0.625,-8.552,-2.132,4.920,3.323,6.097,5.076,4.711,4.711,2.171,6.280,5.107,1.572,0.000,0.000,1.281,-8.531,-2.137,4.927,3.297,6.125,
54.320,104.753,0.974,-9.111,1.607,-0.012,6.251,0.000,0.000,0.000,0.000,0.000,0.000,0.000,0.000,0.000,0.000,0.000,3.142,0.000,0.000,0.000,0.000,0.000,0.000,0.000,0.000,0.000,0.000,0.000,3.142,6.283,0.015,1.202,1.571,1.571,4.111,0.003,1.176,4.711,0.001,0.000,0.625,-8.553,-2.134,4.922,3.324,6.097,5.080,4.712,4.712,2.171,6.280,5.107,1.573,0.000,0.000,1.281,-8.530,-2.135,4.923,3.303,6.119,
54.420,104.853,0.974,-9.111,1.606,-0.019,0.052,0.000,0.000,0.000,0.000,0.000,0.000,0.000,0.000,0.000,0.000,0.000,3.142,0.000,0.000,0.000,0.000,0.000,0.000,0.000,0.000,0.000,0.000,0.000,3.142,6.283,0.015,1.203,1.571,1.571,4.112,0.003,1.176,4.711,0.001,0.000,0.625,-8.553,-2.134,4.923,3.321,6.099,5.077,4.712,4.712,2.171,6.280,5.107,1.573,0.000,0.000,1.281,-8.531,-2.137,4.927,3.298,6.123,
54.520,104.953,0.974,-9.111,1.606,-0.018,0.079,0.000,0.000,0.000,0.000,0.000,0.000,0.000,0.000,0.000,0.000,0.000,3.142,0.000,0.000,0.000,0.000,0.000,0.000,0.000,0.000,0.000,0.000,0.000,3.142,0.000,0.015,1.201,1.571,1.571,4.112,0.003,1.176,4.711,0.001,0.000,0.626,-8.553,-2.134,4.921,3.320,6.101,5.073,4.712,4.712,2.171,6.280,5.107,1.573,0.000,0.000,1.282,-8.531,-2.139,4.930,3.293,6.129,
54.605,105.038,0.974,-9.111,1.606,-0.013,6.232,0.000,0.000,0.000,0.000,0.000,0.000,0.000,0.000,0.000,0.000,0.000,3.142,0.000,0.000,0.000,0.000,0.000,0.000,0.000,0.000,0.000,0.000,0.000,3.142,6.283,0.015,1.206,1.571,1.571,4.111,0.003,1.176,4.711,0.001,0.000,0.626,-8.554,-2.136,4.925,3.316,6.105,5.076,4.712,4.712,2.171,6.280,5.107,1.573,0.000,0.000,1.282,-8.531,-2.138,4.927,3.295,6.127,
54.720,105.153,0.974,-9.111,1.606,-0.019,0.060,0.000,0.000,0.000,0.000,0.000,0.000,0.000,0.000,0.000,0.000,0.000,3.142,0.000,0.000,0.000,0.000,0.000,0.000,0.000,0.000,0.000,0.000,0.000,3.142,6.283,0.015,1.210,1.571,1.571,4.112,0.003,1.176,4.711,0.001,0.000,0.626,-8.554,-2.139,4.930,3.313,6.107,5.079,4.712,4.712,2.171,6.280,5.107,1.573,0.000,0.000,1.282,-8.530,-2.135,4.924,3.298,6.124,
54.820,105.253,0.974,-9.111,1.606,-0.021,6.269,0.000,0.000,0.000,0.000,0.000,0.000,0.000,0.000,0.000,0.000,0.000,3.142,0.000,0.000,0.000,0.000,0.000,0.000,0.000,0.000,0.000,0.000,0.000,3.142,0.001,0.015,1.205,1.572,1.571,4.113,0.004,1.176,4.711,0.001,0.000,0.626,-8.553,-2.136,4.926,3.316,6.104,5.075,4.712,4.712,2.171,6.281,5.107,1.573,0.000,0.000,1.282,-8.531,-2.138,4.927,3.295,6.127,
54.920,105.353,0.974,-9.111,1.606,-0.048,0.018,0.000,0.000,0.000,0.000,0.000,0.000,0.000,0.000,0.000,0.000,0.000,3.142,0.000,0.000,0.000,0.000,0.000,0.000,0.000,0.000,0.000,0.000,0.000,3.142,6.283,0.015,1.211,1.571,1.571,4.112,0.003,1.176,4.711,0.001,0.000,0.626,-8.554,-2.139,4.931,3.311,6.109,5.081,4.712,4.712,2.170,6.280,5.107,1.573,0.000,0.000,1.282,-8.529,-2.134,4.922,3.297,6.124,
55.020,105.453,0.974,-9.111,1.606,-0.043,0.096,0.000,0.000,0.000,0.000,0.000,0.000,0.000,0.000,0.000,0.000,0.000,3.142,0.000,0.000,0.000,0.000,0.000,0.000,0.000,0.000,0.000,0.000,0.000,3.142,0.000,0.015,1.209,1.571,1.571,4.113,0.004,1.176,4.711,0.001,0.000,0.625,-8.554,-2.139,4.931,3.317,6.103,5.082,4.712,4.711,2.171,6.281,5.107,1.573,0.000,0.000,1.281,-8.529,-2.133,4.921,3.304,6.117,
55.120,105.553,0.974,-9.111,1.607,-0.021,0.070,0.000,0.000,0.000,0.000,0.000,0.000,0.000,0.000,0.000,0.000,0.000,3.142,0.000,0.000,0.000,0.000,0.000,0.000,0.000,0.000,0.000,0.000,0.000,3.142,0.000,0.015,1.208,1.571,1.571,4.112,0.003,1.176,4.711,0.001,0.000,0.625,-8.554,-2.138,4.929,3.316,6.104,5.081,4.712,4.712,2.171,6.280,5.107,1.573,0.000,0.000,1.281,-8.529,-2.134,4.922,3.302,6.119,
55.220,105.653,0.974,-9.111,1.606,-0.069,6.248,0.000,0.000,0.000,0.000,0.000,0.000,0.000,0.000,0.000,0.000,0.000,3.142,0.000,0.000,0.000,0.000,0.000,0.000,0.000,0.000,0.000,0.000,0.000,3.142,0.000,0.015,1.204,1.572,1.571,4.113,0.003,1.176,4.711,0.001,0.000,0.625,-8.553,-2.135,4.925,3.319,6.101,5.076,4.712,4.712,2.171,6.281,5.107,1.573,0.000,0.000,1.282,-8.530,-2.137,4.927,3.297,6.125,
55.320,105.753,0.974,-9.111,1.606,-0.008,0.126,0.000,0.000,0.000,0.000,0.000,0.000,0.000,0.000,0.000,0.000,0.000,3.142,0.000,0.000,0.000,0.000,0.000,0.000,0.000,0.000,0.000,0.000,0.000,3.142,6.283,0.015,1.198,1.571,1.571,4.112,0.003,1.176,4.711,0.001,0.000,0.625,-8.552,-2.131,4.918,3.325,6.095,5.072,4.712,4.712,2.171,6.280,5.107,1.573,0.000,0.000,1.282,-8.531,-2.139,4.931,3.295,6.127,
55.420,105.853,0.974,-9.111,1.607,-0.010,6.259,0.000,0.000,0.000,0.000,0.000,0.000,0.000,0.000,0.000,0.000,0.000,3.142,0.000,0.000,0.000,0.000,0.000,0.000,0.000,0.000,0.000,0.000,0.000,3.142,6.283,0.015,1.201,1.571,1.571,4.111,0.003,1.176,4.711,0.001,0.000,0.625,-8.553,-2.133,4.921,3.324,6.096,5.079,4.712,4.712,2.171,6.280,5.107,1.573,0.000,0.000,1.281,-8.530,-2.135,4.924,3.302,6.120,
55.520,105.953,0.974,-9.111,1.608,-0.007,0.006,0.000,0.000,0.000,0.000,0.000,0.000,0.000,0.000,0.000,0.000,0.000,3.142,0.000,0.000,0.000,0.000,0.000,0.000,0.000,0.000,0.000,0.000,0.000,3.142,6.283,0.015,1.204,1.571,1.571,4.112,0.003,1.176,4.711,0.001,0.000,0.625,-8.554,-2.135,4.924,3.323,6.097,5.083,4.712,4.712,2.171,6.280,5.107,1.573,0.000,0.000,1.281,-8.529,-2.133,4.920,3.308,6.114,
55.620,106.053,0.974,-9.111,1.608,-0.017,0.026,0.000,0.000,0.000,0.000,0.000,0.000,0.000,0.000,0.000,0.000,0.000,3.142,0.000,0.000,0.000,0.000,0.000,0.000,0.000,0.000,0.000,0.000,0.000,3.142,6.283,0.015,1.204,1.571,1.571,4.112,0.003,1.176,4.711,0.001,0.000,0.625,-8.554,-2.135,4.924,3.327,6.093,5.086,4.712,4.712,2.171,6.280,5.107,1.573,0.000,0.000,1.281,-8.528,-2.131,4.917,3.314,6.108,
55.706,106.139,0.974,-9.111,1.608,-0.017,0.075,0.000,0.000,0.000,0.000,0.000,0.000,0.000,0.000,0.000,0.000,0.000,3.142,0.000,0.000,0.000,0.000,0.000,0.000,0.000,0.000,0.000,0.000,0.000,3.142,0.000,0.015,1.205,1.571,1.571,4.112,0.003,1.176,4.711,0.001,0.000,0.625,-8.554,-2.136,4.926,3.325,6.096,5.081,4.712,4.712,2.171,6.280,5.107,1.573,0.000,0.000,1.281,-8.529,-2.134,4.922,3.307,6.114,
55.820,106.253,0.974,-9.111,1.607,-0.014,0.185,0.000,0.000,0.000,0.000,0.000,0.000,0.000,0.000,0.000,0.000,0.000,3.142,0.000,0.000,0.000,0.000,0.000,0.000,0.000,0.000,0.000,0.000,0.000,3.142,6.283,0.015,1.202,1.572,1.571,4.112,0.004,1.176,4.711,0.001,0.000,0.625,-8.554,-2.133,4.922,3.326,6.094,5.079,4.712,4.712,2.171,6.281,5.108,1.573,0.000,0.000,1.281,-8.530,-2.135,4.924,3.305,6.117,
55.920,106.353,0.974,-9.111,1.607,-0.054,6.237,0.000,0.000,0.000,0.000,0.000,0.000,0.000,0.000,0.000,0.000,0.000,3.142,0.000,0.000,0.000,0.000,0.000,0.000,0.000,0.000,0.000,0.000,0.000,3.142,6.283,0.015,1.205,1.571,1.571,4.112,0.003,1.176,4.711,0.001,0.000,0.625,-8.554,-2.136,4.925,3.323,6.098,5.080,4.712,4.712,2.171,6.280,5.107,1.573,0.000,0.000,1.281,-8.530,-2.135,4.923,3.304,6.117,
56.020,106.453,0.974,-9.111,1.607,-0.066,6.273,0.000,0.000,0.000,0.000,0.000,0.000,0.000,0.000,0.000,0.000,0.000,3.142,0.000,0.000,0.000,0.000,0.000,0.000,0.000,0.000,0.000,0.000,0.000,3.142,0.000,0.015,1.202,1.571,1.571,4.113,0.003,1.176,4.711,0.001,0.000,0.625,-8.553,-2.134,4.924,3.324,6.096,5.075,4.712,4.712,2.171,6.281,5.107,1.573,0.000,0.000,1.281,-8.531,-2.137,4.929,3.299,6.122,
56.120,106.553,0.974,-9.111,1.607,-0.062,0.033,0.000,0.000,0.000,0.000,0.000,0.000,0.000,0.000,0.000,0.000,0.000,3.142,0.000,0.000,0.000,0.000,0.000,0.000,0.000,0.000,0.000,0.000,0.000,3.142,0.000,0.015,1.203,1.571,1.571,4.113,0.003,1.176,4.711,0.001,0.000,0.625,-8.553,-2.135,4.924,3.322,6.099,5.072,4.712,4.712,2.170,6.280,5.107,1.572,0.000,0.000,1.281,-8.531,-2.140,4.932,3.295,6.127,
56.220,106.653,0.974,-9.111,1.606,-0.020,0.051,0.000,0.000,0.000,0.000,0.000,0.000,0.000,0.000,0.000,0.000,0.000,3.142,0.000,0.000,0.000,0.000,0.000,0.000,0.000,0.000,0.000,0.000,0.000,3.142,6.283,0.015,1.201,1.571,1.571,4.112,0.003,1.176,4.711,0.001,0.000,0.625,-8.553,-2.134,4.922,3.324,6.096,5.075,4.712,4.711,2.171,6.280,5.107,1.573,0.000,0.000,1.281,-8.531,-2.138,4.929,3.298,6.123,
56.320,106.753,0.974,-9.111,1.606,-0.019,0.067,0.000,0.000,0.000,0.000,0.000,0.000,0.000,0.000,0.000,0.000,0.000,3.142,0.000,0.000,0.000,0.000,0.000,0.000,0.000,0.000,0.000,0.000,0.000,3.142,6.283,0.015,1.202,1.571,1.571,4.112,0.003,1.176,4.711,0.001,0.000,0.625,-8.553,-2.135,4.923,3.321,6.100,5.073,4.712,4.711,2.171,6.280,5.107,1.573,0.000,0.000,1.282,-8.531,-2.139,4.930,3.295,6.127,
56.408,106.841,0.974,-9.111,1.606,-0.052,0.221,0.000,0.000,0.000,0.000,0.000,0.000,0.000,0.000,0.000,0.000,0.000,3.142,0.000,0.000,0.000,0.000,0.000,0.000,0.000,0.000,0.000,0.000,0.000,3.142,6.283,0.015,1.205,1.572,1.571,4.112,0.003,1.176,4.711,0.001,0.000,0.626,-8.554,-2.136,4.925,3.316,6.104,5.077,4.712,4.712,2.169,6.280,5.107,1.573,0.000,0.000,1.282,-8.530,-2.137,4.927,3.294,6.127,
56.520,106.953,0.974,-9.111,1.606,-0.028,0.083,0.000,0.000,0.000,0.000,0.000,0.000,0.000,0.000,0.000,0.000,0.000,3.142,0.000,0.000,0.000,0.000,0.000,0.000,0.000,0.000,0.000,0.000,0.000,3.142,6.283,0.015,1.204,1.571,1.571,4.112,0.003,1.176,4.711,0.001,0.000,0.626,-8.554,-2.136,4.925,3.318,6.102,5.077,4.712,4.712,2.171,6.280,5.107,1.573,0.000,0.000,1.282,-8.531,-2.137,4.926,3.297,6.125,
56.620,107.053,0.974,-9.111,1.606,-0.008,0.160,0.000,0.000,0.000,0.000,0.000,0.000,0.000,0.000,0.000,0.000,0.000,3.142,0.000,0.000,0.000,0.000,0.000,0.000,0.000,0.000,0.000,0.000,0.000,3.142,0.000,0.015,1.202,1.571,1.571,4.112,0.003,1.176,4.711,0.001,0.000,0.626,-8.553,-2.134,4.922,3.318,6.102,5.074,4.712,4.712,2.171,6.280,5.107,1.573,0.000,0.000,1.282,-8.532,-2.139,4.929,3.293,6.129,
56.720,107.228,0.974,-9.111,1.606,-0.046,6.238,0.000,0.000,0.000,0.000,0.000,0.000,0.000,0.000,0.000,0.000,0.000,3.142,0.000,0.000,0.000,0.000,0.000,0.000,0.000,0.000,0.000,0.000,0.000,3.142,6.283,0.015,1.205,1.571,1.571,4.112,0.003,1.176,4.711,0.001,0.000,0.626,-8.554,-2.135,4.926,3.316,6.104,5.079,4.711,4.711,2.171,6.280,5.107,1.573,0.000,0.000,1.282,-8.531,-2.135,4.925,3.297,6.125,
56.820,107.328,0.974,-9.111,1.606,-0.024,0.076,0.000,0.000,0.000,0.000,0.000,0.000,0.000,0.000,0.000,0.000,0.000,3.142,0.000,0.000,0.000,0.000,0.000,0.000,0.000,0.000,0.000,0.000,0.000,3.142,0.000,0.015,1.201,1.571,1.571,4.113,0.003,1.176,4.711,0.001,0.000,0.626,-8.553,-2.133,4.922,3.321,6.100,5.075,4.712,4.711,2.171,6.280,5.107,1.573,0.000,0.000,1.282,-8.531,-2.137,4.928,3.295,6.127,
56.920,107.428,0.974,-9.111,1.605,0.000,0.221,0.000,0.000,0.000,0.000,0.000,0.000,0.000,0.000,0.000,0.000,0.000,3.142,0.000,0.000,0.000,0.000,0.000,0.000,0.000,0.000,0.000,0.000,0.000,3.142,6.283,0.015,1.199,1.571,1.571,4.113,0.003,1.176,4.710,0.001,0.000,0.626,-8.552,-2.132,4.919,3.320,6.101,5.073,4.711,4.711,2.171,6.280,5.107,1.572,0.000,0.000,1.282,-8.532,-2.139,4.930,3.291,6.131,
57.020,107.528,0.974,-9.111,1.606,-0.019,0.083,0.000,0.000,0.000,0.000,0.000,0.000,0.000,0.000,0.000,0.000,0.000,3.142,0.000,0.000,0.000,0.000,0.000,0.000,0.000,0.000,0.000,0.000,0.000,3.142,6.283,0.015,1.204,1.571,1.571,4.112,0.003,1.176,4.711,0.001,0.000,0.626,-8.553,-2.135,4.924,3.318,6.102,5.070,4.712,4.711,2.170,6.280,5.107,1.573,0.000,0.000,1.282,-8.532,-2.141,4.933,3.291,6.130,
57.120,107.628,0.974,-9.111,1.606,-0.050,0.114,0.000,0.000,0.000,0.000,0.000,0.000,0.000,0.000,0.000,0.000,0.000,3.142,0.000,0.000,0.000,0.000,0.000,0.000,0.000,0.000,0.000,0.000,0.000,3.142,6.283,0.015,1.206,1.571,1.571,4.112,0.003,1.176,4.711,0.001,0.000,0.626,-8.554,-2.136,4.926,3.315,6.106,5.075,4.712,4.712,2.170,6.280,5.107,1.573,0.000,0.000,1.282,-8.531,-2.138,4.929,3.292,6.129,
57.220,107.728,0.974,-9.111,1.606,-0.049,0.101,0.000,0.000,0.000,0.000,0.000,0.000,0.000,0.000,0.000,0.000,0.000,3.142,0.000,0.000,0.000,0.000,0.000,0.000,0.000,0.000,0.000,0.000,0.000,3.142,6.283,0.015,1.205,1.571,1.571,4.112,0.003,1.176,4.711,0.001,0.000,0.626,-8.554,-2.136,4.926,3.318,6.103,5.081,4.712,4.711,2.171,6.280,5.107,1.573,0.000,0.000,1.282,-8.530,-2.134,4.922,3.300,6.122,
57.320,107.828,0.974,-9.111,1.605,-0.023,6.258,0.000,0.000,0.000,0.000,0.000,0.000,0.000,0.000,0.000,0.000,0.000,3.142,0.000,0.000,0.000,0.000,0.000,0.000,0.000,0.000,0.000,0.000,0.000,3.142,0.000,0.015,1.201,1.572,1.571,4.112,0.004,1.176,4.711,0.001,0.000,0.626,-8.553,-2.134,4.921,3.318,6.102,5.075,4.712,4.712,2.171,6.281,5.107,1.573,0.000,0.000,1.282,-8.532,-2.138,4.927,3.293,6.129,
57.400,107.908,0.974,-9.111,1.605,0.004,0.189,0.000,0.000,0.000,0.000,0.000,0.000,0.000,0.000,0.000,0.000,0.000,3.142,0.000,0.000,0.000,0.000,0.000,0.000,0.000,0.000,0.000,0.000,0.000,3.142,6.283,0.015,1.196,1.571,1.571,4.112,0.003,1.176,4.710,0.001,0.000,0.626,-8.552,-2.131,4.916,3.320,6.101,5.073,4.712,4.711,2.170,6.280,5.107,1.573,0.000,0.000,1.282,-8.532,-2.139,4.930,3.289,6.133,
57.520,108.028,0.974,-9.111,1.605,-0.022,0.048,0.000,0.000,0.000,0.000,0.000,0.000,0.000,0.000,0.000,0.000,0.000,3.142,0.000,0.000,0.000,0.000,0.000,0.000,0.000,0.000,0.000,0.000,0.000,3.142,0.000,0.015,1.196,1.571,1.571,4.112,0.003,1.176,4.711,0.001,0.000,0.626,-8.552,-2.131,4.917,3.319,6.101,5.070,4.712,4.712,2.171,6.281,5.107,1.573,0.000,0.000,1.283,-8.533,-2.141,4.933,3.286,6.136,
57.620,108.128,0.974,-9.111,1.605,-0.033,0.035,0.000,0.000,0.000,0.000,0.000,0.000,0.000,0.000,0.000,0.000,0.000,3.142,0.000,0.000,0.000,0.000,0.000,0.000,0.000,0.000,0.000,0.000,0.000,3.142,0.000,0.015,1.201,1.571,1.571,4.112,0.003,1.176,4.710,0.001,0.000,0.626,-8.552,-2.133,4.922,3.315,6.106,5.068,4.711,4.711,2.170,6.280,5.107,1.572,0.000,0.000,1.282,-8.533,-2.142,4.935,3.284,6.137,
57.720,108.228,0.974,-9.111,1.605,-0.050,0.010,0.000,0.000,0.000,0.000,0.000,0.000,0.000,0.000,0.000,0.000,0.000,3.142,0.000,0.000,0.000,0.000,0.000,0.000,0.000,0.000,0.000,0.000,0.000,3.142,6.283,0.015,1.209,1.571,1.571,4.112,0.003,1.176,4.711,0.001,0.000,0.626,-8.554,-2.138,4.928,3.307,6.113,5.079,4.712,4.712,2.170,6.280,5.107,1.573,0.000,0.000,1.283,-8.531,-2.136,4.925,3.290,6.132,
57.820,108.328,0.974,-9.111,1.605,-0.022,0.098,0.000,0.000,0.000,0.000,0.000,0.000,0.000,0.000,0.000,0.000,0.000,3.142,0.000,0.000,0.000,0.000,0.000,0.000,0.000,0.000,0.000,0.000,0.000,3.142,0.000,0.015,1.209,1.571,1.571,4.113,0.003,1.176,4.711,0.001,0.000,0.626,-8.554,-2.139,4.930,3.308,6.113,5.076,4.712,4.711,2.171,6.280,5.107,1.573,0.000,0.000,1.282,-8.531,-2.137,4.927,3.290,6.132,
57.920,108.428,0.974,-9.111,1.605,-0.012,6.269,0.000,0.000,0.000,0.000,0.000,0.000,0.000,0.000,0.000,0.000,0.000,3.142,0.000,0.000,0.000,0.000,0.000,0.000,0.000,0.000,0.000,0.000,0.000,3.142,6.283,0.015,1.211,1.571,1.571,4.112,0.003,1.176,4.711,0.001,0.000,0.626,-8.555,-2.139,4.931,3.306,6.115,5.077,4.712,4.712,2.171,6.280,5.107,1.573,0.000,0.000,1.282,-8.531,-2.136,4.926,3.291,6.131,
58.020,108.528,0.974,-9.111,1.605,-0.014,6.250,0.000,0.000,0.000,0.000,0.000,0.000,0.000,0.000,0.000,0.000,0.000,3.142,0.000,0.000,0.000,0.000,0.000,0.000,0.000,0.000,0.000,0.000,0.000,3.142,6.283,0.015,1.212,1.571,1.571,4.112,0.003,1.176,4.711,0.001,0.000,0.626,-8.555,-2.140,4.932,3.305,6.115,5.084,4.712,4.712,2.171,6.280,5.107,1.573,0.000,0.000,1.282,-8.530,-2.132,4.919,3.296,6.126,
58.120,108.628,0.974,-9.111,1.606,-0.010,6.255,0.000,0.000,0.000,0.000,0.000,0.000,0.000,0.000,0.000,0.000,0.000,3.142,0.000,0.000,0.000,0.000,0.000,0.000,0.000,0.000,0.000,0.000,0.000,3.142,6.283,0.015,1.213,1.571,1.572,4.112,0.003,1.176,4.711,0.001,0.000,0.626,-8.555,-2.141,4.933,3.307,6.114,5.088,4.712,4.712,2.171,6.280,5.107,1.573,0.000,0.000,1.282,-8.529,-2.130,4.914,3.302,6.120,
58.220,108.728,0.974,-9.111,1.606,-0.010,0.021,0.000,0.000,0.000,0.000,0.000,0.000,0.000,0.000,0.000,0.000,0.000,3.142,0.000,0.000,0.000,0.000,0.000,0.000,0.000,0.000,0.000,0.000,0.000,3.142,6.283,0.015,1.211,1.571,1.571,4.112,0.003,1.176,4.711,0.001,0.000,0.626,-8.555,-2.140,4.932,3.313,6.108,5.087,4.712,4.712,2.172,6.280,5.107,1.573,0.000,0.000,1.282,-8.529,-2.130,4.915,3.306,6.116,
58.320,108.828,0.974,-9.111,1.606,-0.019,0.058,0.000,0.000,0.000,0.000,0.000,0.000,0.000,0.000,0.000,0.000,0.000,3.142,0.000,0.000,0.000,0.000,0.000,0.000,0.000,0.000,0.000,0.000,0.000,3.142,0.000,0.015,1.205,1.571,1.571,4.112,0.003,1.176,4.711,0.001,0.000,0.626,-8.554,-2.136,4.926,3.317,6.103,5.082,4.712,4.712,2.171,6.280,5.107,1.573,0.000,0.000,1.282,-8.530,-2.133,4.921,3.301,6.121,
58.420,108.928,0.974,-9.111,1.606,-0.055,6.273,0.000,0.000,0.000,0.000,0.000,0.000,0.000,0.000,0.000,0.000,0.000,3.142,0.000,0.000,0.000,0.000,0.000,0.000,0.000,0.000,0.000,0.000,0.000,3.142,6.283,0.015,1.210,1.571,1.571,4.112,0.003,1.176,4.711,0.001,0.000,0.626,-8.555,-2.139,4.930,3.313,6.108,5.081,4.712,4.712,2.171,6.280,5.107,1.573,0.000,0.000,1.282,-8.530,-2.134,4.922,3.299,6.123,
58.516,109.024,0.974,-9.111,1.606,-0.013,0.123,0.000,0.000,0.000,0.000,0.000,0.000,0.000,0.000,0.000,0.000,0.000,3.142,0.000,0.000,0.000,0.000,0.000,0.000,0.000,0.000,0.000,0.000,0.000,3.142,6.283,0.015,1.204,1.571,1.571,4.112,0.003,1.176,4.711,0.001,0.000,0.626,-8.553,-2.135,4.924,3.319,6.101,5.081,4.712,4.712,2.172,6.280,5.107,1.573,0.000,0.000,1.282,-8.530,-2.134,4.922,3.301,6.121,
58.620,109.128,0.974,-9.111,1.606,-0.057,0.003,0.000,0.000,0.000,0.000,0.000,0.000,0.000,0.000,0.000,0.000,0.000,3.142,0.000,0.000,0.000,0.000,0.000,0.000,0.000,0.000,0.000,0.000,0.000,3.142,6.283,0.015,1.209,1.571,1.571,4.113,0.003,1.176,4.711,0.001,0.000,0.626,-8.554,-2.138,4.930,3.315,6.105,5.076,4.712,4.712,2.171,6.280,5.107,1.573,0.000,0.000,1.282,-8.531,-2.137,4.927,3.297,6.125,
58.720,109.228,0.974,-9.111,1.606,-0.055,6.266,0.000,0.000,0.000,0.000,0.000,0.000,0.000,0.000,0.000,0.000,0.000,3.142,0.000,0.000,0.000,0.000,0.000,0.000,0.000,0.000,0.000,0.000,0.000,3.142,6.283,0.015,1.211,1.571,1.571,4.112,0.003,1.176,4.711,0.001,0.000,0.626,-8.555,-2.140,4.932,3.312,6.108,5.082,4.712,4.712,2.171,6.280,5.107,1.573,0.000,0.000,1.282,-8.530,-2.134,4.921,3.300,6.121,
58.820,109.328,0.974,-9.111,1.606,-0.028,0.076,0.000,0.000,0.000,0.000,0.000,0.000,0.000,0.000,0.000,0.000,0.000,3.142,0.000,0.000,0.000,0.000,0.000,0.000,0.000,0.000,0.000,0.000,0.000,3.142,0.000,0.015,1.202,1.571,1.571,4.112,0.003,1.176,4.711,0.001,0.000,0.626,-8.553,-2.134,4.922,3.322,6.099,5.077,4.712,4.711,2.171,6.280,5.107,1.573,0.000,0.000,1.282,-8.531,-2.137,4.927,3.298,6.124,
58.920,109.428,0.974,-9.111,1.606,-0.029,0.052,0.000,0.000,0.000,0.000,0.000,0.000,0.000,0.000,0.000,0.000,0.000,3.142,0.000,0.000,0.000,0.000,0.000,0.000,0.000,0.000,0.000,0.000,0.000,3.142,6.283,0.015,1.205,1.571,1.571,4.112,0.003,1.176,4.711,0.001,0.000,0.626,-8.554,-2.136,4.926,3.319,6.102,5.078,4.712,4.711,2.171,6.280,5.107,1.573,0.000,0.000,1.282,-8.530,-2.136,4.925,3.299,6.123,
59.020,109.528,0.974,-9.111,1.606,-0.046,0.175,0.000,0.000,0.000,0.000,0.000,0.000,0.000,0.000,0.000,0.000,0.000,3.142,0.000,0.000,0.000,0.000,0.000,0.000,0.000,0.000,0.000,0.000,0.000,3.142,0.000,0.015,1.200,1.571,1.571,4.113,0.003,1.176,4.711,0.001,0.000,0.626,-8.553,-2.133,4.921,3.322,6.099,5.075,4.712,4.711,2.170,6.280,5.107,1.572,0.000,0.000,1.282,-8.531,-2.138,4.928,3.296,6.126,
59.111,109.619,0.974,-9.111,1.606,-0.026,0.048,0.000,0.000,0.000,0.000,0.000,0.000,0.000,0.000,0.000,0.000,0.000,3.142,0.000,0.000,0.000,0.000,0.000,0.000,0.000,0.000,0.000,0.000,0.000,3.142,6.283,0.015,1.201,1.571,1.571,4.112,0.003,1.176,4.711,0.001,0.000,0.626,-8.553,-2.133,4.921,3.321,6.100,5.077,4.712,4.712,2.170,6.280,5.107,1.573,0.000,0.000,1.282,-8.531,-2.137,4.926,3.296,6.126,
59.220,109.728,0.974,-9.111,1.606,-0.061,0.076,0.000,0.000,0.000,0.000,0.000,0.000,0.000,0.000,0.000,0.000,0.000,3.142,0.000,0.000,0.000,0.000,0.000,0.000,0.000,0.000,0.000,0.000,0.000,3.142,6.283,0.015,1.205,1.571,1.571,4.112,0.003,1.176,4.710,0.001,0.000,0.626,-8.553,-2.136,4.926,3.318,6.102,5.079,4.712,4.711,2.171,6.280,5.107,1.573,0.000,0.000,1.282,-8.530,-2.136,4.925,3.298,6.123,
59.320,109.828,0.974,-9.111,1.606,-0.055,0.062,0.000,0.000,0.000,0.000,0.000,0.000,0.000,0.000,0.000,0.000,0.000,3.142,0.000,0.000,0.000,0.000,0.000,0.000,0.000,0.000,0.000,0.000,0.000,3.142,0.000,0.015,1.205,1.571,1.571,4.113,0.003,1.176,4.711,0.001,0.000,0.626,-8.553,-2.136,4.926,3.317,6.104,5.075,4.712,4.712,2.171,6.280,5.107,1.572,0.000,0.000,1.282,-8.531,-2.138,4.928,3.295,6.127,
59.420,109.928,0.974,-9.111,1.605,-0.036,0.103,0.000,0.000,0.000,0.000,0.000,0.000,0.000,0.000,0.000,0.000,0.000,3.142,0.000,0.000,0.000,0.000,0.000,0.000,0.000,0.000,0.000,0.000,0.000,3.142,0.000,0.015,1.204,1.571,1.571,4.113,0.003,1.176,4.711,0.001,0.000,0.626,-8.553,-2.136,4.925,3.316,6.105,5.071,4.712,4.711,2.170,6.280,5.107,1.572,0.000,0.000,1.282,-8.532,-2.141,4.932,3.290,6.132,
59.520,110.028,0.974,-9.111,1.605,-0.043,0.081,0.000,0.000,0.000,0.000,0.000,0.000,0.000,0.000,0.000,0.000,0.000,3.142,0.000,0.000,0.000,0.000,0.000,0.000,0.000,0.000,0.000,0.000,0.000,3.142,6.283,0.015,1.200,1.571,1.571,4.112,0.003,1.176,4.711,0.001,0.000,0.626,-8.553,-2.133,4.921,3.320,6.100,5.075,4.712,4.711,2.171,6.281,5.107,1.573,0.000,0.000,1.282,-8.532,-2.138,4.929,3.293,6.128,
59.620,110.128,0.974,-9.111,1.607,-0.010,6.254,0.000,0.000,0.000,0.000,0.000,0.000,0.000,0.000,0.000,0.000,0.000,3.142,0.000,0.000,0.000,0.000,0.000,0.000,0.000,0.000,0.000,0.000,0.000,3.142,6.283,0.015,1.207,1.571,1.571,4.111,0.003,1.176,4.711,0.001,0.000,0.626,-8.555,-2.136,4.926,3.317,6.104,5.084,4.712,4.712,2.171,6.280,5.107,1.573,0.000,0.000,1.282,-8.529,-2.132,4.919,3.304,6.118,
59.714,110.222,0.974,-9.111,1.607,-0.055,6.267,0.000,0.000,0.000,0.000,0.000,0.000,0.000,0.000,0.000,0.000,0.000,3.142,0.000,0.000,0.000,0.000,0.000,0.000,0.000,0.000,0.000,0.000,0.000,3.142,6.283,0.015,1.211,1.571,1.571,4.112,0.003,1.176,4.711,0.001,0.000,0.626,-8.555,-2.140,4.932,3.315,6.105,5.086,4.712,4.712,2.171,6.280,5.107,1.573,0.000,0.000,1.282,-8.529,-2.131,4.917,3.306,6.116,
59.820,110.328,0.974,-9.111,1.608,-0.009,6.268,0.000,0.000,0.000,0.000,0.000,0.000,0.000,0.000,0.000,0.000,0.000,3.142,0.000,0.000,0.000,0.000,0.000,0.000,0.000,0.000,0.000,0.000,0.000,3.142,6.283,0.015,1.212,1.571,1.572,4.112,0.003,1.176,4.711,0.001,0.000,0.625,-8.556,-2.140,4.932,3.317,6.103,5.089,4.712,4.712,2.172,6.280,5.107,1.573,0.000,0.000,1.281,-8.528,-2.130,4.914,3.313,6.109,
59.920,110.428,0.974,-9.111,1.607,-0.049,0.072,0.000,0.000,0.000,0.000,0.000,0.000,0.000,0.000,0.000,0.000,0.000,3.142,0.000,0.000,0.000,0.000,0.000,0.000,0.000,0.000,0.000,0.000,0.000,3.142,6.283,0.015,1.213,1.571,1.571,4.113,0.003,1.176,4.711,0.001,0.000,0.625,-8.556,-2.141,4.935,3.316,6.104,5.086,4.712,4.712,2.171,6.280,5.107,1.573,0.000,0.000,1.281,-8.529,-2.131,4.917,3.311,6.111,
60.020,110.528,0.974,-9.111,1.607,-0.032,0.041,0.000,0.000,0.000,0.000,0.000,0.000,0.000,0.000,0.000,0.000,0.000,3.142,0.000,0.000,0.000,0.000,0.000,0.000,0.000,0.000,0.000,0.000,0.000,3.142,0.000,0.015,1.212,1.571,1.571,4.113,0.003,1.176,4.710,0.001,0.000,0.625,-8.555,-2.140,4.933,3.316,6.104,5.080,4.712,4.712,2.171,6.280,5.107,1.572,0.000,0.000,1.281,-8.530,-2.134,4.923,3.304,6.118,
60.120,110.628,0.974,-9.111,1.608,-0.010,6.251,0.000,0.000,0.000,0.000,0.000,0.000,0.000,0.000,0.000,0.000,0.000,3.142,0.000,0.000,0.000,0.000,0.000,0.000,0.000,0.000,0.000,0.000,0.000,3.142,6.283,0.015,1.213,1.571,1.572,4.112,0.003,1.176,4.711,0.001,0.000,0.626,-8.556,-2.140,4.932,3.315,6.105,5.083,4.712,4.712,2.171,6.280,5.107,1.573,0.000,0.000,1.281,-8.529,-2.133,4.920,3.306,6.115,
60.220,110.728,0.974,-9.111,1.607,-0.019,0.051,0.000,0.000,0.000,0.000,0.000,0.000,0.000,0.000,0.000,0.000,0.000,3.142,0.000,0.000,0.000,0.000,0.000,0.000,0.000,0.000,0.000,0.000,0.000,3.142,0.000,0.015,1.204,1.571,1.571,4.112,0.003,1.176,4.711,0.001,0.000,0.625,-8.554,-2.135,4.925,3.323,6.097,5.079,4.712,4.712,2.171,6.280,5.107,1.573,0.000,0.000,1.281,-8.530,-2.135,4.924,3.304,6.118,
60.320,110.828,0.974,-9.111,1.606,-0.018,0.074,0.000,0.000,0.000,0.000,0.000,0.000,0.000,0.000,0.000,0.000,0.000,3.142,0.000,0.000,0.000,0.000,0.000,0.000,0.000,0.000,0.000,0.000,0.000,3.142,0.000,0.015,1.202,1.571,1.571,4.112,0.003,1.176,4.710,0.001,0.000,0.626,-8.553,-2.134,4.922,3.323,6.098,5.075,4.712,4.712,2.171,6.280,5.107,1.572,0.000,0.000,1.282,-8.531,-2.138,4.928,3.297,6.124,
60.409,110.917,0.974,-9.111,1.607,-0.053,6.281,0.000,0.000,0.000,0.000,0.000,0.000,0.000,0.000,0.000,0.000,0.000,3.142,0.000,0.000,0.000,0.000,0.000,0.000,0.000,0.000,0.000,0.000,0.000,3.142,6.283,0.015,1.208,1.571,1.571,4.112,0.003,1.176,4.711,0.001,0.000,0.626,-8.555,-2.137,4.928,3.317,6.103,5.076,4.712,4.712,2.170,6.280,5.107,1.573,0.000,0.000,1.282,-8.531,-2.137,4.927,3.297,6.124,
60.520,111.028,0.974,-9.111,1.608,-0.010,6.261,0.000,0.000,0.000,0.000,0.000,0.000,0.000,0.000,0.000,0.000,0.000,3.142,0.000,0.000,0.000,0.000,0.000,0.000,0.000,0.000,0.000,0.000,0.000,3.142,6.283,0.015,1.211,1.571,1.571,4.112,0.003,1.176,4.711,0.001,0.000,0.625,-8.556,-2.139,4.931,3.318,6.102,5.085,4.712,4.712,2.171,6.280,5.107,1.573,0.000,0.000,1.281,-8.529,-2.132,4.918,3.309,6.112,
60.620,111.128,0.974,-9.111,1.608,-0.011,6.253,0.000,0.000,0.000,0.000,0.000,0.000,0.000,0.000,0.000,0.000,0.000,3.142,0.000,0.000,0.000,0.000,0.000,0.000,0.000,0.000,0.000,0.000,0.000,3.142,6.283,0.015,1.213,1.571,1.572,4.112,0.003,1.176,4.711,0.001,0.000,0.625,-8.556,-2.141,4.933,3.316,6.104,5.088,4.712,4.712,2.171,6.280,5.107,1.573,0.000,0.000,1.281,-8.528,-2.130,4.915,3.312,6.110,
60.720,111.228,0.974,-9.111,1.608,-0.003,0.057,0.000,0.000,0.000,0.000,0.000,0.000,0.000,0.000,0.000,0.000,0.000,3.142,0.000,0.000,0.000,0.000,0.000,0.000,0.000,0.000,0.000,0.000,0.000,3.142,6.283,0.015,1.211,1.571,1.571,4.112,0.003,1.176,4.711,0.001,0.000,0.625,-8.556,-2.139,4.932,3.321,6.099,5.087,4.712,4.712,2.171,6.280,5.107,1.573,0.000,0.000,1.281,-8.529,-2.130,4.916,3.314,6.107,
60.820,111.328,0.974,-9.111,1.609,-0.010,6.276,0.000,0.000,0.000,0.000,0.000,0.000,0.000,0.000,0.000,0.000,0.000,3.142,0.000,0.000,0.000,0.000,0.000,0.000,0.000,0.000,0.000,0.000,0.000,3.142,6.283,0.015,1.209,1.571,1.571,4.112,0.003,1.176,4.711,0.001,0.000,0.625,-8.556,-2.138,4.929,3.326,6.095,5.084,4.712,4.712,2.172,6.280,5.107,1.573,0.000,0.000,1.280,-8.529,-2.132,4.918,3.316,6.106,
60.920,111.428,0.974,-9.111,1.609,-0.018,0.054,0.000,0.000,0.000,0.000,0.000,0.000,0.000,0.000,0.000,0.000,0.000,3.142,0.000,0.000,0.000,0.000,0.000,0.000,0.000,0.000,0.000,0.000,0.000,3.142,0.000,0.015,1.205,1.571,1.571,4.112,0.003,1.176,4.711,0.001,0.000,0.624,-8.555,-2.136,4.926,3.330,6.091,5.080,4.712,4.712,2.171,6.280,5.107,1.573,0.000,0.000,1.281,-8.530,-2.135,4.924,3.311,6.110,
61.020,111.528,0.974,-9.111,1.608,-0.017,0.078,0.000,0.000,0.000,0.000,0.000,0.000,0.000,0.000,0.000,0.000,0.000,3.142,0.000,0.000,0.000,0.000,0.000,0.000,0.000,0.000,0.000,0.000,0.000,3.142,0.000,0.015,1.203,1.571,1.571,4.112,0.003,1.176,4.711,0.001,0.000,0.625,-8.554,-2.135,4.924,3.328,6.092,5.075,4.712,4.712,2.171,6.280,5.107,1.573,0.000,0.000,1.281,-8.531,-2.138,4.928,3.304,6.117,
61.111,111.619,0.974,-9.111,1.607,-0.026,0.087,0.000,0.000,0.000,0.000,0.000,0.000,0.000,0.000,0.000,0.000,0.000,3.142,0.000,0.000,0.000,0.000,0.000,0.000,0.000,0.000,0.000,0.000,0.000,3.142,0.000,0.015,1.202,1.571,1.571,4.112,0.003,1.176,4.711,0.001,0.000,0.625,-8.554,-2.134,4.923,3.327,6.093,5.072,4.712,4.712,2.170,6.280,5.107,1.573,0.000,0.000,1.281,-8.532,-2.140,4.932,3.299,6.122,
61.220,111.728,0.974,-9.111,1.608,-0.046,0.022,0.000,0.000,0.000,0.000,0.000,0.000,0.000,0.000,0.000,0.000,0.000,3.142,0.000,0.000,0.000,0.000,0.000,0.000,0.000,0.000,0.000,0.000,0.000,3.142,6.283,0.015,1.200,1.571,1.571,4.112,0.003,1.176,4.711,0.001,0.000,0.625,-8.554,-2.133,4.921,3.328,6.092,5.071,4.712,4.712,2.170,6.280,5.107,1.573,0.000,0.000,1.281,-8.532,-2.141,4.933,3.298,6.124,
61.320,111.828,0.974,-9.111,1.608,-0.012,6.232,0.000,0.000,0.000,0.000,0.000,0.000,0.000,0.000,0.000,0.000,0.000,3.142,0.000,0.000,0.000,0.000,0.000,0.000,0.000,0.000,0.000,0.000,0.000,3.142,6.283,0.015,1.205,1.571,1.571,4.111,0.003,1.176,4.711,0.001,0.000,0.625,-8.555,-2.135,4.925,3.326,6.095,5.079,4.712,4.712,2.171,6.280,5.107,1.573,0.000,0.000,1.281,-8.530,-2.135,4.924,3.307,6.115,
61.420,111.928,0.974,-9.111,1.609,-0.011,6.245,0.000,0.000,0.000,0.000,0.000,0.000,0.000,0.000,0.000,0.000,0.000,3.142,0.000,0.000,0.000,0.000,0.000,0.000,0.000,0.000,0.000,0.000,0.000,3.142,6.283,0.015,1.211,1.571,1.572,4.111,0.003,1.176,4.711,0.001,0.000,0.625,-8.556,-2.139,4.931,3.323,6.097,5.087,4.712,4.712,2.171,6.280,5.107,1.573,0.000,0.000,1.280,-8.528,-2.131,4.916,3.316,6.106,
61.520,112.028,0.974,-9.111,1.608,-0.067,0.117,0.000,0.000,0.000,0.000,0.000,0.000,0.000,0.000,0.000,0.000,0.000,3.142,0.000,0.000,0.000,0.000,0.000,0.000,0.000,0.000,0.000,0.000,0.000,3.142,0.000,0.015,1.205,1.571,1.570,4.113,0.003,1.176,4.710,0.001,0.000,0.624,-8.554,-2.135,4.927,3.329,6.091,5.082,4.711,4.711,2.171,6.280,5.107,1.572,0.000,0.000,1.280,-8.529,-2.133,4.922,3.313,6.108,
61.620,112.128,0.974,-9.111,1.608,-0.040,0.032,0.000,0.000,0.000,0.000,0.000,0.000,0.000,0.000,0.000,0.000,0.000,3.142,0.000,0.000,0.000,0.000,0.000,0.000,0.000,0.000,0.000,0.000,0.000,3.142,6.283,0.015,1.206,1.571,1.571,4.112,0.003,1.176,4.711,0.001,0.000,0.625,-8.555,-2.137,4.927,3.328,6.092,5.080,4.712,4.712,2.171,6.280,5.107,1.573,0.000,0.000,1.281,-8.530,-2.135,4.924,3.309,6.112,
61.702,112.210,0.974,-9.111,1.608,-0.053,6.216,0.000,0.000,0.000,0.000,0.000,0.000,0.000,0.000,0.000,0.000,0.000,3.142,0.000,0.000,0.000,0.000,0.000,0.000,0.000,0.000,0.000,0.000,0.000,3.142,0.001,0.015,1.203,1.572,1.571,4.113,0.004,1.176,4.711,0.001,0.000,0.624,-8.554,-2.135,4.925,3.328,6.093,5.079,4.712,4.712,2.172,6.281,5.107,1.573,0.000,0.000,1.281,-8.530,-2.136,4.924,3.307,6.114,
61.816,112.324,0.974,-9.111,1.608,-0.022,6.262,0.000,0.000,0.000,0.000,0.000,0.000,0.000,0.000,0.000,0.000,0.000,3.142,0.000,0.000,0.000,0.000,0.000,0.000,0.000,0.000,0.000,0.000,0.000,3.142,0.000,0.015,1.198,1.572,1.571,4.112,0.004,1.176,4.711,0.001,0.000,0.624,-8.553,-2.132,4.919,3.332,6.088,5.074,4.712,4.712,2.171,6.281,5.107,1.573,0.000,0.000,1.281,-8.531,-2.139,4.929,3.302,6.119,
61.920,112.428,0.974,-9.111,1.608,-0.052,0.009,0.000,0.000,0.000,0.000,0.000,0.000,0.000,0.000,0.000,0.000,0.000,3.142,0.000,0.000,0.000,0.000,0.000,0.000,0.000,0.000,0.000,0.000,0.000,3.142,6.283,0.015,1.200,1.571,1.571,4.112,0.003,1.176,4.711,0.001,0.000,0.624,-8.553,-2.133,4.920,3.331,6.090,5.070,4.712,4.712,2.170,6.280,5.107,1.573,0.000,0.000,1.280,-8.532,-2.141,4.934,3.299,6.122,
62.020,112.528,0.974,-9.111,1.608,-0.046,6.239,0.000,0.000,0.000,0.000,0.000,0.000,0.000,0.000,0.000,0.000,0.000,3.142,0.000,0.000,0.000,0.000,0.000,0.000,0.000,0.000,0.000,0.000,0.000,3.142,6.283,0.015,1.205,1.571,1.571,4.112,0.003,1.176,4.711,0.001,0.000,0.624,-8.555,-2.135,4.926,3.327,6.093,5.080,4.711,4.711,2.171,6.280,5.107,1.573,0.000,0.000,1.280,-8.530,-2.134,4.924,3.309,6.113,
62.120,112.628,0.974,-9.111,1.608,-0.021,6.270,0.000,0.000,0.000,0.000,0.000,0.000,0.000,0.000,0.000,0.000,0.000,3.142,0.000,0.000,0.000,0.000,0.000,0.000,0.000,0.000,0.000,0.000,0.000,3.142,0.001,0.015,1.200,1.571,1.571,4.113,0.004,1.176,4.711,0.001,0.000,0.624,-8.554,-2.133,4.922,3.330,6.090,5.075,4.712,4.712,2.171,6.281,5.107,1.573,0.000,0.000,1.281,-8.531,-2.138,4.928,3.304,6.117,
62.220,112.728,0.974,-9.111,1.609,-0.013,6.240,0.000,0.000,0.000,0.000,0.000,0.000,0.000,0.000,0.000,0.000,0.000,3.142,0.000,0.000,0.000,0.000,0.000,0.000,0.000,0.000,0.000,0.000,0.000,3.142,6.283,0.015,1.206,1.571,1.571,4.111,0.003,1.176,4.711,0.001,0.000,0.624,-8.555,-2.136,4.926,3.326,6.094,5.082,4.712,4.712,2.171,6.280,5.107,1.573,0.000,0.000,1.280,-8.529,-2.134,4.922,3.311,6.111,
62.311,112.819,0.974,-9.111,1.608,-0.032,0.039,0.000,0.000,0.000,0.000,0.000,0.000,0.000,0.000,0.000,0.000,0.000,3.142,0.000,0.000,0.000,0.000,0.000,0.000,0.000,0.000,0.000,0.000,0.000,3.142,0.000,0.015,1.208,1.571,1.571,4.113,0.003,1.176,4.710,0.001,0.000,0.624,-8.555,-2.138,4.930,3.324,6.096,5.078,4.712,4.711,2.171,6.280,5.107,1.572,0.000,0.000,1.280,-8.530,-2.136,4.925,3.307,6.114,
62.411,112.919,0.974,-9.111,1.608,-0.048,0.023,0.000,0.000,0.000,0.000,0.000,0.000,0.000,0.000,0.000,0.000,0.000,3.142,0.000,0.000,0.000,0.000,0.000,0.000,0.000,0.000,0.000,0.000,0.000,3.142,6.283,0.015,1.206,1.571,1.571,4.112,0.003,1.176,4.711,0.001,0.000,0.624,-8.555,-2.136,4.927,3.326,6.094,5.074,4.712,4.712,2.170,6.280,5.107,1.573,0.000,0.000,1.280,-8.531,-2.139,4.930,3.303,6.118,
62.520,113.028,0.974,-9.111,1.609,-0.008,0.002,0.000,0.000,0.000,0.000,0.000,0.000,0.000,0.000,0.000,0.000,0.000,3.142,0.000,0.000,0.000,0.000,0.000,0.000,0.000,0.000,0.000,0.000,0.000,3.142,6.283,0.015,1.207,1.571,1.571,4.112,0.003,1.176,4.711,0.001,0.000,0.624,-8.555,-2.137,4.927,3.329,6.091,5.084,4.712,4.712,2.171,6.280,5.107,1.573,0.000,0.000,1.280,-8.529,-2.133,4.920,3.316,6.106,
62.620,113.128,0.974,-9.111,1.609,-0.051,0.018,0.000,0.000,0.000,0.000,0.000,0.000,0.000,0.000,0.000,0.000,0.000,3.142,0.000,0.000,0.000,0.000,0.000,0.000,0.000,0.000,0.000,0.000,0.000,3.142,6.283,0.015,1.208,1.571,1.571,4.112,0.003,1.176,4.711,0.001,0.000,0.624,-8.555,-2.138,4.929,3.327,6.093,5.084,4.712,4.712,2.171,6.280,5.107,1.573,0.000,0.000,1.280,-8.529,-2.132,4.920,3.315,6.107,
62.720,113.228,0.974,-9.111,1.608,-0.059,0.182,0.000,0.000,0.000,0.000,0.000,0.000,0.000,0.000,0.000,0.000,0.000,3.142,0.000,0.000,0.000,0.000,0.000,0.000,0.000,0.000,0.000,0.000,0.000,3.142,6.283,0.015,1.201,1.571,1.570,4.112,0.003,1.176,4.710,0.001,0.000,0.624,-8.554,-2.133,4.922,3.334,6.086,5.078,4.711,4.711,2.171,6.280,5.107,1.572,0.000,0.000,1.280,-8.530,-2.136,4.926,3.310,6.111,
62.820,113.328,0.974,-9.111,1.608,-0.035,0.035,0.000,0.000,0.000,0.000,0.000,0.000,0.000,0.000,0.000,0.000,0.000,3.142,0.000,0.000,0.000,0.000,0.000,0.000,0.000,0.000,0.000,0.000,0.000,3.142,0.000,0.015,1.202,1.571,1.571,4.112,0.003,1.176,4.710,0.001,0.000,0.624,-8.554,-2.134,4.924,3.330,6.090,5.073,4.712,4.711,2.171,6.280,5.107,1.572,0.000,0.000,1.280,-8.531,-2.139,4.930,3.304,6.117,
62.920,113.428,0.974,-9.111,1.608,-0.046,0.084,0.000,0.000,0.000,0.000,0.000,0.000,0.000,0.000,0.000,0.000,0.000,3.142,0.000,0.000,0.000,0.000,0.000,0.000,0.000,0.000,0.000,0.000,0.000,3.142,0.000,0.015,1.202,1.571,1.571,4.113,0.003,1.176,4.711,0.001,0.000,0.624,-8.554,-2.134,4.923,3.327,6.093,5.070,4.712,4.712,2.170,6.280,5.107,1.572,0.000,0.000,1.281,-8.532,-2.141,4.934,3.298,6.123,
63.001,113.509,0.974,-9.111,1.609,-0.012,6.230,0.000,0.000,0.000,0.000,0.000,0.000,0.000,0.000,0.000,0.000,0.000,3.142,0.000,0.000,0.000,0.000,0.000,0.000,0.000,0.000,0.000,0.000,0.000,3.142,6.283,0.015,1.201,1.571,1.571,4.111,0.003,1.176,4.711,0.001,0.000,0.624,-8.554,-2.133,4.921,3.331,6.089,5.075,4.712,4.712,2.171,6.280,5.107,1.573,0.000,0.000,1.280,-8.530,-2.138,4.929,3.305,6.116,
63.118,113.626,0.974,-9.111,1.608,-0.024,0.109,0.000,0.000,0.000,0.000,0.000,0.000,0.000,0.000,0.000,0.000,0.000,3.142,0.000,0.000,0.000,0.000,0.000,0.000,0.000,0.000,0.000,0.000,0.000,3.142,6.283,0.015,1.206,1.571,1.571,4.112,0.003,1.176,4.711,0.001,0.000,0.624,-8.554,-2.136,4.926,3.325,6.095,5.078,4.712,4.711,2.171,6.280,5.107,1.573,0.000,0.000,1.281,-8.530,-2.136,4.925,3.306,6.116,
63.220,113.728,0.974,-9.111,1.608,-0.001,0.118,0.000,0.000,0.000,0.000,0.000,0.000,0.000,0.000,0.000,0.000,0.000,3.142,0.000,0.000,0.000,0.000,0.000,0.000,0.000,0.000,0.000,0.000,0.000,3.142,6.283,0.015,1.200,1.572,1.571,4.112,0.004,1.176,4.711,0.001,0.000,0.625,-8.554,-2.133,4.921,3.330,6.091,5.079,4.712,4.712,2.171,6.281,5.108,1.573,0.000,0.000,1.281,-8.530,-2.136,4.924,3.307,6.115,
63.320,113.828,0.974,-9.111,1.608,-0.011,6.243,0.000,0.000,0.000,0.000,0.000,0.000,0.000,0.000,0.000,0.000,0.000,3.142,0.000,0.000,0.000,0.000,0.000,0.000,0.000,0.000,0.000,0.000,0.000,3.142,6.283,0.015,1.204,1.571,1.571,4.111,0.003,1.176,4.711,0.001,0.000,0.625,-8.555,-2.135,4.924,3.325,6.095,5.081,4.712,4.712,2.171,6.280,5.107,1.573,0.000,0.000,1.281,-8.530,-2.135,4.923,3.307,6.115,
63.420,113.928,0.974,-9.111,1.608,-0.030,0.079,0.000,0.000,0.000,0.000,0.000,0.000,0.000,0.000,0.000,0.000,0.000,3.142,0.000,0.000,0.000,0.000,0.000,0.000,0.000,0.000,0.000,0.000,0.000,3.142,0.000,0.015,1.207,1.571,1.570,4.113,0.004,1.176,4.710,0.001,0.000,0.624,-8.555,-2.137,4.929,3.328,6.092,5.081,4.712,4.711,2.171,6.281,5.107,1.573,0.000,0.000,1.280,-8.530,-2.133,4.922,3.313,6.108,
63.520,114.028,0.974,-9.111,1.608,-0.025,0.055,0.000,0.000,0.000,0.000,0.000,0.000,0.000,0.000,0.000,0.000,0.000,3.142,0.000,0.000,0.000,0.000,0.000,0.000,0.000,0.000,0.000,0.000,0.000,3.142,0.000,0.015,1.208,1.571,1.571,4.113,0.003,1.176,4.711,0.001,0.000,0.625,-8.555,-2.138,4.929,3.323,6.097,5.077,4.712,4.712,2.171,6.280,5.107,1.573,0.000,0.000,1.281,-8.530,-2.137,4.926,3.305,6.116,
63.610,114.118,0.974,-9.111,1.607,-0.022,0.082,0.000,0.000,0.000,0.000,0.000,0.000,0.000,0.000,0.000,0.000,0.000,3.142,0.000,0.000,0.000,0.000,0.000,0.000,0.000,0.000,0.000,0.000,0.000,3.142,6.283,0.015,1.203,1.571,1.571,4.112,0.003,1.176,4.711,0.001,0.000,0.625,-8.554,-2.135,4.924,3.327,6.093,5.078,4.712,4.711,2.171,6.280,5.107,1.573,0.000,0.000,1.281,-8.530,-2.136,4.925,3.306,6.116,
63.720,114.228,0.974,-9.112,1.608,-0.012,6.245,0.000,0.000,0.000,0.000,0.000,0.000,0.000,0.000,0.000,0.000,0.000,3.142,0.000,0.000,0.000,0.000,0.000,0.000,0.000,0.000,0.000,0.000,0.000,3.142,6.283,0.015,1.207,1.571,1.571,4.111,0.003,1.176,4.711,0.001,0.000,0.625,-8.555,-2.137,4.927,3.323,6.097,5.082,4.712,4.712,2.171,6.280,5.107,1.573,0.000,0.000,1.281,-8.530,-2.133,4.921,3.309,6.112,
63.820,114.328,0.974,-9.111,1.608,-0.054,6.274,0.000,0.000,0.000,0.000,0.000,0.000,0.000,0.000,0.000,0.000,0.000,3.142,0.000,0.000,0.000,0.000,0.000,0.000,0.000,0.000,0.000,0.000,0.000,3.142,6.283,0.015,1.212,1.571,1.571,4.112,0.003,1.176,4.711,0.001,0.000,0.625,-8.556,-2.140,4.933,3.317,6.103,5.086,4.712,4.712,2.171,6.280,5.107,1.573,0.000,0.000,1.281,-8.529,-2.132,4.918,3.310,6.112,
63.920,114.428,0.974,-9.111,1.608,-0.027,0.054,0.000,0.000,0.000,0.000,0.000,0.000,0.000,0.000,0.000,0.000,0.000,3.142,0.000,0.000,0.000,0.000,0.000,0.000,0.000,0.000,0.000,0.000,0.000,3.142,0.000,0.015,1.207,1.571,1.571,4.113,0.003,1.176,4.710,0.001,0.000,0.625,-8.555,-2.137,4.928,3.323,6.098,5.080,4.712,4.711,2.171,6.280,5.107,1.573,0.000,0.000,1.281,-8.530,-2.135,4.923,3.307,6.115,
64.005,114.513,0.974,-9.111,1.607,-0.051,0.079,0.000,0.000,0.000,0.000,0.000,0.000,0.000,0.000,0.000,0.000,0.000,3.142,0.000,0.000,0.000,0.000,0.000,0.000,0.000,0.000,0.000,0.000,0.000,3.142,0.000,0.015,1.204,1.571,1.571,4.113,0.003,1.176,4.711,0.001,0.000,0.625,-8.554,-2.136,4.926,3.322,6.099,5.076,4.712,4.712,2.171,6.280,5.107,1.572,0.000,0.000,1.281,-8.531,-2.138,4.928,3.299,6.122,
64.120,114.628,0.974,-9.111,1.607,-0.022,0.054,0.000,0.000,0.000,0.000,0.000,0.000,0.000,0.000,0.000,0.000,0.000,3.142,0.000,0.000,0.000,0.000,0.000,0.000,0.000,0.000,0.000,0.000,0.000,3.142,0.000,0.015,1.198,1.571,1.571,4.112,0.003,1.176,4.711,0.001,0.000,0.625,-8.553,-2.132,4.919,3.327,6.093,5.072,4.712,4.712,2.171,6.281,5.107,1.573,0.000,0.000,1.281,-8.532,-2.140,4.932,3.296,6.125,
64.220,114.728,0.974,-9.111,1.607,-0.036,0.097,0.000,0.000,0.000,0.000,0.000,0.000,0.000,0.000,0.000,0.000,0.000,3.142,0.000,0.000,0.000,0.000,0.000,0.000,0.000,0.000,0.000,0.000,0.000,3.142,0.000,0.015,1.203,1.571,1.571,4.113,0.003,1.176,4.711,0.001,0.000,0.625,-8.554,-2.135,4.924,3.322,6.098,5.070,4.712,4.711,2.170,6.280,5.107,1.572,0.000,0.000,1.281,-8.532,-2.141,4.934,3.294,6.127,
64.320,114.828,0.974,-9.111,1.606,-0.018,0.079,0.000,0.000,0.000,0.000,0.000,0.000,0.000,0.000,0.000,0.000,0.000,3.142,0.000,0.000,0.000,0.000,0.000,0.000,0.000,0.000,0.000,0.000,0.000,3.142,6.283,0.015,1.198,1.571,1.571,4.112,0.003,1.176,4.711,0.001,0.000,0.625,-8.553,-2.131,4.919,3.326,6.094,5.070,4.712,4.711,2.170,6.280,5.107,1.573,0.000,0.000,1.281,-8.532,-2.141,4.934,3.294,6.128,
64.407,114.915,0.974,-9.112,1.607,-0.022,0.055,0.000,0.000,0.000,0.000,0.000,0.000,0.000,0.000,0.000,0.000,0.000,3.142,0.000,0.000,0.000,0.000,0.000,0.000,0.000,0.000,0.000,0.000,0.000,3.142,6.283,0.015,1.203,1.571,1.571,4.112,0.003,1.176,4.711,0.001,0.000,0.625,-8.554,-2.135,4.923,3.321,6.100,5.075,4.712,4.712,2.170,6.280,5.107,1.573,0.000,0.000,1.281,-8.531,-2.139,4.930,3.295,6.126,
64.520,115.028,0.974,-9.111,1.607,-0.027,0.062,0.000,0.000,0.000,0.000,0.000,0.000,0.000,0.000,0.000,0.000,0.000,3.142,0.000,0.000,0.000,0.000,0.000,0.000,0.000,0.000,0.000,0.000,0.000,3.142,6.283,0.015,1.206,1.571,1.571,4.112,0.003,1.176,4.711,0.001,0.000,0.625,-8.554,-2.137,4.927,3.318,6.102,5.077,4.712,4.712,2.171,6.280,5.107,1.573,0.000,0.000,1.281,-8.531,-2.136,4.926,3.299,6.123,
64.620,115.128,0.974,-9.112,1.606,-0.005,0.142,0.000,0.000,0.000,0.000,0.000,0.000,0.000,0.000,0.000,0.000,0.000,3.142,0.000,0.000,0.000,0.000,0.000,0.000,0.000,0.000,0.000,0.000,0.000,3.142,6.283,0.015,1.198,1.571,1.571,4.112,0.003,1.176,4.711,0.001,0.000,0.626,-8.553,-2.132,4.919,3.324,6.096,5.073,4.712,4.712,2.171,6.280,5.107,1.573,0.000,0.000,1.282,-8.532,-2.139,4.930,3.295,6.127,
64.720,115.228,0.974,-9.112,1.606,-0.042,0.028,0.000,0.000,0.000,0.000,0.000,0.000,0.000,0.000,0.000,0.000,0.000,3.142,0.000,0.000,0.000,0.000,0.000,0.000,0.000,0.000,0.000,0.000,0.000,3.142,6.283,0.015,1.203,1.571,1.571,4.112,0.003,1.176,4.711,0.001,0.000,0.625,-8.554,-2.135,4.923,3.322,6.099,5.075,4.712,4.711,2.171,6.280,5.107,1.573,0.000,0.000,1.282,-8.531,-2.138,4.928,3.297,6.125,
64.820,115.328,0.974,-9.112,1.608,-0.010,6.261,0.000,0.000,0.000,0.000,0.000,0.000,0.000,0.000,0.000,0.000,0.000,3.142,0.000,0.000,0.000,0.000,0.000,0.000,0.000,0.000,0.000,0.000,0.000,3.142,6.283,0.015,1.205,1.571,1.571,4.111,0.003,1.176,4.711,0.001,0.000,0.625,-8.555,-2.136,4.925,3.323,6.098,5.081,4.712,4.712,2.171,6.280,5.107,1.573,0.000,0.000,1.281,-8.530,-2.134,4.922,3.305,6.116,
64.920,115.428,0.974,-9.112,1.608,-0.013,6.244,0.000,0.000,0.000,0.000,0.000,0.000,0.000,0.000,0.000,0.000,0.000,3.142,0.000,0.000,0.000,0.000,0.000,0.000,0.000,0.000,0.000,0.000,0.000,3.142,6.283,0.015,1.210,1.571,1.572,4.111,0.003,1.176,4.711,0.001,0.000,0.625,-8.556,-2.139,4.929,3.318,6.102,5.086,4.712,4.712,2.171,6.280,5.107,1.573,0.000,0.000,1.281,-8.529,-2.131,4.917,3.309,6.113,
65.020,115.528,0.974,-9.112,1.608,-0.016,0.115,0.000,0.000,0.000,0.000,0.000,0.000,0.000,0.000,0.000,0.000,0.000,3.142,0.000,0.000,0.000,0.000,0.000,0.000,0.000,0.000,0.000,0.000,0.000,3.142,6.283,0.015,1.208,1.571,1.571,4.112,0.003,1.176,4.711,0.001,0.000,0.625,-8.555,-2.137,4.929,3.324,6.096,5.086,4.712,4.711,2.172,6.280,5.108,1.573,0.000,0.000,1.281,-8.529,-2.131,4.917,3.314,6.107,
65.120,115.628,0.974,-9.112,1.608,-0.024,0.169,0.000,0.000,0.000,0.000,0.000,0.000,0.000,0.000,0.000,0.000,0.000,3.142,0.000,0.000,0.000,0.000,0.000,0.000,0.000,0.000,0.000,0.000,0.000,3.142,6.283,0.015,1.209,1.571,1.571,4.112,0.003,1.176,4.711,0.001,0.000,0.625,-8.556,-2.138,4.930,3.320,6.100,5.084,4.712,4.712,2.170,6.280,5.107,1.573,0.000,0.000,1.281,-8.529,-2.132,4.920,3.308,6.113,
65.215,115.722,0.974,-9.112,1.608,-0.018,0.091,0.000,0.000,0.000,0.000,0.000,0.000,0.000,0.000,0.000,0.000,0.000,3.142,0.000,0.000,0.000,0.000,0.000,0.000,0.000,0.000,0.000,0.000,0.000,3.142,6.283,0.015,1.208,1.571,1.571,4.112,0.003,1.176,4.711,0.001,0.000,0.625,-8.555,-2.137,4.929,3.324,6.096,5.084,4.712,4.712,2.171,6.280,5.107,1.573,0.000,0.000,1.281,-8.529,-2.132,4.919,3.312,6.110,
65.320,115.828,0.974,-9.111,1.608,-0.040,0.049,0.000,0.000,0.000,0.000,0.000,0.000,0.000,0.000,0.000,0.000,0.000,3.142,0.000,0.000,0.000,0.000,0.000,0.000,0.000,0.000,0.000,0.000,0.000,3.142,6.283,0.015,1.208,1.571,1.571,4.112,0.003,1.176,4.711,0.001,0.000,0.625,-8.555,-2.138,4.929,3.323,6.097,5.082,4.712,4.712,2.171,6.280,5.107,1.573,0.000,0.000,1.281,-8.530,-2.134,4.921,3.309,6.112,
65.420,115.928,0.974,-9.111,1.608,-0.064,0.005,0.000,0.000,0.000,0.000,0.000,0.000,0.000,0.000,0.000,0.000,0.000,3.142,0.000,0.000,0.000,0.000,0.000,0.000,0.000,0.000,0.000,0.000,0.000,3.142,0.000,0.015,1.203,1.571,1.571,4.113,0.003,1.176,4.711,0.001,0.000,0.625,-8.554,-2.135,4.925,3.326,6.094,5.078,4.712,4.712,2.171,6.280,5.107,1.573,0.000,0.000,1.281,-8.530,-2.136,4.926,3.305,6.117,
65.520,116.028,0.974,-9.111,1.607,-0.062,0.029,0.000,0.000,0.000,0.000,0.000,0.000,0.000,0.000,0.000,0.000,0.000,3.142,0.000,0.000,0.000,0.000,0.000,0.000,0.000,0.000,0.000,0.000,0.000,3.142,0.000,0.015,1.204,1.571,1.571,4.113,0.003,1.176,4.711,0.001,0.000,0.625,-8.554,-2.136,4.925,3.325,6.095,5.073,4.712,4.712,2.171,6.280,5.107,1.573,0.000,0.000,1.281,-8.531,-2.139,4.931,3.300,6.122,
65.620,116.128,0.974,-9.112,1.607,-0.026,0.047,0.000,0.000,0.000,0.000,0.000,0.000,0.000,0.000,0.000,0.000,0.000,3.142,0.000,0.000,0.000,0.000,0.000,0.000,0.000,0.000,0.000,0.000,0.000,3.142,6.283,0.015,1.202,1.571,1.570,4.112,0.003,1.176,4.710,0.001,0.000,0.625,-8.554,-2.133,4.923,3.329,6.092,5.076,4.712,4.711,2.171,6.280,5.107,1.573,0.000,0.000,1.281,-8.531,-2.137,4.928,3.303,6.118,
65.720,116.228,0.974,-9.112,1.607,-0.026,0.102,0.000,0.000,0.000,0.000,0.000,0.000,0.000,0.000,0.000,0.000,0.000,3.142,0.000,0.000,0.000,0.000,0.000,0.000,0.000,0.000,0.000,0.000,0.000,3.142,6.283,0.015,1.203,1.571,1.571,4.112,0.003,1.176,4.711,0.001,0.000,0.625,-8.554,-2.135,4.924,3.324,6.096,5.074,4.712,4.711,2.170,6.280,5.107,1.573,0.000,0.000,1.281,-8.532,-2.139,4.930,3.299,6.123,
65.802,116.310,0.974,-9.112,1.607,-0.015,0.101,0.000,0.000,0.000,0.000,0.000,0.000,0.000,0.000,0.000,0.000,0.000,3.142,0.000,0.000,0.000,0.000,0.000,0.000,0.000,0.000,0.000,0.000,0.000,3.142,6.283,0.015,1.199,1.571,1.571,4.111,0.003,1.176,4.711,0.001,0.000,0.625,-8.554,-2.132,4.919,3.328,6.092,5.076,4.712,4.712,2.171,6.281,5.108,1.573,0.000,0.000,1.281,-8.531,-2.137,4.927,3.301,6.121,
65.920,116.428,0.974,-9.112,1.607,-0.010,6.246,0.000,0.000,0.000,0.000,0.000,0.000,0.000,0.000,0.000,0.000,0.000,3.142,0.000,0.000,0.000,0.000,0.000,0.000,0.000,0.000,0.000,0.000,0.000,3.142,6.283,0.015,1.203,1.571,1.571,4.111,0.003,1.176,4.711,0.001,0.000,0.625,-8.555,-2.135,4.923,3.323,6.097,5.082,4.712,4.712,2.171,6.280,5.107,1.573,0.000,0.000,1.281,-8.530,-2.134,4.921,3.305,6.117,
66.020,116.528,0.974,-9.112,1.607,-0.014,0.204,0.000,0.000,0.000,0.000,0.000,0.000,0.000,0.000,0.000,0.000,0.000,3.142,0.000,0.000,0.000,0.000,0.000,0.000,0.000,0.000,0.000,0.000,0.000,3.142,6.283,0.015,1.207,1.572,1.571,4.112,0.004,1.176,4.711,0.001,0.000,0.625,-8.555,-2.137,4.927,3.319,6.102,5.086,4.712,4.712,2.170,6.281,5.107,1.573,0.000,0.000,1.281,-8.530,-2.132,4.918,3.307,6.115,
66.120,116.628,0.974,-9.112,1.607,-0.037,0.043,0.000,0.000,0.000,0.000,0.000,0.000,0.000,0.000,0.000,0.000,0.000,3.142,0.000,0.000,0.000,0.000,0.000,0.000,0.000,0.000,0.000,0.000,0.000,3.142,6.283,0.015,1.207,1.571,1.571,4.112,0.003,1.176,4.711,0.001,0.000,0.625,-8.555,-2.137,4.928,3.319,6.101,5.085,4.712,4.712,2.171,6.280,5.107,1.573,0.000,0.000,1.281,-8.530,-2.132,4.918,3.306,6.115,
66.220,116.728,0.974,-9.112,1.607,-0.019,0.092,0.000,0.000,0.000,0.000,0.000,0.000,0.000,0.000,0.000,0.000,0.000,3.142,0.000,0.000,0.000,0.000,0.000,0.000,0.000,0.000,0.000,0.000,0.000,3.142,0.000,0.015,1.206,1.571,1.571,4.112,0.003,1.176,4.711,0.001,0.000,0.625,-8.555,-2.137,4.927,3.319,6.101,5.080,4.712,4.712,2.171,6.280,5.107,1.573,0.000,0.000,1.281,-8.531,-2.135,4.924,3.301,6.121,
66.320,116.828,0.974,-9.112,1.607,-0.012,6.252,0.000,0.000,0.000,0.000,0.000,0.000,0.000,0.000,0.000,0.000,0.000,3.142,0.000,0.000,0.000,0.000,0.000,0.000,0.000,0.000,0.000,0.000,0.000,3.142,6.283,0.015,1.209,1.571,1.571,4.112,0.003,1.176,4.711,0.001,0.000,0.625,-8.556,-2.138,4.928,3.317,6.103,5.084,4.712,4.712,2.171,6.280,5.107,1.573,0.000,0.000,1.281,-8.530,-2.132,4.919,3.306,6.116,
66.420,116.928,0.974,-9.112,1.607,-0.019,0.051,0.000,0.000,0.000,0.000,0.000,0.000,0.000,0.000,0.000,0.000,0.000,3.142,0.000,0.000,0.000,0.000,0.000,0.000,0.000,0.000,0.000,0.000,0.000,3.142,0.000,0.015,1.205,1.571,1.571,4.112,0.003,1.176,4.711,0.001,0.000,0.625,-8.555,-2.136,4.926,3.321,6.099,5.079,4.712,4.712,2.171,6.280,5.107,1.573,0.000,0.000,1.281,-8.531,-2.135,4.924,3.302,6.119,
66.520,117.028,0.974,-9.112,1.607,-0.054,6.276,0.000,0.000,0.000,0.000,0.000,0.000,0.000,0.000,0.000,0.000,0.000,3.142,0.000,0.000,0.000,0.000,0.000,0.000,0.000,0.000,0.000,0.000,0.000,3.142,6.283,0.015,1.209,1.571,1.571,4.112,0.003,1.176,4.711,0.001,0.000,0.625,-8.556,-2.139,4.930,3.316,6.104,5.079,4.712,4.712,2.171,6.280,5.107,1.573,0.000,0.000,1.281,-8.531,-2.136,4.924,3.300,6.121,
66.620,117.128,0.974,-9.112,1.607,-0.018,0.079,0.000,0.000,0.000,0.000,0.000,0.000,0.000,0.000,0.000,0.000,0.000,3.142,0.000,0.000,0.000,0.000,0.000,0.000,0.000,0.000,0.000,0.000,0.000,3.142,0.000,0.015,1.211,1.571,1.571,4.113,0.003,1.176,4.711,0.001,0.000,0.625,-8.556,-2.140,4.932,3.317,6.104,5.080,4.712,4.711,2.171,6.280,5.107,1.573,0.000,0.000,1.281,-8.531,-2.135,4.923,3.303,6.118,
66.717,117.225,0.974,-9.112,1.606,-0.018,0.078,0.000,0.000,0.000,0.000,0.000,0.000,0.000,0.000,0.000,0.000,0.000,3.142,0.000,0.000,0.000,0.000,0.000,0.000,0.000,0.000,0.000,0.000,0.000,3.142,0.000,0.015,1.206,1.571,1.571,4.113,0.003,1.176,4.711,0.001,0.000,0.625,-8.555,-2.136,4.927,3.318,6.102,5.075,4.712,4.712,2.171,6.280,5.107,1.573,0.000,0.000,1.282,-8.532,-2.137,4.928,3.297,6.124,
66.820,117.328,0.974,-9.112,1.606,-0.048,0.020,0.000,0.000,0.000,0.000,0.000,0.000,0.000,0.000,0.000,0.000,0.000,3.142,0.000,0.000,0.000,0.000,0.000,0.000,0.000,0.000,0.000,0.000,0.000,3.142,6.283,0.015,1.210,1.571,1.571,4.113,0.003,1.176,4.711,0.001,0.000,0.626,-8.556,-2.139,4.931,3.314,6.106,5.072,4.712,4.712,2.170,6.280,5.107,1.573,0.000,0.000,1.282,-8.532,-2.140,4.931,3.294,6.128,
66.920,117.428,0.974,-9.112,1.607,-0.007,0.011,0.000,0.000,0.000,0.000,0.000,0.000,0.000,0.000,0.000,0.000,0.000,3.142,0.000,0.000,0.000,0.000,0.000,0.000,0.000,0.000,0.000,0.000,0.000,3.142,6.283,0.015,1.208,1.571,1.571,4.112,0.003,1.176,4.711,0.001,0.000,0.625,-8.555,-2.137,4.928,3.317,6.103,5.081,4.712,4.712,2.171,6.280,5.107,1.573,0.000,0.000,1.281,-8.531,-2.135,4.923,3.302,6.120,
67.020,117.528,0.974,-9.112,1.607,-0.010,6.274,0.000,0.000,0.000,0.000,0.000,0.000,0.000,0.000,0.000,0.000,0.000,3.142,0.000,0.000,0.000,0.000,0.000,0.000,0.000,0.000,0.000,0.000,0.000,3.142,6.283,0.015,1.206,1.571,1.571,4.112,0.003,1.176,4.711,0.001,0.000,0.625,-8.555,-2.136,4.926,3.323,6.097,5.084,4.712,4.712,2.172,6.280,5.107,1.573,0.000,0.000,1.281,-8.530,-2.132,4.919,3.310,6.112,
67.120,117.628,0.974,-9.112,1.607,-0.026,0.074,0.000,0.000,0.000,0.000,0.000,0.000,0.000,0.000,0.000,0.000,0.000,3.142,0.000,0.000,0.000,0.000,0.000,0.000,0.000,0.000,0.000,0.000,0.000,3.142,0.000,0.015,1.202,1.571,1.571,4.112,0.003,1.176,4.711,0.001,0.000,0.625,-8.554,-2.134,4.923,3.326,6.094,5.079,4.712,4.711,2.171,6.280,5.107,1.573,0.000,0.000,1.281,-8.531,-2.135,4.924,3.304,6.118,
67.220,117.728,0.974,-9.112,1.607,-0.010,0.141,0.000,0.000,0.000,0.000,0.000,0.000,0.000,0.000,0.000,0.000,0.000,3.142,0.000,0.000,0.000,0.000,0.000,0.000,0.000,0.000,0.000,0.000,0.000,3.142,6.283,0.015,1.204,1.572,1.571,4.111,0.003,1.176,4.711,0.001,0.000,0.625,-8.555,-2.135,4.924,3.323,6.098,5.083,4.712,4.712,2.171,6.280,5.107,1.573,0.000,0.000,1.281,-8.530,-2.133,4.920,3.306,6.116,
67.320,117.828,0.974,-9.112,1.607,-0.052,0.128,0.000,0.000,0.000,0.000,0.000,0.000,0.000,0.000,0.000,0.000,0.000,3.142,0.000,0.000,0.000,0.000,0.000,0.000,0.000,0.000,0.000,0.000,0.000,3.142,6.283,0.015,1.205,1.571,1.571,4.112,0.003,1.176,4.711,0.001,0.000,0.625,-8.555,-2.136,4.926,3.322,6.098,5.083,4.712,4.712,2.171,6.280,5.107,1.573,0.000,0.000,1.281,-8.530,-2.133,4.920,3.306,6.115,
67.420,117.928,0.974,-9.112,1.607,-0.019,0.081,0.000,0.000,0.000,0.000,0.000,0.000,0.000,0.000,0.000,0.000,0.000,3.142,0.000,0.000,0.000,0.000,0.000,0.000,0.000,0.000,0.000,0.000,0.000,3.142,6.283,0.015,1.204,1.571,1.571,4.112,0.003,1.176,4.711,0.001,0.000,0.625,-8.555,-2.135,4.925,3.323,6.098,5.080,4.712,4.711,2.171,6.280,5.107,1.573,0.000,0.000,1.281,-8.531,-2.135,4.923,3.304,6.118,
67.520,118.028,0.974,-9.112,1.607,-0.011,6.270,0.000,0.000,0.000,0.000,0.000,0.000,0.000,0.000,0.000,0.000,0.000,3.142,0.000,0.000,0.000,0.000,0.000,0.000,0.000,0.000,0.000,0.000,0.000,3.142,6.283,0.015,1.207,1.571,1.571,4.112,0.003,1.176,4.711,0.001,0.000,0.625,-8.555,-2.137,4.927,3.320,6.101,5.080,4.712,4.712,2.171,6.280,5.107,1.573,0.000,0.000,1.281,-8.531,-2.135,4.923,3.304,6.118,
67.607,118.115,0.974,-9.112,1.608,-0.009,0.008,0.000,0.000,0.000,0.000,0.000,0.000,0.000,0.000,0.000,0.000,0.000,3.142,0.000,0.000,0.000,0.000,0.000,0.000,0.000,0.000,0.000,0.000,0.000,3.142,6.283,0.015,1.207,1.571,1.571,4.112,0.003,1.176,4.711,0.001,0.000,0.625,-8.556,-2.137,4.927,3.322,6.098,5.084,4.712,4.712,2.171,6.280,5.107,1.573,0.000,0.000,1.281,-8.530,-2.132,4.919,3.310,6.112,
67.720,118.228,0.974,-9.112,1.609,0.000,0.007,0.000,0.000,0.000,0.000,0.000,0.000,0.000,0.000,0.000,0.000,0.000,3.142,0.000,0.000,0.000,0.000,0.000,0.000,0.000,0.000,0.000,0.000,0.000,3.142,6.282,0.015,1.210,1.571,1.572,4.111,0.003,1.176,4.711,0.001,0.000,0.625,-8.557,-2.138,4.929,3.322,6.098,5.085,4.712,4.712,2.171,6.280,5.107,1.573,0.000,0.000,1.280,-8.529,-2.131,4.918,3.312,6.109,
67.820,118.328,0.974,-9.112,1.608,-0.048,0.105,0.000,0.000,0.000,0.000,0.000,0.000,0.000,0.000,0.000,0.000,0.000,3.142,0.000,0.000,0.000,0.000,0.000,0.000,0.000,0.000,0.000,0.000,0.000,3.142,0.000,0.015,1.208,1.571,1.571,4.113,0.004,1.176,4.711,0.001,0.000,0.624,-8.556,-2.138,4.930,3.325,6.095,5.084,4.712,4.711,2.171,6.281,5.107,1.573,0.000,0.000,1.280,-8.530,-2.133,4.920,3.313,6.109,
67.920,118.428,0.974,-9.112,1.608,-0.019,0.076,0.000,0.000,0.000,0.000,0.000,0.000,0.000,0.000,0.000,0.000,0.000,3.142,0.000,0.000,0.000,0.000,0.000,0.000,0.000,0.000,0.000,0.000,0.000,3.142,0.000,0.015,1.207,1.571,1.571,4.112,0.003,1.176,4.711,0.001,0.000,0.625,-8.556,-2.137,4.928,3.323,6.097,5.079,4.712,4.712,2.171,6.280,5.107,1.573,0.000,0.000,1.281,-8.531,-2.136,4.925,3.306,6.116,
68.020,118.528,0.974,-9.112,1.608,-0.054,6.235,0.000,0.000,0.000,0.000,0.000,0.000,0.000,0.000,0.000,0.000,0.000,3.142,0.000,0.000,0.000,0.000,0.000,0.000,0.000,0.000,0.000,0.000,0.000,3.142,6.283,0.015,1.211,1.571,1.571,4.112,0.003,1.176,4.711,0.001,0.000,0.625,-8.556,-2.139,4.932,3.320,6.100,5.083,4.712,4.711,2.171,6.280,5.107,1.573,0.000,0.000,1.281,-8.530,-2.133,4.921,3.310,6.112,
68.120,118.628,0.974,-9.112,1.608,-0.022,6.261,0.000,0.000,0.000,0.000,0.000,0.000,0.000,0.000,0.000,0.000,0.000,3.142,0.000,0.000,0.000,0.000,0.000,0.000,0.000,0.000,0.000,0.000,0.000,3.142,0.001,0.015,1.204,1.571,1.571,4.113,0.004,1.176,4.711,0.001,0.000,0.625,-8.555,-2.135,4.926,3.326,6.094,5.077,4.712,4.712,2.172,6.281,5.107,1.573,0.000,0.000,1.281,-8.531,-2.136,4.925,3.306,6.116,
68.220,118.728,0.974,-9.112,1.609,-0.012,6.245,0.000,0.000,0.000,0.000,0.000,0.000,0.000,0.000,0.000,0.000,0.000,3.142,0.000,0.000,0.000,0.000,0.000,0.000,0.000,0.000,0.000,0.000,0.000,3.142,6.283,0.015,1.208,1.571,1.571,4.111,0.003,1.176,4.711,0.001,0.000,0.625,-8.556,-2.137,4.928,3.323,6.097,5.083,4.712,4.712,2.171,6.280,5.107,1.573,0.000,0.000,1.281,-8.530,-2.133,4.921,3.311,6.111,
68.320,118.828,0.974,-9.112,1.609,-0.022,0.065,0.000,0.000,0.000,0.000,0.000,0.000,0.000,0.000,0.000,0.000,0.000,3.142,0.000,0.000,0.000,0.000,0.000,0.000,0.000,0.000,0.000,0.000,0.000,3.142,6.283,0.015,1.212,1.571,1.571,4.112,0.003,1.176,4.711,0.001,0.000,0.625,-8.557,-2.140,4.933,3.322,6.098,5.085,4.712,4.712,2.171,6.280,5.107,1.573,0.000,0.000,1.280,-8.529,-2.132,4.918,3.313,6.108,
68.420,118.928,0.974,-9.112,1.608,-0.070,0.121,0.000,0.000,0.000,0.000,0.000,0.000,0.000,0.000,0.000,0.000,0.000,3.142,0.000,0.000,0.000,0.000,0.000,0.000,0.000,0.000,0.000,0.000,0.000,3.142,0.000,0.015,1.204,1.571,1.570,4.113,0.003,1.176,4.710,0.001,0.000,0.624,-8.555,-2.135,4.925,3.330,6.090,5.080,4.711,4.711,2.171,6.280,5.107,1.572,0.000,0.000,1.280,-8.530,-2.134,4.923,3.311,6.111,
68.520,119.028,0.974,-9.112,1.608,-0.041,0.038,0.000,0.000,0.000,0.000,0.000,0.000,0.000,0.000,0.000,0.000,0.000,3.142,0.000,0.000,0.000,0.000,0.000,0.000,0.000,0.000,0.000,0.000,0.000,3.142,6.283,0.015,1.205,1.571,1.571,4.112,0.003,1.176,4.711,0.001,0.000,0.624,-8.556,-2.136,4.926,3.329,6.091,5.079,4.712,4.712,2.171,6.280,5.107,1.573,0.000,0.000,1.280,-8.531,-2.136,4.925,3.309,6.112,
68.620,119.128,0.974,-9.112,1.610,-0.012,6.250,0.000,0.000,0.000,0.000,0.000,0.000,0.000,0.000,0.000,0.000,0.000,3.142,0.000,0.000,0.000,0.000,0.000,0.000,0.000,0.000,0.000,0.000,0.000,3.142,6.283,0.015,1.210,1.571,1.572,4.111,0.003,1.176,4.711,0.001,0.000,0.624,-8.557,-2.138,4.930,3.328,6.092,5.085,4.712,4.712,2.171,6.280,5.107,1.573,0.000,0.000,1.280,-8.529,-2.132,4.918,3.319,6.103,
68.720,119.228,0.974,-9.112,1.609,-0.042,0.084,0.000,0.000,0.000,0.000,0.000,0.000,0.000,0.000,0.000,0.000,0.000,3.142,0.000,0.000,0.000,0.000,0.000,0.000,0.000,0.000,0.000,0.000,0.000,3.142,0.000,0.015,1.204,1.571,1.571,4.113,0.003,1.176,4.711,0.001,0.000,0.624,-8.555,-2.136,4.926,3.333,6.087,5.081,4.712,4.711,2.171,6.280,5.107,1.573,0.000,0.000,1.280,-8.530,-2.135,4.923,3.315,6.107,
68.820,119.328,0.974,-9.112,1.610,-0.010,6.250,0.000,0.000,0.000,0.000,0.000,0.000,0.000,0.000,0.000,0.000,0.000,3.142,0.000,0.000,0.000,0.000,0.000,0.000,0.000,0.000,0.000,0.000,0.000,3.142,6.283,0.015,1.203,1.571,1.571,4.111,0.003,1.176,4.711,0.001,0.000,0.624,-8.556,-2.134,4.923,3.335,6.086,5.081,4.712,4.712,2.171,6.280,5.107,1.573,0.000,0.000,1.280,-8.530,-2.135,4.923,3.315,6.106,
68.903,119.411,0.974,-9.112,1.610,-0.056,6.263,0.000,0.000,0.000,0.000,0.000,0.000,0.000,0.000,0.000,0.000,0.000,3.142,0.000,0.000,0.000,0.000,0.000,0.000,0.000,0.000,0.000,0.000,0.000,3.142,6.283,0.015,1.208,1.571,1.571,4.112,0.003,1.176,4.711,0.001,0.000,0.624,-8.557,-2.138,4.929,3.333,6.087,5.084,4.712,4.712,2.171,6.280,5.107,1.573,0.000,0.000,1.280,-8.529,-2.132,4.920,3.321,6.100,
69.009,119.517,0.974,-9.112,1.611,-0.010,6.269,0.000,0.000,0.000,0.000,0.000,0.000,0.000,0.000,0.000,0.000,0.000,3.142,0.000,0.000,0.000,0.000,0.000,0.000,0.000,0.000,0.000,0.000,0.000,3.142,6.283,0.015,1.212,1.571,1.571,4.112,0.003,1.176,4.711,0.001,0.000,0.623,-8.558,-2.140,4.932,3.333,6.087,5.088,4.712,4.712,2.172,6.280,5.107,1.573,0.000,0.000,1.279,-8.528,-2.130,4.916,3.328,6.093,
69.114,119.622,0.974,-9.112,1.611,-0.049,0.087,0.000,0.000,0.000,0.000,0.000,0.000,0.000,0.000,0.000,0.000,0.000,3.142,0.000,0.000,0.000,0.000,0.000,0.000,0.000,0.000,0.000,0.000,0.000,3.142,6.283,0.015,1.211,1.571,1.571,4.113,0.003,1.176,4.711,0.001,0.000,0.623,-8.557,-2.140,4.933,3.333,6.086,5.085,4.712,4.712,2.171,6.280,5.107,1.573,0.000,0.000,1.279,-8.529,-2.132,4.918,3.326,6.096,
69.220,119.728,0.974,-9.112,1.612,-0.011,6.256,0.000,0.000,0.000,0.000,0.000,0.000,0.000,0.000,0.000,0.000,0.000,3.142,0.000,0.000,0.000,0.000,0.000,0.000,0.000,0.000,0.000,0.000,0.000,3.142,6.283,0.015,1.208,1.571,1.571,4.112,0.003,1.176,4.711,0.001,0.000,0.623,-8.557,-2.137,4.928,3.337,6.083,5.083,4.712,4.712,2.171,6.280,5.107,1.573,0.000,0.000,1.279,-8.529,-2.133,4.921,3.325,6.096,
69.320,119.828,0.974,-9.112,1.612,-0.008,6.258,0.000,0.000,0.000,0.000,0.000,0.000,0.000,0.000,0.000,0.000,0.000,3.142,0.000,0.000,0.000,0.000,0.000,0.000,0.000,0.000,0.000,0.000,0.000,3.142,6.282,0.015,1.212,1.571,1.571,4.111,0.003,1.176,4.711,0.001,0.000,0.623,-8.558,-2.139,4.932,3.334,6.086,5.086,4.712,4.712,2.171,6.280,5.107,1.573,0.000,0.000,1.279,-8.528,-2.131,4.918,3.328,6.094,
69.420,119.928,0.974,-9.112,1.612,-0.055,6.275,0.000,0.000,0.000,0.000,0.000,0.000,0.000,0.000,0.000,0.000,0.000,3.142,0.000,0.000,0.000,0.000,0.000,0.000,0.000,0.000,0.000,0.000,0.000,3.142,6.283,0.015,1.213,1.571,1.571,4.112,0.003,1.176,4.711,0.001,0.000,0.623,-8.558,-2.141,4.934,3.335,6.084,5.084,4.712,4.712,2.171,6.280,5.107,1.573,0.000,0.000,1.279,-8.528,-2.132,4.920,3.328,6.093,
69.520,120.028,0.974,-9.112,1.612,-0.020,0.068,0.000,0.000,0.000,0.000,0.000,0.000,0.000,0.000,0.000,0.000,0.000,3.142,0.000,0.000,0.000,0.000,0.000,0.000,0.000,0.000,0.000,0.000,0.000,3.142,0.000,0.015,1.206,1.571,1.571,4.112,0.003,1.176,4.711,0.001,0.000,0.623,-8.557,-2.137,4.928,3.342,6.077,5.078,4.712,4.711,2.171,6.280,5.107,1.573,0.000,0.000,1.279,-8.530,-2.136,4.926,3.324,6.097,
69.620,120.128,0.974,-9.112,1.612,-0.012,6.239,0.000,0.000,0.000,0.000,0.000,0.000,0.000,0.000,0.000,0.000,0.000,3.142,0.000,0.000,0.000,0.000,0.000,0.000,0.000,0.000,0.000,0.000,0.000,3.142,6.283,0.015,1.209,1.571,1.571,4.111,0.003,1.176,4.711,0.001,0.000,0.623,-8.558,-2.138,4.930,3.340,6.080,5.083,4.712,4.712,2.171,6.280,5.107,1.573,0.000,0.000,1.279,-8.528,-2.133,4.921,3.329,6.092,
69.720,120.228,0.975,-9.112,1.613,-0.051,6.241,0.000,0.000,0.000,0.000,0.000,0.000,0.000,0.000,0.000,0.000,0.000,3.142,0.000,0.000,0.000,0.000,0.000,0.000,0.000,0.000,0.000,0.000,0.000,3.142,6.283,0.015,1.213,1.571,1.571,4.112,0.003,1.176,4.711,0.001,0.000,0.622,-8.558,-2.141,4.935,3.339,6.080,5.086,4.712,4.712,2.171,6.280,5.107,1.573,0.000,0.000,1.278,-8.528,-2.131,4.919,3.334,6.087,
69.820,120.328,0.975,-9.112,1.612,-0.005,0.201,0.000,0.000,0.000,0.000,0.000,0.000,0.000,0.000,0.000,0.000,0.000,3.142,0.000,0.000,0.000,0.000,0.000,0.000,0.000,0.000,0.000,0.000,0.000,3.142,0.000,0.015,1.205,1.571,1.571,4.113,0.003,1.176,4.711,0.001,0.000,0.623,-8.557,-2.136,4.927,3.345,6.074,5.080,4.712,4.712,2.171,6.280,5.107,1.573,0.000,0.000,1.279,-8.529,-2.135,4.923,3.328,6.093,
69.920,120.428,0.975,-9.112,1.612,-0.015,0.120,0.000,0.000,0.000,0.000,0.000,0.000,0.000,0.000,0.000,0.000,0.000,3.142,0.000,0.000,0.000,0.000,0.000,0.000,0.000,0.000,0.000,0.000,0.000,3.142,6.283,0.015,1.203,1.571,1.571,4.112,0.003,1.176,4.711,0.001,0.000,0.623,-8.557,-2.134,4.925,3.348,6.072,5.083,4.712,4.712,2.171,6.281,5.108,1.573,0.000,0.000,1.279,-8.529,-2.133,4.921,3.331,6.090,
70.020,120.528,0.974,-9.112,1.612,-0.064,0.025,0.000,0.000,0.000,0.000,0.000,0.000,0.000,0.000,0.000,0.000,0.000,3.142,0.000,0.000,0.000,0.000,0.000,0.000,0.000,0.000,0.000,0.000,0.000,3.142,0.000,0.015,1.204,1.571,1.571,4.113,0.003,1.176,4.711,0.001,0.000,0.623,-8.556,-2.136,4.927,3.343,6.077,5.078,4.712,4.712,2.171,6.280,5.107,1.573,0.000,0.000,1.279,-8.530,-2.136,4.926,3.323,6.098,
70.107,120.615,0.974,-9.112,1.613,-0.012,6.238,0.000,0.000,0.000,0.000,0.000,0.000,0.000,0.000,0.000,0.000,0.000,3.142,0.000,0.000,0.000,0.000,0.000,0.000,0.000,0.000,0.000,0.000,0.000,3.142,6.283,0.015,1.205,1.571,1.571,4.111,0.003,1.176,4.711,0.001,0.000,0.623,-8.557,-2.135,4.925,3.346,6.074,5.078,4.712,4.712,2.171,6.280,5.107,1.573,0.000,0.000,1.279,-8.529,-2.136,4.926,3.326,6.095,
70.214,120.722,0.975,-9.112,1.612,-0.031,0.057,0.000,0.000,0.000,0.000,0.000,0.000,0.000,0.000,0.000,0.000,0.000,3.142,0.000,0.000,0.000,0.000,0.000,0.000,0.000,0.000,0.000,0.000,0.000,3.142,6.283,0.015,1.208,1.571,1.571,4.112,0.003,1.176,4.711,0.001,0.000,0.623,-8.557,-2.138,4.930,3.341,6.079,5.080,4.712,4.712,2.171,6.280,5.107,1.573,0.000,0.000,1.279,-8.529,-2.135,4.924,3.326,6.095,
70.320,120.828,0.975,-9.112,1.612,-0.057,6.283,0.000,0.000,0.000,0.000,0.000,0.000,0.000,0.000,0.000,0.000,0.000,3.142,0.000,0.000,0.000,0.000,0.000,0.000,0.000,0.000,0.000,0.000,0.000,3.142,6.283,0.015,1.205,1.571,1.571,4.112,0.003,1.176,4.711,0.001,0.000,0.623,-8.557,-2.136,4.927,3.345,6.075,5.075,4.712,4.712,2.171,6.280,5.107,1.573,0.000,0.000,1.279,-8.530,-2.138,4.929,3.322,6.099,
70.420,120.928,0.975,-9.112,1.612,-0.052,0.003,0.000,0.000,0.000,0.000,0.000,0.000,0.000,0.000,0.000,0.000,0.000,3.142,0.000,0.000,0.000,0.000,0.000,0.000,0.000,0.000,0.000,0.000,0.000,3.142,6.283,0.015,1.209,1.571,1.571,4.112,0.003,1.176,4.711,0.001,0.000,0.623,-8.558,-2.139,4.931,3.340,6.079,5.083,4.712,4.712,2.171,6.280,5.107,1.573,0.000,0.000,1.279,-8.528,-2.134,4.922,3.328,6.093,
70.520,121.028,0.975,-9.112,1.612,-0.032,0.100,0.000,0.000,0.000,0.000,0.000,0.000,0.000,0.000,0.000,0.000,0.000,3.142,0.000,0.000,0.000,0.000,0.000,0.000,0.000,0.000,0.000,0.000,0.000,3.142,0.000,0.015,1.210,1.571,1.571,4.113,0.003,1.176,4.711,0.001,0.000,0.623,-8.557,-2.139,4.932,3.340,6.080,5.078,4.712,4.711,2.171,6.280,5.107,1.573,0.000,0.000,1.279,-8.530,-2.136,4.926,3.325,6.096,
70.620,121.128,0.975,-9.112,1.612,-0.053,6.236,0.000,0.000,0.000,0.000,0.000,0.000,0.000,0.000,0.000,0.000,0.000,3.142,0.000,0.000,0.000,0.000,0.000,0.000,0.000,0.000,0.000,0.000,0.000,3.142,6.283,0.015,1.211,1.571,1.571,4.112,0.003,1.176,4.711,0.001,0.000,0.623,-8.558,-2.139,4.933,3.339,6.080,5.083,4.712,4.711,2.171,6.280,5.107,1.573,0.000,0.000,1.279,-8.529,-2.133,4.922,3.330,6.092,
70.720,121.228,0.975,-9.112,1.612,-0.066,6.283,0.000,0.000,0.000,0.000,0.000,0.000,0.000,0.000,0.000,0.000,0.000,3.142,0.000,0.000,0.000,0.000,0.000,0.000,0.000,0.000,0.000,0.000,0.000,3.142,0.000,0.015,1.211,1.571,1.571,4.113,0.003,1.176,4.711,0.001,0.000,0.623,-8.558,-2.140,4.934,3.337,6.082,5.078,4.712,4.712,2.171,6.280,5.107,1.573,0.000,0.000,1.279,-8.530,-2.136,4.926,3.324,6.097,
70.820,121.328,0.975,-9.112,1.612,-0.026,0.099,0.000,0.000,0.000,0.000,0.000,0.000,0.000,0.000,0.000,0.000,0.000,3.142,0.000,0.000,0.000,0.000,0.000,0.000,0.000,0.000,0.000,0.000,0.000,3.142,0.000,0.015,1.201,1.571,1.571,4.113,0.003,1.176,4.711,0.001,0.000,0.623,-8.556,-2.134,4.923,3.347,6.073,5.074,4.712,4.711,2.171,6.280,5.107,1.573,0.000,0.000,1.279,-8.530,-2.139,4.930,3.320,6.101,
70.920,121.428,0.975,-9.112,1.612,-0.046,0.023,0.000,0.000,0.000,0.000,0.000,0.000,0.000,0.000,0.000,0.000,0.000,3.142,0.000,0.000,0.000,0.000,0.000,0.000,0.000,0.000,0.000,0.000,0.000,3.142,6.283,0.015,1.205,1.571,1.571,4.112,0.003,1.176,4.711,0.001,0.000,0.623,-8.556,-2.136,4.927,3.342,6.077,5.077,4.712,4.712,2.170,6.280,5.107,1.573,0.000,0.000,1.279,-8.530,-2.137,4.928,3.321,6.100,
71.020,121.528,0.975,-9.112,1.613,-0.052,6.236,0.000,0.000,0.000,0.000,0.000,0.000,0.000,0.000,0.000,0.000,0.000,3.142,0.000,0.000,0.000,0.000,0.000,0.000,0.000,0.000,0.000,0.000,0.000,3.142,6.283,0.015,1.208,1.571,1.571,4.112,0.003,1.176,4.711,0.001,0.000,0.623,-8.557,-2.137,4.929,3.344,6.075,5.082,4.711,4.711,2.171,6.280,5.107,1.573,0.000,0.000,1.278,-8.528,-2.134,4.923,3.330,6.091,
71.120,121.628,0.975,-9.112,1.613,-0.011,6.269,0.000,0.000,0.000,0.000,0.000,0.000,0.000,0.000,0.000,0.000,0.000,3.142,0.000,0.000,0.000,0.000,0.000,0.000,0.000,0.000,0.000,0.000,0.000,3.142,6.283,0.015,1.211,1.571,1.571,4.112,0.003,1.176,4.711,0.001,0.000,0.623,-8.558,-2.139,4.932,3.342,6.078,5.084,4.712,4.712,2.171,6.280,5.107,1.573,0.000,0.000,1.278,-8.528,-2.132,4.920,3.333,6.088,
71.220,121.728,0.975,-9.112,1.613,-0.055,6.266,0.000,0.000,0.000,0.000,0.000,0.000,0.000,0.000,0.000,0.000,0.000,3.142,0.000,0.000,0.000,0.000,0.000,0.000,0.000,0.000,0.000,0.000,0.000,3.142,6.283,0.015,1.213,1.571,1.571,4.112,0.003,1.176,4.711,0.001,0.000,0.622,-8.559,-2.141,4.935,3.342,6.078,5.085,4.712,4.712,2.171,6.280,5.107,1.573,0.000,0.000,1.278,-8.528,-2.132,4.919,3.336,6.085,
71.310,121.818,0.975,-9.112,1.613,-0.008,0.119,0.000,0.000,0.000,0.000,0.000,0.000,0.000,0.000,0.000,0.000,0.000,3.142,0.000,0.000,0.000,0.000,0.000,0.000,0.000,0.000,0.000,0.000,0.000,3.142,6.283,0.015,1.205,1.571,1.571,4.112,0.003,1.176,4.711,0.001,0.000,0.622,-8.557,-2.136,4.926,3.351,6.069,5.083,4.712,4.712,2.172,6.280,5.107,1.573,0.000,0.000,1.278,-8.528,-2.133,4.921,3.336,6.085,
71.415,121.922,0.975,-9.112,1.613,-0.040,0.032,0.000,0.000,0.000,0.000,0.000,0.000,0.000,0.000,0.000,0.000,0.000,3.142,0.000,0.000,0.000,0.000,0.000,0.000,0.000,0.000,0.000,0.000,0.000,3.142,6.283,0.015,1.204,1.571,1.571,4.112,0.003,1.176,4.711,0.001,0.000,0.622,-8.557,-2.136,4.926,3.351,6.069,5.078,4.712,4.712,2.171,6.280,5.107,1.573,0.000,0.000,1.278,-8.529,-2.136,4.926,3.330,6.091,
71.520,122.028,0.975,-9.112,1.615,-0.010,6.247,0.000,0.000,0.000,0.000,0.000,0.000,0.000,0.000,0.000,0.000,0.000,3.142,0.000,0.000,0.000,0.000,0.000,0.000,0.000,0.000,0.000,0.000,0.000,3.142,6.283,0.015,1.208,1.571,1.572,4.111,0.003,1.176,4.711,0.001,0.000,0.622,-8.558,-2.138,4.929,3.351,6.069,5.085,4.712,4.712,2.171,6.280,5.107,1.573,0.000,0.000,1.278,-8.527,-2.132,4.919,3.341,6.080,
71.620,122.128,0.975,-9.112,1.614,-0.019,0.061,0.000,0.000,0.000,0.000,0.000,0.000,0.000,0.000,0.000,0.000,0.000,3.142,0.000,0.000,0.000,0.000,0.000,0.000,0.000,0.000,0.000,0.000,0.000,3.142,6.283,0.015,1.211,1.571,1.571,4.113,0.003,1.176,4.711,0.001,0.000,0.622,-8.559,-2.140,4.934,3.347,6.072,5.084,4.712,4.712,2.171,6.280,5.107,1.573,0.000,0.000,1.278,-8.528,-2.132,4.921,3.340,6.081,
71.720,122.228,0.975,-9.112,1.614,-0.016,0.131,0.000,0.000,0.000,0.000,0.000,0.000,0.000,0.000,0.000,0.000,0.000,3.142,0.000,0.000,0.000,0.000,0.000,0.000,0.000,0.000,0.000,0.000,0.000,3.142,6.283,0.015,1.208,1.571,1.571,4.112,0.003,1.176,4.711,0.001,0.000,0.622,-8.558,-2.138,4.929,3.350,6.069,5.085,4.712,4.712,2.171,6.280,5.108,1.573,0.000,0.000,1.278,-8.528,-2.132,4.919,3.341,6.080,
71.820,122.328,0.975,-9.112,1.614,-0.054,6.241,0.000,0.000,0.000,0.000,0.000,0.000,0.000,0.000,0.000,0.000,0.000,3.142,0.000,0.000,0.000,0.000,0.000,0.000,0.000,0.000,0.000,0.000,0.000,3.142,6.283,0.015,1.209,1.571,1.571,4.112,0.003,1.176,4.711,0.001,0.000,0.622,-8.558,-2.138,4.932,3.349,6.070,5.084,4.712,4.712,2.171,6.280,5.107,1.573,0.000,0.000,1.278,-8.528,-2.132,4.920,3.340,6.081,
71.920,122.428,0.975,-9.112,1.614,-0.021,0.068,0.000,0.000,0.000,0.000,0.000,0.000,0.000,0.000,0.000,0.000,0.000,3.142,0.000,0.000,0.000,0.000,0.000,0.000,0.000,0.000,0.000,0.000,0.000,3.142,0.000,0.015,1.210,1.571,1.571,4.113,0.003,1.176,4.711,0.001,0.000,0.622,-8.558,-2.139,4.933,3.348,6.071,5.079,4.712,4.712,2.171,6.280,5.107,1.573,0.000,0.000,1.278,-8.529,-2.135,4.925,3.336,6.085,
72.020,122.528,0.975,-9.112,1.615,-0.012,6.259,0.000,0.000,0.000,0.000,0.000,0.000,0.000,0.000,0.000,0.000,0.000,3.142,0.000,0.000,0.000,0.000,0.000,0.000,0.000,0.000,0.000,0.000,0.000,3.142,6.283,0.015,1.211,1.571,1.571,4.112,0.003,1.176,4.711,0.001,0.000,0.622,-8.559,-2.139,4.932,3.348,6.071,5.083,4.712,4.712,2.171,6.280,5.107,1.573,0.000,0.000,1.278,-8.528,-2.133,4.921,3.340,6.081,
72.120,122.628,0.975,-9.112,1.615,-0.010,0.008,0.000,0.000,0.000,0.000,0.000,0.000,0.000,0.000,0.000,0.000,0.000,3.142,0.000,0.000,0.000,0.000,0.000,0.000,0.000,0.000,0.000,0.000,0.000,3.142,6.283,0.015,1.212,1.571,1.571,4.112,0.003,1.176,4.711,0.001,0.000,0.622,-8.559,-2.140,4.933,3.351,6.068,5.084,4.712,4.712,2.171,6.280,5.107,1.573,0.000,0.000,1.277,-8.527,-2.132,4.920,3.345,6.076,
72.220,122.728,0.975,-9.112,1.614,-0.075,0.162,0.000,0.000,0.000,0.000,0.000,0.000,0.000,0.000,0.000,0.000,0.000,3.142,0.000,0.000,0.000,0.000,0.000,0.000,0.000,0.000,0.000,0.000,0.000,3.142,0.000,0.015,1.204,1.571,1.571,4.113,0.003,1.176,4.710,0.001,0.000,0.622,-8.557,-2.136,4.927,3.357,6.063,5.080,4.712,4.711,2.171,6.280,5.107,1.572,0.000,0.000,1.278,-8.528,-2.135,4.925,3.338,6.083,
72.320,122.828,0.975,-9.112,1.615,-0.049,0.017,0.000,0.000,0.000,0.000,0.000,0.000,0.000,0.000,0.000,0.000,0.000,3.142,0.000,0.000,0.000,0.000,0.000,0.000,0.000,0.000,0.000,0.000,0.000,3.142,6.283,0.015,1.206,1.571,1.571,4.112,0.003,1.176,4.711,0.001,0.000,0.622,-8.558,-2.136,4.927,3.355,6.064,5.078,4.712,4.712,2.170,6.280,5.107,1.573,0.000,0.000,1.278,-8.528,-2.136,4.927,3.335,6.086,
72.420,122.928,0.975,-9.112,1.615,-0.020,0.063,0.000,0.000,0.000,0.000,0.000,0.000,0.000,0.000,0.000,0.000,0.000,3.142,0.000,0.000,0.000,0.000,0.000,0.000,0.000,0.000,0.000,0.000,0.000,3.142,0.000,0.015,1.208,1.571,1.571,4.112,0.003,1.176,4.711,0.001,0.000,0.622,-8.558,-2.138,4.930,3.354,6.065,5.079,4.712,4.712,2.171,6.280,5.107,1.573,0.000,0.000,1.278,-8.528,-2.136,4.926,3.339,6.082,
72.501,123.009,0.975,-9.112,1.614,-0.019,0.087,0.000,0.000,0.000,0.000,0.000,0.000,0.000,0.000,0.000,0.000,0.000,3.142,0.000,0.000,0.000,0.000,0.000,0.000,0.000,0.000,0.000,0.000,0.000,3.142,0.000,0.015,1.204,1.571,1.571,4.113,0.003,1.176,4.711,0.001,0.000,0.622,-8.557,-2.135,4.926,3.356,6.063,5.075,4.712,4.712,2.171,6.280,5.107,1.573,0.000,0.000,1.278,-8.529,-2.138,4.930,3.332,6.088,
72.620,123.128,0.975,-9.112,1.615,-0.011,6.271,0.000,0.000,0.000,0.000,0.000,0.000,0.000,0.000,0.000,0.000,0.000,3.142,0.000,0.000,0.000,0.000,0.000,0.000,0.000,0.000,0.000,0.000,0.000,3.142,6.283,0.015,1.206,1.571,1.571,4.112,0.003,1.176,4.711,0.001,0.000,0.622,-8.558,-2.136,4.928,3.354,6.065,5.077,4.712,4.712,2.171,6.280,5.107,1.573,0.000,0.000,1.278,-8.529,-2.137,4.928,3.335,6.086,
72.720,123.228,0.975,-9.112,1.614,-0.022,0.085,0.000,0.000,0.000,0.000,0.000,0.000,0.000,0.000,0.000,0.000,0.000,3.142,0.000,0.000,0.000,0.000,0.000,0.000,0.000,0.000,0.000,0.000,0.000,3.142,6.283,0.015,1.208,1.571,1.571,4.112,0.003,1.176,4.711,0.001,0.000,0.622,-8.558,-2.137,4.930,3.353,6.067,5.080,4.712,4.712,2.170,6.280,5.107,1.573,0.000,0.000,1.278,-8.528,-2.135,4.926,3.336,6.084,
72.820,123.328,0.975,-9.112,1.615,-0.012,6.250,0.000,0.000,0.000,0.000,0.000,0.000,0.000,0.000,0.000,0.000,0.000,3.142,0.000,0.000,0.000,0.000,0.000,0.000,0.000,0.000,0.000,0.000,0.000,3.142,6.283,0.015,1.210,1.571,1.571,4.112,0.003,1.176,4.711,0.001,0.000,0.622,-8.559,-2.138,4.931,3.351,6.068,5.083,4.712,4.712,2.171,6.280,5.107,1.573,0.000,0.000,1.278,-8.528,-2.133,4.922,3.342,6.079,
72.920,123.428,0.975,-9.112,1.616,-0.012,6.257,0.000,0.000,0.000,0.000,0.000,0.000,0.000,0.000,0.000,0.000,0.000,3.142,0.000,0.000,0.000,0.000,0.000,0.000,0.000,0.000,0.000,0.000,0.000,3.142,6.283,0.015,1.213,1.571,1.571,4.112,0.003,1.176,4.711,0.001,0.000,0.622,-8.560,-2.141,4.934,3.351,6.068,5.088,4.712,4.712,2.171,6.280,5.107,1.573,0.000,0.000,1.277,-8.527,-2.130,4.917,3.350,6.071,
73.020,123.528,0.975,-9.112,1.616,-0.010,0.119,0.000,0.000,0.000,0.000,0.000,0.000,0.000,0.000,0.000,0.000,0.000,3.142,0.000,0.000,0.000,0.000,0.000,0.000,0.000,0.000,0.000,0.000,0.000,3.142,6.283,0.015,1.214,1.572,1.571,4.112,0.003,1.176,4.711,0.001,0.000,0.621,-8.560,-2.141,4.936,3.352,6.067,5.087,4.712,4.712,2.171,6.280,5.107,1.573,0.000,0.000,1.277,-8.527,-2.131,4.918,3.350,6.071,
73.120,123.628,0.975,-9.112,1.616,-0.021,0.063,0.000,0.000,0.000,0.000,0.000,0.000,0.000,0.000,0.000,0.000,0.000,3.142,0.000,0.000,0.000,0.000,0.000,0.000,0.000,0.000,0.000,0.000,0.000,3.142,0.000,0.015,1.210,1.571,1.571,4.113,0.003,1.176,4.711,0.001,0.000,0.621,-8.559,-2.139,4.933,3.355,6.065,5.082,4.712,4.712,2.171,6.280,5.107,1.573,0.000,0.000,1.277,-8.528,-2.134,4.923,3.345,6.076,
73.220,123.728,0.975,-9.112,1.616,-0.051,6.236,0.000,0.000,0.000,0.000,0.000,0.000,0.000,0.000,0.000,0.000,0.000,3.142,0.000,0.000,0.000,0.000,0.000,0.000,0.000,0.000,0.000,0.000,0.000,3.142,6.283,0.015,1.211,1.571,1.571,4.113,0.003,1.176,4.711,0.001,0.000,0.621,-8.559,-2.139,4.934,3.354,6.065,5.081,4.711,4.711,2.171,6.280,5.107,1.573,0.000,0.000,1.277,-8.528,-2.134,4.924,3.344,6.077,
73.320,123.828,0.975,-9.112,1.615,-0.049,0.064,0.000,0.000,0.000,0.000,0.000,0.000,0.000,0.000,0.000,0.000,0.000,3.142,0.000,0.000,0.000,0.000,0.000,0.000,0.000,0.000,0.000,0.000,0.000,3.142,0.000,0.015,1.209,1.571,1.571,4.113,0.003,1.176,4.711,0.001,0.000,0.621,-8.558,-2.139,4.932,3.355,6.064,5.080,4.712,4.712,2.171,6.280,5.107,1.572,0.000,0.000,1.277,-8.528,-2.135,4.925,3.341,6.080,
73.420,123.928,0.975,-9.112,1.616,-0.010,6.272,0.000,0.000,0.000,0.000,0.000,0.000,0.000,0.000,0.000,0.000,0.000,3.142,0.000,0.000,0.000,0.000,0.000,0.000,0.000,0.000,0.000,0.000,0.000,3.142,6.283,0.015,1.205,1.571,1.571,4.111,0.003,1.176,4.711,0.001,0.000,0.621,-8.558,-2.135,4.926,3.360,6.059,5.079,4.712,4.712,2.171,6.280,5.107,1.573,0.000,0.000,1.277,-8.528,-2.135,4.925,3.342,6.079,
73.513,124.021,0.975,-9.112,1.615,-0.018,0.075,0.000,0.000,0.000,0.000,0.000,0.000,0.000,0.000,0.000,0.000,0.000,3.142,0.000,0.000,0.000,0.000,0.000,0.000,0.000,0.000,0.000,0.000,0.000,3.142,6.283,0.015,1.204,1.571,1.571,4.112,0.003,1.176,4.711,0.001,0.000,0.621,-8.558,-2.135,4.926,3.361,6.059,5.077,4.712,4.711,2.171,6.280,5.107,1.573,0.000,0.000,1.277,-8.529,-2.137,4.928,3.338,6.082,
73.618,124.126,0.975,-9.112,1.616,-0.010,6.267,0.000,0.000,0.000,0.000,0.000,0.000,0.000,0.000,0.000,0.000,0.000,3.142,0.000,0.000,0.000,0.000,0.000,0.000,0.000,0.000,0.000,0.000,0.000,3.142,6.283,0.015,1.206,1.571,1.571,4.112,0.003,1.176,4.711,0.001,0.000,0.621,-8.559,-2.137,4.928,3.358,6.062,5.078,4.712,4.712,2.171,6.280,5.107,1.573,0.000,0.000,1.277,-8.529,-2.136,4.926,3.340,6.081,
73.720,124.228,0.975,-9.112,1.615,-0.049,0.088,0.000,0.000,0.000,0.000,0.000,0.000,0.000,0.000,0.000,0.000,0.000,3.142,0.000,0.000,0.000,0.000,0.000,0.000,0.000,0.000,0.000,0.000,0.000,3.142,6.283,0.015,1.208,1.571,1.571,4.113,0.003,1.176,4.711,0.001,0.000,0.621,-8.558,-2.138,4.930,3.357,6.063,5.080,4.712,4.711,2.171,6.280,5.107,1.573,0.000,0.000,1.277,-8.528,-2.135,4.925,3.342,6.079,
73.820,124.328,0.975,-9.112,1.616,-0.019,0.050,0.000,0.000,0.000,0.000,0.000,0.000,0.000,0.000,0.000,0.000,0.000,3.142,0.000,0.000,0.000,0.000,0.000,0.000,0.000,0.000,0.000,0.000,0.000,3.142,6.283,0.015,1.202,1.571,1.571,4.112,0.003,1.176,4.711,0.001,0.000,0.621,-8.557,-2.134,4.924,3.364,6.055,5.076,4.712,4.712,2.171,6.280,5.107,1.573,0.000,0.000,1.277,-8.529,-2.137,4.929,3.339,6.082,
73.920,124.428,0.975,-9.112,1.616,-0.021,0.078,0.000,0.000,0.000,0.000,0.000,0.000,0.000,0.000,0.000,0.000,0.000,3.142,0.000,0.000,0.000,0.000,0.000,0.000,0.000,0.000,0.000,0.000,0.000,3.142,6.283,0.015,1.206,1.571,1.571,4.112,0.003,1.176,4.711,0.001,0.000,0.621,-8.558,-2.136,4.928,3.360,6.060,5.082,4.712,4.712,2.170,6.280,5.107,1.573,0.000,0.000,1.277,-8.528,-2.134,4.924,3.344,6.077,
74.020,124.528,0.975,-9.112,1.616,-0.022,0.048,0.000,0.000,0.000,0.000,0.000,0.000,0.000,0.000,0.000,0.000,0.000,3.142,0.000,0.000,0.000,0.000,0.000,0.000,0.000,0.000,0.000,0.000,0.000,3.142,6.283,0.015,1.208,1.571,1.571,4.112,0.003,1.176,4.711,0.001,0.000,0.621,-8.559,-2.138,4.930,3.358,6.061,5.082,4.712,4.712,2.171,6.280,5.107,1.573,0.000,0.000,1.277,-8.528,-2.134,4.923,3.345,6.076,
74.120,124.628,0.975,-9.112,1.616,-0.055,6.243,0.000,0.000,0.000,0.000,0.000,0.000,0.000,0.000,0.000,0.000,0.000,3.142,0.000,0.000,0.000,0.000,0.000,0.000,0.000,0.000,0.000,0.000,0.000,3.142,6.283,0.015,1.212,1.571,1.571,4.112,0.003,1.176,4.711,0.001,0.000,0.621,-8.560,-2.140,4.934,3.354,6.065,5.084,4.712,4.712,2.171,6.280,5.107,1.573,0.000,0.000,1.277,-8.527,-2.132,4.921,3.348,6.073,
74.220,124.728,0.975,-9.112,1.617,-0.011,6.273,0.000,0.000,0.000,0.000,0.000,0.000,0.000,0.000,0.000,0.000,0.000,3.142,0.000,0.000,0.000,0.000,0.000,0.000,0.000,0.000,0.000,0.000,0.000,3.142,6.283,0.015,1.213,1.571,1.571,4.112,0.003,1.176,4.711,0.001,0.000,0.621,-8.560,-2.140,4.935,3.357,6.063,5.088,4.712,4.712,2.172,6.280,5.107,1.573,0.000,0.000,1.277,-8.527,-2.130,4.917,3.356,6.065,
74.320,124.828,0.975,-9.112,1.617,-0.018,0.047,0.000,0.000,0.000,0.000,0.000,0.000,0.000,0.000,0.000,0.000,0.000,3.142,0.000,0.000,0.000,0.000,0.000,0.000,0.000,0.000,0.000,0.000,0.000,3.142,0.000,0.015,1.206,1.571,1.571,4.112,0.003,1.176,4.711,0.001,0.000,0.621,-8.559,-2.137,4.929,3.365,6.054,5.082,4.712,4.712,2.171,6.280,5.107,1.573,0.000,0.000,1.277,-8.528,-2.134,4.923,3.351,6.070,
74.420,124.928,0.975,-9.112,1.616,-0.024,0.085,0.000,0.000,0.000,0.000,0.000,0.000,0.000,0.000,0.000,0.000,0.000,3.142,0.000,0.000,0.000,0.000,0.000,0.000,0.000,0.000,0.000,0.000,0.000,3.142,0.000,0.015,1.203,1.571,1.571,4.112,0.003,1.176,4.711,0.001,0.000,0.621,-8.558,-2.135,4.926,3.364,6.056,5.077,4.712,4.712,2.171,6.280,5.107,1.573,0.000,0.000,1.277,-8.529,-2.137,4.928,3.342,6.079,
74.520,125.028,0.975,-9.112,1.617,-0.011,6.259,0.000,0.000,0.000,0.000,0.000,0.000,0.000,0.000,0.000,0.000,0.000,3.142,0.000,0.000,0.000,0.000,0.000,0.000,0.000,0.000,0.000,0.000,0.000,3.142,6.283,0.015,1.206,1.571,1.571,4.112,0.003,1.176,4.711,0.001,0.000,0.621,-8.559,-2.137,4.928,3.361,6.058,5.079,4.712,4.712,2.171,6.280,5.107,1.573,0.000,0.000,1.277,-8.528,-2.136,4.926,3.344,6.077,
74.620,125.128,0.975,-9.112,1.617,-0.013,6.246,0.000,0.000,0.000,0.000,0.000,0.000,0.000,0.000,0.000,0.000,0.000,3.142,0.000,0.000,0.000,0.000,0.000,0.000,0.000,0.000,0.000,0.000,0.000,3.142,6.283,0.015,1.211,1.571,1.572,4.111,0.003,1.176,4.711,0.001,0.000,0.621,-8.560,-2.139,4.932,3.357,6.063,5.085,4.712,4.712,2.171,6.280,5.107,1.573,0.000,0.000,1.277,-8.527,-2.132,4.920,3.350,6.071,
74.720,125.228,0.975,-9.112,1.617,-0.042,0.036,0.000,0.000,0.000,0.000,0.000,0.000,0.000,0.000,0.000,0.000,0.000,3.142,0.000,0.000,0.000,0.000,0.000,0.000,0.000,0.000,0.000,0.000,0.000,3.142,6.283,0.015,1.213,1.571,1.571,4.113,0.003,1.176,4.711,0.001,0.000,0.621,-8.560,-2.141,4.936,3.357,6.062,5.085,4.712,4.712,2.171,6.280,5.107,1.573,0.000,0.000,1.276,-8.527,-2.132,4.920,3.353,6.068,
74.820,125.328,0.975,-9.112,1.616,-0.002,0.211,0.000,0.000,0.000,0.000,0.000,0.000,0.000,0.000,0.000,0.000,0.000,3.142,0.000,0.000,0.000,0.000,0.000,0.000,0.000,0.000,0.000,0.000,0.000,3.142,0.000,0.015,1.202,1.571,1.571,4.113,0.003,1.176,4.710,0.001,0.000,0.621,-8.558,-2.135,4.925,3.365,6.054,5.080,4.712,4.711,2.171,6.280,5.107,1.573,0.000,0.000,1.277,-8.529,-2.135,4.925,3.345,6.076,
74.920,125.428,0.975,-9.112,1.617,-0.052,0.007,0.000,0.000,0.000,0.000,0.000,0.000,0.000,0.000,0.000,0.000,0.000,3.142,0.000,0.000,0.000,0.000,0.000,0.000,0.000,0.000,0.000,0.000,0.000,3.142,6.283,0.015,1.206,1.571,1.571,4.112,0.003,1.176,4.711,0.001,0.000,0.621,-8.559,-2.137,4.929,3.363,6.057,5.079,4.712,4.712,2.171,6.280,5.107,1.573,0.000,0.000,1.277,-8.528,-2.135,4.926,3.345,6.075,
75.020,125.528,0.975,-9.112,1.617,-0.064,0.184,0.000,0.000,0.000,0.000,0.000,0.000,0.000,0.000,0.000,0.000,0.000,3.142,0.000,0.000,0.000,0.000,0.000,0.000,0.000,0.000,0.000,0.000,0.000,3.142,6.283,0.015,1.211,1.572,1.571,4.113,0.003,1.176,4.711,0.001,0.000,0.620,-8.560,-2.140,4.934,3.360,6.059,5.083,4.712,4.712,2.170,6.280,5.107,1.573,0.000,0.000,1.276,-8.527,-2.134,4.923,3.351,6.069,
75.120,125.628,0.975,-9.112,1.617,-0.045,0.030,0.000,0.000,0.000,0.000,0.000,0.000,0.000,0.000,0.000,0.000,0.000,3.142,0.000,0.000,0.000,0.000,0.000,0.000,0.000,0.000,0.000,0.000,0.000,3.142,6.283,0.015,1.208,1.571,1.571,4.112,0.003,1.176,4.711,0.001,0.000,0.621,-8.559,-2.138,4.931,3.363,6.057,5.083,4.712,4.712,2.171,6.280,5.107,1.573,0.000,0.000,1.276,-8.527,-2.133,4.922,3.352,6.069,
75.220,125.728,0.975,-9.113,1.617,-0.050,0.017,0.000,0.000,0.000,0.000,0.000,0.000,0.000,0.000,0.000,0.000,0.000,3.142,0.000,0.000,0.000,0.000,0.000,0.000,0.000,0.000,0.000,0.000,0.000,3.142,6.283,0.015,1.208,1.571,1.571,4.112,0.003,1.176,4.711,0.001,0.000,0.620,-8.560,-2.138,4.931,3.365,6.055,5.086,4.712,4.712,2.171,6.280,5.107,1.573,0.000,0.000,1.276,-8.527,-2.131,4.919,3.357,6.064,
75.308,125.816,0.975,-9.112,1.617,-0.006,0.119,0.000,0.000,0.000,0.000,0.000,0.000,0.000,0.000,0.000,0.000,0.000,3.142,0.000,0.000,0.000,0.000,0.000,0.000,0.000,0.000,0.000,0.000,0.000,3.142,6.283,0.015,1.203,1.571,1.571,4.112,0.003,1.176,4.711,0.001,0.000,0.620,-8.559,-2.135,4.926,3.370,6.049,5.083,4.712,4.712,2.172,6.280,5.107,1.573,0.000,0.000,1.276,-8.528,-2.133,4.921,3.354,6.066,
75.412,125.920,0.975,-9.112,1.617,-0.021,0.036,0.000,0.000,0.000,0.000,0.000,0.000,0.000,0.000,0.000,0.000,0.000,3.142,0.000,0.000,0.000,0.000,0.000,0.000,0.000,0.000,0.000,0.000,0.000,3.142,0.000,0.015,1.201,1.571,1.571,4.113,0.004,1.176,4.711,0.001,0.000,0.620,-8.558,-2.134,4.925,3.370,6.050,5.078,4.712,4.712,2.171,6.281,5.107,1.573,0.000,0.000,1.276,-8.529,-2.136,4.927,3.347,6.074,
75.517,126.025,0.975,-9.113,1.617,-0.002,0.020,0.000,0.000,0.000,0.000,0.000,0.000,0.000,0.000,0.000,0.000,0.000,3.142,0.000,0.000,0.000,0.000,0.000,0.000,0.000,0.000,0.000,0.000,0.000,3.142,6.283,0.015,1.204,1.571,1.571,4.112,0.003,1.176,4.711,0.001,0.000,0.620,-8.559,-2.135,4.926,3.367,6.052,5.079,4.712,4.712,2.171,6.280,5.107,1.573,0.000,0.000,1.276,-8.528,-2.135,4.926,3.348,6.072,
75.620,126.128,0.975,-9.113,1.616,-0.027,0.114,0.000,0.000,0.000,0.000,0.000,0.000,0.000,0.000,0.000,0.000,0.000,3.142,0.000,0.000,0.000,0.000,0.000,0.000,0.000,0.000,0.000,0.000,0.000,3.142,0.000,0.015,1.202,1.571,1.570,4.113,0.004,1.176,4.710,0.001,0.000,0.620,-8.558,-2.135,4.926,3.370,6.050,5.081,4.712,4.711,2.171,6.281,5.107,1.572,0.000,0.000,1.276,-8.528,-2.134,4.924,3.350,6.071,
75.720,126.228,0.974,-9.113,1.616,-0.006,0.172,0.000,0.000,0.000,0.000,0.000,0.000,0.000,0.000,0.000,0.000,0.000,3.142,0.000,0.000,0.000,0.000,0.000,0.000,0.000,0.000,0.000,0.000,0.000,3.142,0.000,0.015,1.200,1.571,1.571,4.112,0.003,1.176,4.711,0.001,0.000,0.621,-8.558,-2.133,4.922,3.368,6.051,5.077,4.712,4.712,2.171,6.280,5.107,1.573,0.000,0.000,1.276,-8.529,-2.137,4.928,3.342,6.079,
75.820,126.328,0.975,-9.113,1.616,-0.020,0.076,0.000,0.000,0.000,0.000,0.000,0.000,0.000,0.000,0.000,0.000,0.000,3.142,0.000,0.000,0.000,0.000,0.000,0.000,0.000,0.000,0.000,0.000,0.000,3.142,6.283,0.015,1.202,1.571,1.571,4.112,0.003,1.176,4.711,0.001,0.000,0.621,-8.558,-2.134,4.924,3.365,6.055,5.077,4.712,4.711,2.171,6.280,5.107,1.573,0.000,0.000,1.277,-8.529,-2.137,4.928,3.340,6.081,
75.920,126.428,0.975,-9.113,1.616,-0.054,6.237,0.000,0.000,0.000,0.000,0.000,0.000,0.000,0.000,0.000,0.000,0.000,3.142,0.000,0.000,0.000,0.000,0.000,0.000,0.000,0.000,0.000,0.000,0.000,3.142,6.283,0.015,1.205,1.571,1.571,4.112,0.003,1.176,4.711,0.001,0.000,0.621,-8.559,-2.135,4.927,3.362,6.058,5.079,4.711,4.711,2.171,6.280,5.107,1.573,0.000,0.000,1.277,-8.529,-2.135,4.926,3.343,6.078,
76.019,126.527,0.975,-9.113,1.615,-0.019,0.082,0.000,0.000,0.000,0.000,0.000,0.000,0.000,0.000,0.000,0.000,0.000,3.142,0.000,0.000,0.000,0.000,0.000,0.000,0.000,0.000,0.000,0.000,0.000,3.142,0.000,0.015,1.203,1.571,1.571,4.112,0.003,1.176,4.711,0.001,0.000,0.621,-8.558,-2.134,4.926,3.362,6.057,5.074,4.712,4.712,2.171,6.280,5.107,1.573,0.000,0.000,1.277,-8.530,-2.138,4.931,3.337,6.084,
76.120,126.628,0.975,-9.113,1.617,-0.011,6.249,0.000,0.000,0.000,0.000,0.000,0.000,0.000,0.000,0.000,0.000,0.000,3.142,0.000,0.000,0.000,0.000,0.000,0.000,0.000,0.000,0.000,0.000,0.000,3.142,6.283,0.015,1.206,1.571,1.571,4.111,0.003,1.176,4.711,0.001,0.000,0.621,-8.559,-2.136,4.928,3.362,6.057,5.081,4.712,4.712,2.171,6.280,5.107,1.573,0.000,0.000,1.276,-8.528,-2.134,4.924,3.347,6.074,
76.214,126.722,0.975,-9.113,1.616,-0.018,0.072,0.000,0.000,0.000,0.000,0.000,0.000,0.000,0.000,0.000,0.000,0.000,3.142,0.000,0.000,0.000,0.000,0.000,0.000,0.000,0.000,0.000,0.000,0.000,3.142,0.000,0.015,1.208,1.571,1.571,4.112,0.003,1.176,4.711,0.001,0.000,0.621,-8.559,-2.138,4.930,3.360,6.059,5.078,4.712,4.712,2.171,6.280,5.107,1.573,0.000,0.000,1.276,-8.529,-2.137,4.927,3.343,6.078,
76.320,126.828,0.975,-9.113,1.617,-0.010,6.260,0.000,0.000,0.000,0.000,0.000,0.000,0.000,0.000,0.000,0.000,0.000,3.142,0.000,0.000,0.000,0.000,0.000,0.000,0.000,0.000,0.000,0.000,0.000,3.142,6.283,0.015,1.209,1.571,1.571,4.112,0.003,1.176,4.711,0.001,0.000,0.620,-8.560,-2.138,4.930,3.363,6.057,5.082,4.712,4.712,2.171,6.280,5.107,1.573,0.000,0.000,1.276,-8.528,-2.133,4.923,3.351,6.069,
76.420,126.928,0.975,-9.113,1.617,0.009,0.146,0.000,0.000,0.000,0.000,0.000,0.000,0.000,0.000,0.000,0.000,0.000,3.142,0.000,0.000,0.000,0.000,0.000,0.000,0.000,0.000,0.000,0.000,0.000,3.142,6.283,0.015,1.204,1.571,1.571,4.112,0.003,1.176,4.711,0.001,0.000,0.620,-8.559,-2.135,4.926,3.368,6.052,5.079,4.712,4.711,2.171,6.280,5.107,1.573,0.000,0.000,1.276,-8.529,-2.135,4.926,3.348,6.072,
76.520,127.028,0.975,-9.113,1.618,-0.009,6.276,0.000,0.000,0.000,0.000,0.000,0.000,0.000,0.000,0.000,0.000,0.000,3.142,0.000,0.000,0.000,0.000,0.000,0.000,0.000,0.000,0.000,0.000,0.000,3.142,6.283,0.015,1.206,1.571,1.571,4.112,0.003,1.176,4.711,0.001,0.000,0.620,-8.560,-2.137,4.928,3.366,6.053,5.083,4.712,4.712,2.171,6.280,5.107,1.573,0.000,0.000,1.276,-8.528,-2.134,4.922,3.353,6.068,
76.620,127.128,0.975,-9.113,1.618,-0.012,6.247,0.000,0.000,0.000,0.000,0.000,0.000,0.000,0.000,0.000,0.000,0.000,3.142,0.000,0.000,0.000,0.000,0.000,0.000,0.000,0.000,0.000,0.000,0.000,3.142,6.283,0.015,1.210,1.571,1.572,4.111,0.003,1.176,4.711,0.001,0.000,0.620,-8.561,-2.139,4.932,3.364,6.055,5.086,4.712,4.712,2.171,6.280,5.107,1.573,0.000,0.000,1.276,-8.527,-2.131,4.919,3.358,6.062,
76.708,127.216,0.975,-9.113,1.618,-0.051,0.116,0.000,0.000,0.000,0.000,0.000,0.000,0.000,0.000,0.000,0.000,0.000,3.142,0.000,0.000,0.000,0.000,0.000,0.000,0.000,0.000,0.000,0.000,0.000,3.142,0.000,0.015,1.211,1.571,1.571,4.113,0.004,1.176,4.711,0.001,0.000,0.619,-8.561,-2.140,4.934,3.368,6.051,5.084,4.712,4.711,2.171,6.281,5.107,1.573,0.000,0.000,1.275,-8.527,-2.132,4.921,3.362,6.059,
76.820,127.328,0.975,-9.113,1.619,-0.010,6.283,0.000,0.000,0.000,0.000,0.000,0.000,0.000,0.000,0.000,0.000,0.000,3.142,0.000,0.000,0.000,0.000,0.000,0.000,0.000,0.000,0.000,0.000,0.000,3.142,6.283,0.015,1.207,1.571,1.571,4.112,0.003,1.176,4.711,0.001,0.000,0.620,-8.560,-2.137,4.929,3.369,6.050,5.083,4.712,4.712,2.171,6.280,5.107,1.573,0.000,0.000,1.275,-8.528,-2.133,4.923,3.358,6.063,
76.901,127.409,0.975,-9.113,1.618,-0.021,0.065,0.000,0.000,0.000,0.000,0.000,0.000,0.000,0.000,0.000,0.000,0.000,3.142,0.000,0.000,0.000,0.000,0.000,0.000,0.000,0.000,0.000,0.000,0.000,3.142,0.000,0.015,1.205,1.571,1.571,4.112,0.003,1.176,4.710,0.001,0.000,0.619,-8.560,-2.136,4.929,3.372,6.047,5.079,4.712,4.711,2.171,6.280,5.107,1.573,0.000,0.000,1.275,-8.529,-2.135,4.926,3.354,6.066,
77.020,127.528,0.975,-9.113,1.619,-0.009,6.277,0.000,0.000,0.000,0.000,0.000,0.000,0.000,0.000,0.000,0.000,0.000,3.142,0.000,0.000,0.000,0.000,0.000,0.000,0.000,0.000,0.000,0.000,0.000,3.142,6.283,0.015,1.206,1.571,1.571,4.112,0.003,1.176,4.711,0.001,0.000,0.620,-8.560,-2.137,4.929,3.371,6.048,5.083,4.712,4.712,2.171,6.280,5.107,1.573,0.000,0.000,1.275,-8.528,-2.133,4.922,3.359,6.062,
77.120,127.628,0.975,-9.113,1.619,-0.012,6.244,0.000,0.000,0.000,0.000,0.000,0.000,0.000,0.000,0.000,0.000,0.000,3.142,0.000,0.000,0.000,0.000,0.000,0.000,0.000,0.000,0.000,0.000,0.000,3.142,6.283,0.015,1.210,1.571,1.572,4.111,0.003,1.176,4.711,0.001,0.000,0.619,-8.561,-2.139,4.932,3.369,6.050,5.086,4.712,4.712,2.171,6.280,5.107,1.573,0.000,0.000,1.275,-8.527,-2.131,4.919,3.365,6.056,
77.219,127.727,0.975,-9.113,1.620,-0.048,0.069,0.000,0.000,0.000,0.000,0.000,0.000,0.000,0.000,0.000,0.000,0.000,3.142,0.000,0.000,0.000,0.000,0.000,0.000,0.000,0.000,0.000,0.000,0.000,3.142,0.000,0.015,1.210,1.571,1.571,4.113,0.003,1.176,4.711,0.001,0.000,0.619,-8.561,-2.139,4.934,3.374,6.045,5.085,4.712,4.711,2.171,6.281,5.107,1.573,0.000,0.000,1.274,-8.527,-2.131,4.921,3.368,6.052,
77.320,127.828,0.975,-9.113,1.620,-0.003,0.033,0.000,0.000,0.000,0.000,0.000,0.000,0.000,0.000,0.000,0.000,0.000,3.142,0.000,0.000,0.000,0.000,0.000,0.000,0.000,0.000,0.000,0.000,0.000,3.142,6.283,0.015,1.207,1.571,1.571,4.112,0.003,1.176,4.711,0.001,0.000,0.619,-8.561,-2.136,4.929,3.375,6.044,5.083,4.712,4.712,2.171,6.280,5.107,1.573,0.000,0.000,1.274,-8.527,-2.133,4.923,3.364,6.057,
77.416,127.924,0.975,-9.113,1.620,-0.007,0.015,0.000,0.000,0.000,0.000,0.000,0.000,0.000,0.000,0.000,0.000,0.000,3.142,0.000,0.000,0.000,0.000,0.000,0.000,0.000,0.000,0.000,0.000,0.000,3.142,6.283,0.015,1.206,1.571,1.571,4.112,0.003,1.176,4.711,0.001,0.000,0.619,-8.561,-2.136,4.929,3.377,6.042,5.084,4.712,4.712,2.171,6.280,5.107,1.573,0.000,0.000,1.274,-8.527,-2.132,4.921,3.366,6.054,
77.520,128.028,0.975,-9.113,1.620,-0.041,0.037,0.000,0.000,0.000,0.000,0.000,0.000,0.000,0.000,0.000,0.000,0.000,3.142,0.000,0.000,0.000,0.000,0.000,0.000,0.000,0.000,0.000,0.000,0.000,3.142,6.283,0.015,1.207,1.571,1.571,4.113,0.003,1.176,4.711,0.001,0.000,0.618,-8.561,-2.137,4.931,3.379,6.040,5.083,4.712,4.711,2.171,6.280,5.107,1.573,0.000,0.000,1.274,-8.528,-2.133,4.923,3.368,6.052,
77.614,128.122,0.974,-9.114,1.621,-0.025,0.163,0.000,0.000,0.000,0.000,0.000,0.000,0.000,0.000,0.000,0.000,0.000,3.142,0.000,0.000,0.000,0.000,0.000,0.000,0.000,0.000,0.000,0.000,0.000,3.142,6.283,0.015,1.208,1.571,1.571,4.112,0.003,1.176,4.711,0.001,0.000,0.618,-8.562,-2.138,4.931,3.379,6.040,5.085,4.712,4.712,2.170,6.280,5.107,1.573,0.000,0.000,1.274,-8.527,-2.133,4.922,3.368,6.052,
77.720,128.228,0.974,-9.114,1.620,-0.030,0.082,0.000,0.000,0.000,0.000,0.000,0.000,0.000,0.000,0.000,0.000,0.000,3.142,0.000,0.000,0.000,0.000,0.000,0.000,0.000,0.000,0.000,0.000,0.000,3.142,0.000,0.015,1.205,1.571,1.571,4.112,0.003,1.176,4.711,0.001,0.000,0.618,-8.561,-2.136,4.929,3.383,6.035,5.082,4.712,4.711,2.171,6.280,5.107,1.573,0.000,0.000,1.274,-8.528,-2.133,4.924,3.368,6.052,
77.820,128.328,0.974,-9.114,1.621,-0.038,0.228,0.000,0.000,0.000,0.000,0.000,0.000,0.000,0.000,0.000,0.000,0.000,3.142,0.000,0.000,0.000,0.000,0.000,0.000,0.000,0.000,0.000,0.000,0.000,3.142,6.283,0.015,1.206,1.572,1.571,4.112,0.003,1.176,4.711,0.001,0.000,0.618,-8.561,-2.136,4.929,3.380,6.039,5.083,4.712,4.712,2.170,6.280,5.107,1.573,0.000,0.000,1.274,-8.527,-2.133,4.924,3.365,6.055,
77.904,128.412,0.974,-9.114,1.620,-0.022,0.086,0.000,0.000,0.000,0.000,0.000,0.000,0.000,0.000,0.000,0.000,0.000,3.142,0.000,0.000,0.000,0.000,0.000,0.000,0.000,0.000,0.000,0.000,0.000,3.142,0.000,0.015,1.200,1.571,1.571,4.112,0.003,1.176,4.711,0.001,0.000,0.618,-8.560,-2.132,4.923,3.388,6.031,5.078,4.712,4.712,2.171,6.280,5.107,1.573,0.000,0.000,1.274,-8.529,-2.136,4.928,3.362,6.058,
78.020,128.528,0.974,-9.114,1.620,-0.040,0.089,0.000,0.000,0.000,0.000,0.000,0.000,0.000,0.000,0.000,0.000,0.000,3.142,0.000,0.000,0.000,0.000,0.000,0.000,0.000,0.000,0.000,0.000,0.000,3.142,6.283,0.015,1.205,1.571,1.571,4.112,0.003,1.176,4.711,0.001,0.000,0.618,-8.561,-2.136,4.929,3.382,6.037,5.079,4.712,4.711,2.171,6.280,5.107,1.573,0.000,0.000,1.274,-8.529,-2.136,4.928,3.363,6.057,
78.120,128.628,0.974,-9.114,1.621,-0.055,6.240,0.000,0.000,0.000,0.000,0.000,0.000,0.000,0.000,0.000,0.000,0.000,3.142,0.000,0.000,0.000,0.000,0.000,0.000,0.000,0.000,0.000,0.000,0.000,3.142,6.283,0.015,1.206,1.571,1.571,4.112,0.003,1.176,4.711,0.001,0.000,0.618,-8.562,-2.136,4.929,3.382,6.036,5.080,4.712,4.712,2.171,6.280,5.107,1.573,0.000,0.000,1.274,-8.528,-2.135,4.927,3.365,6.055,
78.220,128.728,0.974,-9.114,1.621,-0.012,6.259,0.000,0.000,0.000,0.000,0.000,0.000,0.000,0.000,0.000,0.000,0.000,3.142,0.000,0.000,0.000,0.000,0.000,0.000,0.000,0.000,0.000,0.000,0.000,3.142,6.283,0.015,1.212,1.571,1.571,4.112,0.003,1.176,4.711,0.001,0.000,0.618,-8.563,-2.139,4.934,3.376,6.042,5.087,4.712,4.712,2.171,6.280,5.107,1.573,0.000,0.000,1.273,-8.527,-2.130,4.919,3.375,6.046,
78.320,128.828,0.974,-9.114,1.621,-0.059,0.185,0.000,0.000,0.000,0.000,0.000,0.000,0.000,0.000,0.000,0.000,0.000,3.142,0.000,0.000,0.000,0.000,0.000,0.000,0.000,0.000,0.000,0.000,0.000,3.142,6.283,0.015,1.213,1.572,1.572,4.112,0.003,1.176,4.711,0.001,0.000,0.618,-8.563,-2.141,4.936,3.374,6.045,5.088,4.712,4.712,2.170,6.280,5.107,1.573,0.000,0.000,1.273,-8.526,-2.131,4.920,3.372,6.048,
78.420,128.928,0.974,-9.114,1.622,-0.009,6.282,0.000,0.000,0.000,0.000,0.000,0.000,0.000,0.000,0.000,0.000,0.000,3.142,0.000,0.000,0.000,0.000,0.000,0.000,0.000,0.000,0.000,0.000,0.000,3.142,6.283,0.015,1.210,1.571,1.571,4.112,0.003,1.176,4.711,0.001,0.000,0.618,-8.563,-2.139,4.933,3.380,6.038,5.086,4.712,4.712,2.172,6.280,5.107,1.573,0.000,0.000,1.273,-8.527,-2.131,4.919,3.377,6.044,
78.520,129.028,0.974,-9.114,1.622,-0.008,0.018,0.000,0.000,0.000,0.000,0.000,0.000,0.000,0.000,0.000,0.000,0.000,3.142,0.000,0.000,0.000,0.000,0.000,0.000,0.000,0.000,0.000,0.000,0.000,3.142,6.283,0.015,1.210,1.571,1.571,4.112,0.003,1.176,4.711,0.001,0.000,0.617,-8.563,-2.139,4.933,3.383,6.036,5.085,4.712,4.712,2.171,6.280,5.107,1.573,0.000,0.000,1.273,-8.527,-2.132,4.921,3.377,6.043,
78.602,129.110,0.974,-9.114,1.622,-0.048,0.025,0.000,0.000,0.000,0.000,0.000,0.000,0.000,0.000,0.000,0.000,0.000,3.142,0.000,0.000,0.000,0.000,0.000,0.000,0.000,0.000,0.000,0.000,0.000,3.142,0.000,0.015,1.213,1.571,1.571,4.113,0.003,1.176,4.711,0.001,0.000,0.617,-8.564,-2.141,4.937,3.380,6.039,5.082,4.712,4.711,2.171,6.280,5.107,1.573,0.000,0.000,1.273,-8.528,-2.134,4.925,3.374,6.046,
