deveshdatwani/Gopher/Assets/Data/06-25 00-39-04/Obstacle Handling_robot_value.csv
game_time,true_time,x,y,az,vx,vaz,dis_to_obs_0,dis_to_obs_36,dis_to_obs_72,dis_to_obs_108,dis_to_obs_144,dis_to_obs_180,dis_to_obs_-144,dis_to_obs_-108,dis_to_obs_-72,dis_to_obs_-36,dis_to_min_obs,direction_to_min_obs,dis_to_human_0,dis_to_human_36,dis_to_human_72,dis_to_human_108,dis_to_human_144,dis_to_human_180,dis_to_human_-144,dis_to_human_-108,dis_to_human_-72,dis_to_human_-36,dis_to_min_human,direction_to_min_human,main_cam_yaw,main_cam_pitch,left_joint_1,left_joint_2,left_joint_3,left_joint_4,left_joint_5,left_joint_6,left_joint_7,left_joint_gripper,left_is_grasping,left_end_x,left_end_y,left_end_z,left_end_ax,left_end_ay,left_end_az,right_joint_1,right_joint_2,right_joint_3,right_joint_4,right_joint_5,right_joint_6,right_joint_7,right_joint_gripper,right_is_grasping,right_end_x,right_end_y,right_end_z,right_end_ax,right_end_ay,right_end_az,
62.454,76.976,0.998,-10.319,1.577,0.885,0.011,3.820,0.000,1.549,1.258,2.123,4.593,2.944,2.097,2.000,4.654,0.000,0.790,0.000,0.000,0.000,0.000,0.000,0.000,0.000,0.000,0.000,0.000,0.000,3.142,6.278,6.283,1.008,1.567,1.566,4.077,6.281,1.199,4.712,0.000,0.000,0.663,-9.734,0.991,4.723,4.673,4.750,5.282,4.709,4.708,2.197,6.282,5.083,1.570,0.000,0.000,1.320,-9.727,0.991,4.723,4.285,5.140,
62.547,77.069,0.997,-10.199,1.576,1.415,6.264,3.700,0.000,1.727,1.257,2.120,4.713,3.092,2.097,1.696,4.509,0.000,0.825,0.000,0.000,0.000,0.000,0.000,0.000,0.000,0.000,0.000,0.000,0.000,3.142,6.281,0.000,1.005,1.569,1.568,4.083,6.281,1.199,4.712,0.000,0.000,0.664,-9.612,0.990,4.720,4.251,5.173,5.281,4.711,4.710,2.198,6.282,5.083,1.570,0.000,0.000,1.321,-9.608,0.990,4.721,4.144,5.280,
62.660,77.182,0.997,-10.094,1.577,1.178,6.265,3.595,0.000,1.879,1.257,2.120,4.818,3.224,2.098,1.697,4.380,0.000,2.826,0.000,0.000,0.000,0.000,0.000,0.000,0.000,0.000,0.000,0.000,0.000,3.142,0.001,0.001,1.002,1.570,1.571,4.089,6.281,1.200,4.712,0.000,0.000,0.666,-9.505,0.989,4.720,3.666,5.758,5.281,4.712,4.713,2.198,6.282,5.083,1.570,0.000,0.000,1.322,-9.503,0.990,4.719,3.897,5.527,
62.760,77.282,0.996,-9.983,1.577,0.803,6.265,3.484,0.000,2.038,1.256,2.121,4.929,3.364,2.098,1.698,4.243,0.000,2.931,0.000,0.000,0.000,0.000,0.000,0.000,0.000,0.000,0.000,0.000,0.000,3.142,6.283,0.001,1.003,1.569,1.570,4.086,6.281,1.199,4.712,0.000,0.000,0.664,-9.396,0.990,4.720,3.997,5.427,5.281,4.711,4.712,2.198,6.282,5.083,1.570,0.000,0.000,1.320,-9.392,0.990,4.720,4.084,5.340,
62.860,77.382,0.995,-9.898,1.578,0.982,6.265,3.399,0.000,1.740,1.256,2.121,0.000,3.363,2.099,1.699,4.138,0.000,3.142,0.000,0.000,0.000,0.000,0.000,0.000,0.000,0.000,0.000,0.000,0.000,3.142,6.281,0.000,1.005,1.569,1.568,4.083,6.281,1.199,4.712,0.000,0.000,0.662,-9.311,0.990,4.722,4.311,5.113,5.281,4.711,4.710,2.198,6.282,5.083,1.570,0.000,0.000,1.318,-9.306,0.990,4.722,4.218,5.206,
62.960,77.482,0.995,-9.792,1.578,1.119,6.265,3.293,0.000,1.686,1.255,2.121,0.000,3.362,2.099,1.700,3.471,0.000,3.142,0.000,0.000,0.000,0.000,0.000,0.000,0.000,0.000,0.000,0.000,0.000,3.142,6.282,0.000,1.004,1.569,1.569,4.084,6.281,1.199,4.712,0.000,0.000,0.661,-9.205,0.990,4.721,4.194,5.230,5.281,4.711,4.711,2.198,6.282,5.083,1.570,0.000,0.000,1.317,-9.200,0.990,4.722,4.194,5.230,
63.060,77.582,0.994,-9.706,1.584,1.049,0.350,3.207,0.000,1.643,1.294,2.139,0.000,3.337,2.096,1.704,3.356,0.000,3.142,0.000,0.000,0.000,0.000,0.000,0.000,0.000,0.000,0.000,0.000,0.000,3.142,0.001,0.000,1.002,1.570,1.571,4.087,6.281,1.200,4.712,0.000,0.000,0.659,-9.121,0.990,4.724,4.213,5.211,5.281,4.712,4.713,2.199,6.281,5.083,1.570,0.000,0.000,1.315,-9.113,0.991,4.724,4.373,5.051,
63.160,77.682,0.990,-9.589,1.681,0.956,1.383,3.115,0.000,1.627,1.328,2.512,0.000,2.974,2.050,0.000,3.528,0.000,3.142,0.000,0.000,0.000,0.000,0.000,0.000,0.000,0.000,0.000,0.000,0.000,3.142,0.002,0.000,1.003,1.571,1.572,4.086,6.281,1.199,4.712,0.000,0.000,0.600,-9.039,0.990,4.820,4.668,4.756,5.282,4.713,4.714,2.198,6.282,5.083,1.571,0.000,0.000,1.253,-8.968,0.991,4.820,4.685,4.739,
63.254,77.776,0.977,-9.494,1.797,1.013,0.962,3.085,0.000,1.643,1.378,3.206,0.000,2.675,1.631,0.000,3.234,0.000,3.142,0.000,0.000,0.000,0.000,0.000,0.000,0.000,0.000,0.000,0.000,0.000,3.142,0.000,0.000,1.004,1.569,1.567,4.084,6.282,1.199,4.712,0.000,0.000,0.523,-8.994,0.990,4.941,4.695,4.728,5.282,4.712,4.710,2.198,6.283,5.083,1.570,0.000,0.000,1.163,-8.846,0.991,4.940,4.697,4.727,
63.360,77.882,0.957,-9.414,1.822,1.049,6.263,3.023,0.000,1.601,1.381,3.375,0.000,2.643,1.647,0.000,3.117,0.000,3.142,0.000,0.000,0.000,0.000,0.000,0.000,0.000,0.000,0.000,0.000,0.000,3.142,6.282,0.000,1.004,1.568,1.566,4.084,6.282,1.199,4.712,0.000,0.000,0.491,-8.926,0.990,4.968,4.694,4.729,5.281,4.710,4.709,2.198,6.283,5.083,1.570,0.000,0.000,1.126,-8.763,0.990,4.967,4.694,4.729,
63.442,77.964,0.927,-9.296,1.822,1.009,6.275,2.900,0.000,1.504,1.445,3.279,0.000,2.684,1.677,4.400,2.992,0.000,3.142,0.000,0.000,0.000,0.000,0.000,0.000,0.000,0.000,0.000,0.000,0.000,3.142,6.282,0.000,1.004,1.569,1.569,4.085,6.281,1.199,4.712,0.000,0.000,0.462,-8.808,0.990,4.964,4.693,4.730,5.281,4.711,4.711,2.197,6.282,5.083,1.570,0.000,0.000,1.098,-8.644,0.990,4.964,4.693,4.731,
63.560,78.082,0.908,-9.220,1.821,0.992,6.274,2.821,4.989,1.442,1.486,3.219,0.000,2.709,1.697,0.000,2.911,0.000,3.142,0.000,0.000,0.000,0.000,0.000,0.000,0.000,0.000,0.000,0.000,0.000,3.142,6.282,0.000,1.004,1.569,1.569,4.085,6.281,1.199,4.712,0.000,0.000,0.443,-8.731,0.990,4.964,4.694,4.730,5.281,4.711,4.711,2.197,6.282,5.083,1.570,0.000,0.000,1.078,-8.568,0.990,4.964,4.693,4.731,
63.660,78.182,0.878,-9.106,1.821,1.013,6.272,2.702,4.952,1.348,1.547,3.131,0.000,2.748,1.726,4.791,2.789,0.000,3.142,0.000,0.000,0.000,0.000,0.000,0.000,0.000,0.000,0.000,0.000,0.000,3.142,6.282,0.000,1.004,1.569,1.569,4.084,6.281,1.199,4.712,0.000,0.000,0.414,-8.617,0.990,4.964,4.694,4.729,5.281,4.711,4.711,2.197,6.282,5.083,1.570,0.000,0.000,1.049,-8.454,0.990,4.964,4.693,4.730,
63.748,78.270,0.854,-9.009,1.828,1.020,0.376,2.607,4.894,1.312,1.597,3.117,0.000,2.764,2.149,4.565,2.678,0.000,3.142,0.000,0.000,0.000,0.000,0.000,0.000,0.000,0.000,0.000,0.000,0.000,3.142,0.000,0.000,1.003,1.570,1.571,4.086,6.281,1.199,4.712,0.000,0.000,0.387,-8.522,0.990,4.967,4.692,4.731,5.281,4.712,4.713,2.199,6.281,5.083,1.570,0.000,0.000,1.021,-8.356,0.991,4.968,4.698,4.726,
63.860,78.382,0.833,-8.932,1.882,1.012,1.183,2.569,4.678,1.303,1.623,3.608,4.485,2.679,0.000,4.096,2.548,0.000,3.106,0.000,0.000,0.000,0.000,0.000,0.000,0.000,0.000,0.000,0.000,0.000,3.142,0.002,0.000,1.003,1.571,1.572,4.086,6.281,1.199,4.712,0.000,0.000,0.341,-8.470,0.990,5.020,4.696,4.728,5.282,4.713,4.714,2.199,6.282,5.083,1.571,0.000,0.000,0.966,-8.270,0.991,5.020,4.702,4.722,
63.960,78.482,0.791,-8.820,2.027,1.009,1.296,2.606,0.000,1.264,1.659,0.000,4.305,2.494,0.000,3.296,2.349,0.000,2.966,0.000,0.000,0.000,0.000,0.000,0.000,0.000,0.000,0.000,0.000,0.000,3.142,0.001,0.000,1.003,1.570,1.569,4.085,6.282,1.199,4.712,0.000,0.000,0.237,-8.435,0.990,5.169,4.702,4.720,5.282,4.712,4.712,2.198,6.283,5.083,1.570,0.000,0.000,0.826,-8.146,0.991,5.168,4.705,4.718,
64.060,78.581,0.745,-8.731,2.118,1.021,0.858,2.194,0.000,1.254,1.698,0.000,4.331,2.009,0.000,2.913,2.236,0.000,2.896,0.000,0.000,0.000,0.000,0.000,0.000,0.000,0.000,0.000,0.000,0.000,3.142,0.001,0.000,1.003,1.570,1.569,4.085,6.282,1.199,4.712,0.000,0.000,0.157,-8.399,0.990,5.261,4.703,4.719,5.282,4.712,4.711,2.198,6.282,5.083,1.570,0.000,0.000,0.718,-8.057,0.991,5.260,4.706,4.717,
64.160,78.682,0.691,-8.646,2.189,1.017,0.882,2.297,0.000,1.217,1.738,0.000,3.983,2.013,0.000,2.652,2.146,0.000,2.826,0.000,0.000,0.000,0.000,0.000,0.000,0.000,0.000,0.000,0.000,0.000,3.142,0.001,0.000,1.003,1.570,1.570,4.086,6.281,1.199,4.712,0.000,0.000,0.082,-8.356,0.990,5.330,4.704,4.719,5.282,4.712,4.712,2.198,6.282,5.083,1.570,0.000,0.000,0.617,-7.976,0.991,5.330,4.706,4.717,
64.256,78.777,0.632,-8.566,2.275,1.007,1.078,2.354,0.000,1.199,1.786,0.000,3.660,2.420,4.323,2.412,2.075,0.000,2.755,0.000,0.000,0.000,0.000,0.000,0.000,0.000,0.000,0.000,0.000,0.000,3.142,0.001,0.000,1.003,1.570,1.570,4.086,6.282,1.199,4.712,0.000,0.000,0.000,-8.329,0.990,5.415,4.705,4.717,5.282,4.712,4.713,2.198,6.282,5.083,1.570,0.000,0.000,0.501,-7.905,0.991,5.415,4.707,4.716,
64.360,78.882,0.565,-8.492,2.368,1.011,1.054,4.899,0.000,1.198,1.846,0.000,3.402,3.605,4.229,2.211,2.026,0.000,2.650,0.000,0.000,0.000,0.000,0.000,0.000,0.000,0.000,0.000,0.000,0.000,3.142,0.001,0.000,1.003,1.570,1.570,4.085,6.282,1.199,4.712,0.000,0.000,-0.086,-8.316,0.990,5.510,4.706,4.716,5.282,4.712,4.712,2.198,6.282,5.083,1.570,0.000,0.000,0.373,-7.846,0.991,5.509,4.708,4.715,
64.460,78.982,0.492,-8.424,2.456,1.016,0.997,4.447,3.745,1.187,2.013,0.000,3.239,0.000,3.519,2.056,1.997,0.000,2.580,0.000,0.000,0.000,0.000,0.000,0.000,0.000,0.000,0.000,0.000,0.000,3.142,0.001,0.000,1.003,1.570,1.570,4.085,6.281,1.199,4.712,0.000,0.000,-0.172,-8.305,0.990,5.598,4.706,4.715,5.282,4.712,4.712,2.198,6.282,5.083,1.570,0.000,0.000,0.244,-7.797,0.991,5.597,4.708,4.714,
64.560,79.082,0.413,-8.363,2.542,1.016,0.994,4.087,3.668,1.170,2.346,4.901,3.134,0.000,3.023,1.935,1.988,0.000,2.510,0.000,0.000,0.000,0.000,0.000,0.000,0.000,0.000,0.000,0.000,0.000,3.142,0.001,0.000,1.003,1.570,1.570,4.086,6.282,1.199,4.712,0.000,0.000,-0.258,-8.301,0.990,5.683,4.707,4.715,5.282,4.712,4.712,2.198,6.282,5.083,1.570,0.000,0.000,0.112,-7.759,0.991,5.683,4.708,4.714,
64.660,79.182,0.330,-8.308,2.629,1.013,1.027,3.804,3.613,1.158,3.028,4.887,2.608,0.000,2.650,1.841,2.156,0.000,2.615,0.000,0.000,0.000,0.000,0.000,0.000,0.000,0.000,0.000,0.000,0.000,3.142,0.001,0.000,1.003,1.570,1.570,4.086,6.281,1.199,4.712,0.000,0.000,-0.345,-8.305,0.990,5.770,4.707,4.714,5.282,4.712,4.712,2.198,6.282,5.083,1.570,0.000,0.000,-0.023,-7.733,0.991,5.770,4.709,4.714,
64.753,79.275,0.242,-8.261,2.717,1.013,1.018,4.449,3.325,1.158,0.000,0.000,2.590,0.000,2.367,1.770,1.698,0.000,2.545,0.000,0.000,0.000,0.000,0.000,0.000,0.000,0.000,0.000,0.000,0.000,3.142,0.001,0.000,1.003,1.570,1.570,4.085,6.282,1.199,4.712,0.000,0.000,-0.431,-8.318,0.990,5.858,4.707,4.714,5.282,4.712,4.712,2.198,6.282,5.083,1.570,0.000,0.000,-0.160,-7.720,0.991,5.858,4.709,4.713,
64.860,79.382,0.168,-8.229,2.787,1.014,1.011,0.000,1.303,1.166,0.000,4.875,2.597,4.701,1.662,1.730,1.737,0.000,2.510,0.000,0.000,0.000,0.000,0.000,0.000,0.000,0.000,0.000,0.000,0.000,3.142,0.001,0.000,1.003,1.570,1.570,4.085,6.282,1.199,4.712,0.000,0.000,-0.498,-8.333,0.990,5.929,4.707,4.713,5.282,4.712,4.712,2.198,6.282,5.083,1.570,0.000,0.000,-0.270,-7.717,0.991,5.928,4.709,4.713,
64.951,79.473,0.055,-8.191,2.892,1.015,1.010,0.000,1.163,1.632,0.000,4.444,3.275,4.534,1.992,1.696,4.329,0.000,2.440,0.000,0.000,0.000,0.000,0.000,0.000,0.000,0.000,0.000,0.000,0.000,3.142,0.001,0.000,1.003,1.570,1.570,4.085,6.282,1.199,4.712,0.000,0.000,-0.597,-8.364,0.990,6.033,4.708,4.713,5.282,4.712,4.712,2.198,6.282,5.083,1.570,0.000,0.000,-0.435,-7.728,0.991,6.033,4.709,4.713,
65.060,79.582,-0.023,-8.173,2.962,1.014,1.012,0.000,1.080,0.906,0.000,4.237,4.352,3.828,1.893,1.691,4.246,0.000,2.369,0.000,0.000,0.000,0.000,0.000,0.000,0.000,0.000,0.000,0.000,0.000,3.142,0.001,0.000,1.003,1.570,1.570,4.085,6.282,1.199,4.712,0.000,0.000,-0.661,-8.391,0.990,6.103,4.708,4.712,5.282,4.712,4.712,2.198,6.282,5.083,1.570,0.000,0.000,-0.544,-7.745,0.991,6.103,4.709,4.712,
65.160,79.682,-0.142,-8.155,3.067,1.014,1.015,0.000,0.966,0.872,0.000,4.011,0.000,3.128,1.783,1.256,3.701,0.000,3.142,0.000,0.000,0.000,0.000,0.000,0.000,0.000,0.000,0.000,0.000,0.000,3.142,0.001,0.000,1.003,1.570,1.570,4.085,6.282,1.199,4.712,0.000,0.000,-0.754,-8.439,0.990,6.209,4.708,4.712,5.282,4.712,4.712,2.198,6.282,5.083,1.570,0.000,0.000,-0.705,-7.784,0.991,6.208,4.709,4.712,
65.260,79.782,-0.241,-8.150,3.155,1.014,1.018,3.010,0.879,0.841,0.000,3.883,0.000,2.744,1.724,1.433,3.345,0.000,3.142,0.000,0.000,0.000,0.000,0.000,0.000,0.000,0.000,0.000,0.000,0.000,3.142,0.001,0.000,1.003,1.570,1.570,4.085,6.281,1.199,4.712,0.000,0.000,-0.826,-8.486,0.990,0.013,4.708,4.711,5.282,4.712,4.712,2.198,6.282,5.083,1.570,0.000,0.000,-0.835,-7.830,0.991,0.013,4.709,4.712,
65.360,79.882,-0.321,-8.152,3.225,1.014,1.018,2.944,0.813,0.814,0.000,3.813,0.000,2.520,1.695,1.475,3.263,0.000,3.142,0.000,0.000,0.000,0.000,0.000,0.000,0.000,0.000,0.000,0.000,0.000,3.142,0.001,0.000,1.003,1.570,1.570,4.085,6.281,1.199,4.712,0.000,0.000,-0.881,-8.529,0.990,0.083,4.708,4.711,5.282,4.712,4.712,2.198,6.282,5.083,1.570,0.000,0.000,-0.936,-7.875,0.991,0.083,4.709,4.711,
65.454,79.976,-0.440,-8.166,3.330,1.014,1.021,2.870,0.718,0.770,0.000,3.315,0.000,2.279,1.678,3.891,4.033,0.000,3.142,0.000,0.000,0.000,0.000,0.000,0.000,0.000,0.000,0.000,0.000,0.000,3.142,0.001,0.000,1.003,1.570,1.570,4.085,6.281,1.199,4.712,0.000,0.000,-0.958,-8.599,0.990,0.188,4.708,4.710,5.282,4.712,4.712,2.198,6.282,5.083,1.570,0.000,0.000,-1.080,-7.954,0.991,0.188,4.709,4.711,
65.560,80.082,-0.538,-8.187,3.418,1.014,1.012,2.809,0.640,0.728,0.000,3.308,0.000,2.141,1.250,3.985,0.000,0.000,3.142,0.000,0.000,0.000,0.000,0.000,0.000,0.000,0.000,0.000,0.000,0.000,3.142,0.001,0.000,1.003,1.570,1.570,4.085,6.282,1.199,4.712,0.000,0.000,-1.015,-8.664,0.990,0.276,4.708,4.710,5.282,4.712,4.712,2.198,6.282,5.083,1.570,0.000,0.000,-1.194,-8.032,0.991,0.275,4.709,4.711,
65.660,80.182,-0.592,-8.203,3.452,0.486,0.159,2.543,0.596,0.694,0.000,3.330,0.000,2.105,1.405,4.058,0.000,0.000,3.142,0.000,0.000,0.000,0.000,0.000,0.000,0.000,0.000,0.000,0.000,0.000,3.142,0.002,0.001,1.001,1.570,1.569,4.090,6.281,1.200,4.712,0.000,0.000,-1.054,-8.696,0.989,0.311,4.705,4.709,5.281,4.712,4.711,2.198,6.282,5.083,1.570,0.000,0.000,-1.253,-8.071,0.990,0.311,4.708,4.710,
65.760,80.282,-0.622,-8.213,3.453,0.121,6.277,2.513,0.573,0.668,0.000,3.359,0.000,2.116,1.414,4.003,0.000,0.000,3.142,0.000,0.000,0.000,0.000,0.000,0.000,0.000,0.000,0.000,0.000,0.000,3.142,0.000,0.001,1.003,1.570,1.570,4.087,6.281,1.199,4.712,0.000,0.000,-1.083,-8.706,0.990,0.311,4.706,4.710,5.281,4.712,4.712,2.198,6.282,5.083,1.570,0.000,0.000,-1.283,-8.081,0.990,0.311,4.707,4.710,
65.860,80.382,-0.626,-8.214,3.453,0.012,6.267,2.509,0.570,0.665,0.000,3.363,0.000,2.117,1.416,3.995,0.000,0.000,3.142,0.000,0.000,0.000,0.000,0.000,0.000,0.000,0.000,0.000,0.000,0.000,3.142,6.283,0.001,1.003,1.569,1.569,4.086,6.281,1.199,4.712,0.000,0.000,-1.086,-8.707,0.990,0.312,4.707,4.710,5.281,4.711,4.712,2.198,6.282,5.083,1.570,0.000,0.000,-1.287,-8.083,0.990,0.312,4.708,4.710,
65.945,80.467,-0.626,-8.214,3.453,0.000,6.275,2.509,0.570,0.665,0.000,3.363,0.000,2.117,1.416,3.995,0.000,0.000,3.142,0.000,0.000,0.000,0.000,0.000,0.000,0.000,0.000,0.000,0.000,0.000,3.142,6.283,0.000,1.003,1.569,1.569,4.085,6.281,1.199,4.712,0.000,0.000,-1.085,-8.707,0.990,0.312,4.707,4.710,5.281,4.711,4.711,2.198,6.282,5.083,1.570,0.000,0.000,-1.287,-8.083,0.990,0.312,4.708,4.710,
66.060,80.582,-0.625,-8.214,3.452,-0.003,6.139,2.508,0.570,0.664,0.000,3.364,0.000,2.119,1.416,4.003,0.000,0.000,3.142,0.000,0.000,0.000,0.000,0.000,0.000,0.000,0.000,0.000,0.000,0.000,3.142,6.282,0.001,1.004,1.569,1.568,4.084,6.281,1.199,4.712,0.000,0.000,-1.086,-8.707,0.990,0.312,4.707,4.710,5.281,4.711,4.710,2.197,6.282,5.083,1.570,0.000,0.000,-1.287,-8.083,0.990,0.312,4.707,4.710,
66.154,80.676,-0.624,-8.213,3.375,-0.032,4.942,2.712,0.577,0.638,0.000,3.450,0.000,2.250,1.718,3.907,0.000,0.000,3.142,0.000,0.000,0.000,0.000,0.000,0.000,0.000,0.000,0.000,0.000,0.000,3.142,6.280,0.001,1.004,1.568,1.566,4.085,6.282,1.199,4.712,0.000,0.000,-1.120,-8.672,0.990,0.238,4.708,4.710,5.281,4.710,4.709,2.197,6.282,5.083,1.570,0.000,0.000,-1.272,-8.033,0.990,0.237,4.707,4.710,
66.260,80.782,-0.623,-8.214,3.243,0.024,4.767,2.645,0.595,0.603,0.000,4.119,0.000,2.562,1.751,4.182,3.490,0.000,3.142,0.000,0.000,0.000,0.000,0.000,0.000,0.000,0.000,0.000,0.000,0.000,3.142,6.280,0.001,1.004,1.569,1.568,4.085,6.281,1.199,4.712,0.000,0.000,-1.176,-8.601,0.990,0.102,4.708,4.711,5.282,4.712,4.711,2.198,6.282,5.083,1.570,0.000,0.000,-1.243,-7.948,0.991,0.101,4.709,4.711,
66.360,80.882,-0.625,-8.214,3.126,0.007,5.164,2.625,1.591,0.582,0.000,4.429,0.000,2.224,1.807,0.000,2.938,0.000,3.142,0.000,0.000,0.000,0.000,0.000,0.000,0.000,0.000,0.000,0.000,0.000,3.142,6.281,0.000,1.004,1.570,1.570,4.085,6.281,1.199,4.712,0.000,0.000,-1.219,-8.534,0.990,6.268,4.707,4.712,5.282,4.712,4.712,2.198,6.282,5.083,1.571,0.000,0.000,-1.209,-7.877,0.991,6.267,4.709,4.712,
66.460,80.982,-0.624,-8.215,3.042,-0.014,5.348,0.000,2.787,0.573,0.789,4.724,0.000,3.379,1.867,1.453,3.143,0.000,3.142,0.000,0.000,0.000,0.000,0.000,0.000,0.000,0.000,0.000,0.000,0.000,3.142,6.281,0.001,1.004,1.569,1.569,4.085,6.281,1.199,4.712,0.000,0.000,-1.243,-8.484,0.990,6.185,4.708,4.712,5.281,4.711,4.711,2.198,6.282,5.083,1.570,0.000,0.000,-1.178,-7.830,0.990,6.184,4.708,4.712,
66.560,81.082,-0.624,-8.215,2.975,0.002,5.264,0.000,2.684,0.569,0.743,0.000,4.748,3.819,1.927,1.435,3.344,0.000,2.545,0.000,0.000,0.000,0.000,0.000,0.000,0.000,0.000,0.000,0.000,0.000,3.142,6.281,0.001,1.004,1.569,1.568,4.085,6.281,1.199,4.712,0.000,0.000,-1.259,-8.442,0.990,6.119,4.708,4.712,5.281,4.711,4.711,2.198,6.282,5.083,1.570,0.000,0.000,-1.151,-7.795,0.990,6.118,4.708,4.712,
66.653,81.175,-0.623,-8.215,2.863,-0.007,5.128,0.000,2.415,0.569,0.682,0.000,3.355,3.743,2.059,1.418,3.792,0.000,2.650,0.000,0.000,0.000,0.000,0.000,0.000,0.000,0.000,0.000,0.000,0.000,3.142,6.281,0.001,1.004,1.569,1.568,4.085,6.281,1.199,4.712,0.000,0.000,-1.280,-8.370,0.990,6.006,4.707,4.713,5.282,4.711,4.711,2.197,6.282,5.083,1.570,0.000,0.000,-1.100,-7.739,0.990,6.005,4.708,4.713,
66.760,81.282,-0.624,-8.215,2.780,0.008,5.094,0.000,2.766,0.572,0.648,0.000,3.449,0.000,2.187,2.549,4.241,0.000,2.720,0.000,0.000,0.000,0.000,0.000,0.000,0.000,0.000,0.000,0.000,0.000,3.142,6.281,0.001,1.004,1.569,1.568,4.085,6.281,1.199,4.712,0.000,0.000,-1.291,-8.315,0.990,5.923,4.707,4.713,5.282,4.711,4.711,2.198,6.282,5.083,1.570,0.000,0.000,-1.059,-7.701,0.991,5.922,4.708,4.713,
66.860,81.382,-0.624,-8.215,2.665,0.000,5.223,3.872,2.665,0.584,0.613,0.000,4.079,0.000,2.422,1.735,3.738,0.000,2.826,0.000,0.000,0.000,0.000,0.000,0.000,0.000,0.000,0.000,0.000,0.000,3.142,6.281,0.001,1.004,1.569,1.569,4.085,6.281,1.199,4.712,0.000,0.000,-1.299,-8.238,0.990,5.808,4.707,4.714,5.281,4.711,4.711,2.198,6.282,5.083,1.570,0.000,0.000,-0.998,-7.654,0.990,5.807,4.707,4.714,
66.960,81.482,-0.624,-8.216,2.575,-0.006,5.192,2.969,2.635,0.600,0.593,0.000,4.296,0.000,2.674,1.767,0.000,0.000,2.931,0.000,0.000,0.000,0.000,0.000,0.000,0.000,0.000,0.000,0.000,0.000,3.142,6.281,0.001,1.004,1.569,1.568,4.085,6.281,1.199,4.712,0.000,0.000,-1.298,-8.177,0.990,5.718,4.707,4.714,5.281,4.711,4.711,2.198,6.282,5.083,1.570,0.000,0.000,-0.946,-7.623,0.990,5.717,4.707,4.714,
67.060,81.582,-0.624,-8.216,2.498,-0.003,5.174,2.932,2.626,0.618,0.581,0.000,4.529,0.000,2.229,1.807,0.000,0.000,3.001,0.000,0.000,0.000,0.000,0.000,0.000,0.000,0.000,0.000,0.000,0.000,3.142,6.281,0.001,1.004,1.569,1.568,4.085,6.281,1.199,4.712,0.000,0.000,-1.293,-8.126,0.990,5.641,4.707,4.715,5.281,4.711,4.711,2.198,6.282,5.083,1.570,0.000,0.000,-0.899,-7.601,0.990,5.640,4.707,4.715,
67.141,81.663,-0.632,-8.210,2.385,0.394,5.525,3.204,0.000,2.735,0.572,0.770,4.996,0.000,3.522,1.883,1.440,0.000,3.106,0.000,0.000,0.000,0.000,0.000,0.000,0.000,0.000,0.000,0.000,0.000,3.142,6.277,6.283,1.007,1.568,1.567,4.078,6.281,1.199,4.712,0.000,0.000,-1.286,-8.047,0.990,5.530,4.711,4.712,5.283,4.710,4.709,2.197,6.282,5.083,1.571,0.000,0.000,-0.837,-7.568,0.991,5.529,4.707,4.715,
67.260,81.782,-0.674,-8.170,2.352,1.027,6.064,3.245,0.000,2.639,0.583,0.766,0.000,4.973,3.657,1.868,1.392,0.000,3.142,0.000,0.000,0.000,0.000,0.000,0.000,0.000,0.000,0.000,0.000,0.000,3.142,6.278,6.283,1.008,1.568,1.567,4.077,6.282,1.199,4.712,0.000,0.000,-1.322,-7.987,0.990,5.498,4.711,4.712,5.282,4.710,4.709,2.197,6.283,5.083,1.571,0.000,0.000,-0.858,-7.522,0.991,5.497,4.707,4.716,
67.358,81.880,-0.782,-8.061,2.313,1.341,5.654,3.222,0.000,2.330,0.623,0.794,0.000,4.794,3.706,1.783,1.273,0.000,3.142,0.000,0.000,0.000,0.000,0.000,0.000,0.000,0.000,0.000,0.000,0.000,3.142,6.281,0.001,1.004,1.568,1.567,4.085,6.281,1.199,4.712,0.000,0.000,-1.423,-7.849,0.990,5.457,4.705,4.717,5.281,4.711,4.710,2.197,6.282,5.083,1.570,0.000,0.000,-0.939,-7.406,0.990,5.456,4.705,4.717,
67.460,81.982,-0.857,-7.977,2.277,0.925,6.123,3.237,0.000,2.528,1.361,0.815,0.000,4.430,3.804,1.723,1.184,0.000,3.142,0.000,0.000,0.000,0.000,0.000,0.000,0.000,0.000,0.000,0.000,0.000,3.142,0.000,0.001,1.002,1.570,1.571,4.088,6.280,1.200,4.712,0.000,0.000,-1.488,-7.740,0.990,5.416,4.702,4.719,5.281,4.712,4.713,2.198,6.281,5.083,1.570,0.000,0.000,-0.989,-7.316,0.990,5.416,4.705,4.718,
67.560,82.082,-0.900,-7.927,2.276,0.819,6.267,3.175,0.000,2.657,1.420,0.842,0.000,4.635,3.680,1.665,4.700,0.000,3.142,0.000,0.000,0.000,0.000,0.000,0.000,0.000,0.000,0.000,0.000,0.000,3.142,6.282,0.000,1.004,1.569,1.569,4.085,6.281,1.199,4.712,0.000,0.000,-1.532,-7.692,0.990,5.418,4.705,4.717,5.281,4.711,4.711,2.198,6.282,5.083,1.570,0.000,0.000,-1.033,-7.266,0.990,5.418,4.705,4.717,
67.660,82.182,-0.971,-7.843,2.276,1.061,6.268,3.066,0.000,2.492,1.516,0.888,0.000,0.000,2.344,1.567,4.580,0.000,3.142,0.000,0.000,0.000,0.000,0.000,0.000,0.000,0.000,0.000,0.000,0.000,3.142,6.281,0.000,1.005,1.569,1.568,4.083,6.281,1.199,4.712,0.000,0.000,-1.603,-7.609,0.990,5.420,4.707,4.716,5.281,4.711,4.710,2.198,6.282,5.083,1.570,0.000,0.000,-1.105,-7.183,0.990,5.420,4.705,4.717,
67.760,82.282,-1.041,-7.761,2.277,1.097,6.267,2.959,0.000,2.415,1.611,0.933,0.000,0.000,3.248,1.032,4.462,0.000,3.142,0.000,0.000,0.000,0.000,0.000,0.000,0.000,0.000,0.000,0.000,0.000,3.142,6.282,0.000,1.004,1.569,1.569,4.085,6.281,1.199,4.712,0.000,0.000,-1.674,-7.526,0.990,5.419,4.705,4.717,5.281,4.711,4.711,2.198,6.282,5.083,1.570,0.000,0.000,-1.174,-7.100,0.990,5.419,4.705,4.717,
67.860,82.382,-1.095,-7.698,2.277,1.004,6.267,2.877,0.000,2.357,1.684,0.968,0.000,0.000,3.083,1.397,4.372,0.000,3.142,0.000,0.000,0.000,0.000,0.000,0.000,0.000,0.000,0.000,0.000,0.000,3.142,6.283,0.001,1.003,1.569,1.569,4.086,6.281,1.199,4.712,0.000,0.000,-1.727,-7.463,0.990,5.418,4.704,4.718,5.281,4.711,4.712,2.198,6.282,5.083,1.570,0.000,0.000,-1.228,-7.037,0.990,5.419,4.705,4.717,
67.960,82.482,-1.169,-7.611,2.277,0.969,6.267,2.763,0.000,2.276,3.672,1.015,0.000,0.000,2.857,0.947,4.248,0.000,3.142,0.000,0.000,0.000,0.000,0.000,0.000,0.000,0.000,0.000,0.000,0.000,3.142,6.282,0.000,1.004,1.569,1.569,4.085,6.281,1.199,4.712,0.000,0.000,-1.802,-7.377,0.990,5.420,4.705,4.717,5.281,4.711,4.711,2.198,6.282,5.083,1.570,0.000,0.000,-1.303,-6.950,0.990,5.420,4.705,4.717,
68.060,82.582,-1.233,-7.536,2.278,1.027,6.266,2.666,4.634,2.206,3.546,1.056,0.000,0.000,2.663,0.860,4.141,0.000,3.142,0.000,0.000,0.000,0.000,0.000,0.000,0.000,0.000,0.000,0.000,0.000,3.142,6.282,0.000,1.004,1.569,1.569,4.084,6.281,1.199,4.712,0.000,0.000,-1.866,-7.302,0.990,5.420,4.705,4.717,5.281,4.711,4.711,2.198,6.282,5.083,1.570,0.000,0.000,-1.367,-6.876,0.990,5.420,4.705,4.717,
68.160,82.682,-1.286,-7.474,2.278,1.037,6.266,2.586,4.419,2.149,3.441,1.177,0.000,0.000,2.502,0.788,4.052,0.000,3.142,0.000,0.000,0.000,0.000,0.000,0.000,0.000,0.000,0.000,0.000,0.000,3.142,6.282,0.000,1.004,1.569,1.569,4.085,6.281,1.199,4.712,0.000,0.000,-1.919,-7.240,0.990,5.420,4.705,4.717,5.281,4.711,4.711,2.198,6.282,5.083,1.570,0.000,0.000,-1.420,-6.814,0.990,5.420,4.705,4.717,
68.260,82.782,-1.364,-7.383,2.300,1.002,0.727,2.409,4.354,2.084,3.414,1.329,0.000,0.000,2.157,0.743,4.151,0.000,3.142,0.000,0.000,0.000,0.000,0.000,0.000,0.000,0.000,0.000,0.000,0.000,3.142,0.001,0.000,1.003,1.571,1.572,4.086,6.281,1.199,4.712,0.000,0.000,-2.001,-7.161,0.990,5.438,4.704,4.718,5.281,4.712,4.714,2.199,6.281,5.083,1.571,0.000,0.000,-1.511,-6.724,0.991,5.438,4.707,4.716,
68.346,82.868,-1.431,-7.311,2.401,1.001,1.437,2.091,4.788,2.121,3.893,1.317,0.000,0.000,1.623,1.076,0.000,0.000,3.142,0.000,0.000,0.000,0.000,0.000,0.000,0.000,0.000,0.000,0.000,0.000,3.142,0.002,0.000,1.003,1.571,1.571,4.086,6.281,1.199,4.712,0.000,0.000,-2.087,-7.155,0.990,5.541,4.706,4.716,5.282,4.713,4.713,2.198,6.282,5.083,1.571,0.000,0.000,-1.645,-6.671,0.991,5.541,4.708,4.715,
68.460,82.982,-1.507,-7.246,2.519,1.021,1.130,1.815,0.000,2.205,3.802,1.507,0.000,0.000,0.749,3.435,2.569,0.000,3.142,0.000,0.000,0.000,0.000,0.000,0.000,0.000,0.000,0.000,0.000,0.000,3.142,0.001,0.000,1.003,1.570,1.569,4.085,6.282,1.199,4.712,0.000,0.000,-2.177,-7.170,0.990,5.662,4.707,4.714,5.282,4.712,4.712,2.198,6.283,5.083,1.570,0.000,0.000,-1.795,-6.637,0.991,5.661,4.708,4.714,
68.560,83.082,-1.573,-7.200,2.585,1.027,0.831,1.662,0.000,2.240,2.003,1.651,0.000,0.000,0.758,3.374,2.497,0.000,3.142,0.000,0.000,0.000,0.000,0.000,0.000,0.000,0.000,0.000,0.000,0.000,3.142,0.001,0.000,1.003,1.570,1.569,4.085,6.282,1.199,4.712,0.000,0.000,-2.247,-7.168,0.990,5.728,4.707,4.714,5.282,4.712,4.712,2.198,6.282,5.083,1.570,0.000,0.000,-1.901,-6.611,0.991,5.727,4.708,4.714,
68.660,83.182,-1.677,-7.139,2.672,1.010,0.954,1.470,0.000,2.286,2.034,1.885,4.798,1.242,0.971,4.390,2.825,0.000,3.071,0.000,0.000,0.000,0.000,0.000,0.000,0.000,0.000,0.000,0.000,0.000,3.142,0.001,0.000,1.003,1.570,1.570,4.086,6.281,1.199,4.712,0.000,0.000,-2.351,-7.165,0.990,5.813,4.707,4.714,5.282,4.712,4.713,2.198,6.282,5.083,1.570,0.000,0.000,-2.054,-6.580,0.991,5.813,4.709,4.714,
68.760,83.282,-1.767,-7.096,2.763,1.007,1.092,1.431,4.848,2.425,2.062,2.211,0.000,1.190,1.921,3.717,2.258,0.000,3.142,0.000,0.000,0.000,0.000,0.000,0.000,0.000,0.000,0.000,0.000,0.000,3.142,0.001,0.000,1.003,1.570,1.570,4.085,6.282,1.199,4.712,0.000,0.000,-2.436,-7.183,0.990,5.904,4.707,4.713,5.282,4.712,4.713,2.198,6.282,5.083,1.571,0.000,0.000,-2.193,-6.574,0.991,5.904,4.709,4.713,
68.860,83.382,-1.841,-7.068,2.838,1.014,1.047,1.425,4.617,2.331,2.091,0.000,0.000,0.892,0.000,3.955,1.908,0.000,3.142,0.000,0.000,0.000,0.000,0.000,0.000,0.000,0.000,0.000,0.000,0.000,3.142,0.001,0.000,1.003,1.570,1.570,4.085,6.282,1.199,4.712,0.000,0.000,-2.502,-7.205,0.990,5.979,4.708,4.713,5.282,4.712,4.712,2.198,6.282,5.083,1.570,0.000,0.000,-2.305,-6.579,0.991,5.979,4.709,4.713,
68.960,83.482,-1.957,-7.036,2.942,1.018,0.984,3.709,4.517,2.225,2.143,0.000,0.000,1.057,2.927,4.818,1.519,0.000,3.142,0.000,0.000,0.000,0.000,0.000,0.000,0.000,0.000,0.000,0.000,0.000,3.142,0.001,0.000,1.003,1.570,1.570,4.085,6.282,1.199,4.712,0.000,0.000,-2.600,-7.241,0.990,6.083,4.708,4.712,5.282,4.712,4.712,2.198,6.282,5.083,1.570,0.000,0.000,-2.469,-6.598,0.991,6.083,4.709,4.712,
69.060,83.582,-2.055,-7.018,3.027,1.013,1.007,0.000,4.104,2.405,2.196,0.000,0.000,1.218,3.804,2.166,1.266,0.000,3.142,0.000,0.000,0.000,0.000,0.000,0.000,0.000,0.000,0.000,0.000,0.000,3.142,0.001,0.000,1.003,1.570,1.570,4.086,6.281,1.199,4.712,0.000,0.000,-2.678,-7.277,0.990,6.169,4.708,4.712,5.282,4.712,4.712,2.198,6.282,5.083,1.570,0.000,0.000,-2.603,-6.625,0.991,6.168,4.709,4.712,
69.160,83.682,-2.135,-7.010,3.097,1.012,1.027,4.067,1.915,2.641,2.246,0.000,0.000,1.367,3.528,2.196,1.094,0.000,3.142,0.000,0.000,0.000,0.000,0.000,0.000,0.000,0.000,0.000,0.000,0.000,3.142,0.001,0.000,1.003,1.570,1.570,4.086,6.281,1.199,4.712,0.000,0.000,-2.738,-7.312,0.990,6.239,4.708,4.711,5.282,4.712,4.712,2.198,6.282,5.083,1.570,0.000,0.000,-2.709,-6.657,0.991,6.238,4.709,4.712,
69.260,83.782,-2.254,-7.009,3.203,1.014,1.026,0.000,1.671,3.302,2.336,0.000,1.747,2.217,3.889,1.978,0.970,0.000,3.071,0.000,0.000,0.000,0.000,0.000,0.000,0.000,0.000,0.000,0.000,0.000,3.142,0.001,0.000,1.003,1.570,1.570,4.085,6.281,1.199,4.712,0.000,0.000,-2.822,-7.373,0.990,0.062,4.708,4.711,5.282,4.712,4.712,2.198,6.282,5.083,1.570,0.000,0.000,-2.863,-6.718,0.991,0.061,4.709,4.711,
69.360,83.882,-2.354,-7.018,3.291,1.015,1.009,0.000,1.511,3.921,2.178,0.000,1.472,0.000,3.692,1.415,0.840,0.000,3.001,0.000,0.000,0.000,0.000,0.000,0.000,0.000,0.000,0.000,0.000,0.000,3.142,0.001,0.000,1.003,1.570,1.570,4.085,6.282,1.199,4.712,0.000,0.000,-2.888,-7.430,0.990,0.149,4.708,4.711,5.282,4.712,4.712,2.198,6.282,5.083,1.570,0.000,0.000,-2.986,-6.781,0.991,0.149,4.709,4.711,
69.460,83.982,-2.452,-7.035,3.378,1.014,1.018,0.000,1.375,3.871,2.159,0.000,1.497,0.000,0.000,1.028,1.451,0.000,3.001,0.000,0.000,0.000,0.000,0.000,0.000,0.000,0.000,0.000,0.000,0.000,3.142,0.001,0.000,1.003,1.570,1.570,4.085,6.281,1.199,4.712,0.000,0.000,-2.948,-7.492,0.990,0.237,4.708,4.710,5.282,4.712,4.712,2.198,6.282,5.083,1.570,0.000,0.000,-3.102,-6.854,0.991,0.236,4.709,4.711,
69.560,84.082,-2.549,-7.060,3.466,1.014,1.013,4.052,1.257,0.000,2.152,0.000,1.637,3.553,2.161,0.746,1.786,0.000,2.826,0.000,0.000,0.000,0.000,0.000,0.000,0.000,0.000,0.000,0.000,0.000,3.142,0.001,0.000,1.003,1.570,1.570,4.085,6.281,1.199,4.712,0.000,0.000,-3.003,-7.559,0.990,0.324,4.707,4.710,5.282,4.712,4.712,2.198,6.282,5.083,1.570,0.000,0.000,-3.212,-6.937,0.991,0.324,4.709,4.711,
69.660,84.182,-2.624,-7.087,3.516,1.015,0.393,3.820,1.203,0.000,2.167,0.000,1.748,3.970,2.192,0.767,3.068,0.000,2.826,0.000,0.000,0.000,0.000,0.000,0.000,0.000,0.000,0.000,0.000,0.000,3.142,6.283,0.000,1.004,1.569,1.567,4.085,6.282,1.199,4.712,0.000,0.000,-3.052,-7.610,0.990,0.377,4.707,4.709,5.281,4.711,4.710,2.198,6.283,5.083,1.570,0.000,0.000,-3.292,-6.999,0.991,0.377,4.708,4.710,
69.760,84.282,-2.735,-7.131,3.521,1.010,6.271,3.715,1.131,4.994,2.242,0.000,1.871,4.210,3.676,0.610,2.950,0.000,2.791,0.000,0.000,0.000,0.000,0.000,0.000,0.000,0.000,0.000,0.000,0.000,3.142,6.282,0.000,1.004,1.569,1.569,4.085,6.281,1.199,4.712,0.000,0.000,-3.161,-7.654,0.990,0.379,4.707,4.710,5.281,4.711,4.711,2.198,6.282,5.083,1.570,0.000,0.000,-3.404,-7.045,0.990,0.380,4.707,4.710,
69.860,84.382,-2.809,-7.160,3.521,1.010,6.269,3.635,1.097,3.755,2.294,0.000,1.951,4.086,2.647,0.649,2.874,0.000,2.791,0.000,0.000,0.000,0.000,0.000,0.000,0.000,0.000,0.000,0.000,0.000,3.142,6.282,0.000,1.004,1.569,1.569,4.085,6.281,1.199,4.712,0.000,0.000,-3.235,-7.684,0.990,0.380,4.707,4.710,5.281,4.711,4.711,2.198,6.282,5.083,1.570,0.000,0.000,-3.478,-7.075,0.990,0.380,4.707,4.710,
69.960,84.482,-2.920,-7.205,3.521,1.012,6.269,3.514,1.045,3.710,2.372,0.000,2.070,4.137,1.106,0.924,2.813,0.000,2.861,0.000,0.000,0.000,0.000,0.000,0.000,0.000,0.000,0.000,0.000,0.000,3.142,6.282,0.000,1.004,1.569,1.569,4.085,6.281,1.199,4.712,0.000,0.000,-3.345,-7.728,0.990,0.380,4.707,4.710,5.281,4.711,4.711,2.198,6.282,5.083,1.570,0.000,0.000,-3.589,-7.119,0.990,0.380,4.707,4.710,
70.059,84.581,-3.013,-7.242,3.520,1.012,6.189,3.411,1.003,3.673,2.550,0.000,2.169,4.183,0.743,0.972,3.177,0.000,2.861,0.000,0.000,0.000,0.000,0.000,0.000,0.000,0.000,0.000,0.000,0.000,3.142,6.282,0.001,1.004,1.569,1.568,4.084,6.281,1.199,4.712,0.000,0.000,-3.438,-7.765,0.990,0.380,4.708,4.710,5.281,4.711,4.710,2.197,6.282,5.083,1.570,0.000,0.000,-3.681,-7.156,0.990,0.380,4.707,4.710,
70.160,84.682,-3.105,-7.278,3.474,1.012,5.264,3.399,0.989,1.724,2.406,0.000,2.231,4.357,0.613,0.983,2.618,0.000,2.931,0.000,0.000,0.000,0.000,0.000,0.000,0.000,0.000,0.000,0.000,0.000,3.142,6.280,0.001,1.005,1.568,1.565,4.084,6.282,1.199,4.711,0.000,0.000,-3.554,-7.783,0.990,0.337,4.708,4.709,5.281,4.710,4.708,2.197,6.282,5.083,1.570,0.000,0.000,-3.769,-7.163,0.990,0.337,4.707,4.709,
70.248,84.769,-3.200,-7.308,3.359,1.010,4.894,0.000,0.000,0.794,2.233,0.000,2.367,4.087,0.645,0.944,3.236,0.000,3.036,0.000,0.000,0.000,0.000,0.000,0.000,0.000,0.000,0.000,0.000,0.000,3.142,6.280,0.001,1.004,1.568,1.567,4.085,6.281,1.199,4.712,0.000,0.000,-3.704,-7.758,0.990,0.220,4.707,4.710,5.282,4.711,4.710,2.197,6.282,5.083,1.570,0.000,0.000,-3.846,-7.117,0.991,0.219,4.708,4.710,
70.360,84.882,-3.278,-7.325,3.269,1.007,5.142,0.000,4.023,0.786,0.000,0.000,0.000,0.000,0.670,0.916,3.289,0.000,3.142,0.000,0.000,0.000,0.000,0.000,0.000,0.000,0.000,0.000,0.000,0.000,3.142,6.280,0.001,1.004,1.569,1.568,4.085,6.281,1.199,4.712,0.000,0.000,-3.821,-7.726,0.990,0.128,4.707,4.710,5.282,4.711,4.711,2.198,6.282,5.083,1.570,0.000,0.000,-3.904,-7.075,0.991,0.128,4.709,4.711,
70.444,84.966,-3.397,-7.337,3.217,1.014,0.034,0.000,3.088,0.781,0.000,2.594,0.000,0.000,0.690,0.908,3.342,0.000,3.142,0.000,0.000,0.000,0.000,0.000,0.000,0.000,0.000,0.000,0.000,0.000,3.142,6.282,0.000,1.004,1.570,1.571,4.085,6.281,1.199,4.712,0.000,0.000,-3.960,-7.708,0.990,0.073,4.708,4.711,5.281,4.712,4.713,2.198,6.281,5.083,1.570,0.000,0.000,-4.009,-7.054,0.991,0.074,4.708,4.712,
70.560,85.082,-3.463,-7.342,3.217,0.588,6.266,0.000,2.921,0.776,0.000,2.649,0.000,0.000,0.695,0.914,3.264,0.000,3.142,0.000,0.000,0.000,0.000,0.000,0.000,0.000,0.000,0.000,0.000,0.000,3.142,0.002,0.001,1.001,1.571,1.572,4.091,6.281,1.200,4.712,0.000,0.000,-4.027,-7.712,0.989,0.073,4.705,4.711,5.281,4.712,4.713,2.198,6.282,5.083,1.570,0.000,0.000,-4.075,-7.058,0.990,0.073,4.708,4.712,
70.660,85.182,-3.502,-7.345,3.218,0.160,6.266,0.000,2.825,0.773,0.000,2.681,0.000,0.000,0.868,0.918,3.124,0.000,3.142,0.000,0.000,0.000,0.000,0.000,0.000,0.000,0.000,0.000,0.000,0.000,3.142,0.000,0.001,1.002,1.570,1.570,4.087,6.281,1.200,4.712,0.000,0.000,-4.065,-7.717,0.990,0.075,4.706,4.711,5.281,4.712,4.712,2.198,6.282,5.083,1.570,0.000,0.000,-4.114,-7.063,0.990,0.076,4.708,4.711,
70.760,85.282,-3.508,-7.345,3.218,0.033,6.268,0.000,2.811,0.772,0.000,2.686,0.000,0.000,0.868,0.918,3.116,0.000,3.142,0.000,0.000,0.000,0.000,0.000,0.000,0.000,0.000,0.000,0.000,0.000,3.142,6.283,0.001,1.003,1.570,1.570,4.086,6.281,1.199,4.712,0.000,0.000,-4.071,-7.718,0.990,0.076,4.707,4.711,5.281,4.711,4.712,2.198,6.282,5.083,1.570,0.000,0.000,-4.121,-7.064,0.990,0.076,4.708,4.711,
70.860,85.382,-3.508,-7.345,3.218,0.002,6.278,0.000,2.812,0.772,0.000,2.686,0.000,0.000,0.868,0.918,3.116,0.000,3.142,0.000,0.000,0.000,0.000,0.000,0.000,0.000,0.000,0.000,0.000,0.000,3.142,6.283,0.000,1.003,1.569,1.569,4.085,6.281,1.199,4.712,0.000,0.000,-4.070,-7.718,0.990,0.077,4.707,4.711,5.281,4.711,4.711,2.198,6.282,5.083,1.570,0.000,0.000,-4.121,-7.064,0.990,0.077,4.708,4.711,
70.954,85.476,-3.508,-7.345,3.218,0.002,6.278,0.000,2.812,0.772,0.000,2.686,0.000,0.000,0.868,0.918,3.116,0.000,3.142,0.000,0.000,0.000,0.000,0.000,0.000,0.000,0.000,0.000,0.000,0.000,3.142,6.283,0.000,1.003,1.569,1.569,4.085,6.281,1.199,4.712,0.000,0.000,-4.070,-7.718,0.990,0.077,4.707,4.711,5.281,4.711,4.711,2.198,6.282,5.083,1.570,0.000,0.000,-4.121,-7.064,0.990,0.077,4.708,4.711,
71.060,85.582,-3.508,-7.345,3.218,0.002,6.278,0.000,2.812,0.772,0.000,2.686,0.000,0.000,0.868,0.918,3.116,0.000,3.142,0.000,0.000,0.000,0.000,0.000,0.000,0.000,0.000,0.000,0.000,0.000,3.142,6.283,0.000,1.003,1.569,1.569,4.085,6.281,1.199,4.712,0.000,0.000,-4.070,-7.718,0.990,0.077,4.707,4.711,5.281,4.711,4.711,2.198,6.282,5.083,1.570,0.000,0.000,-4.121,-7.064,0.990,0.077,4.708,4.711,
71.149,85.671,-3.508,-7.345,3.218,0.002,6.278,0.000,2.812,0.772,0.000,2.686,0.000,0.000,0.868,0.918,3.116,0.000,3.142,0.000,0.000,0.000,0.000,0.000,0.000,0.000,0.000,0.000,0.000,0.000,3.142,6.283,0.000,1.003,1.569,1.569,4.085,6.281,1.199,4.712,0.000,0.000,-4.070,-7.718,0.990,0.077,4.707,4.711,5.281,4.711,4.711,2.198,6.282,5.083,1.570,0.000,0.000,-4.121,-7.064,0.990,0.077,4.708,4.711,
71.260,85.782,-3.508,-7.345,3.218,0.002,6.278,0.000,2.812,0.772,0.000,2.686,0.000,0.000,0.868,0.918,3.116,0.000,3.142,0.000,0.000,0.000,0.000,0.000,0.000,0.000,0.000,0.000,0.000,0.000,3.142,6.283,0.000,1.003,1.569,1.569,4.085,6.281,1.199,4.712,0.000,0.000,-4.070,-7.718,0.990,0.077,4.707,4.711,5.281,4.711,4.711,2.198,6.282,5.083,1.570,0.000,0.000,-4.121,-7.064,0.990,0.077,4.708,4.711,
71.347,85.869,-3.508,-7.345,3.218,0.002,6.278,0.000,2.812,0.772,0.000,2.686,0.000,0.000,0.868,0.918,3.116,0.000,3.142,0.000,0.000,0.000,0.000,0.000,0.000,0.000,0.000,0.000,0.000,0.000,3.142,6.283,0.000,1.003,1.569,1.569,4.085,6.281,1.199,4.712,0.000,0.000,-4.070,-7.718,0.990,0.077,4.707,4.711,5.281,4.711,4.711,2.198,6.282,5.083,1.570,0.000,0.000,-4.121,-7.064,0.990,0.077,4.708,4.711,
71.460,85.982,-3.508,-7.345,3.218,0.002,6.278,0.000,2.812,0.772,0.000,2.686,0.000,0.000,0.868,0.918,3.116,0.000,3.142,0.000,0.000,0.000,0.000,0.000,0.000,0.000,0.000,0.000,0.000,0.000,3.142,6.283,0.000,1.003,1.569,1.569,4.085,6.281,1.199,4.712,0.000,0.000,-4.070,-7.718,0.990,0.077,4.707,4.711,5.281,4.711,4.711,2.198,6.282,5.083,1.570,0.000,0.000,-4.121,-7.064,0.990,0.077,4.708,4.711,
71.543,86.065,-3.508,-7.345,3.218,0.002,6.278,0.000,2.812,0.772,0.000,2.686,0.000,0.000,0.868,0.918,3.116,0.000,3.142,0.000,0.000,0.000,0.000,0.000,0.000,0.000,0.000,0.000,0.000,0.000,3.142,6.283,0.000,1.003,1.569,1.569,4.085,6.281,1.199,4.712,0.000,0.000,-4.070,-7.718,0.990,0.077,4.707,4.711,5.281,4.711,4.711,2.198,6.282,5.083,1.570,0.000,0.000,-4.121,-7.064,0.990,0.077,4.708,4.711,
71.660,86.182,-3.508,-7.345,3.218,0.002,6.278,0.000,2.812,0.772,0.000,2.686,0.000,0.000,0.868,0.918,3.116,0.000,3.142,0.000,0.000,0.000,0.000,0.000,0.000,0.000,0.000,0.000,0.000,0.000,3.142,6.283,0.000,1.003,1.569,1.569,4.085,6.281,1.199,4.712,0.000,0.000,-4.070,-7.718,0.990,0.077,4.707,4.711,5.281,4.711,4.711,2.198,6.282,5.083,1.570,0.000,0.000,-4.121,-7.064,0.990,0.077,4.708,4.711,
71.760,86.282,-3.508,-7.345,3.218,0.002,6.278,0.000,2.812,0.772,0.000,2.686,0.000,0.000,0.868,0.918,3.116,0.000,3.142,0.000,0.000,0.000,0.000,0.000,0.000,0.000,0.000,0.000,0.000,0.000,3.142,6.283,0.000,1.003,1.569,1.569,4.085,6.281,1.199,4.712,0.000,0.000,-4.070,-7.718,0.990,0.077,4.707,4.711,5.281,4.711,4.711,2.198,6.282,5.083,1.570,0.000,0.000,-4.121,-7.064,0.990,0.077,4.708,4.711,
71.860,86.382,-3.508,-7.345,3.218,0.002,6.278,0.000,2.812,0.772,0.000,2.686,0.000,0.000,0.868,0.918,3.116,0.000,3.142,0.000,0.000,0.000,0.000,0.000,0.000,0.000,0.000,0.000,0.000,0.000,3.142,6.283,0.000,1.003,1.569,1.569,4.085,6.281,1.199,4.712,0.000,0.000,-4.070,-7.718,0.990,0.077,4.707,4.711,5.281,4.711,4.711,2.198,6.282,5.083,1.570,0.000,0.000,-4.121,-7.064,0.990,0.077,4.708,4.711,
71.960,86.482,-3.508,-7.345,3.218,0.002,6.278,0.000,2.812,0.772,0.000,2.686,0.000,0.000,0.868,0.918,3.116,0.000,3.142,0.000,0.000,0.000,0.000,0.000,0.000,0.000,0.000,0.000,0.000,0.000,3.142,6.283,0.000,1.003,1.569,1.569,4.085,6.281,1.199,4.712,0.000,0.000,-4.070,-7.718,0.990,0.077,4.707,4.711,5.281,4.711,4.711,2.198,6.282,5.083,1.570,0.000,0.000,-4.121,-7.064,0.990,0.077,4.708,4.711,
72.060,86.582,-3.508,-7.345,3.218,0.002,6.278,0.000,2.812,0.772,0.000,2.686,0.000,0.000,0.868,0.918,3.116,0.000,3.142,0.000,0.000,0.000,0.000,0.000,0.000,0.000,0.000,0.000,0.000,0.000,3.142,6.283,0.000,1.003,1.569,1.569,4.085,6.281,1.199,4.712,0.000,0.000,-4.070,-7.718,0.990,0.077,4.707,4.711,5.281,4.711,4.711,2.198,6.282,5.083,1.570,0.000,0.000,-4.121,-7.064,0.990,0.077,4.708,4.711,
72.160,86.682,-3.508,-7.345,3.218,0.002,6.278,0.000,2.812,0.772,0.000,2.686,0.000,0.000,0.868,0.918,3.116,0.000,3.142,0.000,0.000,0.000,0.000,0.000,0.000,0.000,0.000,0.000,0.000,0.000,3.142,6.283,0.000,1.003,1.569,1.569,4.085,6.281,1.199,4.712,0.000,0.000,-4.070,-7.718,0.990,0.077,4.707,4.711,5.281,4.711,4.711,2.198,6.282,5.083,1.570,0.000,0.000,-4.121,-7.064,0.990,0.077,4.708,4.711,
72.260,86.782,-3.508,-7.345,3.218,0.002,6.278,0.000,2.812,0.772,0.000,2.686,0.000,0.000,0.868,0.918,3.116,0.000,3.142,0.000,0.000,0.000,0.000,0.000,0.000,0.000,0.000,0.000,0.000,0.000,3.142,6.283,0.000,1.003,1.569,1.569,4.085,6.281,1.199,4.712,0.000,0.000,-4.070,-7.718,0.990,0.077,4.707,4.711,5.281,4.711,4.711,2.198,6.282,5.083,1.570,0.000,0.000,-4.121,-7.064,0.990,0.077,4.708,4.711,
72.360,86.882,-3.508,-7.345,3.218,0.002,6.278,0.000,2.812,0.772,0.000,2.686,0.000,0.000,0.868,0.918,3.116,0.000,3.142,0.000,0.000,0.000,0.000,0.000,0.000,0.000,0.000,0.000,0.000,0.000,3.142,6.283,0.000,1.003,1.569,1.569,4.085,6.281,1.199,4.712,0.000,0.000,-4.070,-7.718,0.990,0.077,4.707,4.711,5.281,4.711,4.711,2.198,6.282,5.083,1.570,0.000,0.000,-4.121,-7.064,0.990,0.077,4.708,4.711,
72.457,86.979,-3.508,-7.345,3.218,0.002,6.278,0.000,2.812,0.772,0.000,2.686,0.000,0.000,0.868,0.918,3.116,0.000,3.142,0.000,0.000,0.000,0.000,0.000,0.000,0.000,0.000,0.000,0.000,0.000,3.142,6.283,0.000,1.003,1.569,1.569,4.085,6.281,1.199,4.712,0.000,0.000,-4.070,-7.718,0.990,0.077,4.707,4.711,5.281,4.711,4.711,2.198,6.282,5.083,1.570,0.000,0.000,-4.121,-7.064,0.990,0.077,4.708,4.711,
72.560,87.082,-3.508,-7.345,3.218,0.002,6.278,0.000,2.812,0.772,0.000,2.686,0.000,0.000,0.868,0.918,3.116,0.000,3.142,0.000,0.000,0.000,0.000,0.000,0.000,0.000,0.000,0.000,0.000,0.000,3.142,6.283,0.000,1.003,1.569,1.569,4.085,6.281,1.199,4.712,0.000,0.000,-4.070,-7.718,0.990,0.077,4.707,4.711,5.281,4.711,4.711,2.198,6.282,5.083,1.570,0.000,0.000,-4.121,-7.064,0.990,0.077,4.708,4.711,
72.652,87.174,-3.508,-7.345,3.218,0.002,6.278,0.000,2.812,0.772,0.000,2.686,0.000,0.000,0.868,0.918,3.116,0.000,3.142,0.000,0.000,0.000,0.000,0.000,0.000,0.000,0.000,0.000,0.000,0.000,3.142,6.283,0.000,1.003,1.569,1.569,4.085,6.281,1.199,4.712,0.000,0.000,-4.070,-7.718,0.990,0.077,4.707,4.711,5.281,4.711,4.711,2.198,6.282,5.083,1.570,0.000,0.000,-4.121,-7.064,0.990,0.077,4.708,4.711,
72.760,87.282,-3.508,-7.345,3.218,0.002,6.278,0.000,2.812,0.772,0.000,2.686,0.000,0.000,0.868,0.918,3.116,0.000,3.142,0.000,0.000,0.000,0.000,0.000,0.000,0.000,0.000,0.000,0.000,0.000,3.142,6.283,0.000,1.003,1.569,1.569,4.085,6.281,1.199,4.712,0.000,0.000,-4.070,-7.718,0.990,0.077,4.707,4.711,5.281,4.711,4.711,2.198,6.282,5.083,1.570,0.000,0.000,-4.121,-7.064,0.990,0.077,4.708,4.711,
72.853,87.375,-3.508,-7.345,3.218,0.002,6.278,0.000,2.812,0.772,0.000,2.686,0.000,0.000,0.868,0.918,3.116,0.000,3.142,0.000,0.000,0.000,0.000,0.000,0.000,0.000,0.000,0.000,0.000,0.000,3.142,6.283,0.000,1.003,1.569,1.569,4.085,6.281,1.199,4.712,0.000,0.000,-4.070,-7.718,0.990,0.077,4.707,4.711,5.281,4.711,4.711,2.198,6.282,5.083,1.570,0.000,0.000,-4.121,-7.064,0.990,0.077,4.708,4.711,
72.960,87.482,-3.508,-7.345,3.218,0.002,6.278,0.000,2.812,0.772,0.000,2.686,0.000,0.000,0.868,0.918,3.116,0.000,3.142,0.000,0.000,0.000,0.000,0.000,0.000,0.000,0.000,0.000,0.000,0.000,3.142,6.283,0.000,1.003,1.569,1.569,4.085,6.281,1.199,4.712,0.000,0.000,-4.070,-7.718,0.990,0.077,4.707,4.711,5.281,4.711,4.711,2.198,6.282,5.083,1.570,0.000,0.000,-4.121,-7.064,0.990,0.077,4.708,4.711,
73.049,87.571,-3.508,-7.345,3.218,0.002,6.278,0.000,2.812,0.772,0.000,2.686,0.000,0.000,0.868,0.918,3.116,0.000,3.142,0.000,0.000,0.000,0.000,0.000,0.000,0.000,0.000,0.000,0.000,0.000,3.142,6.283,0.000,1.003,1.569,1.569,4.085,6.281,1.199,4.712,0.000,0.000,-4.070,-7.718,0.990,0.077,4.707,4.711,5.281,4.711,4.711,2.198,6.282,5.083,1.570,0.000,0.000,-4.121,-7.064,0.990,0.077,4.708,4.711,
73.160,87.682,-3.508,-7.345,3.218,0.002,6.278,0.000,2.812,0.772,0.000,2.686,0.000,0.000,0.868,0.918,3.116,0.000,3.142,0.000,0.000,0.000,0.000,0.000,0.000,0.000,0.000,0.000,0.000,0.000,3.142,6.283,0.000,1.003,1.569,1.569,4.085,6.281,1.199,4.712,0.000,0.000,-4.070,-7.718,0.990,0.077,4.707,4.711,5.281,4.711,4.711,2.198,6.282,5.083,1.570,0.000,0.000,-4.121,-7.064,0.990,0.077,4.708,4.711,
73.245,87.767,-3.508,-7.345,3.218,0.002,6.278,0.000,2.812,0.772,0.000,2.686,0.000,0.000,0.868,0.918,3.116,0.000,3.142,0.000,0.000,0.000,0.000,0.000,0.000,0.000,0.000,0.000,0.000,0.000,3.142,6.283,0.000,1.003,1.569,1.569,4.085,6.281,1.199,4.712,0.000,0.000,-4.070,-7.718,0.990,0.077,4.707,4.711,5.281,4.711,4.711,2.198,6.282,5.083,1.570,0.000,0.000,-4.121,-7.064,0.990,0.077,4.708,4.711,
73.360,87.882,-3.508,-7.345,3.218,0.002,6.278,0.000,2.812,0.772,0.000,2.686,0.000,0.000,0.868,0.918,3.116,0.000,3.142,0.000,0.000,0.000,0.000,0.000,0.000,0.000,0.000,0.000,0.000,0.000,3.142,6.283,0.000,1.003,1.569,1.569,4.085,6.281,1.199,4.712,0.000,0.000,-4.070,-7.718,0.990,0.077,4.707,4.711,5.281,4.711,4.711,2.198,6.282,5.083,1.570,0.000,0.000,-4.121,-7.064,0.990,0.077,4.708,4.711,
73.442,87.964,-3.508,-7.345,3.218,0.002,6.278,0.000,2.812,0.772,0.000,2.686,0.000,0.000,0.868,0.918,3.116,0.000,3.142,0.000,0.000,0.000,0.000,0.000,0.000,0.000,0.000,0.000,0.000,0.000,3.142,6.283,0.000,1.003,1.569,1.569,4.085,6.281,1.199,4.712,0.000,0.000,-4.070,-7.718,0.990,0.077,4.707,4.711,5.281,4.711,4.711,2.198,6.282,5.083,1.570,0.000,0.000,-4.121,-7.064,0.990,0.077,4.708,4.711,
73.560,88.082,-3.508,-7.345,3.218,0.002,6.278,0.000,2.812,0.772,0.000,2.686,0.000,0.000,0.868,0.918,3.116,0.000,3.142,0.000,0.000,0.000,0.000,0.000,0.000,0.000,0.000,0.000,0.000,0.000,3.142,6.283,0.000,1.003,1.569,1.569,4.085,6.281,1.199,4.712,0.000,0.000,-4.070,-7.718,0.990,0.077,4.707,4.711,5.281,4.711,4.711,2.198,6.282,5.083,1.570,0.000,0.000,-4.121,-7.064,0.990,0.077,4.708,4.711,
73.644,88.166,-3.508,-7.345,3.218,0.002,6.278,0.000,2.812,0.772,0.000,2.686,0.000,0.000,0.868,0.918,3.116,0.000,3.142,0.000,0.000,0.000,0.000,0.000,0.000,0.000,0.000,0.000,0.000,0.000,3.142,6.283,0.000,1.003,1.569,1.569,4.085,6.281,1.199,4.712,0.000,0.000,-4.070,-7.718,0.990,0.077,4.707,4.711,5.281,4.711,4.711,2.198,6.282,5.083,1.570,0.000,0.000,-4.121,-7.064,0.990,0.077,4.708,4.711,
73.760,88.282,-3.508,-7.345,3.218,0.002,6.278,0.000,2.812,0.772,0.000,2.686,0.000,0.000,0.868,0.918,3.116,0.000,3.142,0.000,0.000,0.000,0.000,0.000,0.000,0.000,0.000,0.000,0.000,0.000,3.142,6.283,0.000,1.003,1.569,1.569,4.085,6.281,1.199,4.712,0.000,0.000,-4.070,-7.718,0.990,0.077,4.707,4.711,5.281,4.711,4.711,2.198,6.282,5.083,1.570,0.000,0.000,-4.121,-7.064,0.990,0.077,4.708,4.711,
73.860,88.382,-3.508,-7.345,3.218,0.002,6.278,0.000,2.812,0.772,0.000,2.686,0.000,0.000,0.868,0.918,3.116,0.000,3.142,0.000,0.000,0.000,0.000,0.000,0.000,0.000,0.000,0.000,0.000,0.000,3.142,6.283,0.000,1.003,1.569,1.569,4.085,6.281,1.199,4.712,0.000,0.000,-4.070,-7.718,0.990,0.077,4.707,4.711,5.281,4.711,4.711,2.198,6.282,5.083,1.570,0.000,0.000,-4.121,-7.064,0.990,0.077,4.708,4.711,
73.952,88.474,-3.508,-7.345,3.218,0.002,6.278,0.000,2.812,0.772,0.000,2.686,0.000,0.000,0.868,0.918,3.116,0.000,3.142,0.000,0.000,0.000,0.000,0.000,0.000,0.000,0.000,0.000,0.000,0.000,3.142,6.283,0.000,1.003,1.569,1.569,4.085,6.281,1.199,4.712,0.000,0.000,-4.070,-7.718,0.990,0.077,4.707,4.711,5.281,4.711,4.711,2.198,6.282,5.083,1.570,0.000,0.000,-4.121,-7.064,0.990,0.077,4.708,4.711,
74.060,88.582,-3.508,-7.345,3.218,0.002,6.278,0.000,2.812,0.772,0.000,2.686,0.000,0.000,0.868,0.918,3.116,0.000,3.142,0.000,0.000,0.000,0.000,0.000,0.000,0.000,0.000,0.000,0.000,0.000,3.142,6.283,0.000,1.003,1.569,1.569,4.085,6.281,1.199,4.712,0.000,0.000,-4.070,-7.718,0.990,0.077,4.707,4.711,5.281,4.711,4.711,2.198,6.282,5.083,1.570,0.000,0.000,-4.121,-7.064,0.990,0.077,4.708,4.711,
74.146,88.668,-3.508,-7.345,3.218,0.002,6.278,0.000,2.812,0.772,0.000,2.686,0.000,0.000,0.868,0.918,3.116,0.000,3.142,0.000,0.000,0.000,0.000,0.000,0.000,0.000,0.000,0.000,0.000,0.000,3.142,6.283,0.000,1.003,1.569,1.569,4.085,6.281,1.199,4.712,0.000,0.000,-4.070,-7.718,0.990,0.077,4.707,4.711,5.281,4.711,4.711,2.198,6.282,5.083,1.570,0.000,0.000,-4.121,-7.064,0.990,0.077,4.708,4.711,
74.260,88.782,-3.508,-7.345,3.218,0.002,6.278,0.000,2.812,0.772,0.000,2.686,0.000,0.000,0.868,0.918,3.116,0.000,3.142,0.000,0.000,0.000,0.000,0.000,0.000,0.000,0.000,0.000,0.000,0.000,3.142,6.283,0.000,1.003,1.569,1.569,4.085,6.281,1.199,4.712,0.000,0.000,-4.070,-7.718,0.990,0.077,4.707,4.711,5.281,4.711,4.711,2.198,6.282,5.083,1.570,0.000,0.000,-4.121,-7.064,0.990,0.077,4.708,4.711,
74.341,88.863,-3.508,-7.345,3.218,0.002,6.278,0.000,2.812,0.772,0.000,2.686,0.000,0.000,0.868,0.918,3.116,0.000,3.142,0.000,0.000,0.000,0.000,0.000,0.000,0.000,0.000,0.000,0.000,0.000,3.142,6.283,0.000,1.003,1.569,1.569,4.085,6.281,1.199,4.712,0.000,0.000,-4.070,-7.718,0.990,0.077,4.707,4.711,5.281,4.711,4.711,2.198,6.282,5.083,1.570,0.000,0.000,-4.121,-7.064,0.990,0.077,4.708,4.711,
74.460,88.982,-3.508,-7.345,3.218,0.002,6.278,0.000,2.812,0.772,0.000,2.686,0.000,0.000,0.868,0.918,3.116,0.000,3.142,0.000,0.000,0.000,0.000,0.000,0.000,0.000,0.000,0.000,0.000,0.000,3.142,6.283,0.000,1.003,1.569,1.569,4.085,6.281,1.199,4.712,0.000,0.000,-4.070,-7.718,0.990,0.077,4.707,4.711,5.281,4.711,4.711,2.198,6.282,5.083,1.570,0.000,0.000,-4.121,-7.064,0.990,0.077,4.708,4.711,
74.560,89.082,-3.508,-7.345,3.218,0.002,6.278,0.000,2.812,0.772,0.000,2.686,0.000,0.000,0.868,0.918,3.116,0.000,3.142,0.000,0.000,0.000,0.000,0.000,0.000,0.000,0.000,0.000,0.000,0.000,3.142,6.283,0.000,1.003,1.569,1.569,4.085,6.281,1.199,4.712,0.000,0.000,-4.070,-7.718,0.990,0.077,4.707,4.711,5.281,4.711,4.711,2.198,6.282,5.083,1.570,0.000,0.000,-4.121,-7.064,0.990,0.077,4.708,4.711,
74.660,89.182,-3.508,-7.345,3.218,0.002,6.278,0.000,2.812,0.772,0.000,2.686,0.000,0.000,0.868,0.918,3.116,0.000,3.142,0.000,0.000,0.000,0.000,0.000,0.000,0.000,0.000,0.000,0.000,0.000,3.142,6.283,0.000,1.003,1.569,1.569,4.085,6.281,1.199,4.712,0.000,0.000,-4.070,-7.718,0.990,0.077,4.707,4.711,5.281,4.711,4.711,2.198,6.282,5.083,1.570,0.000,0.000,-4.121,-7.064,0.990,0.077,4.708,4.711,
74.760,89.282,-3.508,-7.345,3.218,0.002,6.278,0.000,2.812,0.772,0.000,2.686,0.000,0.000,0.868,0.918,3.116,0.000,3.142,0.000,0.000,0.000,0.000,0.000,0.000,0.000,0.000,0.000,0.000,0.000,3.142,6.283,0.000,1.003,1.569,1.569,4.085,6.281,1.199,4.712,0.000,0.000,-4.070,-7.718,0.990,0.077,4.707,4.711,5.281,4.711,4.711,2.198,6.282,5.083,1.570,0.000,0.000,-4.121,-7.064,0.990,0.077,4.708,4.711,
74.860,89.382,-3.508,-7.345,3.218,0.002,6.278,0.000,2.812,0.772,0.000,2.686,0.000,0.000,0.868,0.918,3.116,0.000,3.142,0.000,0.000,0.000,0.000,0.000,0.000,0.000,0.000,0.000,0.000,0.000,3.142,6.283,0.000,1.003,1.569,1.569,4.085,6.281,1.199,4.712,0.000,0.000,-4.070,-7.718,0.990,0.077,4.707,4.711,5.281,4.711,4.711,2.198,6.282,5.083,1.570,0.000,0.000,-4.121,-7.064,0.990,0.077,4.708,4.711,
74.960,89.482,-3.508,-7.345,3.218,0.002,6.278,0.000,2.812,0.772,0.000,2.686,0.000,0.000,0.868,0.918,3.116,0.000,3.142,0.000,0.000,0.000,0.000,0.000,0.000,0.000,0.000,0.000,0.000,0.000,3.142,6.283,0.000,1.003,1.569,1.569,4.085,6.281,1.199,4.712,0.000,0.000,-4.070,-7.718,0.990,0.077,4.707,4.711,5.281,4.711,4.711,2.198,6.282,5.083,1.570,0.000,0.000,-4.121,-7.064,0.990,0.077,4.708,4.711,
75.060,89.581,-3.508,-7.345,3.218,0.002,6.278,0.000,2.812,0.772,0.000,2.686,0.000,0.000,0.868,0.918,3.116,0.000,3.142,0.000,0.000,0.000,0.000,0.000,0.000,0.000,0.000,0.000,0.000,0.000,3.142,6.283,0.000,1.003,1.569,1.569,4.085,6.281,1.199,4.712,0.000,0.000,-4.070,-7.718,0.990,0.077,4.707,4.711,5.281,4.711,4.711,2.198,6.282,5.083,1.570,0.000,0.000,-4.121,-7.064,0.990,0.077,4.708,4.711,
75.160,89.682,-3.508,-7.345,3.218,0.002,6.278,0.000,2.812,0.772,0.000,2.686,0.000,0.000,0.868,0.918,3.116,0.000,3.142,0.000,0.000,0.000,0.000,0.000,0.000,0.000,0.000,0.000,0.000,0.000,3.142,6.283,0.000,1.003,1.569,1.569,4.085,6.281,1.199,4.712,0.000,0.000,-4.070,-7.718,0.990,0.077,4.707,4.711,5.281,4.711,4.711,2.198,6.282,5.083,1.570,0.000,0.000,-4.121,-7.064,0.990,0.077,4.708,4.711,
75.255,89.777,-3.508,-7.345,3.218,0.002,6.278,0.000,2.812,0.772,0.000,2.686,0.000,0.000,0.868,0.918,3.116,0.000,3.142,0.000,0.000,0.000,0.000,0.000,0.000,0.000,0.000,0.000,0.000,0.000,3.142,6.283,0.000,1.003,1.569,1.569,4.085,6.281,1.199,4.712,0.000,0.000,-4.070,-7.718,0.990,0.077,4.707,4.711,5.281,4.711,4.711,2.198,6.282,5.083,1.570,0.000,0.000,-4.121,-7.064,0.990,0.077,4.708,4.711,
75.360,89.882,-3.508,-7.345,3.218,0.002,6.278,0.000,2.812,0.772,0.000,2.686,0.000,0.000,0.868,0.918,3.116,0.000,3.142,0.000,0.000,0.000,0.000,0.000,0.000,0.000,0.000,0.000,0.000,0.000,3.142,6.283,0.000,1.003,1.569,1.569,4.085,6.281,1.199,4.712,0.000,0.000,-4.070,-7.718,0.990,0.077,4.707,4.711,5.281,4.711,4.711,2.198,6.282,5.083,1.570,0.000,0.000,-4.121,-7.064,0.990,0.077,4.708,4.711,
75.450,89.971,-3.508,-7.345,3.218,0.002,6.278,0.000,2.812,0.772,0.000,2.686,0.000,0.000,0.868,0.918,3.116,0.000,3.142,0.000,0.000,0.000,0.000,0.000,0.000,0.000,0.000,0.000,0.000,0.000,3.142,6.283,0.000,1.003,1.569,1.569,4.085,6.281,1.199,4.712,0.000,0.000,-4.070,-7.718,0.990,0.077,4.707,4.711,5.281,4.711,4.711,2.198,6.282,5.083,1.570,0.000,0.000,-4.121,-7.064,0.990,0.077,4.708,4.711,
75.560,90.082,-3.508,-7.345,3.218,0.002,6.278,0.000,2.812,0.772,0.000,2.686,0.000,0.000,0.868,0.918,3.116,0.000,3.142,0.000,0.000,0.000,0.000,0.000,0.000,0.000,0.000,0.000,0.000,0.000,3.142,6.283,0.000,1.003,1.569,1.569,4.085,6.281,1.199,4.712,0.000,0.000,-4.070,-7.718,0.990,0.077,4.707,4.711,5.281,4.711,4.711,2.198,6.282,5.083,1.570,0.000,0.000,-4.121,-7.064,0.990,0.077,4.708,4.711,
75.649,90.171,-3.508,-7.345,3.218,0.002,6.278,0.000,2.812,0.772,0.000,2.686,0.000,0.000,0.868,0.918,3.116,0.000,3.142,0.000,0.000,0.000,0.000,0.000,0.000,0.000,0.000,0.000,0.000,0.000,3.142,6.283,0.000,1.003,1.569,1.569,4.085,6.281,1.199,4.712,0.000,0.000,-4.070,-7.718,0.990,0.077,4.707,4.711,5.281,4.711,4.711,2.198,6.282,5.083,1.570,0.000,0.000,-4.121,-7.064,0.990,0.077,4.708,4.711,
75.760,90.282,-3.508,-7.345,3.218,0.002,6.278,0.000,2.812,0.772,0.000,2.686,0.000,0.000,0.868,0.918,3.116,0.000,3.142,0.000,0.000,0.000,0.000,0.000,0.000,0.000,0.000,0.000,0.000,0.000,3.142,6.283,0.000,1.003,1.569,1.569,4.085,6.281,1.199,4.712,0.000,0.000,-4.070,-7.718,0.990,0.077,4.707,4.711,5.281,4.711,4.711,2.198,6.282,5.083,1.570,0.000,0.000,-4.121,-7.064,0.990,0.077,4.708,4.711,
75.843,90.365,-3.508,-7.345,3.218,0.002,6.278,0.000,2.812,0.772,0.000,2.686,0.000,0.000,0.868,0.918,3.116,0.000,3.142,0.000,0.000,0.000,0.000,0.000,0.000,0.000,0.000,0.000,0.000,0.000,3.142,6.283,0.000,1.003,1.569,1.569,4.085,6.281,1.199,4.712,0.000,0.000,-4.070,-7.718,0.990,0.077,4.707,4.711,5.281,4.711,4.711,2.198,6.282,5.083,1.570,0.000,0.000,-4.121,-7.064,0.990,0.077,4.708,4.711,
75.960,90.482,-3.508,-7.345,3.218,0.002,6.278,0.000,2.812,0.772,0.000,2.686,0.000,0.000,0.868,0.918,3.116,0.000,3.142,0.000,0.000,0.000,0.000,0.000,0.000,0.000,0.000,0.000,0.000,0.000,3.142,6.283,0.000,1.003,1.569,1.569,4.085,6.281,1.199,4.712,0.000,0.000,-4.070,-7.718,0.990,0.077,4.707,4.711,5.281,4.711,4.711,2.198,6.282,5.083,1.570,0.000,0.000,-4.121,-7.064,0.990,0.077,4.708,4.711,
76.060,90.582,-3.508,-7.345,3.218,0.002,6.278,0.000,2.812,0.772,0.000,2.686,0.000,0.000,0.868,0.918,3.116,0.000,3.142,0.000,0.000,0.000,0.000,0.000,0.000,0.000,0.000,0.000,0.000,0.000,3.142,6.283,0.000,1.003,1.569,1.569,4.085,6.281,1.199,4.712,0.000,0.000,-4.070,-7.718,0.990,0.077,4.707,4.711,5.281,4.711,4.711,2.198,6.282,5.083,1.570,0.000,0.000,-4.121,-7.064,0.990,0.077,4.708,4.711,
76.160,90.682,-3.508,-7.345,3.218,0.002,6.278,0.000,2.812,0.772,0.000,2.686,0.000,0.000,0.868,0.918,3.116,0.000,3.142,0.000,0.000,0.000,0.000,0.000,0.000,0.000,0.000,0.000,0.000,0.000,3.142,6.283,0.000,1.003,1.569,1.569,4.085,6.281,1.199,4.712,0.000,0.000,-4.070,-7.718,0.990,0.077,4.707,4.711,5.281,4.711,4.711,2.198,6.282,5.083,1.570,0.000,0.000,-4.121,-7.064,0.990,0.077,4.708,4.711,
76.260,90.782,-3.508,-7.345,3.218,0.002,6.278,0.000,2.812,0.772,0.000,2.686,0.000,0.000,0.868,0.918,3.116,0.000,3.142,0.000,0.000,0.000,0.000,0.000,0.000,0.000,0.000,0.000,0.000,0.000,3.142,6.283,0.000,1.003,1.569,1.569,4.085,6.281,1.199,4.712,0.000,0.000,-4.070,-7.718,0.990,0.077,4.707,4.711,5.281,4.711,4.711,2.198,6.282,5.083,1.570,0.000,0.000,-4.121,-7.064,0.990,0.077,4.708,4.711,
76.357,90.879,-3.508,-7.345,3.218,0.002,6.278,0.000,2.812,0.772,0.000,2.686,0.000,0.000,0.868,0.918,3.116,0.000,3.142,0.000,0.000,0.000,0.000,0.000,0.000,0.000,0.000,0.000,0.000,0.000,3.142,6.283,0.000,1.003,1.569,1.569,4.085,6.281,1.199,4.712,0.000,0.000,-4.070,-7.718,0.990,0.077,4.707,4.711,5.281,4.711,4.711,2.198,6.282,5.083,1.570,0.000,0.000,-4.121,-7.064,0.990,0.077,4.708,4.711,
76.460,90.982,-3.508,-7.345,3.218,0.002,6.278,0.000,2.812,0.772,0.000,2.686,0.000,0.000,0.868,0.918,3.116,0.000,3.142,0.000,0.000,0.000,0.000,0.000,0.000,0.000,0.000,0.000,0.000,0.000,3.142,6.283,0.000,1.003,1.569,1.569,4.085,6.281,1.199,4.712,0.000,0.000,-4.070,-7.718,0.990,0.077,4.707,4.711,5.281,4.711,4.711,2.198,6.282,5.083,1.570,0.000,0.000,-4.121,-7.064,0.990,0.077,4.708,4.711,
76.552,91.074,-3.508,-7.345,3.218,0.002,6.278,0.000,2.812,0.772,0.000,2.686,0.000,0.000,0.868,0.918,3.116,0.000,3.142,0.000,0.000,0.000,0.000,0.000,0.000,0.000,0.000,0.000,0.000,0.000,3.142,6.283,0.000,1.003,1.569,1.569,4.085,6.281,1.199,4.712,0.000,0.000,-4.070,-7.718,0.990,0.077,4.707,4.711,5.281,4.711,4.711,2.198,6.282,5.083,1.570,0.000,0.000,-4.121,-7.064,0.990,0.077,4.708,4.711,
76.660,91.182,-3.508,-7.345,3.218,0.002,6.278,0.000,2.812,0.772,0.000,2.686,0.000,0.000,0.868,0.918,3.116,0.000,3.142,0.000,0.000,0.000,0.000,0.000,0.000,0.000,0.000,0.000,0.000,0.000,3.142,6.283,0.000,1.003,1.569,1.569,4.085,6.281,1.199,4.712,0.000,0.000,-4.070,-7.718,0.990,0.077,4.707,4.711,5.281,4.711,4.711,2.198,6.282,5.083,1.570,0.000,0.000,-4.121,-7.064,0.990,0.077,4.708,4.711,
76.746,91.268,-3.508,-7.345,3.218,0.002,6.278,0.000,2.812,0.772,0.000,2.686,0.000,0.000,0.868,0.918,3.116,0.000,3.142,0.000,0.000,0.000,0.000,0.000,0.000,0.000,0.000,0.000,0.000,0.000,3.142,6.283,0.000,1.003,1.569,1.569,4.085,6.281,1.199,4.712,0.000,0.000,-4.070,-7.718,0.990,0.077,4.707,4.711,5.281,4.711,4.711,2.198,6.282,5.083,1.570,0.000,0.000,-4.121,-7.064,0.990,0.077,4.708,4.711,
76.860,91.382,-3.508,-7.345,3.218,0.002,6.278,0.000,2.812,0.772,0.000,2.686,0.000,0.000,0.868,0.918,3.116,0.000,3.142,0.000,0.000,0.000,0.000,0.000,0.000,0.000,0.000,0.000,0.000,0.000,3.142,6.283,0.000,1.003,1.569,1.569,4.085,6.281,1.199,4.712,0.000,0.000,-4.070,-7.718,0.990,0.077,4.707,4.711,5.281,4.711,4.711,2.198,6.282,5.083,1.570,0.000,0.000,-4.121,-7.064,0.990,0.077,4.708,4.711,
76.941,91.463,-3.508,-7.345,3.218,0.002,6.278,0.000,2.812,0.772,0.000,2.686,0.000,0.000,0.868,0.918,3.116,0.000,3.142,0.000,0.000,0.000,0.000,0.000,0.000,0.000,0.000,0.000,0.000,0.000,3.142,6.283,0.000,1.003,1.569,1.569,4.085,6.281,1.199,4.712,0.000,0.000,-4.070,-7.718,0.990,0.077,4.707,4.711,5.281,4.711,4.711,2.198,6.282,5.083,1.570,0.000,0.000,-4.121,-7.064,0.990,0.077,4.708,4.711,
77.060,91.582,-3.508,-7.345,3.218,0.002,6.278,0.000,2.812,0.772,0.000,2.686,0.000,0.000,0.868,0.918,3.116,0.000,3.142,0.000,0.000,0.000,0.000,0.000,0.000,0.000,0.000,0.000,0.000,0.000,3.142,6.283,0.000,1.003,1.569,1.569,4.085,6.281,1.199,4.712,0.000,0.000,-4.070,-7.718,0.990,0.077,4.707,4.711,5.281,4.711,4.711,2.198,6.282,5.083,1.570,0.000,0.000,-4.121,-7.064,0.990,0.077,4.708,4.711,
77.160,91.682,-3.508,-7.345,3.218,0.002,6.278,0.000,2.812,0.772,0.000,2.686,0.000,0.000,0.868,0.918,3.116,0.000,3.142,0.000,0.000,0.000,0.000,0.000,0.000,0.000,0.000,0.000,0.000,0.000,3.142,6.283,0.000,1.003,1.569,1.569,4.085,6.281,1.199,4.712,0.000,0.000,-4.070,-7.718,0.990,0.077,4.707,4.711,5.281,4.711,4.711,2.198,6.282,5.083,1.570,0.000,0.000,-4.121,-7.064,0.990,0.077,4.708,4.711,
77.260,91.782,-3.508,-7.345,3.218,0.002,6.278,0.000,2.812,0.772,0.000,2.686,0.000,0.000,0.868,0.918,3.116,0.000,3.142,0.000,0.000,0.000,0.000,0.000,0.000,0.000,0.000,0.000,0.000,0.000,3.142,6.283,0.000,1.003,1.569,1.569,4.085,6.281,1.199,4.712,0.000,0.000,-4.070,-7.718,0.990,0.077,4.707,4.711,5.281,4.711,4.711,2.198,6.282,5.083,1.570,0.000,0.000,-4.121,-7.064,0.990,0.077,4.708,4.711,
77.360,91.882,-3.508,-7.345,3.218,0.002,6.278,0.000,2.812,0.772,0.000,2.686,0.000,0.000,0.868,0.918,3.116,0.000,3.142,0.000,0.000,0.000,0.000,0.000,0.000,0.000,0.000,0.000,0.000,0.000,3.142,6.283,0.000,1.003,1.569,1.569,4.085,6.281,1.199,4.712,0.000,0.000,-4.070,-7.718,0.990,0.077,4.707,4.711,5.281,4.711,4.711,2.198,6.282,5.083,1.570,0.000,0.000,-4.121,-7.064,0.990,0.077,4.708,4.711,
77.460,91.982,-3.508,-7.345,3.218,0.002,6.278,0.000,2.812,0.772,0.000,2.686,0.000,0.000,0.868,0.918,3.116,0.000,3.142,0.000,0.000,0.000,0.000,0.000,0.000,0.000,0.000,0.000,0.000,0.000,3.142,6.283,0.000,1.003,1.569,1.569,4.085,6.281,1.199,4.712,0.000,0.000,-4.070,-7.718,0.990,0.077,4.707,4.711,5.281,4.711,4.711,2.198,6.282,5.083,1.570,0.000,0.000,-4.121,-7.064,0.990,0.077,4.708,4.711,
77.560,92.082,-3.508,-7.345,3.218,0.002,6.278,0.000,2.812,0.772,0.000,2.686,0.000,0.000,0.868,0.918,3.116,0.000,3.142,0.000,0.000,0.000,0.000,0.000,0.000,0.000,0.000,0.000,0.000,0.000,3.142,6.283,0.000,1.003,1.569,1.569,4.085,6.281,1.199,4.712,0.000,0.000,-4.070,-7.718,0.990,0.077,4.707,4.711,5.281,4.711,4.711,2.198,6.282,5.083,1.570,0.000,0.000,-4.121,-7.064,0.990,0.077,4.708,4.711,
77.660,92.182,-3.508,-7.345,3.218,0.002,6.278,0.000,2.812,0.772,0.000,2.686,0.000,0.000,0.868,0.918,3.116,0.000,3.142,0.000,0.000,0.000,0.000,0.000,0.000,0.000,0.000,0.000,0.000,0.000,3.142,6.283,0.000,1.003,1.569,1.569,4.085,6.281,1.199,4.712,0.000,0.000,-4.070,-7.718,0.990,0.077,4.707,4.711,5.281,4.711,4.711,2.198,6.282,5.083,1.570,0.000,0.000,-4.121,-7.064,0.990,0.077,4.708,4.711,
77.760,92.282,-3.508,-7.345,3.218,0.002,6.278,0.000,2.812,0.772,0.000,2.686,0.000,0.000,0.868,0.918,3.116,0.000,3.142,0.000,0.000,0.000,0.000,0.000,0.000,0.000,0.000,0.000,0.000,0.000,3.142,6.283,0.000,1.003,1.569,1.569,4.085,6.281,1.199,4.712,0.000,0.000,-4.070,-7.718,0.990,0.077,4.707,4.711,5.281,4.711,4.711,2.198,6.282,5.083,1.570,0.000,0.000,-4.121,-7.064,0.990,0.077,4.708,4.711,
77.860,92.382,-3.508,-7.345,3.218,0.002,6.278,0.000,2.812,0.772,0.000,2.686,0.000,0.000,0.868,0.918,3.116,0.000,3.142,0.000,0.000,0.000,0.000,0.000,0.000,0.000,0.000,0.000,0.000,0.000,3.142,6.283,0.000,1.003,1.569,1.569,4.085,6.281,1.199,4.712,0.000,0.000,-4.070,-7.718,0.990,0.077,4.707,4.711,5.281,4.711,4.711,2.198,6.282,5.083,1.570,0.000,0.000,-4.121,-7.064,0.990,0.077,4.708,4.711,
77.960,92.482,-3.508,-7.345,3.218,0.002,6.278,0.000,2.812,0.772,0.000,2.686,0.000,0.000,0.868,0.918,3.116,0.000,3.142,0.000,0.000,0.000,0.000,0.000,0.000,0.000,0.000,0.000,0.000,0.000,3.142,6.283,0.000,1.003,1.569,1.569,4.085,6.281,1.199,4.712,0.000,0.000,-4.070,-7.718,0.990,0.077,4.707,4.711,5.281,4.711,4.711,2.198,6.282,5.083,1.570,0.000,0.000,-4.121,-7.064,0.990,0.077,4.708,4.711,
78.053,92.575,-3.508,-7.345,3.218,0.002,6.278,0.000,2.812,0.772,0.000,2.686,0.000,0.000,0.868,0.918,3.116,0.000,3.142,0.000,0.000,0.000,0.000,0.000,0.000,0.000,0.000,0.000,0.000,0.000,3.142,6.283,0.000,1.003,1.569,1.569,4.085,6.281,1.199,4.712,0.000,0.000,-4.070,-7.718,0.990,0.077,4.707,4.711,5.281,4.711,4.711,2.198,6.282,5.083,1.570,0.000,0.000,-4.121,-7.064,0.990,0.077,4.708,4.711,
78.160,92.682,-3.508,-7.345,3.218,0.002,6.278,0.000,2.812,0.772,0.000,2.686,0.000,0.000,0.868,0.918,3.116,0.000,3.142,0.000,0.000,0.000,0.000,0.000,0.000,0.000,0.000,0.000,0.000,0.000,3.142,6.283,0.000,1.003,1.569,1.569,4.085,6.281,1.199,4.712,0.000,0.000,-4.070,-7.718,0.990,0.077,4.707,4.711,5.281,4.711,4.711,2.198,6.282,5.083,1.570,0.000,0.000,-4.121,-7.064,0.990,0.077,4.708,4.711,
78.247,92.769,-3.508,-7.345,3.218,0.002,6.278,0.000,2.812,0.772,0.000,2.686,0.000,0.000,0.868,0.918,3.116,0.000,3.142,0.000,0.000,0.000,0.000,0.000,0.000,0.000,0.000,0.000,0.000,0.000,3.142,6.283,0.000,1.003,1.569,1.569,4.085,6.281,1.199,4.712,0.000,0.000,-4.070,-7.718,0.990,0.077,4.707,4.711,5.281,4.711,4.711,2.198,6.282,5.083,1.570,0.000,0.000,-4.121,-7.064,0.990,0.077,4.708,4.711,
78.360,92.882,-3.508,-7.345,3.218,0.002,6.278,0.000,2.812,0.772,0.000,2.686,0.000,0.000,0.868,0.918,3.116,0.000,3.142,0.000,0.000,0.000,0.000,0.000,0.000,0.000,0.000,0.000,0.000,0.000,3.142,6.283,0.000,1.003,1.569,1.569,4.085,6.281,1.199,4.712,0.000,0.000,-4.070,-7.718,0.990,0.077,4.707,4.711,5.281,4.711,4.711,2.198,6.282,5.083,1.570,0.000,0.000,-4.121,-7.064,0.990,0.077,4.708,4.711,
78.441,92.963,-3.508,-7.345,3.218,0.002,6.278,0.000,2.812,0.772,0.000,2.686,0.000,0.000,0.868,0.918,3.116,0.000,3.142,0.000,0.000,0.000,0.000,0.000,0.000,0.000,0.000,0.000,0.000,0.000,3.142,6.283,0.000,1.003,1.569,1.569,4.085,6.281,1.199,4.712,0.000,0.000,-4.070,-7.718,0.990,0.077,4.707,4.711,5.281,4.711,4.711,2.198,6.282,5.083,1.570,0.000,0.000,-4.121,-7.064,0.990,0.077,4.708,4.711,
78.560,93.082,-3.508,-7.345,3.218,0.002,6.278,0.000,2.812,0.772,0.000,2.686,0.000,0.000,0.868,0.918,3.116,0.000,3.142,0.000,0.000,0.000,0.000,0.000,0.000,0.000,0.000,0.000,0.000,0.000,3.142,6.283,0.000,1.003,1.569,1.569,4.085,6.281,1.199,4.712,0.000,0.000,-4.070,-7.718,0.990,0.077,4.707,4.711,5.281,4.711,4.711,2.198,6.282,5.083,1.570,0.000,0.000,-4.121,-7.064,0.990,0.077,4.708,4.711,
78.640,93.162,-3.508,-7.345,3.218,0.002,6.278,0.000,2.812,0.772,0.000,2.686,0.000,0.000,0.868,0.918,3.116,0.000,3.142,0.000,0.000,0.000,0.000,0.000,0.000,3.324,0.000,0.000,0.000,0.000,3.142,6.283,0.000,1.003,1.569,1.569,4.085,6.281,1.199,4.712,0.000,0.000,-4.070,-7.718,0.990,0.077,4.707,4.711,5.281,4.711,4.711,2.198,6.282,5.083,1.570,0.000,0.000,-4.121,-7.064,0.990,0.077,4.708,4.711,
78.756,93.278,-3.508,-7.345,3.218,0.002,6.278,0.000,2.812,0.772,0.000,2.686,0.000,0.000,0.868,0.918,3.116,0.000,3.142,0.000,0.000,0.000,0.000,0.000,0.000,3.113,0.000,0.000,0.000,0.000,3.142,6.283,0.000,1.003,1.569,1.569,4.085,6.281,1.199,4.712,0.000,0.000,-4.070,-7.718,0.990,0.077,4.707,4.711,5.281,4.711,4.711,2.198,6.282,5.083,1.570,0.000,0.000,-4.121,-7.064,0.990,0.077,4.708,4.711,
78.860,93.382,-3.508,-7.345,3.218,0.002,6.278,0.000,2.812,0.772,0.000,2.686,0.000,0.000,0.868,0.918,3.116,0.000,3.142,0.000,0.000,0.000,0.000,0.000,0.000,3.039,0.000,0.000,0.000,0.000,3.142,6.283,0.000,1.003,1.569,1.569,4.085,6.281,1.199,4.712,0.000,0.000,-4.070,-7.718,0.990,0.077,4.707,4.711,5.281,4.711,4.711,2.198,6.282,5.083,1.570,0.000,0.000,-4.121,-7.064,0.990,0.077,4.708,4.711,
78.950,93.472,-3.508,-7.345,3.218,0.002,6.278,0.000,2.812,0.772,0.000,2.686,0.000,0.000,0.868,0.918,3.116,0.000,3.142,0.000,0.000,0.000,0.000,0.000,0.000,2.882,0.000,0.000,0.000,0.000,3.142,6.283,0.000,1.003,1.569,1.569,4.085,6.281,1.199,4.712,0.000,0.000,-4.070,-7.718,0.990,0.077,4.707,4.711,5.281,4.711,4.711,2.198,6.282,5.083,1.570,0.000,0.000,-4.121,-7.064,0.990,0.077,4.708,4.711,
79.060,93.582,-3.508,-7.345,3.218,0.002,6.278,0.000,2.812,0.772,0.000,2.686,0.000,0.000,0.868,0.918,3.116,0.000,3.142,0.000,0.000,0.000,0.000,0.000,0.000,2.823,0.000,0.000,0.000,0.000,3.142,6.283,0.000,1.003,1.569,1.569,4.085,6.281,1.199,4.712,0.000,0.000,-4.070,-7.718,0.990,0.077,4.707,4.711,5.281,4.711,4.711,2.198,6.282,5.083,1.570,0.000,0.000,-4.121,-7.064,0.990,0.077,4.708,4.711,
79.146,93.668,-3.508,-7.345,3.218,0.002,6.278,0.000,2.812,0.772,0.000,2.686,0.000,0.000,0.868,0.918,3.116,0.000,3.142,0.000,0.000,0.000,0.000,0.000,0.000,2.680,0.000,0.000,0.000,0.000,3.142,6.283,0.000,1.003,1.569,1.569,4.085,6.281,1.199,4.712,0.000,0.000,-4.070,-7.718,0.990,0.077,4.707,4.711,5.281,4.711,4.711,2.198,6.282,5.083,1.570,0.000,0.000,-4.121,-7.064,0.990,0.077,4.708,4.711,
79.260,93.782,-3.508,-7.345,3.218,0.002,6.278,0.000,2.812,0.772,0.000,2.686,0.000,0.000,0.868,0.918,3.116,0.000,3.142,0.000,0.000,0.000,0.000,0.000,0.000,2.615,0.000,0.000,0.000,0.000,3.142,6.283,0.000,1.003,1.569,1.569,4.085,6.281,1.199,4.712,0.000,0.000,-4.070,-7.718,0.990,0.077,4.707,4.711,5.281,4.711,4.711,2.198,6.282,5.083,1.570,0.000,0.000,-4.121,-7.064,0.990,0.077,4.708,4.711,
79.340,93.862,-3.508,-7.345,3.218,0.002,6.278,0.000,2.812,0.772,0.000,2.686,0.000,0.000,0.868,0.918,3.116,0.000,3.142,0.000,0.000,0.000,0.000,0.000,0.000,2.467,0.000,0.000,0.000,0.000,3.142,6.283,0.000,1.003,1.569,1.569,4.085,6.281,1.199,4.712,0.000,0.000,-4.070,-7.718,0.990,0.077,4.707,4.711,5.281,4.711,4.711,2.198,6.282,5.083,1.570,0.000,0.000,-4.121,-7.064,0.990,0.077,4.708,4.711,
79.460,93.982,-3.508,-7.345,3.218,0.002,6.278,0.000,2.812,0.772,0.000,2.686,0.000,0.000,0.868,0.918,3.116,0.000,3.142,0.000,0.000,0.000,0.000,0.000,0.000,2.400,0.000,0.000,0.000,0.000,3.142,6.283,0.000,1.003,1.569,1.569,4.085,6.281,1.199,4.712,0.000,0.000,-4.070,-7.718,0.990,0.077,4.707,4.711,5.281,4.711,4.711,2.198,6.282,5.083,1.570,0.000,0.000,-4.121,-7.064,0.990,0.077,4.708,4.711,
79.545,94.066,-3.508,-7.345,3.218,0.002,6.278,0.000,2.812,0.772,0.000,2.686,0.000,0.000,0.868,0.918,3.116,0.000,3.142,0.000,0.000,0.000,0.000,0.000,0.000,2.248,0.000,0.000,0.000,0.000,3.142,6.283,0.000,1.003,1.569,1.569,4.085,6.281,1.199,4.712,0.000,0.000,-4.070,-7.718,0.990,0.077,4.707,4.711,5.281,4.711,4.711,2.198,6.282,5.083,1.570,0.000,0.000,-4.121,-7.064,0.990,0.077,4.708,4.711,
79.660,94.182,-3.508,-7.345,3.218,0.002,6.278,0.000,2.812,0.772,0.000,2.686,0.000,0.000,0.868,0.918,3.116,0.000,3.142,0.000,0.000,0.000,0.000,0.000,0.000,2.175,0.000,0.000,0.000,0.000,3.142,6.283,0.000,1.003,1.569,1.569,4.085,6.281,1.199,4.712,0.000,0.000,-4.070,-7.718,0.990,0.077,4.707,4.711,5.281,4.711,4.711,2.198,6.282,5.083,1.570,0.000,0.000,-4.121,-7.064,0.990,0.077,4.708,4.711,
79.760,94.282,-3.508,-7.345,3.218,0.002,6.278,0.000,2.812,0.772,0.000,2.686,0.000,0.000,0.868,0.918,3.116,0.000,3.142,0.000,0.000,0.000,0.000,0.000,0.000,2.058,0.000,0.000,0.000,0.000,3.142,6.283,0.000,1.003,1.569,1.569,4.085,6.281,1.199,4.712,0.000,0.000,-4.070,-7.718,0.990,0.077,4.707,4.711,5.281,4.711,4.711,2.198,6.282,5.083,1.570,0.000,0.000,-4.121,-7.064,0.990,0.077,4.708,4.711,
79.860,94.382,-3.508,-7.345,3.218,0.002,6.278,0.000,2.812,0.772,0.000,2.686,0.000,0.000,0.868,0.918,3.116,0.000,3.142,0.000,0.000,0.000,0.000,0.000,0.000,1.988,0.000,0.000,0.000,0.000,3.142,6.283,0.000,1.003,1.569,1.569,4.085,6.281,1.199,4.712,0.000,0.000,-4.070,-7.718,0.990,0.077,4.707,4.711,5.281,4.711,4.711,2.198,6.282,5.083,1.570,0.000,0.000,-4.121,-7.064,0.990,0.077,4.708,4.711,
79.948,94.470,-3.508,-7.345,3.218,0.002,6.278,0.000,2.812,0.772,0.000,2.686,0.000,0.000,0.868,0.918,3.116,0.000,3.142,0.000,0.000,0.000,0.000,0.000,0.000,2.014,0.000,0.000,0.000,0.000,3.142,6.283,0.000,1.003,1.569,1.569,4.085,6.281,1.199,4.712,0.000,0.000,-4.070,-7.718,0.990,0.077,4.707,4.711,5.281,4.711,4.711,2.198,6.282,5.083,1.570,0.000,0.000,-4.121,-7.064,0.990,0.077,4.708,4.711,
80.060,94.582,-3.508,-7.345,3.218,0.002,6.278,0.000,2.812,0.772,0.000,2.686,0.000,0.000,0.868,0.918,3.116,0.000,3.142,0.000,0.000,0.000,0.000,0.000,0.000,0.000,0.000,0.000,0.000,0.000,3.142,6.283,0.000,1.003,1.569,1.569,4.085,6.281,1.199,4.712,0.000,0.000,-4.070,-7.718,0.990,0.077,4.707,4.711,5.281,4.711,4.711,2.198,6.282,5.083,1.570,0.000,0.000,-4.121,-7.064,0.990,0.077,4.708,4.711,
80.143,94.665,-3.508,-7.345,3.218,0.002,6.278,0.000,2.812,0.772,0.000,2.686,0.000,0.000,0.868,0.918,3.116,0.000,3.142,0.000,0.000,0.000,0.000,0.000,0.000,0.000,0.000,0.000,0.000,0.000,3.142,6.283,0.000,1.003,1.569,1.569,4.085,6.281,1.199,4.712,0.000,0.000,-4.070,-7.718,0.990,0.077,4.707,4.711,5.281,4.711,4.711,2.198,6.282,5.083,1.570,0.000,0.000,-4.121,-7.064,0.990,0.077,4.708,4.711,
80.260,94.782,-3.508,-7.345,3.218,0.002,6.278,0.000,2.812,0.772,0.000,2.686,0.000,0.000,0.868,0.918,3.116,0.000,3.142,0.000,0.000,0.000,0.000,0.000,0.000,0.000,0.000,0.000,0.000,0.000,3.142,6.283,0.000,1.003,1.569,1.569,4.085,6.281,1.199,4.712,0.000,0.000,-4.070,-7.718,0.990,0.077,4.707,4.711,5.281,4.711,4.711,2.198,6.282,5.083,1.570,0.000,0.000,-4.121,-7.064,0.990,0.077,4.708,4.711,
80.360,94.882,-3.508,-7.345,3.218,0.002,6.278,0.000,2.812,0.772,0.000,2.686,0.000,0.000,0.868,0.918,3.116,0.000,3.142,0.000,0.000,0.000,0.000,0.000,0.000,0.000,0.000,0.000,0.000,0.000,3.142,6.283,0.000,1.003,1.569,1.569,4.085,6.281,1.199,4.712,0.000,0.000,-4.070,-7.718,0.990,0.077,4.707,4.711,5.281,4.711,4.711,2.198,6.282,5.083,1.570,0.000,0.000,-4.121,-7.064,0.990,0.077,4.708,4.711,
80.460,94.982,-3.508,-7.345,3.218,0.002,6.278,0.000,2.812,0.772,0.000,2.686,0.000,0.000,0.868,0.918,3.116,0.000,3.142,0.000,0.000,0.000,0.000,0.000,0.000,0.000,0.000,0.000,0.000,0.000,3.142,6.283,0.000,1.003,1.569,1.569,4.085,6.281,1.199,4.712,0.000,0.000,-4.070,-7.718,0.990,0.077,4.707,4.711,5.281,4.711,4.711,2.198,6.282,5.083,1.570,0.000,0.000,-4.121,-7.064,0.990,0.077,4.708,4.711,
80.550,95.072,-3.508,-7.345,3.218,0.002,6.278,0.000,2.812,0.772,0.000,2.686,0.000,0.000,0.868,0.918,3.116,0.000,3.142,0.000,0.000,0.000,0.000,0.000,1.579,0.000,0.000,0.000,0.000,0.000,3.106,6.283,0.000,1.003,1.569,1.569,4.085,6.281,1.199,4.712,0.000,0.000,-4.070,-7.718,0.990,0.077,4.707,4.711,5.281,4.711,4.711,2.198,6.282,5.083,1.570,0.000,0.000,-4.121,-7.064,0.990,0.077,4.708,4.711,
80.660,95.182,-3.508,-7.345,3.218,0.002,6.278,0.000,2.812,0.772,0.000,2.686,0.000,0.000,0.868,0.918,3.116,0.000,3.142,0.000,0.000,0.000,0.000,0.000,1.435,0.000,0.000,0.000,0.000,0.000,3.071,6.283,0.000,1.003,1.569,1.569,4.085,6.281,1.199,4.712,0.000,0.000,-4.070,-7.718,0.990,0.077,4.707,4.711,5.281,4.711,4.711,2.198,6.282,5.083,1.570,0.000,0.000,-4.121,-7.064,0.990,0.077,4.708,4.711,
80.760,95.282,-3.508,-7.345,3.218,0.002,6.278,0.000,2.812,0.772,0.000,2.686,0.000,0.000,0.868,0.918,3.116,0.000,3.142,0.000,0.000,0.000,0.000,0.000,1.314,0.000,0.000,0.000,0.000,0.000,2.966,6.283,0.000,1.003,1.569,1.569,4.085,6.281,1.199,4.712,0.000,0.000,-4.070,-7.718,0.990,0.077,4.707,4.711,5.281,4.711,4.711,2.198,6.282,5.083,1.570,0.000,0.000,-4.121,-7.064,0.990,0.077,4.708,4.711,
80.860,95.382,-3.508,-7.345,3.218,0.002,6.278,0.000,2.812,0.772,0.000,2.686,0.000,0.000,0.868,0.918,3.116,0.000,3.142,0.000,0.000,0.000,0.000,0.000,1.314,0.000,0.000,0.000,0.000,0.000,2.966,6.283,0.000,1.003,1.569,1.569,4.085,6.281,1.199,4.712,0.000,0.000,-4.070,-7.718,0.990,0.077,4.707,4.711,5.281,4.711,4.711,2.198,6.282,5.083,1.570,0.000,0.000,-4.121,-7.064,0.990,0.077,4.708,4.711,
80.960,95.482,-3.508,-7.345,3.218,0.002,6.278,0.000,2.812,0.772,0.000,2.686,0.000,0.000,0.868,0.918,3.116,0.000,3.142,0.000,0.000,0.000,0.000,0.000,1.314,0.000,0.000,0.000,0.000,0.000,2.966,6.283,0.000,1.003,1.569,1.569,4.085,6.281,1.199,4.712,0.000,0.000,-4.070,-7.718,0.990,0.077,4.707,4.711,5.281,4.711,4.711,2.198,6.282,5.083,1.570,0.000,0.000,-4.121,-7.064,0.990,0.077,4.708,4.711,
81.058,95.580,-3.508,-7.345,3.218,0.002,6.278,0.000,2.812,0.772,0.000,2.686,0.000,0.000,0.868,0.918,3.116,0.000,3.142,0.000,0.000,0.000,0.000,0.000,1.327,0.000,0.000,0.000,0.000,0.000,3.001,6.283,0.000,1.003,1.569,1.569,4.085,6.281,1.199,4.712,0.000,0.000,-4.070,-7.718,0.990,0.077,4.707,4.711,5.281,4.711,4.711,2.198,6.282,5.083,1.570,0.000,0.000,-4.121,-7.064,0.990,0.077,4.708,4.711,
81.160,95.682,-3.508,-7.345,3.218,0.002,6.278,0.000,2.812,0.772,0.000,2.686,0.000,0.000,0.868,0.918,3.116,0.000,3.142,0.000,0.000,0.000,0.000,0.000,1.338,0.000,0.000,0.000,0.000,0.000,3.001,6.283,0.000,1.003,1.569,1.569,4.085,6.281,1.199,4.712,0.000,0.000,-4.070,-7.718,0.990,0.077,4.707,4.711,5.281,4.711,4.711,2.198,6.282,5.083,1.570,0.000,0.000,-4.121,-7.064,0.990,0.077,4.708,4.711,
81.259,95.781,-3.508,-7.345,3.218,0.002,6.278,0.000,2.812,0.772,0.000,2.686,0.000,0.000,0.868,0.918,3.116,0.000,3.142,0.000,0.000,0.000,0.000,0.000,1.377,0.000,0.000,0.000,0.000,0.000,3.036,6.283,0.000,1.003,1.569,1.569,4.085,6.281,1.199,4.712,0.000,0.000,-4.070,-7.718,0.990,0.077,4.707,4.711,5.281,4.711,4.711,2.198,6.282,5.083,1.570,0.000,0.000,-4.121,-7.064,0.990,0.077,4.708,4.711,
81.360,96.356,-3.508,-7.345,3.218,0.002,6.278,0.000,2.812,0.772,0.000,2.686,0.000,0.000,0.868,0.918,3.116,0.000,3.142,0.000,0.000,0.000,0.000,0.000,1.413,0.000,0.000,0.000,0.000,0.000,3.036,6.283,0.000,1.003,1.569,1.569,4.085,6.281,1.199,4.712,0.000,0.000,-4.070,-7.718,0.990,0.077,4.707,4.711,5.281,4.711,4.711,2.198,6.282,5.083,1.570,0.000,0.000,-4.121,-7.064,0.990,0.077,4.708,4.711,
81.460,96.456,-3.508,-7.345,3.218,0.002,6.278,0.000,2.812,0.772,0.000,2.686,0.000,0.000,0.868,0.918,3.116,0.000,3.142,0.000,0.000,0.000,0.000,0.000,1.413,0.000,0.000,0.000,0.000,0.000,3.036,6.283,0.000,1.003,1.569,1.569,4.085,6.281,1.199,4.712,0.000,0.000,-4.070,-7.718,0.990,0.077,4.707,4.711,5.281,4.711,4.711,2.198,6.282,5.083,1.570,0.000,0.000,-4.121,-7.064,0.990,0.077,4.708,4.711,
81.560,96.556,-3.508,-7.345,3.218,0.002,6.278,0.000,2.812,0.772,0.000,2.686,0.000,0.000,0.868,0.918,3.116,0.000,3.142,0.000,0.000,0.000,0.000,0.000,1.413,0.000,0.000,0.000,0.000,0.000,3.036,6.283,0.000,1.003,1.569,1.569,4.085,6.281,1.199,4.712,0.000,0.000,-4.070,-7.718,0.990,0.077,4.707,4.711,5.281,4.711,4.711,2.198,6.282,5.083,1.570,0.000,0.000,-4.121,-7.064,0.990,0.077,4.708,4.711,
81.660,96.656,-3.508,-7.345,3.218,0.002,6.278,0.000,2.812,0.772,0.000,2.686,0.000,0.000,0.868,0.918,3.116,0.000,3.142,0.000,0.000,0.000,0.000,0.000,0.000,0.000,0.000,0.000,0.000,0.000,3.142,6.283,0.000,1.003,1.569,1.569,4.085,6.281,1.199,4.712,0.000,0.000,-4.070,-7.718,0.990,0.077,4.707,4.711,5.281,4.711,4.711,2.198,6.282,5.083,1.570,0.000,0.000,-4.121,-7.064,0.990,0.077,4.708,4.711,
81.750,96.746,-3.508,-7.345,3.218,0.002,6.278,0.000,2.812,0.772,0.000,2.686,0.000,0.000,0.868,0.918,3.116,0.000,3.142,0.000,0.000,0.000,0.000,0.000,0.000,0.000,0.000,0.000,0.000,0.000,3.142,6.283,0.000,1.003,1.569,1.569,4.085,6.281,1.199,4.712,0.000,0.000,-4.070,-7.718,0.990,0.077,4.707,4.711,5.281,4.711,4.711,2.198,6.282,5.083,1.570,0.000,0.000,-4.121,-7.064,0.990,0.077,4.708,4.711,
81.860,96.856,-3.508,-7.345,3.218,0.002,6.278,0.000,2.812,0.772,0.000,2.686,0.000,0.000,0.868,0.918,3.116,0.000,3.142,0.000,0.000,0.000,0.000,0.000,0.000,0.000,0.000,0.000,0.000,0.000,3.142,6.283,0.000,1.003,1.569,1.569,4.085,6.281,1.199,4.712,0.000,0.000,-4.070,-7.718,0.990,0.077,4.707,4.711,5.281,4.711,4.711,2.198,6.282,5.083,1.570,0.000,0.000,-4.121,-7.064,0.990,0.077,4.708,4.711,
81.960,96.956,-3.508,-7.345,3.218,0.002,6.278,0.000,2.812,0.772,0.000,2.686,0.000,0.000,0.868,0.918,3.116,0.000,3.142,0.000,0.000,0.000,0.000,0.000,0.000,0.000,0.000,0.000,0.000,0.000,3.142,6.283,0.000,1.003,1.569,1.569,4.085,6.281,1.199,4.712,0.000,0.000,-4.070,-7.718,0.990,0.077,4.707,4.711,5.281,4.711,4.711,2.198,6.282,5.083,1.570,0.000,0.000,-4.121,-7.064,0.990,0.077,4.708,4.711,
82.060,97.056,-3.508,-7.345,3.218,0.002,6.278,0.000,2.812,0.772,0.000,2.686,0.000,0.000,0.868,0.918,3.116,0.000,3.142,0.000,0.000,0.000,0.000,0.000,0.000,0.000,0.000,0.000,0.000,0.000,3.142,6.283,0.000,1.003,1.569,1.569,4.085,6.281,1.199,4.712,0.000,0.000,-4.070,-7.718,0.990,0.077,4.707,4.711,5.281,4.711,4.711,2.198,6.282,5.083,1.570,0.000,0.000,-4.121,-7.064,0.990,0.077,4.708,4.711,
82.160,97.156,-3.508,-7.345,3.218,0.002,6.278,0.000,2.812,0.772,0.000,2.686,0.000,0.000,0.868,0.918,3.116,0.000,3.142,0.000,0.000,0.000,0.000,0.000,0.000,0.000,0.000,0.000,0.000,0.000,3.142,6.283,0.000,1.003,1.569,1.569,4.085,6.281,1.199,4.712,0.000,0.000,-4.070,-7.718,0.990,0.077,4.707,4.711,5.281,4.711,4.711,2.198,6.282,5.083,1.570,0.000,0.000,-4.121,-7.064,0.990,0.077,4.708,4.711,
82.248,97.243,-3.508,-7.345,3.218,0.002,6.278,0.000,2.812,0.772,0.000,2.686,0.000,0.000,0.868,0.918,3.116,0.000,3.142,0.000,0.000,0.000,0.000,0.000,0.000,0.000,0.000,0.000,0.000,0.000,3.142,6.283,0.000,1.003,1.569,1.569,4.085,6.281,1.199,4.712,0.000,0.000,-4.070,-7.718,0.990,0.077,4.707,4.711,5.281,4.711,4.711,2.198,6.282,5.083,1.570,0.000,0.000,-4.121,-7.064,0.990,0.077,4.708,4.711,
82.360,