deveshdatwani/Gopher/Assets/Data/07-21 11-01-13/Obstacle Handling_robot_value.csv
game_time,true_time,x,y,az,vx,vaz,dis_to_obs_0,dis_to_obs_36,dis_to_obs_72,dis_to_obs_108,dis_to_obs_144,dis_to_obs_180,dis_to_obs_-144,dis_to_obs_-108,dis_to_obs_-72,dis_to_obs_-36,dis_to_min_obs,direction_to_min_obs,dis_to_human_0,dis_to_human_36,dis_to_human_72,dis_to_human_108,dis_to_human_144,dis_to_human_180,dis_to_human_-144,dis_to_human_-108,dis_to_human_-72,dis_to_human_-36,dis_to_min_human,direction_to_min_human,main_cam_yaw,main_cam_pitch,left_joint_1,left_joint_2,left_joint_3,left_joint_4,left_joint_5,left_joint_6,left_joint_7,left_joint_gripper,left_is_grasping,left_end_x,left_end_y,left_end_z,left_end_ax,left_end_ay,left_end_az,right_joint_1,right_joint_2,right_joint_3,right_joint_4,right_joint_5,right_joint_6,right_joint_7,right_joint_gripper,right_is_grasping,right_end_x,right_end_y,right_end_z,right_end_ax,right_end_ay,right_end_az,
8.020,13.996,0.996,-9.942,1.577,1.020,6.265,3.443,0.000,2.101,1.256,2.120,4.970,3.365,2.098,1.698,4.194,0.000,3.001,0.000,0.000,0.000,0.000,0.000,0.000,0.000,0.000,0.000,0.000,0.000,3.142,6.282,0.000,1.004,1.569,1.569,4.085,6.281,1.199,4.712,0.000,0.000,0.664,-9.354,0.990,4.720,4.045,5.379,5.281,4.711,4.711,2.198,6.282,5.083,1.570,0.000,0.000,1.320,-9.350,0.990,4.720,4.092,5.332,
8.120,14.096,0.995,-9.823,1.577,0.996,6.265,3.324,0.000,1.702,1.256,2.120,0.000,3.364,2.099,1.699,3.510,0.000,3.142,0.000,0.000,0.000,0.000,0.000,0.000,0.000,0.000,0.000,0.000,0.000,3.142,6.282,0.000,1.004,1.569,1.569,4.085,6.281,1.199,4.712,0.000,0.000,0.663,-9.236,0.990,4.721,4.106,5.317,5.281,4.711,4.711,2.198,6.282,5.083,1.570,0.000,0.000,1.319,-9.232,0.990,4.721,4.135,5.289,
8.217,14.193,0.995,-9.725,1.578,1.011,0.031,3.226,0.000,1.651,1.283,2.122,0.000,3.361,2.099,1.700,3.388,0.000,3.142,0.000,0.000,0.000,0.000,0.000,0.000,0.000,0.000,0.000,0.000,0.000,3.142,6.283,0.000,1.003,1.569,1.569,4.085,6.281,1.199,4.712,0.000,0.000,0.662,-9.138,0.990,4.721,4.122,5.301,5.281,4.711,4.712,2.198,6.282,5.083,1.570,0.000,0.000,1.318,-9.133,0.990,4.721,4.204,5.220,
8.320,14.296,0.994,-9.645,1.601,1.019,0.747,3.148,0.000,1.619,1.331,2.194,0.000,3.265,2.086,0.000,3.771,0.000,3.142,0.000,0.000,0.000,0.000,0.000,0.000,0.000,0.000,0.000,0.000,0.000,3.142,0.001,0.000,1.003,1.571,1.572,4.086,6.281,1.199,4.712,0.000,0.000,0.650,-9.065,0.990,4.739,4.521,4.904,5.281,4.712,4.714,2.199,6.281,5.083,1.571,0.000,0.000,1.306,-9.046,0.991,4.739,4.588,4.836,
8.401,14.377,0.987,-9.525,1.729,1.012,1.429,3.072,0.000,1.619,1.353,2.757,0.000,2.835,2.036,0.000,3.370,0.000,3.142,0.000,0.000,0.000,0.000,0.000,0.000,0.000,0.000,0.000,0.000,0.000,3.142,0.002,0.000,1.003,1.571,1.570,4.085,6.282,1.199,4.712,0.000,0.000,0.570,-8.994,0.990,4.869,4.683,4.740,5.282,4.713,4.713,2.198,6.282,5.083,1.571,0.000,0.000,1.219,-8.891,0.991,4.869,4.692,4.732,
8.520,14.496,0.973,-9.446,1.820,1.013,1.118,3.055,0.000,1.632,1.395,3.402,0.000,2.627,1.632,0.000,3.154,0.000,3.142,0.000,3.121,0.000,0.000,0.000,0.000,0.000,0.000,0.000,0.000,0.000,3.142,0.001,0.000,1.003,1.570,1.569,4.085,6.282,1.199,4.712,0.000,0.000,0.508,-8.957,0.990,4.963,4.695,4.729,5.282,4.712,4.712,2.198,6.283,5.083,1.570,0.000,0.000,1.145,-8.794,0.991,4.962,4.699,4.725,
8.607,14.583,0.939,-9.331,1.913,1.019,0.814,3.025,4.872,1.886,1.451,0.000,3.766,2.490,1.663,4.574,2.939,0.000,3.071,0.000,0.000,0.000,0.000,0.000,0.000,0.000,0.000,0.000,0.000,0.000,3.142,0.001,0.000,1.004,1.570,1.570,4.085,6.281,1.199,4.712,0.000,0.000,0.432,-8.886,0.990,5.055,4.698,4.725,5.282,4.712,4.712,2.198,6.282,5.083,1.570,0.000,0.000,1.050,-8.666,0.991,5.055,4.702,4.722,
8.720,14.696,0.912,-9.256,1.973,1.014,0.960,3.018,0.000,1.836,1.491,0.000,3.814,2.430,2.098,4.145,2.819,0.000,3.036,0.000,0.000,0.000,0.000,0.000,0.000,0.000,0.000,0.000,0.000,0.000,3.142,0.001,0.000,1.003,1.570,1.570,4.086,6.281,1.199,4.712,0.000,0.000,0.379,-8.842,0.990,5.114,4.700,4.723,5.282,4.712,4.713,2.198,6.282,5.083,1.570,0.000,0.000,0.983,-8.585,0.991,5.114,4.704,4.720,
8.820,14.796,0.861,-9.147,2.083,1.010,1.090,2.560,0.000,1.746,1.593,0.000,4.057,2.350,0.000,3.028,2.661,0.000,2.931,0.000,0.000,0.000,0.000,0.000,0.000,0.000,0.000,0.000,0.000,0.000,3.142,0.001,0.000,1.003,1.570,1.570,4.085,6.282,1.199,4.712,0.000,0.000,0.286,-8.794,0.990,5.224,4.703,4.720,5.282,4.712,4.712,2.198,6.282,5.083,1.570,0.000,0.000,0.859,-8.473,0.991,5.224,4.706,4.717,
8.920,14.896,0.810,-9.062,2.174,1.016,0.999,2.782,0.000,1.686,1.699,0.000,3.862,2.320,0.000,3.201,2.562,0.000,2.861,0.000,0.000,0.000,0.000,0.000,0.000,0.000,0.000,0.000,0.000,0.000,3.142,0.001,0.000,1.003,1.570,1.570,4.085,6.282,1.199,4.712,0.000,0.000,0.206,-8.762,0.990,5.315,4.704,4.718,5.282,4.712,4.712,2.198,6.282,5.083,1.570,0.000,0.000,0.746,-8.390,0.991,5.315,4.706,4.717,
9.020,14.996,0.752,-8.980,2.258,1.016,0.977,0.000,0.000,1.639,1.816,0.000,3.546,1.911,0.000,2.926,2.487,0.000,2.755,0.000,0.000,0.000,0.000,0.000,0.000,0.000,0.000,0.000,0.000,0.000,3.142,0.001,0.000,1.003,1.570,1.570,4.085,6.281,1.199,4.712,0.000,0.000,0.124,-8.733,0.990,5.399,4.705,4.717,5.282,4.712,4.712,2.198,6.282,5.083,1.570,0.000,0.000,0.632,-8.317,0.991,5.399,4.707,4.716,
9.120,15.096,0.687,-8.905,2.343,1.013,1.012,0.000,1.710,1.598,1.978,0.000,3.315,1.942,4.400,2.702,2.435,0.000,2.685,2.878,0.000,0.000,0.000,0.000,0.000,0.000,0.000,0.000,0.000,0.000,3.142,0.001,0.000,1.003,1.570,1.570,4.086,6.281,1.199,4.712,0.000,0.000,0.040,-8.712,0.990,5.484,4.706,4.716,5.282,4.712,4.712,2.198,6.282,5.083,1.570,0.000,0.000,0.510,-8.254,0.991,5.484,4.708,4.715,
9.203,15.180,0.615,-8.835,2.432,1.013,1.036,0.000,1.456,1.560,2.226,0.000,3.144,2.392,4.439,2.519,2.408,0.000,2.615,2.624,0.000,0.000,0.000,0.000,0.000,0.000,0.000,0.000,0.000,0.000,3.142,0.001,0.000,1.003,1.570,1.570,4.085,6.281,1.199,4.712,0.000,0.000,-0.046,-8.700,0.990,5.573,4.706,4.715,5.282,4.712,4.712,2.198,6.282,5.083,1.570,0.000,0.000,0.382,-8.202,0.991,5.573,4.708,4.714,
9.320,15.296,0.554,-8.784,2.503,1.014,1.027,0.000,1.305,1.532,2.526,0.000,3.047,0.000,3.905,2.401,2.404,0.000,2.545,2.690,0.000,0.000,0.000,0.000,0.000,0.000,0.000,0.000,0.000,0.000,3.142,0.001,0.000,1.003,1.570,1.570,4.085,6.281,1.199,4.712,0.000,0.000,-0.115,-8.696,0.990,5.644,4.707,4.715,5.282,4.712,4.712,2.198,6.282,5.083,1.570,0.000,0.000,0.277,-8.169,0.991,5.644,4.708,4.714,
9.408,15.385,0.455,-8.715,2.607,1.014,1.016,4.150,1.131,1.497,3.357,4.476,2.956,0.000,3.324,2.265,2.565,0.000,2.440,0.000,0.000,0.000,0.000,0.000,0.000,0.000,0.000,0.000,0.000,0.000,3.142,0.001,0.000,1.003,1.570,1.570,4.085,6.281,1.199,4.712,0.000,0.000,-0.219,-8.698,0.990,5.749,4.707,4.714,5.282,4.712,4.712,2.198,6.282,5.083,1.570,0.000,0.000,0.115,-8.133,0.991,5.748,4.709,4.714,
9.520,15.496,0.386,-8.676,2.677,1.014,1.018,0.000,1.036,1.475,4.685,4.592,2.923,0.000,3.035,2.197,2.130,0.000,2.404,0.000,0.000,0.000,0.000,0.000,0.000,0.000,0.000,0.000,0.000,0.000,3.142,0.001,0.000,1.003,1.570,1.570,4.085,6.281,1.199,4.712,0.000,0.000,-0.288,-8.705,0.990,5.819,4.707,4.714,5.282,4.712,4.712,2.198,6.282,5.083,1.570,0.000,0.000,0.006,-8.119,0.991,5.818,4.709,4.713,
9.620,15.596,0.278,-8.625,2.732,1.013,0.009,0.000,0.960,1.439,0.000,4.804,2.534,0.000,2.819,2.133,2.138,0.000,2.369,0.000,0.000,0.000,0.000,0.000,0.000,0.000,0.000,0.000,0.000,0.000,3.142,6.283,0.000,1.004,1.568,1.567,4.085,6.281,1.199,4.712,0.000,0.000,-0.394,-8.693,0.990,5.876,4.707,4.713,5.281,4.711,4.709,2.198,6.282,5.083,1.570,0.000,0.000,-0.133,-8.091,0.990,5.876,4.708,4.713,
9.720,15.696,0.186,-8.585,2.732,1.009,6.269,0.000,0.944,1.402,0.000,4.851,2.633,0.000,2.766,2.093,2.092,0.000,2.369,0.000,0.000,0.000,0.000,0.000,0.000,0.000,0.000,0.000,0.000,0.000,3.142,6.282,0.000,1.004,1.569,1.569,4.085,6.281,1.199,4.712,0.000,0.000,-0.485,-8.652,0.990,5.874,4.707,4.713,5.281,4.711,4.711,2.198,6.282,5.083,1.570,0.000,0.000,-0.224,-8.050,0.990,5.874,4.707,4.714,
9.820,15.796,0.095,-8.546,2.732,1.011,6.268,0.000,0.927,1.366,4.155,4.898,2.733,0.000,2.713,2.053,2.046,0.000,2.580,0.000,0.000,0.000,0.000,0.000,0.000,0.000,0.000,0.000,0.000,0.000,3.142,6.282,0.000,1.004,1.569,1.569,4.085,6.281,1.199,4.712,0.000,0.000,-0.576,-8.613,0.990,5.874,4.707,4.713,5.281,4.711,4.711,2.198,6.282,5.083,1.570,0.000,0.000,-0.315,-8.011,0.990,5.874,4.707,4.714,
9.920,15.896,0.004,-8.506,2.731,1.013,6.187,0.000,0.912,0.775,2.768,4.943,2.833,0.000,2.663,2.013,4.533,0.000,2.615,0.000,0.000,0.000,0.000,0.000,0.000,0.000,0.000,0.000,0.000,0.000,3.142,6.282,0.001,1.004,1.569,1.568,4.084,6.281,1.199,4.712,0.000,0.000,-0.667,-8.573,0.990,5.874,4.708,4.713,5.281,4.711,4.710,2.197,6.282,5.083,1.570,0.000,0.000,-0.406,-7.971,0.990,5.874,4.707,4.714,
10.007,15.983,-0.087,-8.466,2.685,1.013,5.262,4.575,0.943,0.635,1.645,4.946,3.440,0.000,2.722,1.983,0.000,0.000,2.685,0.000,0.000,0.000,0.000,0.000,0.000,0.000,0.000,0.000,2.336,0.000,3.142,6.280,0.001,1.005,1.568,1.565,4.084,6.282,1.199,4.711,0.000,0.000,-0.762,-8.504,0.990,5.831,4.707,4.713,5.281,4.710,4.708,2.197,6.282,5.083,1.570,0.000,0.000,-0.473,-7.914,0.990,5.831,4.707,4.713,
10.120,16.096,-0.158,-8.430,2.595,1.010,4.885,3.493,3.108,0.646,1.511,0.000,3.698,0.000,2.938,1.979,1.779,0.000,2.791,0.000,0.000,0.000,0.000,0.000,0.000,0.000,0.000,0.000,0.000,0.000,3.142,6.280,0.001,1.004,1.568,1.566,4.085,6.281,1.199,4.712,0.000,0.000,-0.833,-8.406,0.990,5.740,4.707,4.714,5.282,4.711,4.709,2.197,6.282,5.083,1.570,0.000,0.000,-0.492,-7.845,0.991,5.738,4.708,4.714,
10.207,16.183,-0.258,-8.365,2.511,1.011,6.238,3.353,2.992,0.674,0.639,0.000,4.034,0.000,3.152,1.955,1.653,0.000,2.896,0.000,0.000,0.000,0.000,0.000,0.000,0.000,0.000,0.000,0.000,0.000,3.142,6.282,0.000,1.004,1.570,1.572,4.085,6.280,1.199,4.712,0.000,0.000,-0.927,-8.281,0.990,5.649,4.706,4.716,5.282,4.712,4.713,2.198,6.281,5.083,1.571,0.000,0.000,-0.540,-7.751,0.991,5.650,4.707,4.715,
10.320,16.296,-0.322,-8.318,2.513,1.012,6.278,3.270,2.928,0.682,0.648,0.000,4.109,0.000,3.066,1.905,1.605,0.000,2.896,0.000,0.000,0.000,0.000,0.000,0.000,0.000,0.000,0.000,0.000,0.000,3.142,6.283,0.000,1.003,1.569,1.569,4.085,6.281,1.199,4.712,0.000,0.000,-0.992,-8.237,0.990,5.654,4.706,4.715,5.281,4.711,4.711,2.198,6.282,5.083,1.570,0.000,0.000,-0.606,-7.706,0.990,5.654,4.707,4.715,
10.410,16.386,-0.419,-8.247,2.514,1.012,6.268,3.149,2.832,0.695,0.661,0.000,4.224,0.000,2.941,1.831,1.531,0.000,2.931,0.000,0.000,0.000,0.000,0.000,0.000,0.000,0.000,0.000,0.000,0.000,3.142,6.283,0.000,1.003,1.569,1.569,4.085,6.281,1.199,4.712,0.000,0.000,-1.089,-8.168,0.990,5.656,4.706,4.715,5.281,4.711,4.711,2.198,6.282,5.083,1.570,0.000,0.000,-0.704,-7.637,0.990,5.656,4.707,4.715,
10.520,16.496,-0.484,-8.201,2.515,1.011,6.265,3.068,2.767,0.704,0.669,0.000,4.301,0.000,2.117,1.781,1.482,0.000,2.966,0.000,0.000,0.000,0.000,0.000,0.000,0.000,0.000,0.000,0.000,0.000,3.142,6.283,0.000,1.003,1.569,1.569,4.085,6.281,1.199,4.712,0.000,0.000,-1.154,-8.121,0.990,5.656,4.706,4.715,5.281,4.711,4.711,2.198,6.282,5.083,1.570,0.000,0.000,-0.769,-7.590,0.990,5.657,4.707,4.715,
10.612,16.589,-0.580,-8.131,2.516,1.012,6.260,2.948,2.670,1.684,0.682,0.000,4.417,0.000,2.738,1.708,0.000,0.000,2.966,0.000,0.000,0.000,0.000,0.000,0.000,0.000,0.000,0.000,2.283,0.000,3.142,6.283,0.000,1.003,1.569,1.569,4.085,6.281,1.199,4.712,0.000,0.000,-1.250,-8.052,0.990,5.658,4.706,4.715,5.281,4.711,4.711,2.198,6.282,5.083,1.570,0.000,0.000,-0.866,-7.520,0.990,5.658,4.707,4.715,
10.720,16.696,-0.645,-8.084,2.517,1.012,6.261,2.868,2.606,2.972,0.691,0.000,4.495,0.000,2.658,1.659,0.000,0.000,3.001,0.000,0.000,0.000,0.000,0.000,0.000,0.000,0.000,0.000,0.000,0.000,3.142,6.283,0.000,1.004,1.569,1.569,4.085,6.281,1.199,4.712,0.000,0.000,-1.315,-8.006,0.990,5.658,4.706,4.715,5.281,4.711,4.711,2.198,6.282,5.083,1.570,0.000,0.000,-0.931,-7.474,0.990,5.658,4.707,4.715,
10.810,16.786,-0.742,-8.014,2.517,1.012,6.262,2.749,0.000,2.852,0.703,0.000,4.611,0.000,2.538,1.585,0.000,0.000,3.036,0.000,0.000,0.000,0.000,0.000,0.000,0.000,0.000,0.000,0.000,0.000,3.142,6.283,0.000,1.004,1.569,1.569,4.085,6.281,1.199,4.712,0.000,0.000,-1.412,-7.937,0.990,5.659,4.706,4.715,5.281,4.711,4.711,2.198,6.282,5.083,1.570,0.000,0.000,-1.029,-7.405,0.990,5.659,4.707,4.715,
10.920,16.896,-0.806,-7.968,2.518,1.012,6.262,2.669,0.000,2.771,0.711,1.076,4.689,0.000,2.458,1.078,0.000,0.000,3.036,0.000,0.000,0.000,0.000,0.000,0.000,0.000,0.000,0.000,0.000,0.000,3.142,6.282,0.000,1.004,1.569,1.569,4.085,6.281,1.199,4.712,0.000,0.000,-1.477,-7.891,0.990,5.660,4.706,4.715,5.281,4.711,4.711,2.198,6.282,5.083,1.570,0.000,0.000,-1.094,-7.358,0.990,5.660,4.707,4.715,
11.018,16.995,-0.903,-7.898,2.519,1.012,6.262,2.550,0.000,2.650,0.724,1.095,4.806,0.000,2.339,1.463,0.000,0.000,3.071,0.000,0.000,0.000,0.000,0.000,0.000,0.000,0.000,0.000,0.000,0.000,3.142,6.282,0.000,1.004,1.569,1.569,4.085,6.281,1.199,4.712,0.000,0.000,-1.574,-7.822,0.990,5.661,4.706,4.715,5.281,4.711,4.711,2.198,6.282,5.083,1.570,0.000,0.000,-1.191,-7.289,0.990,5.661,4.707,4.715,
11.120,17.096,-0.968,-7.852,2.519,1.012,6.263,2.470,0.000,2.570,0.967,1.108,4.884,0.000,2.260,1.102,0.000,0.000,3.106,0.000,0.000,0.000,0.000,0.000,0.000,0.000,0.000,0.000,0.000,0.000,3.142,6.282,0.000,1.004,1.569,1.569,4.085,6.281,1.199,4.712,0.000,0.000,-1.638,-7.776,0.990,5.661,4.706,4.715,5.281,4.711,4.711,2.198,6.282,5.083,1.570,0.000,0.000,-1.256,-7.242,0.990,5.661,4.707,4.715,
11.220,17.196,-1.065,-7.782,2.520,1.012,6.264,2.351,0.000,2.448,1.430,1.127,0.000,0.000,2.142,1.029,0.000,0.000,3.142,0.000,0.000,0.000,0.000,0.000,0.000,0.000,0.000,0.000,0.000,0.000,3.142,6.282,0.000,1.004,1.569,1.569,4.085,6.281,1.199,4.712,0.000,0.000,-1.736,-7.707,0.990,5.662,4.707,4.715,5.281,4.711,4.711,2.198,6.282,5.083,1.570,0.000,0.000,-1.354,-7.173,0.990,5.662,4.707,4.715,
11.309,17.285,-1.146,-7.724,2.518,1.012,6.120,2.255,0.000,2.215,1.491,1.140,0.000,0.000,2.050,0.969,3.682,0.000,3.142,0.000,0.000,0.000,0.000,0.000,0.000,0.000,0.000,0.000,0.000,0.000,3.142,6.281,0.001,1.004,1.569,1.568,4.084,6.281,1.199,4.712,0.000,0.000,-1.817,-7.649,0.990,5.662,4.707,4.714,5.281,4.711,4.710,2.197,6.282,5.083,1.570,0.000,0.000,-1.434,-7.115,0.990,5.662,4.706,4.715,
11.420,17.396,-1.211,-7.678,2.481,1.012,5.353,2.235,0.000,2.273,1.557,1.105,0.000,0.000,2.076,0.932,0.000,0.000,3.142,0.000,0.000,0.000,0.000,0.000,0.000,0.000,0.000,0.000,0.000,0.000,3.142,6.280,0.001,1.005,1.567,1.565,4.084,6.282,1.199,4.711,0.000,0.000,-1.879,-7.579,0.990,5.628,4.707,4.714,5.281,4.710,4.708,2.197,6.282,5.083,1.570,0.000,0.000,-1.477,-7.059,0.990,5.627,4.706,4.715,
11.520,17.496,-1.303,-7.601,2.345,1.010,4.910,2.384,4.951,2.201,3.670,1.004,0.000,0.000,2.445,0.902,4.802,0.000,3.142,0.000,0.000,0.000,0.000,0.000,0.000,0.000,0.000,0.000,0.000,0.000,3.142,6.280,0.001,1.004,1.568,1.567,4.085,6.281,1.199,4.712,0.000,0.000,-1.951,-7.411,0.990,5.490,4.705,4.716,5.282,4.711,4.710,2.197,6.282,5.083,1.570,0.000,0.000,-1.482,-6.952,0.991,5.489,4.707,4.715,
11.604,17.580,-1.370,-7.529,2.238,1.007,5.254,2.575,4.374,2.022,3.063,1.327,0.000,0.000,2.917,0.873,4.136,0.000,3.142,0.000,0.000,0.000,0.000,0.000,0.000,0.000,0.000,0.000,0.000,0.000,3.142,6.281,0.001,1.004,1.569,1.568,4.085,6.281,1.199,4.712,0.000,0.000,-1.994,-7.270,0.990,5.381,4.705,4.717,5.282,4.711,4.711,2.197,6.281,5.083,1.570,0.000,0.000,-1.479,-6.863,0.991,5.381,4.706,4.717,
11.720,17.696,-1.419,-7.466,2.174,1.016,5.423,2.718,2.958,2.057,2.700,1.691,0.000,4.681,3.311,0.834,4.193,0.000,3.142,0.000,0.000,0.000,0.000,0.000,0.000,0.000,0.000,0.000,0.000,0.000,3.142,6.281,0.001,1.004,1.569,1.568,4.085,6.281,1.199,4.712,0.000,0.000,-2.025,-7.168,0.990,5.317,4.704,4.718,5.282,4.711,4.710,2.197,6.282,5.083,1.570,0.000,0.000,-1.484,-6.795,0.991,5.317,4.705,4.718,
11.812,17.788,-1.485,-7.365,2.079,1.016,5.304,3.017,1.769,4.945,2.298,1.799,1.703,4.497,4.324,0.766,4.595,0.000,1.246,0.000,0.000,0.000,0.000,0.000,0.000,0.000,0.000,0.000,0.000,0.000,3.142,6.281,0.001,1.004,1.568,1.567,4.085,6.281,1.199,4.712,0.000,0.000,-2.060,-7.011,0.990,5.223,4.703,4.719,5.282,4.711,4.710,2.197,6.282,5.083,1.570,0.000,0.000,-1.487,-6.691,0.990,5.223,4.703,4.719,
11.920,17.896,-1.523,-7.295,2.008,1.010,5.236,2.665,1.706,0.000,2.427,1.886,1.597,4.706,2.759,0.727,3.654,0.000,1.457,0.000,0.000,0.000,0.000,0.000,0.000,0.000,0.000,0.000,0.000,0.000,3.142,6.280,0.001,1.004,1.568,1.567,4.085,6.281,1.199,4.712,0.000,0.000,-2.071,-6.901,0.990,5.152,4.701,4.721,5.282,4.711,4.710,2.197,6.282,5.083,1.570,0.000,0.000,-1.477,-6.623,0.991,5.151,4.702,4.721,
12.019,17.996,-1.570,-7.185,1.899,1.012,5.277,2.429,1.725,0.000,2.143,3.853,1.497,0.000,0.000,0.722,3.788,0.000,1.597,0.000,0.000,0.000,0.000,0.000,0.000,0.000,0.000,0.000,0.000,0.000,3.142,6.280,0.001,1.004,1.568,1.567,4.085,6.281,1.199,4.712,0.000,0.000,-2.072,-6.734,0.990,5.042,4.698,4.725,5.282,4.711,4.710,2.197,6.282,5.083,1.570,0.000,0.000,-1.451,-6.522,0.991,5.042,4.699,4.724,
12.101,18.077,-1.595,-7.109,1.839,1.016,5.730,2.674,1.768,4.606,2.020,4.004,1.612,0.000,0.000,0.722,3.233,0.000,1.667,0.000,0.000,0.000,0.000,0.000,0.000,0.000,0.000,0.000,0.000,0.000,3.142,6.281,0.000,1.004,1.569,1.570,4.085,6.281,1.199,4.712,0.000,0.000,-2.068,-6.629,0.990,4.980,4.694,4.729,5.282,4.712,4.712,2.198,6.281,5.083,1.570,0.000,0.000,-1.436,-6.454,0.991,4.980,4.697,4.727,
12.220,18.196,-1.621,-7.013,1.828,1.011,6.265,2.686,1.751,4.581,1.973,4.141,1.730,0.000,0.000,0.747,3.208,0.000,1.702,0.000,0.000,0.000,0.000,0.000,0.000,0.000,0.000,0.000,0.000,0.000,3.142,6.283,0.000,1.003,1.569,1.569,4.085,6.281,1.199,4.712,0.000,0.000,-2.089,-6.527,0.990,4.970,4.693,4.730,5.281,4.711,4.711,2.198,6.282,5.083,1.570,0.000,0.000,-1.455,-6.360,0.990,4.970,4.695,4.729,
12.310,18.286,-1.652,-6.898,1.829,1.009,6.262,2.565,1.711,4.551,2.128,4.060,1.848,0.000,0.000,0.784,3.303,0.000,2.720,0.000,0.000,0.000,0.000,0.000,0.000,0.000,0.000,0.000,0.000,0.000,3.142,6.283,0.000,1.004,1.569,1.569,4.085,6.281,1.199,4.712,0.000,0.000,-2.120,-6.412,0.990,4.971,4.694,4.730,5.281,4.711,4.711,2.198,6.282,5.083,1.570,0.000,0.000,-1.486,-6.245,0.990,4.971,4.695,4.729,
12.420,18.396,-1.672,-6.821,1.830,1.012,6.262,2.486,1.685,4.530,2.262,4.005,1.926,0.000,1.163,0.809,3.367,0.000,1.738,0.000,0.000,0.000,0.000,0.000,0.000,0.000,0.000,0.000,0.000,0.000,3.142,6.282,0.000,1.004,1.569,1.569,4.085,6.281,1.199,4.712,0.000,0.000,-2.140,-6.336,0.990,4.971,4.694,4.730,5.281,4.711,4.711,2.198,6.282,5.083,1.570,0.000,0.000,-1.506,-6.168,0.990,4.971,4.695,4.729,
12.516,18.492,-1.702,-6.707,1.808,0.977,5.594,2.572,1.675,1.405,4.730,3.690,2.090,0.000,0.707,0.833,3.264,0.000,2.755,0.000,0.000,0.000,0.000,0.000,0.000,0.000,0.000,0.000,0.000,0.000,3.142,6.281,0.001,1.004,1.568,1.566,4.084,6.281,1.199,4.711,0.000,0.000,-2.162,-6.213,0.990,4.954,4.693,4.729,5.281,4.710,4.708,2.197,6.282,5.083,1.570,0.000,0.000,-1.524,-6.058,0.990,4.954,4.690,4.733,
12.620,18.596,-1.719,-6.633,1.733,0.966,4.951,4.565,1.765,1.291,4.894,3.045,2.356,0.000,0.730,0.817,2.794,0.000,2.861,0.000,0.000,0.000,0.000,0.000,0.000,0.000,0.000,0.000,0.000,0.000,3.142,6.280,0.001,1.005,1.568,1.566,4.085,6.281,1.199,4.712,0.000,0.000,-2.141,-6.105,0.990,4.879,4.684,4.739,5.282,4.710,4.709,2.197,6.282,5.083,1.570,0.000,0.000,-1.493,-5.998,0.991,4.878,4.685,4.738,
12.720,18.696,-1.733,-6.525,1.646,0.865,6.153,3.687,1.912,1.296,4.852,2.855,2.639,0.000,0.757,0.799,2.388,0.000,2.931,0.000,0.000,0.000,0.000,0.000,0.000,0.000,0.000,0.000,0.000,0.000,3.142,6.282,0.000,1.003,1.571,1.572,4.086,6.280,1.199,4.712,0.000,0.000,-2.103,-5.962,0.990,4.784,4.638,4.787,5.282,4.712,4.714,2.198,6.281,5.083,1.571,0.000,0.000,-1.449,-5.913,0.991,4.784,4.655,4.770,
12.820,18.796,-1.740,-6.443,1.646,0.841,6.267,3.607,1.901,1.290,4.957,2.949,2.722,0.000,0.763,1.346,2.319,0.000,2.931,0.000,0.000,0.000,0.000,0.000,0.000,0.000,0.000,0.000,0.000,0.000,3.142,6.283,0.000,1.003,1.569,1.569,4.085,6.281,1.199,4.712,0.000,0.000,-2.112,-5.880,0.990,4.788,4.648,4.775,5.281,4.711,4.711,2.198,6.282,5.083,1.570,0.000,0.000,-1.458,-5.831,0.990,4.788,4.656,4.768,
12.920,18.896,-1.746,-6.353,1.639,1.018,5.906,3.459,1.906,1.285,0.000,3.065,2.811,0.000,0.771,1.349,2.304,0.000,2.966,0.000,0.000,0.000,0.000,0.000,0.000,0.000,0.000,0.000,0.000,0.000,3.142,6.280,0.000,1.005,1.568,1.566,4.082,6.281,1.199,4.712,0.000,0.000,-2.117,-5.789,0.990,4.785,4.665,4.758,5.282,4.710,4.708,2.197,6.282,5.083,1.570,0.000,0.000,-1.462,-5.742,0.990,4.785,4.641,4.783,
13.011,18.988,-1.752,-6.247,1.563,1.099,4.998,2.885,1.681,1.305,0.000,2.634,2.911,0.000,0.795,1.318,2.179,0.000,3.036,0.000,0.000,0.000,0.000,0.000,0.000,0.000,0.000,0.000,0.000,0.000,3.142,6.280,0.001,1.005,1.568,1.565,4.084,6.281,1.199,4.711,0.000,0.000,-2.079,-5.655,0.990,4.718,2.537,0.603,5.282,4.710,4.708,2.197,6.282,5.083,1.570,0.000,0.000,-1.422,-5.660,0.990,4.719,2.388,0.752,
13.120,19.096,-1.751,-6.163,1.476,1.025,5.350,2.805,1.485,1.348,1.288,2.516,0.000,0.000,0.819,1.284,4.365,0.000,3.142,0.000,0.000,0.000,0.000,0.000,0.000,0.000,0.000,0.000,0.000,0.000,3.142,6.281,0.001,1.004,1.569,1.570,4.086,6.280,1.199,4.712,0.000,0.000,-2.022,-5.545,0.989,4.808,1.629,1.512,5.282,4.712,4.712,2.198,6.281,5.083,1.570,0.000,0.000,-1.368,-5.607,0.991,4.809,1.609,1.532,
13.220,19.196,-1.738,-6.047,1.451,0.967,6.276,2.739,1.329,1.375,1.294,2.722,0.000,0.000,0.814,1.265,4.307,0.000,3.142,0.000,0.000,0.000,0.000,0.000,0.000,0.000,0.000,0.000,0.000,0.000,3.142,6.283,0.000,1.003,1.569,1.569,4.085,6.281,1.199,4.712,0.000,0.000,-1.994,-5.423,0.990,4.832,1.612,1.529,5.281,4.711,4.712,2.198,6.282,5.083,1.570,0.000,0.000,-1.343,-5.502,0.990,4.832,1.607,1.535,
13.320,19.296,-1.727,-5.951,1.452,1.016,6.267,2.641,1.232,1.387,1.306,2.847,0.000,0.000,0.801,1.253,1.984,0.000,3.142,0.000,0.000,0.000,0.000,0.000,0.000,0.000,0.000,0.000,0.000,0.000,3.142,6.282,0.000,1.004,1.569,1.569,4.085,6.281,1.199,4.712,0.000,0.000,-1.983,-5.327,0.990,4.831,1.610,1.531,5.281,4.711,4.711,2.198,6.282,5.083,1.570,0.000,0.000,-1.332,-5.404,0.990,4.831,1.607,1.534,
13.420,19.396,-1.715,-5.850,1.453,1.035,6.263,2.539,1.253,1.400,1.318,2.978,0.000,0.000,0.788,1.190,1.846,0.000,3.142,0.000,0.000,0.000,0.000,0.000,0.000,0.000,0.000,0.000,0.000,0.000,3.142,6.283,0.000,1.003,1.569,1.569,4.085,6.281,1.199,4.712,0.000,0.000,-1.972,-5.226,0.990,4.830,1.612,1.528,5.281,4.711,4.711,2.198,6.282,5.083,1.570,0.000,0.000,-1.320,-5.303,0.990,4.830,1.608,1.534,
13.504,19.480,-1.703,-5.750,1.454,1.009,6.262,2.438,1.274,1.412,1.331,3.108,0.000,0.000,0.991,4.573,1.727,0.000,3.142,0.000,0.000,0.000,0.000,0.000,0.000,0.000,0.000,0.000,0.000,0.000,3.142,6.283,0.000,1.003,1.569,1.569,4.085,6.281,1.199,4.712,0.000,0.000,-1.961,-5.127,0.990,4.829,1.613,1.527,5.281,4.711,4.711,2.198,6.282,5.083,1.570,0.000,0.000,-1.309,-5.203,0.990,4.829,1.608,1.533,
13.620,19.596,-1.694,-5.672,1.458,0.999,0.245,2.354,1.284,1.420,1.341,0.000,0.000,0.000,1.191,4.534,1.720,0.000,3.142,0.000,0.000,0.000,0.000,0.000,0.000,0.000,0.000,0.000,0.000,0.000,3.142,0.000,0.000,1.003,1.570,1.571,4.086,6.281,1.199,4.712,0.000,0.000,-1.953,-5.049,0.990,4.827,1.615,1.526,5.281,4.712,4.713,2.199,6.282,5.083,1.570,0.000,0.000,-1.301,-5.124,0.991,4.827,1.604,1.537,
13.720,19.696,-1.682,-5.554,1.534,1.014,0.924,2.126,1.161,1.391,1.381,3.160,3.606,1.223,1.256,4.449,1.951,0.000,3.071,0.000,0.000,0.000,0.000,0.000,0.000,0.000,0.000,0.000,0.000,0.000,3.142,0.001,0.000,1.003,1.570,1.570,4.085,6.282,1.199,4.712,0.000,0.000,-1.989,-4.953,0.990,4.750,1.696,1.445,5.282,4.712,4.712,2.198,6.282,5.083,1.570,0.000,0.000,-1.333,-4.977,0.991,4.750,1.661,1.480,
13.803,19.779,-1.680,-5.453,1.574,1.021,0.042,1.992,1.102,1.376,1.403,3.192,3.704,1.152,1.237,4.535,2.058,0.000,3.036,0.000,0.000,0.000,0.000,0.000,0.000,0.000,0.000,0.000,0.000,0.000,3.142,6.283,0.000,1.004,1.568,1.567,4.085,6.282,1.199,4.712,0.000,0.000,-2.013,-4.865,0.990,4.721,4.074,5.349,5.281,4.711,4.709,2.198,6.282,5.083,1.570,0.000,0.000,-1.357,-4.863,0.990,4.720,4.117,5.307,
13.920,19.896,-1.681,-5.373,1.574,1.011,6.270,1.910,1.102,1.375,1.402,3.288,3.784,1.152,1.237,4.285,2.059,0.000,3.036,0.000,0.000,0.000,0.000,0.000,0.000,0.000,0.000,0.000,0.000,0.000,3.142,6.282,0.000,1.004,1.569,1.569,4.085,6.281,1.199,4.712,0.000,0.000,-2.012,-4.786,0.990,4.719,3.831,5.593,5.281,4.711,4.711,2.198,6.282,5.083,1.570,0.000,0.000,-1.356,-4.783,0.990,4.719,3.864,5.560,
14.016,19.992,-1.681,-5.255,1.575,1.007,6.268,1.788,1.101,1.375,1.402,3.431,3.903,1.152,1.185,4.076,2.060,0.000,3.036,0.000,0.000,0.000,0.000,0.000,0.000,0.000,0.000,0.000,0.000,0.000,3.142,6.282,0.000,1.004,1.569,1.569,4.085,6.281,1.199,4.712,0.000,0.000,-2.012,-4.667,0.990,4.719,3.894,5.529,5.281,4.711,4.711,2.198,6.282,5.083,1.570,0.000,0.000,-1.356,-4.664,0.990,4.719,3.910,5.514,
14.120,20.096,-1.681,-5.175,1.575,1.012,6.268,1.707,1.100,0.976,1.402,3.527,3.982,1.221,1.186,4.077,1.536,0.000,3.036,0.000,0.000,0.000,0.000,0.000,0.000,0.000,0.000,0.000,0.000,0.000,3.142,6.282,0.000,1.004,1.569,1.569,4.085,6.281,1.199,4.712,0.000,0.000,-2.013,-4.587,0.990,4.719,3.911,5.513,5.281,4.711,4.711,2.198,6.282,5.083,1.570,0.000,0.000,-1.357,-4.584,0.990,4.719,3.926,5.498,
14.220,20.196,-1.682,-5.055,1.575,1.014,6.268,1.584,1.099,0.696,1.401,3.670,4.102,1.370,4.507,4.078,1.656,0.000,3.036,0.000,0.000,0.000,0.000,0.000,0.000,0.000,0.000,0.000,0.000,0.000,3.142,6.282,0.000,1.004,1.569,1.569,4.085,6.281,1.199,4.712,0.000,0.000,-2.013,-4.468,0.990,4.719,3.924,5.499,5.281,4.711,4.711,2.198,6.282,5.083,1.570,0.000,0.000,-1.357,-4.465,0.990,4.719,3.946,5.478,
14.303,20.279,-1.682,-4.956,1.575,1.011,6.267,1.486,2.166,0.696,1.401,4.814,4.201,1.494,4.844,4.078,1.534,0.000,3.036,0.000,0.000,0.000,0.000,0.000,0.000,0.000,0.000,0.000,0.000,0.000,3.142,6.282,0.000,1.004,1.569,1.569,4.085,6.281,1.199,4.712,0.000,0.000,-2.014,-4.368,0.990,4.719,3.945,5.479,5.281,4.711,4.711,2.198,6.282,5.083,1.570,0.000,0.000,-1.358,-4.365,0.990,4.719,3.969,5.456,
14.420,20.396,-1.683,-4.876,1.575,1.010,6.267,1.407,2.165,0.695,1.401,0.000,4.281,1.593,0.000,1.236,1.437,0.000,3.036,0.000,0.000,0.000,0.000,0.000,0.000,0.000,0.000,0.000,0.000,0.000,3.142,6.282,0.000,1.004,1.569,1.569,4.085,6.281,1.199,4.712,0.000,0.000,-2.014,-4.289,0.990,4.719,3.967,5.457,5.281,4.711,4.711,2.198,6.282,5.083,1.570,0.000,0.000,-1.358,-4.286,0.990,4.719,3.990,5.434,
14.520,20.496,-1.683,-4.757,1.576,1.012,6.267,1.288,2.163,0.695,1.400,0.000,4.400,1.742,0.000,1.198,1.291,0.000,3.036,0.000,0.000,0.000,0.000,0.000,0.000,0.000,0.000,0.000,0.000,0.000,3.142,6.282,0.000,1.004,1.569,1.569,4.085,6.281,1.199,4.712,0.000,0.000,-2.015,-4.170,0.990,4.720,3.998,5.426,5.281,4.711,4.711,2.198,6.282,5.083,1.570,0.000,0.000,-1.359,-4.166,0.990,4.720,4.020,5.404,
14.620,20.596,-1.684,-4.657,1.576,1.012,6.267,1.190,2.161,0.694,0.708,0.000,4.500,1.990,0.000,1.251,1.201,0.000,3.036,0.000,0.000,0.000,0.000,0.000,0.000,0.000,0.000,0.000,0.000,0.000,3.142,6.282,0.000,1.004,1.569,1.569,4.085,6.281,1.199,4.712,0.000,0.000,-2.016,-4.070,0.990,4.720,4.020,5.403,5.281,4.711,4.711,2.198,6.282,5.083,1.570,0.000,0.000,-1.360,-4.066,0.990,4.720,4.045,5.379,
14.720,20.696,-1.685,-4.558,1.576,1.011,6.266,1.091,2.160,0.693,0.708,0.000,4.599,1.990,0.000,1.252,1.203,0.000,3.036,0.000,0.000,0.000,0.000,0.000,0.000,0.000,0.000,0.000,0.000,0.000,3.142,6.282,0.000,1.004,1.569,1.569,4.085,6.281,1.199,4.712,0.000,0.000,-2.017,-3.971,0.990,4.720,4.045,5.379,5.281,4.711,4.711,2.198,6.282,5.083,1.570,0.000,0.000,-1.361,-3.967,0.990,4.720,4.070,5.354,
14.802,20.778,-1.685,-4.459,1.577,1.011,6.266,0.992,2.158,0.693,0.707,2.361,4.699,1.990,0.000,1.253,1.204,0.000,3.036,0.000,0.000,0.000,0.000,0.000,0.000,0.000,0.000,0.000,0.000,0.000,3.142,6.282,0.000,1.004,1.569,1.569,4.085,6.281,1.199,4.712,0.000,0.000,-2.017,-3.871,0.990,4.720,4.070,5.354,5.281,4.711,4.711,2.198,6.282,5.083,1.570,0.000,0.000,-1.361,-3.867,0.990,4.720,4.094,5.330,
14.920,20.896,-1.686,-4.379,1.577,1.012,6.266,0.913,2.156,0.692,0.707,2.361,4.778,1.991,0.000,1.254,1.205,0.000,3.036,0.000,0.000,0.000,0.000,0.000,0.000,0.000,0.000,0.000,0.000,0.000,3.142,6.282,0.000,1.004,1.569,1.569,4.085,6.281,1.199,4.712,0.000,0.000,-2.018,-3.792,0.990,4.721,4.089,5.334,5.281,4.711,4.711,2.198,6.282,5.083,1.570,0.000,0.000,-1.362,-3.788,0.990,4.721,4.113,5.311,
15.018,20.994,-1.686,-4.260,1.577,1.012,6.266,0.795,2.154,0.912,0.706,2.361,4.898,1.991,0.000,1.255,1.208,0.000,3.036,0.000,0.000,0.000,0.000,0.000,0.000,0.000,0.000,0.000,0.000,0.000,3.142,6.282,0.000,1.004,1.569,1.569,4.085,6.281,1.199,4.712,0.000,0.000,-2.019,-3.673,0.990,4.721,4.116,5.307,5.281,4.711,4.711,2.198,6.282,5.083,1.570,0.000,0.000,-1.363,-3.668,0.990,4.721,4.140,5.284,
15.120,21.096,-1.687,-4.180,1.578,1.012,6.266,0.716,2.152,1.367,0.706,2.361,4.977,1.991,0.000,1.255,1.209,0.000,3.036,0.000,0.000,0.000,0.000,0.000,0.000,0.000,0.000,0.000,0.000,0.000,3.142,6.282,0.000,1.004,1.569,1.569,4.085,6.281,1.199,4.712,0.000,0.000,-2.020,-3.593,0.990,4.721,4.134,5.290,5.281,4.711,4.711,2.198,6.282,5.083,1.570,0.000,0.000,-1.364,-3.588,0.990,4.721,4.158,5.266,
15.220,21.196,-1.688,-4.061,1.578,1.012,6.266,0.597,2.149,1.366,0.705,2.361,0.000,1.907,1.191,1.112,1.211,0.000,3.142,0.000,0.000,0.000,0.000,0.000,0.000,0.000,0.000,0.000,0.000,0.000,3.142,6.282,0.000,1.004,1.569,1.569,4.085,6.281,1.199,4.712,0.000,0.000,-2.021,-3.474,0.990,4.721,4.160,5.264,5.281,4.711,4.711,2.198,6.282,5.083,1.570,0.000,0.000,-1.365,-3.469,0.990,4.721,4.183,5.242,
15.313,21.289,-1.689,-3.961,1.578,1.012,6.266,0.499,2.147,1.365,0.704,2.360,0.000,1.927,1.244,0.806,1.419,0.000,3.142,0.000,0.000,0.000,0.000,0.000,0.000,0.000,0.000,0.000,0.000,0.000,3.142,6.282,0.000,1.004,1.569,1.569,4.085,6.281,1.199,4.712,0.000,0.000,-2.022,-3.375,0.990,4.722,4.180,5.244,5.281,4.711,4.711,2.198,6.282,5.083,1.570,0.000,0.000,-1.366,-3.369,0.990,4.722,4.202,5.222,
15.420,21.396,-1.689,-3.905,1.579,0.484,6.265,0.443,2.145,1.365,0.704,1.190,0.000,1.998,1.244,0.732,1.350,0.000,3.142,0.000,0.000,0.000,0.000,0.000,0.000,0.000,0.000,0.000,0.000,0.000,3.142,0.002,0.001,1.001,1.571,1.572,4.090,6.281,1.200,4.712,0.000,0.000,-2.021,-3.317,0.989,4.721,3.750,5.674,5.281,4.712,4.713,2.198,6.282,5.083,1.570,0.000,0.000,-1.365,-3.313,0.990,4.720,4.032,5.392,
15.520,21.496,-1.689,-3.879,1.579,-0.114,6.249,0.417,2.144,1.364,0.704,1.191,0.000,2.031,1.244,0.733,1.318,0.000,3.142,0.000,0.000,0.000,0.000,0.000,0.000,0.000,0.000,0.000,0.000,0.000,3.142,0.004,0.001,0.999,1.571,1.572,4.093,6.281,1.200,4.712,0.000,0.000,-2.021,-3.290,0.989,4.723,3.630,5.793,5.280,4.713,4.714,2.199,6.282,5.083,1.570,0.000,0.000,-1.365,-3.287,0.990,4.719,4.028,5.396,
15.604,21.580,-1.690,-3.934,1.574,-0.949,6.142,0.473,2.157,1.366,0.702,2.343,0.000,1.954,1.247,0.733,1.390,0.000,3.142,0.000,0.000,0.000,0.000,0.000,0.000,0.000,0.000,0.000,0.000,0.000,3.142,0.004,0.001,0.999,1.571,1.572,4.094,6.280,1.200,4.712,0.000,0.000,-2.018,-3.343,0.989,4.722,3.093,0.047,5.280,4.713,4.714,2.200,6.281,5.083,1.570,0.000,0.000,-1.362,-3.345,0.990,4.717,3.175,6.249,
15.720,21.696,-1.689,-4.031,1.570,-1.413,6.280,0.570,2.170,1.368,0.701,2.330,0.000,1.931,1.196,1.046,1.513,0.000,3.142,0.000,0.000,0.000,0.000,0.000,0.000,0.000,0.000,0.000,0.000,0.000,3.142,0.002,0.001,1.001,1.571,1.572,4.089,6.281,1.200,4.712,0.000,0.000,-2.016,-3.440,0.989,4.721,2.595,0.546,5.280,4.713,4.714,2.199,6.282,5.083,1.570,0.000,0.000,-1.360,-3.443,0.990,4.718,2.419,0.722,
15.820,21.796,-1.690,-4.181,1.570,-0.878,6.278,0.718,2.168,1.368,0.701,2.331,4.976,2.015,0.000,0.921,1.201,0.000,3.071,0.000,0.000,0.000,0.000,0.000,0.000,0.000,0.000,0.000,0.000,0.000,3.142,6.279,6.283,1.007,1.568,1.566,4.079,6.281,1.199,4.712,0.000,0.000,-2.020,-3.594,0.990,4.716,4.383,5.041,5.281,4.710,4.709,2.198,6.282,5.083,1.570,0.000,0.000,-1.364,-3.592,0.991,4.717,3.768,5.656,
15.902,21.878,-1.690,-4.237,1.570,-0.337,6.277,0.773,2.168,0.910,0.701,2.331,4.921,2.015,0.000,1.255,1.201,0.000,3.071,0.000,0.000,0.000,0.000,0.000,0.000,0.000,0.000,0.000,0.000,0.000,3.142,6.281,6.283,1.005,1.569,1.568,4.082,6.281,1.199,4.712,0.000,0.000,-2.019,-3.648,0.990,4.716,3.477,5.947,5.281,4.711,4.711,2.199,6.282,5.083,1.570,0.000,0.000,-1.363,-3.648,0.991,4.716,3.369,6.055,
16.020,21.996,-1.690,-4.253,1.571,-0.128,6.276,0.789,2.168,0.910,0.701,2.331,4.904,2.015,0.000,1.255,1.201,0.000,3.071,0.000,0.000,0.000,0.000,0.000,0.000,0.000,0.000,0.000,0.000,0.000,3.142,6.282,0.000,1.004,1.569,1.569,4.084,6.281,1.199,4.712,0.000,0.000,-2.018,-3.664,0.990,4.716,3.221,6.203,5.281,4.711,4.711,2.199,6.282,5.083,1.570,0.000,0.000,-1.362,-3.664,0.990,4.716,3.205,6.219,
16.120,22.096,-1.690,-4.257,1.571,-0.001,6.267,0.793,2.167,0.910,0.701,2.332,4.900,2.014,0.000,1.255,1.202,0.000,3.071,0.000,0.000,0.000,0.000,0.000,0.000,0.000,0.000,0.000,0.000,0.000,3.142,6.283,0.000,1.003,1.569,1.569,4.085,6.281,1.199,4.712,0.000,0.000,-2.018,-3.668,0.990,4.717,3.115,0.026,5.281,4.711,4.712,2.198,6.282,5.083,1.570,0.000,0.000,-1.362,-3.668,0.990,4.717,3.131,0.010,
16.220,22.196,-1.690,-4.257,1.571,-0.001,6.268,0.793,2.167,0.910,0.701,2.332,4.900,2.014,0.000,1.255,1.202,0.000,3.071,0.000,0.000,0.000,0.000,0.000,0.000,0.000,0.000,0.000,0.000,0.000,3.142,6.283,0.000,1.003,1.569,1.569,4.085,6.281,1.199,4.712,0.000,0.000,-2.018,-3.668,0.990,4.717,3.117,0.023,5.281,4.711,4.711,2.198,6.282,5.083,1.570,0.000,0.000,-1.362,-3.668,0.990,4.717,3.140,0.001,
16.320,22.296,-1.690,-4.257,1.571,-0.001,6.268,0.793,2.167,0.910,0.701,2.332,4.900,2.014,0.000,1.255,1.202,0.000,3.071,0.000,0.000,0.000,0.000,0.000,0.000,0.000,0.000,0.000,0.000,0.000,3.142,6.283,0.000,1.003,1.569,1.569,4.085,6.281,1.199,4.712,0.000,0.000,-2.018,-3.668,0.990,4.717,3.117,0.024,5.281,4.711,4.712,2.198,6.282,5.083,1.570,0.000,0.000,-1.362,-3.668,0.990,4.717,3.139,0.002,
16.405,22.382,-1.690,-4.257,1.571,-0.001,6.268,0.793,2.167,0.910,0.701,2.332,4.900,2.014,0.000,1.255,1.202,0.000,3.071,0.000,0.000,0.000,0.000,0.000,0.000,0.000,0.000,0.000,0.000,0.000,3.142,6.283,0.000,1.003,1.569,1.569,4.085,6.281,1.199,4.712,0.000,0.000,-2.018,-3.668,0.990,4.717,3.117,0.023,5.281,4.711,4.712,2.198,6.282,5.083,1.570,0.000,0.000,-1.362,-3.668,0.990,4.717,3.140,0.001,
16.520,22.496,-1.690,-4.257,1.571,-0.001,6.268,0.793,2.167,0.910,0.701,2.332,4.900,2.014,0.000,1.255,1.202,0.000,3.071,0.000,0.000,0.000,0.000,0.000,0.000,0.000,0.000,0.000,0.000,0.000,3.142,6.283,0.000,1.003,1.569,1.569,4.085,6.281,1.199,4.712,0.000,0.000,-2.018,-3.668,0.990,4.717,3.117,0.023,5.281,4.711,4.711,2.198,6.282,5.083,1.570,0.000,0.000,-1.362,-3.668,0.990,4.717,3.140,0.001,
16.620,22.596,-1.690,-4.257,1.571,-0.001,6.268,0.793,2.167,0.910,0.701,2.332,4.900,2.014,0.000,1.255,1.202,0.000,3.071,0.000,0.000,0.000,0.000,0.000,0.000,0.000,0.000,0.000,0.000,0.000,3.142,6.283,0.000,1.003,1.569,1.569,4.085,6.281,1.199,4.712,0.000,0.000,-2.018,-3.668,0.990,4.717,3.117,0.023,5.281,4.711,4.712,2.198,6.282,5.083,1.570,0.000,0.000,-1.362,-3.668,0.990,4.717,3.139,0.002,
16.720,22.696,-1.690,-4.257,1.571,-0.001,6.268,0.793,2.167,0.910,0.701,2.332,4.900,2.014,0.000,1.255,1.202,0.000,3.071,0.000,0.000,0.000,0.000,0.000,0.000,0.000,0.000,0.000,0.000,0.000,3.142,6.283,0.000,1.003,1.569,1.569,4.085,6.281,1.199,4.712,0.000,0.000,-2.018,-3.668,0.990,4.717,3.117,0.023,5.281,4.711,4.712,2.198,6.282,5.083,1.570,0.000,0.000,-1.362,-3.668,0.990,4.717,3.139,0.002,
16.820,22.796,-1.690,-4.257,1.571,-0.001,6.268,0.793,2.167,0.910,0.701,2.332,4.900,2.014,0.000,1.255,1.202,0.000,3.071,0.000,0.000,0.000,0.000,0.000,0.000,0.000,0.000,0.000,0.000,0.000,3.142,6.283,0.000,1.003,1.569,1.569,4.085,6.281,1.199,4.712,0.000,0.000,-2.018,-3.668,0.990,4.717,3.117,0.023,5.281,4.711,4.712,2.198,6.282,5.083,1.570,0.000,0.000,-1.362,-3.668,0.990,4.717,3.140,0.001,
16.914,22.890,-1.690,-4.257,1.571,-0.001,6.268,0.793,2.167,0.910,0.701,2.332,4.900,2.014,0.000,1.255,1.202,0.000,3.071,0.000,0.000,0.000,0.000,0.000,0.000,0.000,0.000,0.000,0.000,0.000,3.142,6.283,0.000,1.003,1.569,1.569,4.085,6.281,1.199,4.712,0.000,0.000,-2.018,-3.668,0.990,4.717,3.117,0.023,5.281,4.711,4.712,2.198,6.282,5.083,1.570,0.000,0.000,-1.362,-3.668,0.990,4.717,3.139,0.002,
17.020,22.996,-1.690,-4.257,1.571,-0.001,6.268,0.793,2.167,0.910,0.701,2.332,4.900,2.014,0.000,1.255,1.202,0.000,3.071,0.000,0.000,0.000,0.000,0.000,0.000,0.000,0.000,0.000,0.000,0.000,3.142,6.283,0.000,1.003,1.569,1.569,4.085,6.281,1.199,4.712,0.000,0.000,-2.018,-3.668,0.990,4.717,3.117,0.023,5.281,4.711,4.712,2.198,6.282,5.083,1.570,0.000,0.000,-1.362,-3.668,0.990,4.717,3.139,0.002,
17.120,23.096,-1.690,-4.257,1.571,-0.001,6.268,0.793,2.167,0.910,0.701,2.332,4.900,2.014,0.000,1.255,1.202,0.000,3.071,0.000,0.000,0.000,0.000,0.000,0.000,0.000,0.000,0.000,0.000,0.000,3.142,6.283,0.000,1.003,1.569,1.569,4.085,6.281,1.199,4.712,0.000,0.000,-2.018,-3.668,0.990,4.717,3.117,0.023,5.281,4.711,4.712,2.198,6.282,5.083,1.570,0.000,0.000,-1.362,-3.668,0.990,4.717,3.139,0.002,
17.220,23.196,-1.690,-4.257,1.571,-0.001,6.268,0.793,2.167,0.910,0.701,2.332,4.900,2.014,0.000,1.255,1.202,0.000,3.071,0.000,0.000,0.000,0.000,0.000,0.000,0.000,0.000,0.000,0.000,0.000,3.142,6.283,0.000,1.003,1.569,1.569,4.085,6.281,1.199,4.712,0.000,0.000,-2.018,-3.668,0.990,4.717,3.117,0.023,5.281,4.711,4.712,2.198,6.282,5.083,1.570,0.000,0.000,-1.362,-3.668,0.990,4.717,3.139,0.002,
17.320,23.296,-1.690,-4.257,1.571,-0.001,6.268,0.793,2.167,0.910,0.701,2.332,4.900,2.014,0.000,1.255,1.202,0.000,3.071,0.000,0.000,0.000,0.000,0.000,0.000,0.000,0.000,0.000,0.000,0.000,3.142,6.283,0.000,1.003,1.569,1.569,4.085,6.281,1.199,4.712,0.000,0.000,-2.018,-3.668,0.990,4.717,3.117,0.023,5.281,4.711,4.712,2.198,6.282,5.083,1.570,0.000,0.000,-1.362,-3.668,0.990,4.717,3.139,0.002,
17.416,23.393,-1.690,-4.257,1.571,-0.001,6.268,0.793,2.167,0.910,0.701,2.332,4.900,2.014,0.000,1.255,1.202,0.000,3.071,0.000,0.000,0.000,0.000,0.000,0.000,0.000,0.000,0.000,0.000,0.000,3.142,6.283,0.000,1.003,1.569,1.569,4.085,6.281,1.199,4.712,0.000,0.000,-2.018,-3.668,0.990,4.717,3.117,0.023,5.281,4.711,4.712,2.198,6.282,5.083,1.570,0.000,0.000,-1.362,-3.668,0.990,4.717,3.140,0.001,
17.520,23.496,-1.690,-4.257,1.571,-0.001,6.268,0.793,2.167,0.910,0.701,2.332,4.900,2.014,0.000,1.255,1.202,0.000,3.071,0.000,0.000,0.000,0.000,0.000,0.000,0.000,0.000,0.000,0.000,0.000,3.142,6.283,0.000,1.003,1.569,1.569,4.085,6.281,1.199,4.712,0.000,0.000,-2.018,-3.668,0.990,4.717,3.117,0.023,5.281,4.711,4.712,2.198,6.282,5.083,1.570,0.000,0.000,-1.362,-3.668,0.990,4.717,3.139,0.002,
17.620,23.596,-1.690,-4.257,1.571,-0.001,6.268,0.793,2.167,0.910,0.701,2.332,4.900,2.014,0.000,1.255,1.202,0.000,3.071,0.000,0.000,0.000,0.000,0.000,0.000,0.000,0.000,0.000,0.000,0.000,3.142,6.283,0.000,1.003,1.569,1.569,4.085,6.281,1.199,4.712,0.000,0.000,-2.018,-3.668,0.990,4.717,3.117,0.023,5.281,4.711,4.712,2.198,6.282,5.083,1.570,0.000,0.000,-1.362,-3.668,0.990,4.717,3.140,0.001,
17.714,23.690,-1.690,-4.257,1.571,-0.001,6.268,0.793,2.167,0.910,0.701,2.332,4.900,2.014,0.000,1.255,1.202,0.000,3.071,0.000,0.000,0.000,0.000,0.000,0.000,0.000,0.000,0.000,0.000,0.000,3.142,6.283,0.000,1.003,1.569,1.569,4.085,6.281,1.199,4.712,0.000,0.000,-2.018,-3.668,0.990,4.717,3.117,0.023,5.281,4.711,4.712,2.198,6.282,5.083,1.570,0.000,0.000,-1.362,-3.668,0.990,4.717,3.139,0.002,
17.820,23.796,-1.690,-4.257,1.571,-0.001,6.268,0.793,2.167,0.910,0.701,2.332,4.900,2.014,0.000,1.255,1.202,0.000,3.071,0.000,0.000,0.000,0.000,0.000,0.000,0.000,0.000,0.000,0.000,0.000,3.142,6.283,0.000,1.003,1.569,1.569,4.085,6.281,1.199,4.712,0.000,0.000,-2.018,-3.668,0.990,4.717,3.117,0.023,5.281,4.711,4.712,2.198,6.282,5.083,1.570,0.000,0.000,-1.362,-3.668,0.990,4.717,3.140,0.001,
17.920,23.896,-1.690,-4.257,1.571,-0.001,6.268,0.793,2.167,0.910,0.701,2.332,4.900,2.014,0.000,1.255,1.202,0.000,3.071,0.000,0.000,0.000,0.000,0.000,0.000,0.000,0.000,0.000,0.000,0.000,3.142,6.283,0.000,1.003,1.569,1.569,4.085,6.281,1.199,4.712,0.000,0.000,-2.018,-3.668,0.990,4.717,3.117,0.023,5.281,4.711,4.712,2.198,6.282,5.083,1.570,0.000,0.000,-1.362,-3.668,0.990,4.717,3.140,0.001,
18.000,23.977,-1.690,-4.257,1.571,-0.001,6.268,0.793,2.167,0.910,0.701,2.332,4.900,2.014,0.000,1.255,1.202,0.000,3.071,0.000,0.000,0.000,0.000,0.000,0.000,0.000,0.000,0.000,0.000,0.000,3.142,6.283,0.000,1.003,1.569,1.569,4.085,6.281,1.199,4.712,0.000,0.000,-2.018,-3.668,0.990,4.717,3.117,0.023,5.281,4.711,4.712,2.198,6.282,5.083,1.570,0.000,0.000,-1.362,-3.668,0.990,4.717,3.139,0.002,
18.120,24.096,-1.690,-4.257,1.571,-0.001,6.268,0.793,2.167,0.910,0.701,2.332,4.900,2.014,0.000,1.255,1.202,0.000,3.071,0.000,0.000,0.000,0.000,0.000,0.000,0.000,0.000,0.000,0.000,0.000,3.142,6.283,0.000,1.003,1.569,1.569,4.085,6.281,1.199,4.712,0.000,0.000,-2.018,-3.668,0.990,4.717,3.117,0.023,5.281,4.711,4.712,2.198,6.282,5.083,1.570,0.000,0.000,-1.362,-3.668,0.990,4.717,3.139,0.002,
18.219,24.196,-1.690,-4.257,1.571,-0.001,6.268,0.793,2.167,0.910,0.701,2.332,4.900,2.014,0.000,1.255,1.202,0.000,3.071,0.000,0.000,0.000,0.000,0.000,0.000,0.000,0.000,0.000,0.000,0.000,3.142,6.283,0.000,1.003,1.569,1.569,4.085,6.281,1.199,4.712,0.000,0.000,-2.018,-3.668,0.990,4.717,3.117,0.023,5.281,4.711,4.712,2.198,6.282,5.083,1.570,0.000,0.000,-1.362,-3.668,0.990,4.717,3.139,0.002,
18.320,24.296,-1.690,-4.257,1.571,-0.001,6.268,0.793,2.167,0.910,0.701,2.332,4.900,2.014,0.000,1.255,1.202,0.000,3.071,0.000,0.000,0.000,0.000,0.000,0.000,0.000,0.000,0.000,0.000,0.000,3.142,6.283,0.000,1.003,1.569,1.569,4.085,6.281,1.199,4.712,0.000,0.000,-2.018,-3.668,0.990,4.717,3.117,0.023,5.281,4.711,4.712,2.198,6.282,5.083,1.570,0.000,0.000,-1.362,-3.668,0.990,4.717,3.139,0.002,
18.420,24.396,-1.690,-4.257,1.571,-0.001,6.268,0.793,2.167,0.910,0.701,2.332,4.900,2.014,0.000,1.255,1.202,0.000,3.071,0.000,0.000,0.000,0.000,0.000,0.000,0.000,0.000,0.000,0.000,0.000,3.142,6.283,0.000,1.003,1.569,1.569,4.085,6.281,1.199,4.712,0.000,0.000,-2.018,-3.668,0.990,4.717,3.117,0.023,5.281,4.711,4.712,2.198,6.282,5.083,1.570,0.000,0.000,-1.362,-3.668,0.990,4.717,3.140,0.001,
18.513,24.489,-1.690,-4.257,1.571,-0.001,6.268,0.793,2.167,0.910,0.701,2.332,4.900,2.014,0.000,1.255,1.202,0.000,3.071,0.000,0.000,0.000,0.000,0.000,0.000,0.000,0.000,0.000,0.000,0.000,3.142,6.283,0.000,1.003,1.569,1.569,4.085,6.281,1.199,4.712,0.000,0.000,-2.018,-3.668,0.990,4.717,3.117,0.023,5.281,4.711,4.712,2.198,6.282,5.083,1.570,0.000,0.000,-1.362,-3.668,0.990,4.717,3.139,0.002,
18.620,24.596,-1.690,-4.257,1.571,-0.001,6.268,0.793,2.167,0.910,0.701,2.332,4.900,2.014,0.000,1.255,1.202,0.000,3.071,0.000,0.000,0.000,0.000,0.000,0.000,0.000,0.000,0.000,0.000,0.000,3.142,6.283,0.000,1.003,1.569,1.569,4.085,6.281,1.199,4.712,0.000,0.000,-2.018,-3.668,0.990,4.717,3.117,0.023,5.281,4.711,4.712,2.198,6.282,5.083,1.570,0.000,0.000,-1.362,-3.668,0.990,4.717,3.139,0.002,
18.720,24.696,-1.690,-4.257,1.571,-0.001,6.268,0.793,2.167,0.910,0.701,2.332,4.900,2.014,0.000,1.255,1.202,0.000,3.071,0.000,0.000,0.000,0.000,0.000,0.000,0.000,0.000,0.000,0.000,0.000,3.142,6.283,0.000,1.003,1.569,1.569,4.085,6.281,1.199,4.712,0.000,0.000,-2.018,-3.668,0.990,4.717,3.117,0.023,5.281,4.711,4.712,2.198,6.282,5.083,1.570,0.000,0.000,-1.362,-3.668,0.990,4.717,3.139,0.002,
18.820,24.796,-1.690,-4.257,1.571,-0.001,6.268,0.793,2.167,0.910,0.701,2.332,4.900,2.014,0.000,1.255,1.202,0.000,3.071,0.000,0.000,0.000,0.000,0.000,0.000,0.000,0.000,0.000,0.000,0.000,3.142,6.283,0.000,1.003,1.569,1.569,4.085,6.281,1.199,4.712,0.000,0.000,-2.018,-3.668,0.990,4.717,3.117,0.024,5.281,4.711,4.712,2.198,6.282,5.083,1.570,0.000,0.000,-1.362,-3.668,0.990,4.717,3.140,0.001,
18.920,24.896,-1.690,-4.257,1.571,-0.001,6.268,0.793,2.167,0.910,0.701,2.332,4.900,2.014,0.000,1.255,1.202,0.000,3.071,0.000,0.000,0.000,0.000,0.000,0.000,0.000,0.000,0.000,0.000,0.000,3.142,6.283,0.000,1.003,1.569,1.569,4.085,6.281,1.199,4.712,0.000,0.000,-2.018,-3.668,0.990,4.717,3.117,0.023,5.281,4.711,4.712,2.198,6.282,5.083,1.570,0.000,0.000,-1.362,-3.668,0.990,4.717,3.140,0.001,
19.017,24.993,-1.690,-4.257,1.571,-0.001,6.268,0.793,2.167,0.910,0.701,2.332,4.900,2.014,0.000,1.255,1.202,0.000,3.071,0.000,0.000,0.000,0.000,0.000,0.000,0.000,0.000,0.000,0.000,0.000,3.142,6.283,0.000,1.003,1.569,1.569,4.085,6.281,1.199,4.712,0.000,0.000,-2.018,-3.668,0.990,4.717,3.117,0.023,5.281,4.711,4.712,2.198,6.282,5.083,1.570,0.000,0.000,-1.362,-3.668,0.990,4.717,3.139,0.002,
19.120,25.096,-1.690,-4.257,1.571,-0.001,6.268,0.793,2.167,0.910,0.701,2.332,4.900,2.014,0.000,1.255,1.202,0.000,3.071,0.000,0.000,0.000,0.000,0.000,0.000,0.000,0.000,0.000,0.000,0.000,3.142,6.283,0.000,1.003,1.569,1.569,4.085,6.281,1.199,4.712,0.000,0.000,-2.018,-3.668,0.990,4.717,3.117,0.023,5.281,4.711,4.712,2.198,6.282,5.083,1.570,0.000,0.000,-1.362,-3.668,0.990,4.717,3.139,0.002,
19.220,25.196,-1.690,-4.257,1.571,-0.001,6.268,0.793,2.167,0.910,0.701,2.332,4.900,2.014,0.000,1.255,1.202,0.000,3.071,0.000,0.000,0.000,0.000,0.000,0.000,0.000,0.000,0.000,0.000,0.000,3.142,6.283,0.000,1.003,1.569,1.569,4.085,6.281,1.199,4.712,0.000,0.000,-2.018,-3.668,0.990,4.717,3.117,0.023,5.281,4.711,4.712,2.198,6.282,5.083,1.570,0.000,0.000,-1.362,-3.668,0.990,4.717,3.140,0.001,
19.313,25.289,-1.690,-4.257,1.571,-0.001,6.268,0.793,2.167,0.910,0.701,2.332,4.900,2.014,0.000,1.255,1.202,0.000,3.071,0.000,0.000,0.000,0.000,0.000,0.000,0.000,0.000,0.000,0.000,0.000,3.142,6.283,0.000,1.003,1.569,1.569,4.085,6.281,1.199,4.712,0.000,0.000,-2.018,-3.668,0.990,4.717,3.117,0.024,5.281,4.711,4.712,2.198,6.282,5.083,1.570,0.000,0.000,-1.362,-3.668,0.990,4.717,3.139,0.002,
19.420,25.396,-1.690,-4.257,1.571,-0.001,6.268,0.793,2.167,0.910,0.701,2.332,4.900,2.014,0.000,1.255,1.202,0.000,3.071,0.000,0.000,0.000,0.000,0.000,0.000,0.000,0.000,0.000,0.000,0.000,3.142,6.283,0.000,1.003,1.569,1.569,4.085,6.281,1.199,4.712,0.000,0.000,-2.018,-3.668,0.990,4.717,3.117,0.023,5.281,4.711,4.712,2.198,6.282,5.083,1.570,0.000,0.000,-1.362,-3.668,0.990,4.717,3.139,0.002,
19.520,25.496,-1.690,-4.257,1.571,-0.001,6.268,0.793,2.167,0.910,0.701,2.332,4.900,2.014,0.000,1.255,1.202,0.000,3.071,0.000,0.000,0.000,0.000,0.000,0.000,0.000,0.000,0.000,0.000,0.000,3.142,6.283,0.031,1.003,1.569,1.569,4.085,6.281,1.199,4.712,0.000,0.000,-2.018,-3.668,0.990,4.717,3.117,0.023,5.281,4.711,4.711,2.198,6.282,5.083,1.570,0.000,0.000,-1.362,-3.668,0.990,4.717,3.139,0.002,
19.612,25.588,-1.690,-4.257,1.571,-0.001,6.268,0.793,2.167,0.910,0.701,2.332,4.900,2.014,0.000,1.255,1.202,0.000,3.071,0.000,0.000,0.000,0.000,0.000,0.000,0.000,0.000,0.000,0.000,0.000,3.142,6.283,0.050,1.003,1.569,1.569,4.085,6.281,1.199,4.712,0.000,0.000,-2.018,-3.668,0.990,4.717,3.117,0.023,5.281,4.711,4.712,2.198,6.282,5.083,1.570,0.000,0.000,-1.362,-3.668,0.990,4.717,3.140,0.001,
19.720,25.696,-1.690,-4.257,1.571,-0.001,6.268,0.793,2.167,0.910,0.701,2.332,4.900,2.014,0.000,1.255,1.202,0.000,3.071,0.000,0.000,0.000,0.000,0.000,0.000,0.000,0.000,0.000,0.000,0.000,3.142,6.283,0.050,1.003,1.569,1.569,4.085,6.281,1.199,4.712,0.000,0.000,-2.018,-3.668,0.990,4.717,3.117,0.023,5.281,4.711,4.711,2.198,6.282,5.083,1.570,0.000,0.000,-1.362,-3.668,0.990,4.717,3.139,0.002,
19.820,25.796,-1.690,-4.257,1.571,-0.001,6.268,0.793,2.167,0.910,0.701,2.332,4.900,2.014,0.000,1.255,1.202,0.000,3.071,0.000,0.000,0.000,0.000,0.000,0.000,0.000,0.000,0.000,0.000,0.000,3.142,6.283,0.160,1.003,1.569,1.569,4.085,6.281,1.199,4.712,0.000,0.000,-2.018,-3.668,0.990,4.717,3.118,0.023,5.281,4.711,4.711,2.198,6.282,5.083,1.570,0.000,0.000,-1.362,-3.668,0.990,4.717,3.140,0.001,
19.920,25.896,-1.690,-4.257,1.571,-0.001,6.261,0.793,2.167,0.910,0.701,2.332,4.900,2.014,0.000,1.255,1.202,0.000,3.071,0.000,0.000,0.000,0.000,0.000,0.000,0.000,0.000,0.000,0.000,0.000,3.142,6.240,0.260,1.004,1.569,1.569,4.085,6.281,1.199,4.712,0.000,0.000,-2.018,-3.668,0.990,4.717,3.192,6.232,5.281,4.711,4.711,2.198,6.282,5.083,1.570,0.000,0.000,-1.362,-3.668,0.990,4.717,3.221,6.203,
20.015,25.991,-1.690,-4.257,1.571,-0.001,6.268,0.793,2.167,0.910,0.701,2.332,4.900,2.014,0.000,1.255,1.202,0.000,3.071,0.000,0.000,0.000,0.000,0.000,0.000,0.000,0.000,0.000,0.000,0.000,3.142,6.233,0.310,1.003,1.569,1.569,4.085,6.281,1.199,4.712,0.000,0.000,-2.018,-3.668,0.990,4.717,3.113,0.028,5.281,4.711,4.712,2.198,6.282,5.083,1.570,0.000,0.000,-1.362,-3.668,0.990,4.717,3.136,0.005,
20.103,26.079,-1.690,-4.257,1.571,-0.001,6.268,0.793,2.167,0.910,0.701,2.332,4.900,2.014,0.000,1.255,1.202,0.000,3.071,0.000,0.000,0.000,0.000,0.000,0.000,0.000,0.000,0.000,0.000,0.000,3.142,6.233,0.310,1.003,1.569,1.569,4.085,6.281,1.199,4.712,0.000,0.000,-2.018,-3.668,0.990,4.717,3.118,0.023,5.281,4.711,4.711,2.198,6.282,5.083,1.570,0.000,0.000,-1.362,-3.668,0.990,4.717,3.140,0.001,
20.220,26.196,-1.690,-4.257,1.571,-0.001,6.268,0.793,2.167,0.910,0.701,2.332,4.900,2.014,0.000,1.255,1.202,0.000,3.071,0.000,0.000,0.000,0.000,0.000,0.000,0.000,0.000,0.000,0.000,0.000,3.142,6.233,0.310,1.003,1.569,1.569,4.085,6.281,1.199,4.712,0.000,0.000,-2.018,-3.668,0.990,4.717,3.117,0.023,5.281,4.711,4.711,2.198,6.282,5.083,1.570,0.000,0.000,-1.362,-3.668,0.990,4.717,3.140,0.001,
20.320,26.296,-1.690,-4.257,1.571,-0.001,6.268,0.793,2.167,0.910,0.701,2.332,4.900,2.014,0.000,1.255,1.202,0.000,3.071,0.000,0.000,0.000,0.000,0.000,0.000,0.000,0.000,0.000,0.000,0.000,3.142,6.233,0.310,1.003,1.569,1.569,4.085,6.281,1.199,4.712,0.000,0.000,-2.018,-3.668,0.990,4.717,3.117,0.023,5.281,4.711,4.711,2.198,6.282,5.083,1.570,0.000,0.000,-1.362,-3.668,0.990,4.717,3.140,0.001,
20.410,26.386,-1.690,-4.257,1.571,-0.001,6.268,0.793,2.167,0.910,0.701,2.332,4.900,2.014,0.000,1.255,1.202,0.000,3.071,0.000,0.000,0.000,0.000,0.000,0.000,0.000,0.000,0.000,0.000,0.000,3.142,6.233,0.310,1.003,1.569,1.569,4.085,6.281,1.199,4.712,0.000,0.000,-2.018,-3.668,0.990,4.717,3.117,0.023,5.281,4.711,4.711,2.198,6.282,5.083,1.570,0.000,0.000,-1.362,-3.668,0.990,4.717,3.140,0.001,
20.502,26.478,-1.690,-4.257,1.571,-0.001,6.268,0.793,2.167,0.910,0.701,2.332,4.900,2.014,0.000,1.255,1.202,0.000,3.071,0.000,0.000,0.000,0.000,0.000,0.000,0.000,0.000,0.000,0.000,0.000,3.142,6.233,0.310,1.003,1.569,1.569,4.085,6.281,1.199,4.712,0.000,0.000,-2.018,-3.668,0.990,4.717,3.117,0.023,5.281,4.711,4.711,2.198,6.282,5.083,1.570,0.000,0.000,-1.362,-3.668,0.990,4.717,3.140,0.001,
20.620,26.596,-1.690,-4.257,1.571,-0.001,6.268,0.793,2.167,0.910,0.701,2.332,4.900,2.014,0.000,1.255,1.202,0.000,3.071,0.000,0.000,0.000,0.000,0.000,0.000,0.000,0.000,0.000,0.000,0.000,3.142,6.233,0.310,1.003,1.569,1.569,4.085,6.281,1.199,4.712,0.000,0.000,-2.018,-3.668,0.990,4.717,3.117,0.023,5.281,4.711,4.711,2.198,6.282,5.083,1.570,0.000,0.000,-1.362,-3.668,0.990,4.717,3.140,0.001,
20.720,26.696,-1.690,-4.257,1.571,-0.001,6.268,0.793,2.167,0.910,0.701,2.332,4.900,2.014,0.000,1.255,1.202,0.000,3.071,0.000,0.000,0.000,0.000,0.000,0.000,0.000,0.000,0.000,0.000,0.000,3.142,6.233,0.310,1.003,1.569,1.569,4.085,6.281,1.199,4.712,0.000,0.000,-2.018,-3.668,0.990,4.717,3.117,0.023,5.281,4.711,4.711,2.198,6.282,5.083,1.570,0.000,0.000,-1.362,-3.668,0.990,4.717,3.140,0.001,
20.813,26.789,-1.690,-4.257,1.571,-0.001,6.268,0.793,2.167,0.910,0.701,2.332,4.900,2.014,0.000,1.255,1.202,0.000,3.071,0.000,0.000,0.000,0.000,0.000,0.000,0.000,0.000,0.000,0.000,0.000,3.142,6.233,0.310,1.003,1.569,1.569,4.085,6.281,1.199,4.712,0.000,0.000,-2.018,-3.668,0.990,4.717,3.117,0.023,5.281,4.711,4.711,2.198,6.282,5.083,1.570,0.000,0.000,-1.362,-3.668,0.990,4.717,3.140,0.001,
20.920,26.896,-1.690,-4.257,1.571,-0.001,6.268,0.793,2.167,0.910,0.701,2.332,4.900,2.014,0.000,1.255,1.202,0.000,3.071,0.000,0.000,0.000,0.000,0.000,0.000,0.000,0.000,0.000,0.000,0.000,3.142,6.233,0.310,1.003,1.569,1.569,4.085,6.281,1.199,4.712,0.000,0.000,-2.018,-3.668,0.990,4.717,3.117,0.023,5.281,4.711,4.711,2.198,6.282,5.083,1.570,0.000,0.000,-1.362,-3.668,0.990,4.717,3.140,0.001,
21.020,26.996,-1.690,-4.257,1.571,-0.001,6.268,0.793,2.167,0.910,0.701,2.332,4.900,2.014,0.000,1.255,1.202,0.000,3.071,0.000,0.000,0.000,0.000,0.000,0.000,0.000,0.000,0.000,0.000,0.000,3.142,6.233,0.310,1.003,1.569,1.569,4.085,6.281,1.199,4.712,0.000,0.000,-2.018,-3.668,0.990,4.717,3.117,0.023,5.281,4.711,4.711,2.198,6.282,5.083,1.570,0.000,0.000,-1.362,-3.668,0.990,4.717,3.140,0.001,
21.120,27.096,-1.690,-4.257,1.571,-0.001,6.268,0.793,2.167,0.910,0.701,2.332,4.900,2.014,0.000,1.255,1.202,0.000,3.071,0.000,0.000,0.000,0.000,0.000,0.000,0.000,0.000,0.000,0.000,0.000,3.142,6.233,0.310,1.003,1.569,1.569,4.085,6.281,1.199,4.712,0.000,0.000,-2.018,-3.668,0.990,4.717,3.117,0.023,5.281,4.711,4.711,2.198,6.282,5.083,1.570,0.000,0.000,-1.362,-3.668,0.990,4.717,3.140,0.001,
21.215,27.192,-1.690,-4.257,1.571,-0.001,6.268,0.793,2.167,0.910,0.701,2.332,4.900,2.014,0.000,1.255,1.202,0.000,3.071,0.000,0.000,0.000,0.000,0.000,0.000,0.000,0.000,0.000,0.000,0.000,3.142,6.233,0.310,1.003,1.569,1.569,4.085,6.281,1.199,4.712,0.000,0.000,-2.018,-3.668,0.990,4.717,3.117,0.023,5.281,4.711,4.711,2.198,6.282,5.083,1.570,0.000,0.000,-1.362,-3.668,0.990,4.717,3.140,0.001,
21.320,27.296,-1.690,-4.257,1.571,-0.001,6.268,0.793,2.167,0.910,0.701,2.332,4.900,2.014,0.000,1.255,1.202,0.000,3.071,0.000,0.000,0.000,0.000,0.000,0.000,0.000,0.000,0.000,0.000,0.000,3.142,6.233,0.310,1.003,1.569,1.569,4.085,6.281,1.199,4.712,0.000,0.000,-2.018,-3.668,0.990,4.717,3.117,0.023,5.281,4.711,4.711,2.198,6.282,5.083,1.570,0.000,0.000,-1.362,-3.668,0.990,4.717,3.140,0.001,
21.420,27.396,-1.690,-4.257,1.571,-0.001,6.268,0.793,2.167,0.910,0.701,2.332,4.900,2.014,0.000,1.255,1.202,0.000,3.071,0.000,0.000,0.000,0.000,0.000,0.000,0.000,0.000,0.000,0.000,0.000,3.142,6.233,0.310,1.003,1.569,1.569,4.085,6.281,1.199,4.712,0.000,0.000,-2.018,-3.668,0.990,4.717,3.117,0.023,5.281,4.711,4.711,2.198,6.282,5.083,1.570,0.000,0.000,-1.362,-3.668,0.990,4.717,3.140,0.001,
21.520,27.496,-1.690,-4.257,1.571,-0.001,6.268,0.793,2.167,0.910,0.701,2.332,4.900,2.014,0.000,1.255,1.202,0.000,3.071,0.000,0.000,0.000,0.000,0.000,0.000,0.000,0.000,0.000,0.000,0.000,3.142,6.233,0.310,1.003,1.569,1.569,4.085,6.281,1.199,4.712,0.000,0.000,-2.018,-3.668,0.990,4.717,3.117,0.023,5.281,4.711,4.711,2.198,6.282,5.083,1.570,0.000,0.000,-1.362,-3.668,0.990,4.717,3.140,0.001,
21.604,27.580,-1.690,-4.257,1.571,-0.001,6.268,0.793,2.167,0.910,0.701,2.332,4.900,2.014,0.000,1.255,1.202,0.000,3.071,0.000,0.000,0.000,0.000,0.000,0.000,0.000,0.000,0.000,0.000,0.000,3.142,6.233,0.310,1.003,1.569,1.569,4.085,6.281,1.199,4.712,0.000,0.000,-2.018,-3.668,0.990,4.717,3.117,0.023,5.281,4.711,4.711,2.198,6.282,5.083,1.570,0.000,0.000,-1.362,-3.668,0.990,4.717,3.140,0.001,
21.720,27.696,-1.690,-4.257,1.571,-0.001,6.268,0.793,2.167,0.910,0.701,2.332,4.900,2.014,0.000,1.255,1.202,0.000,3.071,0.000,0.000,0.000,0.000,0.000,0.000,0.000,0.000,0.000,0.000,0.000,3.142,6.233,0.310,1.003,1.569,1.569,4.085,6.281,1.199,4.712,0.000,0.000,-2.018,-3.668,0.990,4.717,3.117,0.023,5.281,4.711,4.711,2.198,6.282,5.083,1.570,0.000,0.000,-1.362,-3.668,0.990,4.717,3.140,0.001,
21.820,27.796,-1.690,-4.257,1.571,-0.001,6.268,0.793,2.167,0.910,0.701,2.332,4.900,2.014,0.000,1.255,1.202,0.000,3.071,0.000,0.000,0.000,0.000,0.000,0.000,0.000,0.000,0.000,0.000,0.000,3.142,6.233,0.310,1.003,1.569,1.569,4.085,6.281,1.199,4.712,0.000,0.000,-2.018,-3.668,0.990,4.717,3.117,0.023,5.281,4.711,4.711,2.198,6.282,5.083,1.570,0.000,0.000,-1.362,-3.668,0.990,4.717,3.140,0.001,
21.920,27.896,-1.690,-4.257,1.571,-0.001,6.268,0.793,2.167,0.910,0.701,2.332,4.900,2.014,0.000,1.255,1.202,0.000,3.071,0.000,0.000,0.000,0.000,0.000,0.000,0.000,0.000,0.000,0.000,0.000,3.142,6.233,0.310,1.003,1.569,1.569,4.085,6.281,1.199,4.712,0.000,0.000,-2.018,-3.668,0.990,4.717,3.117,0.023,5.281,4.711,4.711,2.198,6.282,5.083,1.570,0.000,0.000,-1.362,-3.668,0.990,4.717,3.140,0.001,
22.009,27.985,-1.690,-4.257,1.571,-0.001,6.268,0.793,2.167,0.910,0.701,2.332,4.900,2.014,0.000,1.255,1.202,0.000,3.071,0.000,0.000,0.000,0.000,0.000,0.000,0.000,0.000,0.000,0.000,0.000,3.142,6.233,0.310,1.003,1.569,1.569,4.085,6.281,1.199,4.712,0.000,0.000,-2.018,-3.668,0.990,4.717,3.117,0.023,5.281,4.711,4.711,2.198,6.282,5.083,1.570,0.000,0.000,-1.362,-3.668,0.990,4.717,3.140,0.001,
22.120,28.412,-1.690,-4.257,1.571,-0.001,6.268,0.793,2.167,0.910,0.701,2.332,4.900,2.014,0.000,1.255,1.202,0.000,3.071,0.000,0.000,0.000,0.000,0.000,0.000,0.000,0.000,0.000,0.000,0.000,3.142,6.233,0.310,1.003,1.569,1.569,4.085,6.281,1.199,4.712,0.000,0.000,-2.018,-3.668,0.990,4.717,3.117,0.023,5.281,4.711,4.711,2.198,6.282,5.083,1.570,0.000,0.000,-1.362,-3.668,0.990,4.717,3.140,0.001,
22.220,28.512,-1.690,-4.257,1.571,-0.001,6.268,0.793,2.167,0.910,0.701,2.332,4.900,2.014,0.000,1.255,1.202,0.000,3.071,0.000,0.000,0.000,0.000,0.000,0.000,0.000,0.000,0.000,0.000,0.000,3.142,6.233,0.310,1.003,1.569,1.569,4.085,6.281,1.199,4.712,0.000,0.000,-2.018,-3.668,0.990,4.717,3.117,0.023,5.281,4.711,4.711,2.198,6.282,5.083,1.570,0.000,0.000,-1.362,-3.668,0.990,4.717,3.140,0.001,
22.320,28.612,-1.690,-4.257,1.571,-0.001,6.268,0.793,2.167,0.910,0.701,2.332,4.900,2.014,0.000,1.255,1.202,0.000,3.071,0.000,0.000,0.000,0.000,0.000,0.000,0.000,0.000,0.000,0.000,0.000,3.142,6.233,0.310,1.003,1.569,1.569,4.085,6.281,1.199,4.712,0.000,0.000,-2.018,-3.668,0.990,4.717,3.117,0.023,5.281,4.711,4.711,2.198,6.282,5.083,1.570,0.000,0.000,-1.362,-3.668,0.990,4.717,3.140,0.001,
22.420,28.712,-1.690,-4.257,1.571,-0.001,6.268,0.793,2.167,0.910,0.701,2.332,4.900,2.014,0.000,1.255,1.202,0.000,3.071,0.000,0.000,0.000,0.000,0.000,0.000,0.000,0.000,0.000,0.000,0.000,3.142,6.233,0.310,1.003,1.569,1.569,4.085,6.281,1.199,4.712,0.000,0.000,-2.018,-3.668,0.990,4.717,3.117,0.023,5.281,4.711,4.711,2.198,6.282,5.083,1.570,0.000,0.000,-1.362,-3.668,0.990,4.717,3.140,0.001,
22.519,28.812,-1.690,-4.257,1.571,-0.001,6.268,0.793,2.167,0.910,0.701,2.332,4.900,2.014,0.000,1.255,1.202,0.000,3.071,0.000,0.000,0.000,0.000,0.000,0.000,0.000,0.000,0.000,0.000,0.000,3.142,6.233,0.310,1.003,1.569,1.569,4.085,6.281,1.199,4.712,0.000,0.000,-2.018,-3.668,0.990,4.717,3.117,0.023,5.281,4.711,4.711,2.198,6.282,5.083,1.570,0.000,0.000,-1.362,-3.668,0.990,4.717,3.140,0.001,
22.620,28.912,-1.690,-4.257,1.571,-0.001,6.268,0.793,2.167,0.910,0.701,2.332,4.900,2.014,0.000,1.255,1.202,0.000,3.071,0.000,0.000,0.000,0.000,0.000,0.000,0.000,0.000,0.000,0.000,0.000,3.142,6.233,0.310,1.003,1.569,1.569,4.085,6.281,1.199,4.712,0.000,0.000,-2.018,-3.668,0.990,4.717,3.117,0.023,5.281,4.711,4.711,2.198,6.282,5.083,1.570,0.000,0.000,-1.362,-3.668,0.990,4.717,3.140,0.001,
22.720,29.012,-1.690,-4.257,1.571,-0.001,6.268,0.793,2.167,0.910,0.701,2.332,4.900,2.014,0.000,1.255,1.202,0.000,3.071,0.000,0.000,0.000,0.000,0.000,0.000,0.000,0.000,0.000,0.000,0.000,3.142,6.233,0.310,1.003,1.569,1.569,4.085,6.281,1.199,4.712,0.000,0.000,-2.018,-3.668,0.990,4.717,3.117,0.023,5.281,4.711,4.711,2.198,6.282,5.083,1.570,0.000,0.000,-1.362,-3.668,0.990,4.717,3.140,0.001,
22.812,29.104,-1.690,-4.257,1.571,-0.001,6.268,0.793,2.167,0.910,0.701,2.332,4.900,2.014,0.000,1.255,1.202,0.000,3.071,0.000,0.000,0.000,0.000,0.000,0.000,0.000,0.000,0.000,0.000,0.000,3.142,6.233,0.310,1.003,1.569,1.569,4.085,6.281,1.199,4.712,0.000,0.000,-2.018,-3.668,0.990,4.717,3.117,0.023,5.281,4.711,4.711,2.198,6.282,5.083,1.570,0.000,0.000,-1.362,-3.668,0.990,4.717,3.140,0.001,
22.920,29.212,-1.690,-4.257,1.571,-0.001,6.268,0.793,2.167,0.910,0.701,2.332,4.900,2.014,0.000,1.255,1.202,0.000,3.071,0.000,0.000,0.000,0.000,0.000,0.000,0.000,0.000,0.000,0.000,0.000,3.142,6.233,0.310,1.003,1.569,1.569,4.085,6.281,1.199,4.712,0.000,0.000,-2.018,-3.668,0.990,4.717,3.117,0.023,5.281,4.711,4.711,2.198,6.282,5.083,1.570,0.000,0.000,-1.362,-3.668,0.990,4.717,3.140,0.001,
23.020,29.312,-1.690,-4.257,1.571,-0.001,6.268,0.793,2.167,0.910,0.701,2.332,4.900,2.014,0.000,1.255,1.202,0.000,3.071,0.000,0.000,0.000,0.000,0.000,0.000,0.000,0.000,0.000,0.000,0.000,3.142,6.233,0.310,1.003,1.569,1.569,4.085,6.281,1.199,4.712,0.000,0.000,-2.018,-3.668,0.990,4.717,3.117,0.023,5.281,4.711,4.711,2.198,6.282,5.083,1.570,0.000,0.000,-1.362,-3.668,0.990,4.717,3.140,0.001,
23.120,29.412,-1.690,-4.257,1.571,-0.001,6.268,0.793,2.167,0.910,0.701,2.332,4.900,2.014,0.000,1.255,1.202,0.000,3.071,0.000,0.000,0.000,0.000,0.000,0.000,0.000,0.000,0.000,0.000,0.000,3.142,6.233,0.310,1.003,1.569,1.569,4.085,6.281,1.199,4.712,0.000,0.000,-2.018,-3.668,0.990,4.717,3.117,0.023,5.281,4.711,4.711,2.198,6.282,5.083,1.570,0.000,0.000,-1.362,-3.668,0.990,4.717,3.140,0.001,
23.212,29.504,-1.690,-4.257,1.571,-0.001,6.268,0.793,2.167,0.910,0.701,2.332,4.900,2.014,0.000,1.255,1.202,0.000,3.071,0.000,0.000,0.000,0.000,0.000,0.000,0.000,0.000,0.000,0.000,0.000,3.142,6.233,0.310,1.003,1.569,1.569,4.085,6.281,1.199,4.712,0.000,0.000,-2.018,-3.668,0.990,4.717,3.117,0.023,5.281,4.711,4.711,2.198,6.282,5.083,1.570,0.000,0.000,-1.362,-3.668,0.990,4.717,3.140,0.001,
23.303,29.595,-1.690,-4.257,1.571,-0.001,6.268,0.793,2.167,0.910,0.701,2.332,4.900,2.014,0.000,1.255,1.202,0.000,3.071,0.000,0.000,0.000,0.000,0.000,0.000,0.000,0.000,0.000,0.000,0.000,3.142,6.233,0.310,1.003,1.569,1.569,4.085,6.281,1.199,4.712,0.000,0.000,-2.018,-3.668,0.990,4.717,3.117,0.023,5.281,4.711,4.711,2.198,6.282,5.083,1.570,0.000,0.000,-1.362,-3.668,0.990,4.717,3.140,0.001,
23.420,29.712,-1.690,-4.257,1.571,-0.001,6.268,0.793,2.167,0.910,0.701,2.332,4.900,2.014,0.000,1.255,1.202,0.000,3.071,0.000,0.000,0.000,0.000,0.000,0.000,0.000,0.000,0.000,0.000,0.000,3.142,6.233,0.310,1.003,1.569,1.569,4.085,6.281,1.199,4.712,0.000,0.000,-2.018,-3.668,0.990,4.717,3.117,0.023,5.281,4.711,4.711,2.198,6.282,5.083,1.570,0.000,0.000,-1.362,-3.668,0.990,4.717,3.140,0.001,
23.520,29.812,-1.690,-4.257,1.571,-0.001,6.268,0.793,2.167,0.910,0.701,2.332,4.900,2.014,0.000,1.255,1.202,0.000,3.071,0.000,0.000,0.000,0.000,0.000,0.000,0.000,0.000,0.000,0.000,0.000,3.142,6.233,0.310,1.003,1.569,1.569,4.085,6.281,1.199,4.712,0.000,0.000,-2.018,-3.668,0.990,4.717,3.117,0.023,5.281,4.711,4.711,2.198,6.282,5.083,1.570,0.000,0.000,-1.362,-3.668,0.990,4.717,3.140,0.001,
23.620,29.912,-1.690,-4.257,1.571,-0.001,6.268,0.793,2.167,0.910,0.701,2.332,4.900,2.014,0.000,1.255,1.202,0.000,3.071,0.000,0.000,0.000,0.000,0.000,0.000,0.000,0.000,0.000,0.000,0.000,3.142,6.233,0.310,1.003,1.569,1.569,4.085,6.281,1.199,4.712,0.000,0.000,-2.018,-3.668,0.990,4.717,3.117,0.023,5.281,4.711,4.711,2.198,6.282,5.083,1.570,0.000,0.000,-1.362,-3.668,0.990,4.717,3.140,0.001,
23.720,30.012,-1.690,-4.257,1.571,-0.001,6.268,0.793,2.167,0.910,0.701,2.332,4.900,2.014,0.000,1.255,1.202,0.000,3.071,0.000,0.000,0.000,0.000,0.000,0.000,0.000,0.000,0.000,0.000,0.000,3.142,6.233,0.310,1.003,1.569,1.569,4.085,6.281,1.199,4.712,0.000,0.000,-2.018,-3.668,0.990,4.717,3.117,0.023,5.281,4.711,4.711,2.198,6.282,5.083,1.570,0.000,0.000,-1.362,-3.668,0.990,4.717,3.140,0.001,
23.820,30.112,-1.690,-4.257,1.571,-0.001,6.268,0.793,2.167,0.910,0.701,2.332,4.900,2.014,0.000,1.255,1.202,0.000,3.071,0.000,0.000,0.000,0.000,0.000,0.000,0.000,0.000,0.000,0.000,0.000,3.142,6.233,0.310,1.003,1.569,1.569,4.085,6.281,1.199,4.712,0.000,0.000,-2.018,-3.668,0.990,4.717,3.117,0.023,5.281,4.711,4.711,2.198,6.282,5.083,1.570,0.000,0.000,-1.362,-3.668,0.990,4.717,3.140,0.001,
23.906,30.198,-1.690,-4.257,1.571,-0.001,6.268,0.793,2.167,0.910,0.701,2.332,4.900,2.014,0.000,1.255,1.202,0.000,3.071,0.000,0.000,0.000,0.000,0.000,0.000,0.000,0.000,0.000,0.000,0.000,3.142,6.233,0.310,1.003,1.569,1.569,4.085,6.281,1.199,4.712,0.000,0.000,-2.018,-3.668,0.990,4.717,3.117,0.023,5.281,4.711,4.711,2.198,6.282,5.083,1.570,0.000,0.000,-1.362,-3.668,0.990,4.717,3.140,0.001,
24.020,30.312,-1.690,-4.257,1.571,-0.001,6.268,0.793,2.167,0.910,0.701,2.332,4.900,2.014,0.000,1.255,1.202,0.000,3.071,0.000,0.000,0.000,0.000,0.000,0.000,0.000,0.000,0.000,0.000,0.000,3.142,6.233,0.310,1.003,1.569,1.569,4.085,6.281,1.199,4.712,0.000,0.000,-2.018,-3.668,0.990,4.717,3.117,0.023,5.281,4.711,4.711,2.198,6.282,5.083,1.570,0.000,0.000,-1.362,-3.668,0.990,4.717,3.140,0.001,
24.120,30.412,-1.690,-4.257,1.571,-0.001,6.268,0.793,2.167,0.910,0.701,2.332,4.900,2.014,0.000,1.255,1.202,0.000,3.071,0.000,0.000,0.000,0.000,0.000,0.000,0.000,0.000,0.000,0.000,0.000,3.142,6.233,0.310,1.003,1.569,1.569,4.085,6.281,1.199,4.712,0.000,0.000,-2.018,-3.668,0.990,4.717,3.117,0.023,5.281,4.711,4.711,2.198,6.282,5.083,1.570,0.000,0.000,-1.362,-3.668,0.990,4.717,3.140,0.001,
24.214,30.506,-1.690,-4.257,1.571,-0.001,6.268,0.793,2.167,0.910,0.701,2.332,4.900,2.014,0.000,1.255,1.202,0.000,3.071,0.000,0.000,0.000,0.000,0.000,0.000,0.000,0.000,0.000,0.000,0.000,3.142,6.233,0.310,1.003,1.569,1.569,4.085,6.281,1.199,4.712,0.000,0.000,-2.018,-3.668,0.990,4.717,3.117,0.023,5.281,4.711,4.711,2.198,6.282,5.083,1.570,0.000,0.000,-1.362,-3.668,0.990,4.717,3.140,0.001,
24.320,30.612,-1.690,-4.257,1.571,-0.001,6.268,0.793,2.167,0.910,0.701,2.332,4.900,2.014,0.000,1.255,1.202,0.000,3.071,0.000,0.000,0.000,0.000,0.000,0.000,0.000,0.000,0.000,0.000,0.000,3.142,6.233,0.310,1.003,1.569,1.569,4.085,6.281,1.199,4.712,0.000,0.000,-2.018,-3.668,0.990,4.717,3.117,0.023,5.281,4.711,4.711,2.198,6.282,5.083,1.570,0.000,0.000,-1.362,-3.668,0.990,4.717,3.140,0.001,
24.420,30.712,-1.690,-4.257,1.571,-0.001,6.268,0.793,2.167,0.910,0.701,2.332,4.900,2.014,0.000,1.255,1.202,0.000,3.071,0.000,0.000,0.000,0.000,0.000,0.000,0.000,0.000,0.000,0.000,0.000,3.142,6.233,0.310,1.003,1.569,1.569,4.085,6.281,1.199,4.712,0.000,0.000,-2.018,-3.668,0.990,4.717,3.117,0.023,5.281,4.711,4.711,2.198,6.282,5.083,1.570,0.000,0.000,-1.362,-3.668,0.990,4.717,3.140,0.001,
24.520,30.812,-1.690,-4.257,1.571,-0.001,6.268,0.793,2.167,0.910,0.701,2.332,4.900,2.014,0.000,1.255,1.202,0.000,3.071,0.000,0.000,0.000,0.000,0.000,0.000,0.000,0.000,0.000,0.000,0.000,3.142,6.233,0.310,1.003,1.569,1.569,4.085,6.281,1.199,4.712,0.000,0.000,-2.018,-3.668,0.990,4.717,3.117,0.023,5.281,4.711,4.711,2.198,6.282,5.083,1.570,0.000,0.000,-1.362,-3.668,0.990,4.717,3.140,0.001,
24.605,30.897,-1.690,-4.257,1.571,-0.001,6.268,0.793,2.167,0.910,0.701,2.332,4.900,2.014,0.000,1.255,1.202,0.000,3.071,0.000,0.000,0.000,0.000,0.000,0.000,0.000,0.000,0.000,0.000,0.000,3.142,6.233,0.310,1.003,1.569,1.569,4.085,6.281,1.199,4.712,0.000,0.000,-2.018,-3.668,0.990,4.717,3.117,0.023,5.281,4.711,4.711,2.198,6.282,5.083,1.570,0.000,0.000,-1.362,-3.668,0.990,4.717,3.140,0.001,
24.720,31.012,-1.690,-4.257,1.571,-0.001,6.268,0.793,2.167,0.910,0.701,2.332,4.900,2.014,0.000,1.255,1.202,0.000,3.071,0.000,0.000,0.000,0.000,0.000,0.000,0.000,0.000,0.000,0.000,0.000,3.142,6.233,0.310,1.003,1.569,1.569,4.085,6.281,1.199,4.712,0.000,0.000,-2.018,-3.668,0.990,4.717,3.117,0.023,5.281,4.711,4.711,2.198,6.282,5.083,1.570,0.000,0.000,-1.362,-3.668,0.990,4.717,3.140,0.001,
24.820,31.112,-1.690,-4.257,1.571,-0.001,6.268,0.793,2.167,0.910,0.701,2.332,4.900,2.014,0.000,1.255,1.202,0.000,3.071,0.000,0.000,0.000,0.000,0.000,0.000,0.000,0.000,0.000,0.000,0.000,3.142,6.233,0.310,1.003,1.569,1.569,4.085,6.281,1.199,4.712,0.000,0.000,-2.018,-3.668,0.990,4.717,3.117,0.023,5.281,4.711,4.711,2.198,6.282,5.083,1.570,0.000,0.000,-1.362,-3.668,0.990,4.717,3.139,0.002,
24.918,31.210,-1.690,-4.257,1.571,-0.001,6.268,0.793,2.167,0.910,0.701,2.332,4.900,2.014,0.000,1.255,1.202,0.000,3.071,0.000,0.000,0.000,0.000,0.000,0.000,0.000,0.000,0.000,0.000,0.000,3.142,6.233,0.310,1.003,1.569,1.569,4.085,6.281,1.199,4.712,0.000,0.000,-2.018,-3.668,0.990,4.717,3.117,0.023,5.281,4.711,4.711,2.198,6.282,5.083,1.570,0.000,0.000,-1.362,-3.668,0.990,4.717,3.140,0.001,
25.020,31.312,-1.690,-4.257,1.571,-0.001,6.268,0.793,2.167,0.910,0.701,2.332,4.900,2.014,0.000,1.255,1.202,0.000,3.071,0.000,0.000,0.000,0.000,0.000,0.000,0.000,0.000,0.000,0.000,0.000,3.142,6.233,0.310,1.003,1.569,1.569,4.085,6.281,1.199,4.712,0.000,0.000,-2.018,-3.668,0.990,4.717,3.117,0.023,5.281,4.711,4.711,2.198,6.282,5.083,1.570,0.000,0.000,-1.362,-3.668,0.990,4.717,3.140,0.001,
25.120,31.412,-1.690,-4.257,1.571,-0.001,6.268,0.793,2.167,0.910,0.701,2.332,4.900,2.014,0.000,1.255,1.202,0.000,3.071,0.000,0.000,0.000,0.000,0.000,0.000,0.000,0.000,0.000,0.000,0.000,3.142,6.233,0.310,1.003,1.569,1.569,4.085,6.281,1.199,4.712,0.000,0.000,-2.018,-3.668,0.990,4.717,3.117,0.023,5.281,4.711,4.711,2.198,6.282,5.083,1.570,0.000,0.000,-1.362,-3.668,0.990,4.717,3.140,0.001,
25.220,31.512,-1.690,-4.257,1.571,-0.001,6.268,0.793,2.167,0.910,0.701,2.332,4.900,2.014,0.000,1.255,1.202,0.000,3.071,0.000,0.000,0.000,0.000,0.000,0.000,0.000,0.000,0.000,0.000,0.000,3.142,6.233,0.310,1.003,1.569,1.569,4.085,6.281,1.199,4.712,0.000,0.000,-2.018,-3.668,0.990,4.717,3.117,0.023,5.281,4.711,4.711,2.198,6.282,5.083,1.570,0.000,0.000,-1.362,-3.668,0.990,4.717,3.140,0.001,
25.314,31.606,-1.690,-4.257,1.571,-0.001,6.268,0.793,2.167,0.910,0.701,2.332,4.900,2.014,0.000,1.255,1.202,0.000,3.071,0.000,0.000,0.000,0.000,0.000,0.000,0.000,0.000,0.000,0.000,0.000,3.142,6.233,0.310,1.003,1.569,1.569,4.085,6.281,1.199,4.712,0.000,0.000,-2.018,-3.668,0.990,4.717,3.117,0.023,5.281,4.711,4.711,2.198,6.282,5.083,1.570,0.000,0.000,-1.362,-3.668,0.990,4.717,3.140,0.001,
25.420,31.712,-1.690,-4.257,1.571,-0.001,6.268,0.793,2.167,0.910,0.701,2.332,4.900,2.014,0.000,1.255,1.202,0.000,3.071,0.000,0.000,0.000,0.000,0.000,0.000,0.000,0.000,0.000,0.000,0.000,3.142,6.233,0.310,1.003,1.569,1.569,4.085,6.281,1.199,4.712,0.000,0.000,-2.018,-3.668,0.990,4.717,3.117,0.023,5.281,4.711,4.711,2.198,6.282,5.083,1.570,0.000,0.000,-1.362,-3.668,0.990,4.717,3.140,0.001,
25.520,31.812,-1.690,-4.257,1.571,-0.001,6.268,0.793,2.167,0.910,0.701,2.332,4.900,2.014,0.000,1.255,1.202,0.000,3.071,0.000,0.000,0.000,0.000,0.000,0.000,0.000,0.000,0.000,0.000,0.000,3.142,6.233,0.310,1.003,1.569,1.569,4.085,6.281,1.199,4.712,0.000,0.000,-2.018,-3.668,0.990,4.717,3.117,0.023,5.281,4.711,4.711,2.198,6.282,5.083,1.570,0.000,0.000,-1.362,-3.668,0.990,4.717,3.140,0.001,
25.620,31.912,-1.690,-4.257,1.571,-0.001,6.268,0.793,2.167,0.910,0.701,2.332,4.900,2.014,0.000,1.255,1.202,0.000,3.071,0.000,0.000,0.000,0.000,0.000,0.000,0.000,0.000,0.000,0.000,0.000,3.142,6.233,0.310,1.003,1.569,1.569,4.085,6.281,1.199,4.712,0.000,0.000,-2.018,-3.668,0.990,4.717,3.117,0.023,5.281,4.711,4.711,2.198,6.282,5.083,1.570,0.000,0.000,-1.362,-3.668,0.990,4.717,3.140,0.001,
25.705,31.997,-1.690,-4.257,1.571,-0.001,6.268,0.793,2.167,0.910,0.701,2.332,4.900,2.014,0.000,1.255,1.202,0.000,3.071,0.000,0.000,0.000,0.000,0.000,0.000,0.000,0.000,0.000,0.000,0.000,3.142,6.233,0.310,1.003,1.569,1.569,4.085,6.281,1.199,4.712,0.000,0.000,-2.018,-3.668,0.990,4.717,3.117,0.023,5.281,4.711,4.711,2.198,6.282,5.083,1.570,0.000,0.000,-1.362,-3.668,0.990,4.717,3.140,0.001,
25.820,32.112,-1.690,-4.257,1.571,-0.001,6.268,0.793,2.167,0.910,0.701,2.332,4.900,2.014,0.000,1.255,1.202,0.000,3.071,0.000,0.000,0.000,0.000,0.000,0.000,0.000,0.000,0.000,0.000,0.000,3.142,6.233,0.310,1.003,1.569,1.569,4.085,6.281,1.199,4.712,0.000,0.000,-2.018,-3.668,0.990,4.717,3.117,0.023,5.281,4.711,4.711,2.198,6.282,5.083,1.570,0.000,0.000,-1.362,-3.668,0.990,4.717,3.140,0.001,
25.920,32.212,-1.690,-4.257,1.571,-0.001,6.268,0.793,2.167,0.910,0.701,2.332,4.900,2.014,0.000,1.255,1.202,0.000,3.071,0.000,0.000,0.000,0.000,0.000,0.000,0.000,0.000,0.000,0.000,0.000,3.142,6.233,0.310,1.003,1.569,1.569,4.085,6.281,1.199,4.712,0.000,0.000,-2.018,-3.668,0.990,4.717,3.117,0.023,5.281,4.711,4.711,2.198,6.282,5.083,1.570,0.000,0.000,-1.362,-3.668,0.990,4.717,3.140,0.001,
26.020,32.312,-1.690,-4.257,1.571,-0.001,6.268,0.793,2.167,0.910,0.701,2.332,4.900,2.014,0.000,1.255,1.202,0.000,3.071,0.000,0.000,0.000,0.000,0.000,0.000,0.000,0.000,0.000,0.000,0.000,3.142,6.233,0.310,1.003,1.569,1.569,4.085,6.281,1.199,4.712,0.000,0.000,-2.018,-3.668,0.990,4.717,3.117,0.023,5.281,4.711,4.711,2.198,6.282,5.083,1.570,0.000,0.000,-1.362,-3.668,0.990,4.717,3.140,0.001,
26.120,32.412,-1.690,-4.257,1.571,-0.001,6.268,0.793,2.167,0.910,0.701,2.332,4.900,2.014,0.000,1.255,1.202,0.000,3.071,0.000,0.000,0.000,0.000,0.000,0.000,0.000,0.000,0.000,0.000,0.000,3.142,6.233,0.310,1.003,1.569,1.569,4.085,6.281,1.199,4.712,0.000,0.000,-2.018,-3.668,0.990,4.717,3.117,0.023,5.281,4.711,4.711,2.198,6.282,5.083,1.570,0.000,0.000,-1.362,-3.668,0.990,4.717,3.140,0.001,
26.220,45.077,-1.690,-4.257,1.571,-0.001,6.268,0.793,2.167,0.910,0.701,2.332,4.900,2.014,0.000,1.255,1.202,0.000,3.071,0.000,0.000,0.000,0.000,0.000,0.000,0.000,0.000,0.000,0.000,0.000,3.142,6.233,0.310,1.003,1.569,1.569,4.085,6.281,1.199,4.712,0.000,0.000,-2.018,-3.668,0.990,4.717,3.117,0.023,5.281,4.711,4.711,2.198,6.282,5.083,1.570,0.000,0.000,-1.362,-3.668,0.990,4.717,3.140,0.001,
26.320,45.177,-1.690,-4.257,1.571,-0.001,6.268,0.793,2.167,0.910,0.701,2.332,4.900,2.014,0.000,1.255,1.202,0.000,3.071,0.000,0.000,0.000,0.000,0.000,0.000,0.000,0.000,0.000,0.000,0.000,3.142,6.233,0.310,1.003,1.569,1.569,4.085,6.281,1.199,4.712,0.000,0.000,-2.018,-3.668,0.990,4.717,3.117,0.023,5.281,4.711,4.711,2.198,6.282,5.083,1.570,0.000,0.000,-1.362,-3.668,0.990,4.717,3.140,0.001,
26.420,45.277,-1.690,-4.257,1.571,-0.001,6.268,0.793,2.167,0.910,0.701,2.332,4.900,2.014,0.000,1.255,1.202,0.000,3.071,0.000,0.000,0.000,0.000,0.000,0.000,0.000,0.000,0.000,0.000,0.000,3.142,6.233,0.310,1.003,1.569,1.569,4.085,6.281,1.199,4.712,0.000,0.000,-2.018,-3.668,0.990,4.717,3.117,0.023,5.281,4.711,4.711,2.198,6.282,5.083,1.570,0.000,0.000,-1.362,-3.668,0.990,4.717,3.140,0.001,
26.514,45.371,-1.690,-4.257,1.571,-0.001,6.268,0.793,2.167,0.910,0.701,2.332,4.900,2.014,0.000,1.255,1.202,0.000,3.071,0.000,0.000,0.000,0.000,0.000,0.000,0.000,0.000,0.000,0.000,0.000,3.142,6.233,0.310,1.003,1.569,1.569,4.085,6.281,1.199,4.712,0.000,0.000,-2.018,-3.668,0.990,4.717,3.117,0.023,5.281,4.711,4.711,2.198,6.282,5.083,1.570,0.000,0.000,-1.362,-3.668,0.990,4.717,3.140,0.001,
26.614,45.471,-1.690,-4.257,1.571,-0.001,6.268,0.793,2.167,0.910,0.701,2.332,4.900,2.014,0.000,1.255,1.202,0.000,3.071,0.000,0.000,0.000,0.000,0.000,0.000,0.000,0.000,0.000,0.000,0.000,3.142,6.233,0.310,1.003,1.569,1.569,4.085,6.281,1.199,4.712,0.000,0.000,-2.018,-3.668,0.990,4.717,3.117,0.023,5.281,4.711,4.711,2.198,6.282,5.083,1.570,0.000,0.000,-1.362,-3.668,0.990,4.717,3.140,0.001,
26.720,45.577,-1.690,-4.257,1.571,-0.001,6.268,0.793,2.167,0.910,0.701,2.332,4.900,2.014,0.000,1.255,1.202,0.000,3.071,0.000,0.000,0.000,0.000,0.000,0.000,0.000,0.000,0.000,0.000,0.000,3.142,6.233,0.310,1.003,1.569,1.569,4.085,6.281,1.199,4.712,0.000,0.000,-2.018,-3.668,0.990,4.717,3.117,0.023,5.281,4.711,4.711,2.198,6.282,5.083,1.570,0.000,0.000,-1.362,-3.668,0.990,4.717,3.140,0.001,
26.820,45.677,-1.690,-4.257,1.571,-0.001,6.268,0.793,2.167,0.910,0.701,2.332,4.900,2.014,0.000,1.255,1.202,0.000,3.071,0.000,0.000,0.000,0.000,0.000,0.000,0.000,0.000,0.000,0.000,0.000,3.142,6.233,0.310,1.003,1.569,1.569,4.085,6.281,1.199,4.712,0.000,0.000,-2.018,-3.668,0.990,4.717,3.117,0.023,5.281,4.711,4.711,2.198,6.282,5.083,1.570,0.000,0.000,-1.362,-3.668,0.990,4.717,3.140,0.001,
26.919,45.776,-1.690,-4.257,1.571,-0.001,6.268,0.793,2.167,0.910,0.701,2.332,4.900,2.014,0.000,1.255,1.202,0.000,3.071,0.000,0.000,0.000,0.000,0.000,0.000,0.000,0.000,0.000,0.000,0.000,3.142,6.233,0.310,1.003,1.569,1.569,4.085,6.281,1.199,4.712,0.000,0.000,-2.018,-3.668,0.990,4.717,3.117,0.023,5.281,4.711,4.711,2.198,6.282,5.083,1.570,0.000,0.000,-1.362,-3.668,0.990,4.717,3.140,0.001,
27.020,45.877,-1.690,-4.257,1.571,-0.001,6.268,0.793,2.167,0.910,0.701,2.332,4.900,2.014,0.000,1.255,1.202,0.000,3.071,0.000,0.000,0.000,0.000,0.000,0.000,0.000,0.000,0.000,0.000,0.000,3.142,6.233,0.310,1.003,1.569,1.569,4.085,6.281,1.199,4.712,0.000,0.000,-2.018,-3.668,0.990,4.717,3.117,0.023,5.281,4.711,4.711,2.198,6.282,5.083,1.570,0.000,0.000,-1.362,-3.668,0.990,4.717,3.140,0.001,
27.120,45.977,-1.690,-4.257,1.571,-0.001,6.268,0.793,2.167,0.910,0.701,2.332,4.900,2.014,0.000,1.255,1.202,0.000,3.071,0.000,0.000,0.000,0.000,0.000,0.000,0.000,0.000,0.000,0.000,0.000,3.142,6.233,0.310,1.003,1.569,1.569,4.085,6.281,1.199,4.712,0.000,0.000,-2.018,-3.668,0.990,4.717,3.117,0.023,5.281,4.711,4.711,2.198,6.282,5.083,1.570,0.000,0.000,-1.362,-3.668,0.990,4.717,3.140,0.001,
27.220,46.077,-1.690,-4.257,1.571,-0.001,6.268,0.793,2.167,0.910,0.701,2.332,4.900,2.014,0.000,1.255,1.202,0.000,3.071,0.000,0.000,0.000,0.000,0.000,0.000,0.000,0.000,0.000,0.000,0.000,3.142,6.233,0.310,1.003,1.569,1.569,4.085,6.281,1.199,4.712,0.000,0.000,-2.018,-3.668,0.990,4.717,3.117,0.023,5.281,4.711,4.711,2.198,6.282,5.083,1.570,0.000,0.000,-1.362,-3.668,0.990,4.717,3.140,0.001,
27.308,46.165,-1.690,-4.257,1.571,-0.001,6.268,0.793,2.167,0.910,0.701,2.332,4.900,2.014,0.000,1.255,1.202,0.000,3.071,0.000,0.000,0.000,0.000,0.000,0.000,0.000,0.000,0.000,0.000,0.000,3.142,6.233,0.310,1.003,1.569,1.569,4.085,6.281,1.199,4.712,0.000,0.000,-2.018,-3.668,0.990,4.717,3.117,0.023,5.281,4.711,4.711,2.198,6.282,5.083,1.570,0.000,0.000,-1.362,-3.668,0.990,4.717,3.140,0.001,
27.420,46.277,-1.690,-4.257,1.571,-0.001,6.268,0.793,2.167,0.910,0.701,2.332,4.900,2.014,0.000,1.255,1.202,0.000,3.071,0.000,0.000,0.000,0.000,0.000,0.000,0.000,0.000,0.000,0.000,0.000,3.142,6.233,0.310,1.003,1.569,1.569,4.085,6.281,1.199,4.712,0.000,0.000,-2.018,-3.668,0.990,4.717,3.117,0.023,5.281,4.711,4.711,2.198,6.282,5.083,1.570,0.000,0.000,-1.362,-3.668,0.990,4.717,3.140,0.001,
27.520,46.377,-1.690,-4.257,1.571,-0.001,6.268,0.793,2.167,0.910,0.701,2.332,4.900,2.014,0.000,1.255,1.202,0.000,3.071,0.000,0.000,0.000,0.000,0.000,0.000,0.000,0.000,0.000,0.000,0.000,3.142,6.233,0.310,1.003,1.569,1.569,4.085,6.281,1.199,4.712,0.000,0.000,-2.018,-3.668,0.990,4.717,3.117,0.023,5.281,4.711,4.711,2.198,6.282,5.083,1.570,0.000,0.000,-1.362,-3.668,0.990,4.717,3.140,0.001,
27.614,46.471,-1.690,-4.257,1.571,-0.001,6.268,0.793,2.167,0.910,0.701,2.332,4.900,2.014,0.000,1.255,1.202,0.000,3.071,0.000,0.000,0.000,0.000,0.000,0.000,0.000,0.000,0.000,0.000,0.000,3.142,6.233,0.310,1.003,1.569,1.569,4.085,6.281,1.199,4.712,0.000,0.000,-2.018,-3.668,0.990,4.717,3.117,0.023,5.281,4.711,4.711,2.198,6.282,5.083,1.570,0.000,0.000,-1.362,-3.668,0.990,4.717,3.140,0.001,
27.700,46.557,-1.690,-4.257,1.571,-0.001,6.268,0.793,2.167,0.910,0.701,2.332,4.900,2.014,0.000,1.255,1.202,0.000,3.071,0.000,0.000,0.000,0.000,0.000,0.000,0.000,0.000,0.000,0.000,0.000,3.142,6.233,0.310,1.003,1.569,1.569,4.085,6.281,1.199,4.712,0.000,0.000,-2.018,-3.668,0.990,4.717,3.117,0.023,5.281,4.711,4.711,2.198,6.282,5.083,1.570,0.000,0.000,-1.362,-3.668,0.990,4.717,3.140,0.001,
27.820,46.677,-1.690,-4.257,1.571,-0.001,6.268,0.793,2.167,0.910,0.701,2.332,4.900,2.014,0.000,1.255,1.202,0.000,3.071,0.000,0.000,0.000,0.000,0.000,0.000,0.000,0.000,0.000,0.000,0.000,3.142,6.233,0.310,1.003,1.569,1.569,4.085,6.281,1.199,4.712,0.000,0.000,-2.018,-3.668,0.990,4.717,3.117,0.023,5.281,4.711,4.711,2.198,6.282,5.083,1.570,0.000,0.000,-1.362,-3.668,0.990,4.717,3.140,0.001,
27.920,46.777,-1.690,-4.257,1.571,-0.001,6.268,0.793,2.167,0.910,0.701,2.332,4.900,2.014,0.000,1.255,1.202,0.000,3.071,0.000,0.000,0.000,0.000,0.000,0.000,0.000,0.000,0.000,0.000,0.000,3.142,6.233,0.310,1.003,1.569,1.569,4.085,6.281,1.199,4.712,0.000,0.000,-2.018,-3.668,0.990,4.717,3.117,0.023,5.281,4.711,4.711,2.198,6.282,5.083,1.570,0.000,0.000,-1.362,-3.668,0.990,4.717,3.140,0.001,
28.003,46.860,-1.690,-4.257,1.571,-0.001,6.268,0.793,2.167,0.910,0.701,2.332,4.900,2.014,0.000,1.255,1.202,0.000,3.071,0.000,0.000,0.000,0.000,0.000,0.000,0.000,0.000,0.000,0.000,0.000,3.142,6.233,0.310,1.003,1.569,1.569,4.085,6.281,1.199,4.712,0.000,0.000,-2.018,-3.668,0.990,4.717,3.117,0.023,5.281,4.711,4.711,2.198,6.282,5.083,1.570,0.000,0.000,-1.362,-3.668,0.990,4.717,3.140,0.001,
28.120,46.977,-1.690,-4.257,1.571,-0.001,6.268,0.793,2.167,0.910,0.701,2.332,4.900,2.014,0.000,1.255,1.202,0.000,3.071,0.000,0.000,0.000,0.000,0.000,0.000,0.000,0.000,0.000,0.000,0.000,3.142,6.233,0.310,1.003,1.569,1.569,4.085,6.281,1.199,4.712,0.000,0.000,-2.018,-3.668,0.990,4.717,3.117,0.023,5.281,4.711,4.711,2.198,6.282,5.083,1.570,0.000,0.000,-1.362,-3.668,0.990,4.717,3.140,0.001,
28.220,47.077,-1.690,-4.257,1.571,-0.001,6.268,0.793,2.167,0.910,0.701,2.332,4.900,2.014,0.000,1.255,1.202,0.000,3.071,0.000,0.000,0.000,0.000,0.000,0.000,0.000,0.000,0.000,0.000,0.000,3.142,6.233,0.310,1.003,1.569,1.569,4.085,6.281,1.199,4.712,0.000,0.000,-2.018,-3.668,0.990,4.717,3.117,0.023,5.281,4.711,4.711,2.198,6.282,5.083,1.570,0.000,0.000,-1.362,-3.668,0.990,4.717,3.140,0.001,
28.317,47.174,-1.690,-4.257,1.571,-0.001,6.268,0.793,2.167,0.910,0.701,2.332,4.900,2.014,0.000,1.255,1.202,0.000,3.071,0.000,0.000,0.000,0.000,0.000,0.000,0.000,0.000,0.000,0.000,0.000,3.142,6.233,0.310,1.003,1.569,1.569,4.085,6.281,1.199,4.712,0.000,0.000,-2.018,-3.668,0.990,4.717,3.117,0.023,5.281,4.711,4.711,2.198,6.282,5.083,1.570,0.000,0.000,-1.362,-3.668,0.990,4.717,3.140,0.001,
28.420,47.277,-1.690,-4.257,1.571,-0.001,6.268,0.793,2.167,0.910,0.701,2.332,4.900,2.014,0.000,1.255,1.202,0.000,3.071,0.000,0.000,0.000,0.000,0.000,0.000,0.000,0.000,0.000,0.000,0.000,3.142,6.233,0.310,1.003,1.569,1.569,4.085,6.281,1.199,4.712,0.000,0.000,-2.018,-3.668,0.990,4.717,3.117,0.023,5.281,4.711,4.711,2.198,6.282,5.083,1.570,0.000,0.000,-1.362,-3.668,0.990,4.717,3.140,0.001,
28.520,47.377,-1.690,-4.257,1.571,-0.001,6.268,0.793,2.167,0.910,0.701,2.332,4.900,2.014,0.000,1.255,1.202,0.000,3.071,0.000,0.000,0.000,0.000,0.000,0.000,0.000,0.000,0.000,0.000,0.000,3.142,6.233,0.310,1.003,1.569,1.569,4.085,6.281,1.199,4.712,0.000,0.000,-2.018,-3.668,0.990,4.717,3.117,0.023,5.281,4.711,4.711,2.198,6.282,5.083,1.570,0.000,0.000,-1.362,-3.668,0.990,4.717,3.140,0.001,
28.620,47.477,-1.690,-4.257,1.571,-0.001,6.268,0.793,2.167,0.910,0.701,2.332,4.900,2.014,0.000,1.255,1.202,0.000,3.071,0.000,0.000,0.000,0.000,0.000,0.000,0.000,0.000,0.000,0.000,0.000,3.142,6.233,0.310,1.003,1.569,1.569,4.085,6.281,1.199,4.712,0.000,0.000,-2.018,-3.668,0.990,4.717,3.117,0.023,5.281,4.711,4.711,2.198,6.282,5.083,1.570,0.000,0.000,-1.362,-3.668,0.990,4.717,3.140,0.001,
28.711,47.568,-1.690,-4.257,1.571,-0.001,6.268,0.793,2.167,0.910,0.701,2.332,4.900,2.014,0.000,1.255,1.202,0.000,3.071,0.000,0.000,0.000,0.000,0.000,0.000,0.000,0.000,0.000,0.000,0.000,3.142,6.233,0.310,1.003,1.569,1.569,4.085,6.281,1.199,4.712,0.000,0.000,-2.018,-3.668,0.990,4.717,3.117,0.023,5.281,4.711,4.711,2.198,6.282,5.083,1.570,0.000,0.000,-1.362,-3.668,0.990,4.717,3.140,0.001,
28.820,47.677,-1.690,-4.257,1.571,-0.001,6.268,0.793,2.167,0.910,0.701,2.332,4.900,2.014,0.000,1.255,1.202,0.000,3.071,0.000,0.000,0.000,0.000,0.000,0.000,0.000,0.000,0.000,0.000,0.000,3.142,6.233,0.310,1.003,1.569,1.569,4.085,6.281,1.199,4.712,0.000,0.000,-2.018,-3.668,0.990,4.717,3.117,0.023,5.281,4.711,4.711,2.198,6.282,5.083,1.570,0.000,0.000,-1.362,-3.668,0.990,4.717,3.140,0.001,
28.920,47.777,-1.690,-4.257,1.571,-0.001,6.268,0.793,2.167,0.910,0.701,2.332,4.900,2.014,0.000,1.255,1.202,0.000,3.071,0.000,0.000,0.000,0.000,0.000,0.000,0.000,0.000,0.000,0.000,0.000,3.142,6.233,0.310,1.003,1.569,1.569,4.085,6.281,1.199,4.712,0.000,0.000,-2.018,-3.668,0.990,4.717,3.117,0.023,5.281,4.711,4.711,2.198,6.282,5.083,1.570,0.000,0.000,-1.362,-3.668,0.990,4.717,3.140,0.001,
29.018,47.875,-1.690,-4.257,1.571,-0.001,6.268,0.793,2.167,0.910,0.701,2.332,4.900,2.014,0.000,1.255,1.202,0.000,3.071,0.000,0.000,0.000,0.000,0.000,0.000,0.000,0.000,0.000,0.000,0.000,3.142,6.233,0.310,1.003,1.569,1.569,4.085,6.281,1.199,4.712,0.000,0.000,-2.018,-3.668,0.990,4.717,3.117,0.023,5.281,4.711,4.711,2.198,6.282,5.083,1.570,0.000,0.000,-1.362,-3.668,0.990,4.717,3.140,0.001,
29.102,47.959,-1.690,-4.257,1.571,-0.001,6.268,0.793,2.167,0.910,0.701,2.332,4.900,2.014,0.000,1.255,1.202,0.000,3.071,0.000,0.000,0.000,0.000,0.000,0.000,0.000,0.000,0.000,0.000,0.000,3.142,6.233,0.310,1.003,1.569,1.569,4.085,6.281,1.199,4.712,0.000,0.000,-2.018,-3.668,0.990,4.717,3.117,0.023,5.281,4.711,4.711,2.198,6.282,5.083,1.570,0.000,0.000,-1.362,-3.668,0.990,4.717,3.140,0.001,
29.220,48.077,-1.690,-4.257,1.571,-0.001,6.268,0.793,2.167,0.910,0.701,2.332,4.900,2.014,0.000,1.255,1.202,0.000,3.071,0.000,0.000,0.000,0.000,0.000,0.000,0.000,0.000,0.000,0.000,0.000,3.142,6.233,0.310,1.003,1.569,1.569,4.085,6.281,1.199,4.712,0.000,0.000,-2.018,-3.668,0.990,4.717,3.117,0.023,5.281,4.711,4.711,2.198,6.282,5.083,1.570,0.000,0.000,-1.362,-3.668,0.990,4.717,3.140,0.001,
29.320,48.177,-1.690,-4.257,1.571,-0.001,6.268,0.793,2.167,0.910,0.701,2.332,4.900,2.014,0.000,1.255,1.202,0.000,3.071,0.000,0.000,0.000,0.000,0.000,0.000,0.000,0.000,0.000,0.000,0.000,3.142,6.233,0.310,1.003,1.569,1.569,4.085,6.281,1.199,4.712,0.000,0.000,-2.018,-3.668,0.990,4.717,3.117,0.023,5.281,4.711,4.711,2.198,6.282,5.083,1.570,0.000,0.000,-1.362,-3.668,0.990,4.717,3.140,0.001,
29.408,48.265,-1.690,-4.257,1.571,-0.001,6.268,0.793,2.167,0.910,0.701,2.332,4.900,2.014,0.000,1.255,1.202,0.000,3.071,0.000,0.000,0.000,0.000,0.000,0.000,0.000,0.000,0.000,0.000,0.000,3.142,6.233,0.310,1.003,1.569,1.569,4.085,6.281,1.199,4.712,0.000,0.000,-2.018,-3.668,0.990,4.717,3.117,0.023,5.281,4.711,4.711,2.198,6.282,5.083,1.570,0.000,0.000,-1.362,-3.668,0.990,4.717,3.140,0.001,
29.520,48.377,-1.690,-4.257,1.571,-0.001,6.268,0.793,2.167,0.910,0.701,2.332,4.900,2.014,0.000,1.255,1.202,0.000,3.071,0.000,0.000,0.000,0.000,0.000,0.000,0.000,0.000,0.000,0.000,0.000,3.142,6.233,0.310,1.003,1.569,1.569,4.085,6.281,1.199,4.712,0.000,0.000,-2.018,-3.668,0.990,4.717,3.117,0.023,5.281,4.711,4.711,2.198,6.282,5.083,1.570,0.000,0.000,-1.362,-3.668,0.990,4.717,3.140,0.001,
29.620,48.477,-1.690,-4.257,1.571,-0.001,6.268,0.793,2.167,0.910,0.701,2.332,4.900,2.014,0.000,1.255,1.202,0.000,3.071,0.000,0.000,0.000,0.000,0.000,0.000,0.000,0.000,0.000,0.000,0.000,3.142,6.233,0.310,1.003,1.569,1.569,4.085,6.281,1.199,4.712,0.000,0.000,-2.018,-3.668,0.990,4.717,3.117,0.023,5.281,4.711,4.711,2.198,6.282,5.083,1.570,0.000,0.000,-1.362,-3.668,0.990,4.717,3.140,0.001,
29.720,48.577,-1.690,-4.257,1.571,-0.001,6.268,0.793,2.167,0.910,0.701,2.332,4.900,2.014,0.000,1.255,1.202,0.000,3.071,0.000,0.000,0.000,0.000,0.000,0.000,0.000,0.000,0.000,0.000,0.000,3.142,6.233,0.310,1.003,1.569,1.569,4.085,6.281,1.199,4.712,0.000,0.000,-2.018,-3.668,0.990,4.717,3.117,0.023,5.281,4.711,4.711,2.198,6.282,5.083,1.570,0.000,0.000,-1.362,-3.668,0.990,4.717,3.140,0.001,
29.820,48.677,-1.690,-4.257,1.571,-0.001,6.268,0.793,2.167,0.910,0.701,2.332,4.900,2.014,0.000,1.255,1.202,0.000,3.071,0.000,0.000,0.000,0.000,0.000,0.000,0.000,0.000,0.000,0.000,0.000,3.142,6.233,0.310,1.003,1.569,1.569,4.085,6.281,1.199,4.712,0.000,0.000,-2.018,-3.668,0.990,4.717,3.117,0.023,5.281,4.711,4.711,2.198,6.282,5.083,1.570,0.000,0.000,-1.362,-3.668,0.990,4.717,3.140,0.001,
29.920,48.777,-1.690,-4.257,1.571,-0.001,6.268,0.793,2.167,0.910,0.701,2.332,4.900,2.014,0.000,1.255,1.202,0.000,3.071,0.000,0.000,0.000,0.000,0.000,0.000,0.000,0.000,0.000,0.000,0.000,3.142,6.233,0.310,1.003,1.569,1.569,4.085,6.281,1.199,4.712,0.000,0.000,-2.018,-3.668,0.990,4.717,3.117,0.023,5.281,4.711,4.711,2.198,6.282,5.083,1.570,0.000,0.000,-1.362,-3.668,0.990,4.717,3.139,0.002,
30.020,48.877,-1.690,-4.257,1.571,-0.001,6.268,0.793,2.167,0.910,0.701,2.332,4.900,2.014,0.000,1.255,1.202,0.000,3.071,0.000,0.000,0.000,0.000,0.000,0.000,0.000,0.000,0.000,0.000,0.000,3.142,6.233,0.310,1.003,1.569,1.569,4.085,6.281,1.199,4.712,0.000,0.000,-2.018,-3.668,0.990,4.717,3.117,0.023,5.281,4.711,4.711,2.198,6.282,5.083,1.570,0.000,0.000,-1.362,-3.668,0.990,4.717,3.140,0.001,
30.109,48.966,-1.690,-4.257,1.571,-0.001,6.268,0.793,2.167,0.910,0.701,2.332,4.900,2.014,0.000,1.255,1.202,0.000,3.071,0.000,0.000,0.000,0.000,0.000,0.000,0.000,0.000,0.000,0.000,0.000,3.142,6.233,0.310,1.003,1.569,1.569,4.085,6.281,1.199,4.712,0.000,0.000,-2.018,-3.668,0.990,4.717,3.117,0.023,5.281,4.711,4.711,2.198,6.282,5.083,1.570,0.000,0.000,-1.362,-3.668,0.990,4.717,3.140,0.001,
30.220,49.077,-1.690,-4.257,1.571,-0.001,6.268,0.793,2.167,0.910,0.701,2.332,4.900,2.014,0.000,1.255,1.202,0.000,3.071,0.000,0.000,0.000,0.000,0.000,0.000,0.000,0.000,0.000,0.000,0.000,3.142,6.233,0.310,1.003,1.569,1.569,4.085,6.281,1.199,4.712,0.000,0.000,-2.018,-3.668,0.990,4.717,3.117,0.023,5.281,4.711,4.711,2.198,6.282,5.083,1.570,0.000,0.000,-1.362,-3.668,0.990,4.717,3.140,0.001,
30.320,49.177,-1.690,-4.257,1.571,-0.001,6.268,0.793,2.167,0.910,0.701,2.332,4.900,2.014,0.000,1.255,1.202,0.000,3.071,0.000,0.000,0.000,0.000,0.000,0.000,0.000,0.000,0.000,0.000,0.000,3.142,6.233,0.310,1.003,1.569,1.569,4.085,6.281,1.199,4.712,0.000,0.000,-2.018,-3.668,0.990,4.717,3.117,0.023,5.281,4.711,4.711,2.198,6.282,5.083,1.570,0.000,0.000,-1.362,-3.668,0.990,4.717,3.140,0.001,
30.417,49.274,-1.690,-4.257,1.571,-0.001,6.268,0.793,2.167,0.910,0.701,2.332,4.900,2.014,0.000,1.255,1.202,0.000,3.071,0.000,0.000,0.000,0.000,0.000,0.000,0.000,0.000,0.000,0.000,0.000,3.142,6.233,0.310,1.003,1.569,1.569,4.085,6.281,1.199,4.712,0.000,0.000,-2.018,-3.668,0.990,4.717,3.117,0.023,5.281,4.711,4.711,2.198,6.282,5.083,1.570,0.000,0.000,-1.362,-3.668,0.990,4.717,3.140,0.001,
30.520,49.377,-1.690,-4.257,1.571,-0.001,6.268,0.793,2.167,0.910,0.701,2.332,4.900,2.014,0.000,1.255,1.202,0.000,3.071,0.000,0.000,0.000,0.000,0.000,0.000,0.000,0.000,0.000,0.000,0.000,3.142,6.233,0.310,1.003,1.569,1.569,4.085,6.281,1.199,4.712,0.000,0.000,-2.018,-3.668,0.990,4.717,3.117,0.023,5.281,4.711,4.711,2.198,6.282,5.083,1.570,0.000,0.000,-1.362,-3.668,0.990,4.717,3.140,0.001,
30.620,49.477,-1.690,-4.257,1.571,-0.001,6.268,0.793,2.167,0.910,0.701,2.332,4.900,2.014,0.000,1.255,1.202,0.000,3.071,0.000,0.000,0.000,0.000,0.000,0.000,0.000,0.000,0.000,0.000,0.000,3.142,6.233,0.310,1.003,1.569,1.569,4.085,6.281,1.199,4.712,0.000,0.000,-2.018,-3.668,0.990,4.717,3.117,0.023,5.281,4.711,4.711,2.198,6.282,5.083,1.570,0.000,0.000,-1.362,-3.668,0.990,4.717,3.140,0.001,
30.720,49.577,-1.690,-4.257,1.571,-0.001,6.268,0.793,2.167,0.910,0.701,2.332,4.900,2.014,0.000,1.255,1.202,0.000,3.071,0.000,0.000,0.000,0.000,0.000,0.000,0.000,0.000,0.000,0.000,0.000,3.142,6.233,0.310,1.003,1.569,1.569,4.085,6.281,1.199,4.712,0.000,0.000,-2.018,-3.668,0.990,4.717,3.117,0.023,5.281,4.711,4.711,2.198,6.282,5.083,1.570,0.000,0.000,-1.362,-3.668,0.990,4.717,3.140,0.001,
30.803,49.660,-1.690,-4.257,1.571,-0.001,6.268,0.793,2.167,0.910,0.701,2.332,4.900,2.014,0.000,1.255,1.202,0.000,3.071,0.000,0.000,0.000,0.000,0.000,0.000,0.000,4.218,0.000,0.000,0.000,3.142,6.233,0.310,1.003,1.569,1.569,4.085,6.281,1.199,4.712,0.000,0.000,-2.018,-3.668,0.990,4.717,3.117,0.023,5.281,4.711,4.711,2.198,6.282,5.083,1.570,0.000,0.000,-1.362,-3.668,0.990,4.717,3.140,0.001,
30.920,49.777,-1.690,-4.257,1.571,-0.001,6.268,0.793,2.167,0.910,0.701,2.332,4.900,2.014,0.000,1.255,1.202,0.000,3.071,0.000,0.000,0.000,0.000,0.000,0.000,0.000,4.064,0.000,0.000,0.000,3.142,6.233,0.310,1.003,1.569,1.569,4.085,6.281,1.199,4.712,0.000,0.000,-2.018,-3.668,0.990,4.717,3.117,0.023,5.281,4.711,4.711,2.198,6.282,5.083,1.570,0.000,0.000,-1.362,-3.668,0.990,4.717,3.140,0.001,
31.020,49.877,-1.690,-4.257,1.571,-0.001,6.268,0.793,2.167,0.910,0.701,2.332,4.900,2.014,0.000,1.255,1.202,0.000,3.071,0.000,0.000,0.000,0.000,0.000,0.000,0.000,3.818,0.000,0.000,0.000,3.142,6.233,0.310,1.003,1.569,1.569,4.085,6.281,1.199,4.712,0.000,0.000,-2.018,-3.668,0.990,4.717,3.117,0.023,5.281,4.711,4.711,2.198,6.282,5.083,1.570,0.000,0.000,-1.362,-3.668,0.990,4.717,3.140,0.001,
31.116,49.973,-1.690,-4.257,1.571,-0.001,6.268,0.793,2.167,0.910,0.701,2.332,4.900,2.014,0.000,1.255,1.202,0.000,3.071,0.000,0.000,0.000,0.000,0.000,0.000,0.000,3.727,0.000,0.000,0.000,3.142,6.233,0.310,1.003,1.569,1.569,4.085,6.281,1.199,4.712,0.000,0.000,-2.018,-3.668,0.990,4.717,3.117,0.023,5.281,4.711,4.711,2.198,6.282,5.083,1.570,0.000,0.000,-1.362,-3.668,0.990,4.717,3.140,0.001,
31.220,50.077,-1.690,-4.257,1.571,-0.001,6.268,0.793,2.167,0.910,0.701,2.332,4.900,2.014,0.000,1.255,1.202,0.000,3.071,0.000,0.000,0.000,0.000,0.000,0.000,0.000,3.623,0.000,0.000,0.000,3.142,6.233,0.310,1.003,1.569,1.569,4.085,6.281,1.199,4.712,0.000,0.000,-2.018,-3.668,0.990,4.717,3.117,0.023,5.281,4.711,4.711,2.198,6.282,5.083,1.570,0.000,0.000,-1.362,-3.668,0.990,4.717,3.140,0.001,
31.320,50.177,-1.690,-4.257,1.571,-0.001,6.268,0.793,2.167,0.910,0.701,2.332,4.900,2.014,0.000,1.255,1.202,0.000,3.071,0.000,0.000,0.000,0.000,0.000,0.000,0.000,3.413,0.000,0.000,0.000,3.142,6.233,0.310,1.003,1.569,1.569,4.085,6.281,1.199,4.712,0.000,0.000,-2.018,-3.668,0.990,4.717,3.117,0.023,5.281,4.711,4.711,2.198,6.282,5.083,1.570,0.000,0.000,-1.362,-3.668,0.990,4.717,3.140,0.001,
31.419,50.276,-1.690,-4.257,1.571,-0.001,6.268,0.793,2.167,0.910,0.701,2.332,4.900,2.014,0.000,1.255,1.202,0.000,3.071,0.000,0.000,0.000,0.000,0.000,0.000,0.000,3.303,0.000,0.000,0.000,3.142,6.233,0.310,1.003,1.569,1.569,4.085,6.281,1.199,4.712,0.000,0.000,-2.018,-3.668,0.990,4.717,3.117,0.023,5.281,4.711,4.711,2.198,6.282,5.083,1.570,0.000,0.000,-1.362,-3.668,0.990,4.717,3.140,0.001,
31.509,50.366,-1.690,-4.257,1.571,-0.001,6.268,0.793,2.167,0.910,0.701,2.332,4.900,2.014,0.000,1.255,1.202,0.000,3.071,0.000,0.000,0.000,0.000,0.000,0.000,0.000,3.213,0.000,0.000,0.000,3.142,6.233,0.310,1.003,1.569,1.569,4.085,6.281,1.199,4.712,0.000,0.000,-2.018,-3.668,0.990,4.717,3.117,0.023,5.281,4.711,4.711,2.198,6.282,5.083,1.570,0.000,0.000,-1.362,-3.668,0.990,4.717,3.140,0.001,
31.620,50.477,-1.690,-4.257,1.571,-0.001,6.268,0.793,2.167,0.910,0.701,2.332,4.900,2.014,0.000,1.255,1.202,0.000,3.071,0.000,0.000,0.000,0.000,0.000,0.000,0.000,3.128,0.000,0.000,0.000,3.142,6.233,0.310,1.003,1.569,1.569,4.085,6.281,1.199,4.712,0.000,0.000,-2.018,-3.668,0.990,4.717,3.117,0.023,5.281,4.711,4.711,2.198,6.282,5.083,1.570,0.000,0.000,-1.362,-3.668,0.990,4.717,3.140,0.001,
31.720,50.577,-1.690,-4.257,1.571,-0.001,6.268,0.793,2.167,0.910,0.701,2.332,4.900,2.014,0.000,1.255,1.202,0.000,3.071,0.000,0.000,0.000,0.000,0.000,0.000,0.000,2.933,0.000,0.000,0.000,3.142,6.233,0.310,1.003,1.569,1.569,4.085,6.281,1.199,4.712,0.000,0.000,-2.018,-3.668,0.990,4.717,3.117,0.023,5.281,4.711,4.711,2.198,6.282,5.083,1.570,0.000,0.000,-1.362,-3.668,0.990,4.717,3.140,0.001,
31.807,50.664,-1.690,-4.257,1.571,-0.001,6.268,0.793,2.167,0.910,0.701,2.332,4.900,2.014,0.000,1.255,1.202,0.000,3.071,0.000,0.000,0.000,0.000,0.000,0.000,0.000,2.829,0.000,0.000,0.000,3.142,6.233,0.310,1.003,1.569,1.569,4.085,6.281,1.199,4.712,0.000,0.000,-2.018,-3.668,0.990,4.717,3.117,0.023,5.281,4.711,4.711,2.198,6.282,5.083,1.570,0.000,0.000,-1.362,-3.668,0.990,4.717,3.140,0.001,
31.920,50.777,-1.690,-4.257,1.571,-0.001,6.268,0.793,2.167,0.910,0.701,2.332,4.900,2.014,0.000,1.255,1.202,0.000,3.071,0.000,0.000,0.000,0.000,0.000,0.000,0.000,2.745,0.000,0.000,0.000,3.142,6.233,0.310,1.003,1.569,1.569,4.085,6.281,1.199,4.712,0.000,0.000,-2.018,-3.668,0.990,4.717,3.117,0.023,5.281,4.711,4.711,2.198,6.282,5.083,1.570,0.000,0.000,-1.362,-3.668,0.990,4.717,3.140,0.001,
32.020,50.877,-1.690,-4.257,1.571,-0.001,6.268,0.793,2.167,0.910,0.701,2.332,4.900,2.014,0.000,1.255,1.202,0.000,3.071,0.000,0.000,0.000,0.000,0.000,0.000,0.000,2.579,0.000,0.000,0.000,3.142,6.233,0.310,1.003,1.569,1.569,4.085,6.281,1.199,4.712,0.000,0.000,-2.018,-3.668,0.990,4.717,3.117,0.023,5.281,4.711,4.711,2.198,6.282,5.083,1.570,0.000,0.000,-1.362,-3.668,0.990,4.717,3.140,0.001,
32.120,50.977,-1.690,-4.257,1.571,-0.001,6.268,0.793,2.167,0.910,0.701,2.332,4.900,2.014,0.000,1.255,1.202,0.000,3.071,0.000,0.000,0.000,0.000,0.000,0.000,0.000,2.503,0.000,0.000,0.000,3.142,6.233,0.310,1.003,1.569,1.569,4.085,6.281,1.199,4.712,0.000,0.000,-2.018,-3.668,0.990,4.717,3.117,0.023,5.281,4.711,4.711,2.198,6.282,5.083,1.570,0.000,0.000,-1.362,-3.668,0.990,4.717,3.140,0.001,
32.220,51.077,-1.690,-4.257,1.571,-0.001,6.268,0.793,2.167,0.910,0.701,2.332,4.900,2.014,0.000,1.255,1.202,0.000,3.071,0.000,0.000,0.000,0.000,0.000,0.000,0.000,2.431,0.000,0.000,0.000,3.142,6.233,0.310,1.003,1.569,1.569,4.085,6.281,1.199,4.712,0.000,0.000,-2.018,-3.668,0.990,4.717,3.117,0.023,5.281,4.711,4.711,2.198,6.282,5.083,1.570,0.000,0.000,-1.362,-3.668,0.990,4.717,3.140,0.001,
32.320,51.177,-1.690,-4.257,1.571,-0.001,6.268,0.793,2.167,0.910,0.701,2.332,4.900,2.014,0.000,1.255,1.202,0.000,3.071,0.000,0.000,0.000,0.000,0.000,0.000,0.000,2.309,0.000,0.000,0.000,3.142,6.233,0.310,1.003,1.569,1.569,4.085,6.281,1.199,4.712,0.000,0.000,-2.018,-3.668,0.990,4.717,3.117,0.023,5.281,4.711,4.711,2.198,6.282,5.083,1.570,0.000,0.000,-1.362,-3.668,0.990,4.717,3.140,0.001,
32.420,51.277,-1.690,-4.257,1.571,-0.001,6.268,0.793,2.167,0.910,0.701,2.332,4.900,2.014,0.000,1.255,1.202,0.000,3.071,0.000,0.000,0.000,0.000,0.000,0.000,0.000,0.000,0.000,0.000,0.000,3.142,6.233,0.310,1.003,1.569,1.569,4.085,6.281,1.199,4.712,0.000,0.000,-2.018,-3.668,0.990,4.717,3.117,0.023,5.281,4.711,4.711,2.198,6.282,5.083,1.570,0.000,0.000,-1.362,-3.668,0.990,4.717,3.140,0.001,
32.512,51.369,-1.690,-4.257,1.571,-0.001,6.268,0.793,2.167,0.910,0.701,2.332,4.900,2.014,0.000,1.255,1.202,0.000,3.071,0.000,0.000,0.000,0.000,0.000,0.000,0.000,0.000,0.000,0.000,0.000,3.142,6.233,0.310,1.003,1.569,1.569,4.085,6.281,1.199,4.712,0.000,0.000,-2.018,-3.668,0.990,4.717,3.117,0.023,5.281,4.711,4.711,2.198,6.282,5.083,1.570,0.000,0.000,-1.362,-3.668,0.990,4.717,3.140,0.001,
32.620,51.477,-1.690,-4.257,1.571,-0.001,6.268,0.793,2.167,0.910,0.701,2.332,4.900,2.014,0.000,1.255,1.202,0.000,3.071,0.000,0.000,0.000,0.000,0.000,0.000,0.000,0.000,0.000,0.000,0.000,3.142,6.233,0.310,1.003,1.569,1.569,4.085,6.281,1.199,4.712,0.000,0.000,-2.018,-3.668,0.990,4.717,3.117,0.023,5.281,4.711,4.711,2.198,6.282,5.083,1.570,0.000,0.000,-1.362,-3.668,0.990,4.717,3.139,0.002,
32.720,51.577,-1.690,-4.257,1.571,-0.001,6.268,0.793,2.167,0.910,0.701,2.332,4.900,2.014,0.000,1.255,1.202,0.000,3.071,0.000,0.000,0.000,0.000,0.000,0.000,0.000,0.000,0.000,0.000,0.000,3.142,6.233,0.310,1.003,1.569,1.569,4.085,6.281,1.199,4.712,0.000,0.000,-2.018,-3.668,0.990,4.717,3.117,0.023,5.281,4.711,4.711,2.198,6.282,5.083,1.570,0.000,0.000,-1.362,-3.668,0.990,4.717,3.140,0.001,
32.815,51.672,-1.690,-4.257,1.571,-0.001,6.268,0.793,2.167,0.910,0.701,2.332,4.900,2.014,0.000,1.255,1.202,0.000,3.071,0.000,0.000,0.000,0.000,0.000,0.000,0.000,0.000,0.000,0.000,0.000,3.142,6.233,0.310,1.003,1.569,1.569,4.085,6.281,1.199,4.712,0.000,0.000,-2.018,-3.668,0.990,4.717,3.117,0.023,5.281,4.711,4.711,2.198,6.282,5.083,1.570,0.000,0.000,-1.362,-3.668,0.990,4.717,3.140,0.001,
32.901,51.758,-1.690,-4.257,1.571,-0.001,6.268,0.793,2.167,0.910,0.701,2.332,4.900,2.014,0.000,1.255,1.202,0.000,3.071,0.000,0.000,0.000,0.000,0.000,0.000,0.000,0.000,0.000,0.000,0.000,3.142,6.233,0.310,1.003,1.569,1.569,4.085,6.281,1.199,4.712,0.000,0.000,-2.018,-3.668,0.990,4.717,3.117,0.023,5.281,4.711,4.711,2.198,6.282,5.083,1.570,0.000,0.000,-1.362,-3.668,0.990,4.717,3.140,0.001,
33.020,51.877,-1.690,-4.257,1.571,-0.001,6.268,0.793,2.167,0.910,0.701,2.332,4.900,2.014,0.000,1.255,1.202,0.000,3.071,0.000,0.000,0.000,0.000,0.000,0.000,0.000,0.000,0.000,0.000,0.000,3.142,6.233,0.310,1.003,1.569,1.569,4.085,6.281,1.199,4.712,0.000,0.000,-2.018,-3.668,0.990,4.717,3.117,0.023,5.281,4.711,4.711,2.198,6.282,5.083,1.570,0.000,0.000,-1.362,-3.668,0.990,4.717,3.140,0.001,
33.120,51.977,-1.690,-4.257,1.571,-0.001,6.268,0.793,2.167,0.910,0.701,2.332,4.900,2.014,0.000,1.255,1.202,0.000,3.071,0.000,0.000,0.000,0.000,0.000,0.000,0.000,0.000,0.000,0.000,0.000,3.142,6.233,0.310,1.003,1.569,1.569,4.085,6.281,1.199,4.712,0.000,0.000,-2.018,-3.668,0.990,4.717,3.117,0.023,5.281,4.711,4.711,2.198,6.282,5.083,1.570,0.000,0.000,-1.362,-3.668,0.990,4.717,3.140,0.001,
33.206,52.063,-1.690,-4.257,1.571,-0.001,6.268,0.793,2.167,0.910,0.701,2.332,4.900,2.014,0.000,1.255,1.202,0.000,3.071,0.000,0.000,0.000,0.000,0.000,0.000,0.000,0.000,0.000,0.000,0.000,3.142,6.233,0.310,1.003,1.569,1.569,4.085,6.281,1.199,4.712,0.000,0.000,-2.018,-3.668,0.990,4.717,3.117,0.023,5.281,4.711,4.711,2.198,6.282,5.083,1.570,0.000,0.000,-1.362,-3.668,0.990,4.717,3.140,0.001,
33.320,52.177,-1.690,-4.257,1.571,-0.001,6.268,0.793,2.167,0.910,0.701,2.332,4.900,2.014,0.000,1.255,1.202,0.000,3.071,0.000,0.000,0.000,0.000,0.000,0.000,0.000,0.000,0.000,0.000,0.000,3.142,6.233,0.310,1.003,1.569,1.569,4.085,6.281,1.199,4.712,0.000,0.000,-2.018,-3.668,0.990,4.717,3.117,0.023,5.281,4.711,4.711,2.198,6.282,5.083,1.570,0.000,0.000,-1.362,-3.668,0.990,4.717,3.140,0.001,
33.420,52.277,-1.690,-4.257,1.571,-0.001,6.268,0.793,2.167,0.910,0.701,2.332,4.900,0.000,0.000,1.255,1.202,0.000,3.071,0.000,0.000,0.000,0.000,0.000,0.000,0.927,0.000,0.000,0.000,0.000,3.142,6.233,0.310,1.003,1.569,1.569,4.085,6.281,1.199,4.712,0.000,0.000,-2.018,-3.668,0.990,4.717,3.117,0.023,5.281,4.711,4.711,2.198,6.282,5.083,1.570,0.000,0.000,-1.362,-3.668,0.990,4.717,3.140,0.001,
