deveshdatwani/Gopher/Assets/Data/07-21 00-41-22/Obstacle Handling_robot_value.csv
game_time,true_time,x,y,az,vx,vaz,dis_to_obs_0,dis_to_obs_36,dis_to_obs_72,dis_to_obs_108,dis_to_obs_144,dis_to_obs_180,dis_to_obs_-144,dis_to_obs_-108,dis_to_obs_-72,dis_to_obs_-36,dis_to_min_obs,direction_to_min_obs,dis_to_human_0,dis_to_human_36,dis_to_human_72,dis_to_human_108,dis_to_human_144,dis_to_human_180,dis_to_human_-144,dis_to_human_-108,dis_to_human_-72,dis_to_human_-36,dis_to_min_human,direction_to_min_human,main_cam_yaw,main_cam_pitch,left_joint_1,left_joint_2,left_joint_3,left_joint_4,left_joint_5,left_joint_6,left_joint_7,left_joint_gripper,left_is_grasping,left_end_x,left_end_y,left_end_z,left_end_ax,left_end_ay,left_end_az,right_joint_1,right_joint_2,right_joint_3,right_joint_4,right_joint_5,right_joint_6,right_joint_7,right_joint_gripper,right_is_grasping,right_end_x,right_end_y,right_end_z,right_end_ax,right_end_ay,right_end_az,
7.160,13.686,0.998,-10.328,1.578,0.000,6.270,3.829,0.000,1.532,1.258,2.126,4.583,2.935,2.096,2.022,4.661,0.000,1.071,0.000,3.201,0.000,0.000,0.000,0.000,0.000,0.000,0.000,0.000,0.000,3.142,6.283,0.000,1.003,1.569,1.570,4.226,6.281,1.199,4.712,0.000,0.000,0.665,-9.705,0.931,4.857,3.190,6.233,5.281,4.711,4.712,2.058,6.282,5.083,1.570,0.000,0.000,1.321,-9.700,0.931,4.857,3.189,6.235,
7.260,13.786,0.998,-10.328,1.578,0.000,6.270,3.829,0.000,1.532,1.258,2.126,4.583,2.935,2.096,2.022,4.661,0.000,1.071,0.000,3.317,0.000,0.000,0.000,0.000,0.000,0.000,0.000,0.000,0.000,3.142,6.283,0.000,1.003,1.569,1.570,4.188,6.281,1.199,4.712,0.000,0.000,0.665,-9.714,0.947,4.820,3.207,6.216,5.281,4.711,4.712,2.096,6.282,5.083,1.570,0.000,0.000,1.321,-9.709,0.948,4.819,3.207,6.217,
7.360,13.886,0.998,-10.328,1.578,0.000,6.269,3.829,0.000,1.532,1.258,2.126,4.583,2.935,2.096,2.022,4.661,0.000,1.071,0.000,3.427,0.000,0.000,0.000,0.000,0.000,0.000,0.000,0.000,0.000,3.142,6.283,0.000,1.003,1.569,1.570,4.166,6.281,1.199,4.712,0.000,0.000,0.665,-9.719,0.957,4.798,3.225,6.198,5.281,4.711,4.712,2.118,6.282,5.083,1.570,0.000,0.000,1.321,-9.715,0.957,4.797,3.224,6.200,
7.460,13.986,0.998,-10.328,1.578,0.000,6.269,3.829,0.000,1.532,1.258,2.126,4.583,2.935,2.096,2.022,4.661,0.000,1.071,0.000,3.553,0.000,0.000,0.000,0.000,0.000,0.000,0.000,0.000,0.000,3.142,6.283,0.000,1.003,1.569,1.569,4.145,6.281,1.199,4.712,0.000,0.000,0.665,-9.725,0.965,4.777,3.251,6.173,5.281,4.711,4.712,2.138,6.282,5.083,1.570,0.000,0.000,1.321,-9.720,0.966,4.777,3.251,6.173,
7.547,14.073,0.998,-10.328,1.578,0.000,6.270,3.829,0.000,1.532,1.258,2.126,4.583,2.935,2.096,2.022,4.661,0.000,1.071,0.000,0.000,0.000,0.000,0.000,0.000,0.000,0.000,0.000,0.000,0.000,3.142,6.283,0.000,1.003,1.569,1.569,4.108,6.281,1.199,4.712,0.000,0.000,0.665,-9.735,0.981,4.741,3.395,6.028,5.281,4.711,4.712,2.176,6.282,5.083,1.570,0.000,0.000,1.321,-9.730,0.981,4.740,3.405,6.019,
7.660,14.186,0.998,-10.328,1.578,0.000,6.269,3.829,0.000,1.532,1.258,2.126,4.583,2.935,2.096,2.022,4.661,0.000,1.071,0.000,0.000,0.000,0.000,0.000,0.000,0.000,0.000,0.000,0.000,0.000,3.142,6.283,0.000,1.003,1.569,1.569,4.086,6.281,1.199,4.712,0.000,0.000,0.665,-9.741,0.990,4.721,4.114,5.310,5.281,4.711,4.712,2.198,6.282,5.083,1.570,0.000,0.000,1.321,-9.737,0.990,4.721,4.176,5.248,
7.757,14.282,0.998,-10.328,1.578,0.000,6.269,3.829,0.000,1.532,1.258,2.126,4.583,2.935,2.096,2.022,4.661,0.000,1.071,0.000,0.000,0.000,0.000,0.000,0.000,0.000,0.000,0.000,0.000,0.000,3.142,6.283,0.000,1.003,1.569,1.569,4.085,6.281,1.199,4.712,0.000,0.000,0.665,-9.741,0.990,4.721,4.092,5.331,5.281,4.711,4.712,2.198,6.282,5.083,1.570,0.000,0.000,1.321,-9.737,0.990,4.721,4.168,5.256,
7.860,14.386,0.998,-10.328,1.578,0.000,6.269,3.829,0.000,1.532,1.258,2.126,4.583,2.935,2.096,2.022,4.661,0.000,1.071,0.000,0.000,0.000,0.000,0.000,0.000,0.000,0.000,0.000,0.000,0.000,3.142,6.283,0.000,1.003,1.569,1.569,4.085,6.281,1.199,4.712,0.000,0.000,0.665,-9.741,0.990,4.721,4.093,5.331,5.281,4.711,4.712,2.198,6.282,5.083,1.570,0.000,0.000,1.321,-9.737,0.990,4.721,4.169,5.255,
7.960,14.486,0.998,-10.328,1.578,0.000,6.269,3.829,0.000,1.532,1.258,2.126,4.583,2.935,2.096,2.022,4.661,0.000,1.071,0.000,0.000,0.000,0.000,0.000,0.000,0.000,0.000,0.000,0.000,0.000,3.142,6.283,0.000,1.003,1.569,1.569,4.085,6.281,1.199,4.712,0.000,0.000,0.665,-9.741,0.990,4.721,4.093,5.331,5.281,4.711,4.712,2.198,6.282,5.083,1.570,0.000,0.000,1.321,-9.737,0.990,4.721,4.169,5.255,
8.042,14.568,0.998,-10.328,1.578,0.000,6.269,3.829,0.000,1.532,1.258,2.126,4.583,2.935,2.096,2.022,4.661,0.000,1.071,0.000,0.000,0.000,0.000,0.000,0.000,0.000,0.000,0.000,0.000,0.000,3.142,6.283,0.000,1.003,1.569,1.569,4.085,6.281,1.199,4.712,0.000,0.000,0.665,-9.741,0.990,4.721,4.093,5.331,5.281,4.711,4.712,2.198,6.282,5.083,1.570,0.000,0.000,1.321,-9.737,0.990,4.721,4.169,5.256,
8.160,14.686,0.998,-10.318,1.578,0.390,0.009,3.819,0.000,1.546,1.258,2.127,4.594,2.948,2.096,1.989,4.648,0.000,1.071,0.000,0.000,0.000,0.000,0.000,0.000,0.000,0.000,0.000,0.000,0.000,3.142,6.278,6.283,1.007,1.567,1.566,4.078,6.281,1.199,4.712,0.000,0.000,0.662,-9.734,0.991,4.724,4.650,4.774,5.282,4.710,4.708,2.197,6.282,5.083,1.570,0.000,0.000,1.318,-9.726,0.991,4.725,4.345,5.079,
8.247,14.773,0.997,-10.215,1.579,1.302,0.048,3.716,0.000,1.694,1.258,2.128,4.697,3.078,2.096,1.698,4.521,0.000,0.825,0.000,0.000,0.000,0.000,0.000,0.000,0.000,0.000,0.000,0.000,0.000,3.142,6.279,6.283,1.007,1.568,1.566,4.079,6.281,1.199,4.712,0.000,0.000,0.661,-9.631,0.990,4.724,4.598,4.825,5.282,4.710,4.709,2.197,6.282,5.083,1.570,0.000,0.000,1.318,-9.623,0.991,4.725,4.350,5.074,
8.360,14.886,0.996,-10.106,1.579,1.363,6.265,3.607,0.000,1.851,1.257,2.128,4.806,3.216,2.097,1.699,4.386,0.000,2.826,0.000,0.000,0.000,0.000,0.000,0.000,0.000,0.000,0.000,0.000,0.000,3.142,6.283,0.000,1.003,1.570,1.570,4.086,6.281,1.199,4.712,0.000,0.000,0.663,-9.519,0.990,4.722,4.135,5.289,5.281,4.711,4.712,2.198,6.282,5.083,1.570,0.000,0.000,1.319,-9.514,0.990,4.722,4.219,5.205,
8.460,14.986,0.995,-9.976,1.580,0.856,6.264,3.477,0.000,2.037,1.256,2.128,4.936,3.353,2.098,1.701,4.226,0.000,2.966,0.000,0.000,0.000,0.000,0.000,0.000,0.000,0.000,0.000,0.000,0.000,3.142,0.001,0.001,1.002,1.570,1.570,4.088,6.281,1.200,4.712,0.000,0.000,0.662,-9.389,0.990,4.722,4.015,5.409,5.281,4.712,4.712,2.198,6.282,5.083,1.570,0.000,0.000,1.318,-9.383,0.990,4.722,4.192,5.232,
8.560,15.086,0.994,-9.912,1.580,0.834,6.265,3.413,0.000,2.129,1.256,2.128,0.000,3.352,2.098,1.702,4.147,0.000,3.142,0.000,0.000,0.000,0.000,0.000,0.000,0.000,0.000,0.000,0.000,0.000,3.142,6.282,0.000,1.004,1.569,1.569,4.084,6.281,1.199,4.712,0.000,0.000,0.660,-9.326,0.990,4.724,4.314,5.110,5.281,4.711,4.711,2.198,6.282,5.083,1.570,0.000,0.000,1.316,-9.319,0.990,4.724,4.300,5.124,
8.660,15.186,0.993,-9.797,1.581,1.095,6.265,3.298,0.000,1.688,1.255,2.128,0.000,3.352,2.099,1.703,3.470,0.000,3.142,0.000,0.000,0.000,0.000,0.000,0.000,0.000,0.000,0.000,0.000,0.000,3.142,6.281,0.000,1.005,1.569,1.568,4.083,6.281,1.199,4.712,0.000,0.000,0.658,-9.212,0.990,4.724,4.382,5.042,5.281,4.711,4.711,2.198,6.282,5.083,1.570,0.000,0.000,1.314,-9.204,0.990,4.725,4.334,5.090,
8.760,15.286,0.992,-9.709,1.581,1.101,6.265,3.211,0.000,1.642,1.291,2.127,0.000,3.352,2.100,1.704,3.367,0.000,3.142,0.000,0.000,0.000,0.000,0.000,0.000,0.000,0.000,0.000,0.000,0.000,3.142,6.283,0.000,1.003,1.569,1.569,4.085,6.281,1.199,4.712,0.000,0.000,0.657,-9.124,0.990,4.724,4.271,5.153,5.281,4.711,4.711,2.198,6.282,5.083,1.570,0.000,0.000,1.313,-9.117,0.990,4.724,4.309,5.115,
8.860,15.386,0.991,-9.600,1.582,0.595,6.265,3.101,0.000,1.585,1.375,2.127,0.000,3.351,2.100,0.000,3.764,0.000,3.142,0.000,0.000,0.000,0.000,0.000,0.000,0.000,0.000,0.000,0.000,0.000,3.142,0.002,0.001,1.001,1.571,1.572,4.091,6.281,1.200,4.712,0.000,0.000,0.658,-9.012,0.989,4.723,3.918,5.506,5.281,4.712,4.714,2.198,6.282,5.083,1.570,0.000,0.000,1.313,-9.007,0.990,4.722,4.196,5.228,
8.958,15.484,0.991,-9.564,1.582,0.209,6.265,3.065,0.000,1.566,1.403,2.128,0.000,3.350,2.101,0.000,3.719,0.000,3.142,0.000,0.000,0.000,0.000,0.000,0.000,0.000,0.000,0.000,0.000,0.000,3.142,0.001,0.001,1.002,1.570,1.570,4.088,6.281,1.200,4.712,0.000,0.000,0.656,-8.977,0.990,4.725,4.176,5.248,5.281,4.712,4.712,2.198,6.282,5.083,1.570,0.000,0.000,1.312,-8.971,0.990,4.724,4.305,5.120,
9.060,15.586,0.990,-9.554,1.583,0.034,6.268,3.055,0.000,1.561,1.410,2.129,0.000,3.348,2.100,0.000,3.706,0.000,3.142,0.000,0.000,0.000,0.000,0.000,0.000,0.000,0.000,0.000,0.000,0.000,3.142,6.283,0.001,1.003,1.570,1.570,4.086,6.281,1.199,4.712,0.000,0.000,0.655,-8.969,0.990,4.725,4.274,5.149,5.281,4.711,4.712,2.198,6.282,5.083,1.570,0.000,0.000,1.311,-8.961,0.990,4.725,4.340,5.084,
9.142,15.668,0.990,-9.554,1.583,0.000,6.271,3.055,0.000,1.561,1.410,2.130,0.000,3.347,2.100,0.000,3.705,0.000,3.142,0.000,0.000,0.000,0.000,0.000,0.000,0.000,0.000,0.000,0.000,0.000,3.142,6.283,0.000,1.003,1.569,1.569,4.085,6.281,1.199,4.712,0.000,0.000,0.655,-8.969,0.990,4.726,4.323,5.100,5.281,4.711,4.712,2.198,6.282,5.083,1.570,0.000,0.000,1.311,-8.961,0.990,4.725,4.373,5.051,
9.260,15.786,0.990,-9.554,1.583,0.000,6.271,3.055,0.000,1.561,1.410,2.130,0.000,3.347,2.100,0.000,3.705,0.000,3.142,0.000,0.000,0.000,0.000,0.000,0.000,0.000,0.000,0.000,0.000,0.000,3.142,6.283,0.000,1.003,1.569,1.569,4.085,6.281,1.199,4.712,0.000,0.000,0.655,-8.969,0.990,4.726,4.322,5.101,5.281,4.711,4.712,2.198,6.282,5.083,1.570,0.000,0.000,1.311,-8.961,0.990,4.725,4.373,5.051,
9.360,15.886,0.990,-9.554,1.583,0.000,6.271,3.055,0.000,1.561,1.410,2.130,0.000,3.347,2.100,0.000,3.705,0.000,3.142,0.000,0.000,0.000,0.000,0.000,0.000,0.000,0.000,0.000,0.000,0.000,3.142,6.283,0.000,1.003,1.569,1.569,4.085,6.281,1.199,4.712,0.000,0.000,0.655,-8.969,0.990,4.726,4.322,5.101,5.281,4.711,4.712,2.198,6.282,5.083,1.570,0.000,0.000,1.311,-8.961,0.990,4.725,4.373,5.051,
9.460,15.986,0.990,-9.554,1.583,0.000,6.271,3.055,0.000,1.561,1.410,2.130,0.000,3.347,2.100,0.000,3.705,0.000,3.142,0.000,0.000,0.000,0.000,0.000,0.000,0.000,0.000,0.000,0.000,0.000,3.142,6.283,0.000,1.003,1.569,1.569,4.085,6.281,1.199,4.712,0.000,0.000,0.655,-8.969,0.990,4.726,4.322,5.101,5.281,4.711,4.712,2.198,6.282,5.083,1.570,0.000,0.000,1.311,-8.961,0.990,4.725,4.373,5.051,
9.560,16.086,0.990,-9.554,1.583,0.000,6.271,3.055,0.000,1.561,1.410,2.130,0.000,3.347,2.100,0.000,3.705,0.000,3.142,0.000,3.754,0.000,0.000,0.000,0.000,0.000,0.000,0.000,0.000,0.000,3.142,6.283,0.000,1.003,1.569,1.569,4.085,6.281,1.199,4.712,0.000,0.000,0.655,-8.969,0.990,4.726,4.322,5.101,5.281,4.711,4.712,2.198,6.282,5.083,1.570,0.000,0.000,1.311,-8.961,0.990,4.725,4.373,5.051,
9.660,16.186,0.990,-9.554,1.583,0.000,6.271,3.055,0.000,1.561,1.410,2.130,0.000,3.347,2.100,0.000,3.705,0.000,3.142,0.000,3.653,0.000,0.000,0.000,0.000,0.000,0.000,0.000,0.000,0.000,3.142,6.283,0.000,1.003,1.569,1.569,4.085,6.281,1.199,4.712,0.000,0.000,0.655,-8.969,0.990,4.726,4.322,5.101,5.281,4.711,4.712,2.198,6.282,5.083,1.570,0.000,0.000,1.311,-8.961,0.990,4.725,4.373,5.051,
9.760,16.286,0.990,-9.554,1.583,0.000,6.271,3.055,0.000,1.561,1.410,2.130,0.000,3.347,2.100,0.000,3.705,0.000,3.142,0.000,3.653,0.000,0.000,0.000,0.000,0.000,0.000,0.000,0.000,0.000,3.142,6.283,0.000,1.003,1.569,1.569,4.085,6.281,1.199,4.712,0.000,0.000,0.655,-8.969,0.990,4.726,4.322,5.101,5.281,4.711,4.712,2.198,6.282,5.083,1.570,0.000,0.000,1.311,-8.961,0.990,4.725,4.373,5.051,
9.860,16.386,0.990,-9.554,1.583,0.000,6.271,3.055,0.000,1.561,1.410,2.130,0.000,3.347,2.100,0.000,3.705,0.000,3.142,0.000,3.790,0.000,0.000,0.000,0.000,0.000,0.000,0.000,0.000,0.000,3.142,6.283,0.000,1.003,1.569,1.569,4.085,6.281,1.199,4.712,0.000,0.000,0.655,-8.969,0.990,4.726,4.322,5.101,5.281,4.711,4.712,2.198,6.282,5.083,1.570,0.000,0.000,1.311,-8.961,0.990,4.725,4.373,5.051,
9.960,16.486,0.990,-9.554,1.583,0.000,6.271,3.055,0.000,1.561,1.410,2.130,0.000,3.347,2.100,0.000,3.705,0.000,3.142,0.000,3.790,0.000,0.000,0.000,0.000,0.000,0.000,0.000,0.000,0.000,3.142,6.283,0.000,1.003,1.569,1.569,4.085,6.281,1.199,4.712,0.000,0.000,0.655,-8.969,0.990,4.726,4.322,5.101,5.281,4.711,4.712,2.198,6.282,5.083,1.570,0.000,0.000,1.311,-8.961,0.990,4.725,4.373,5.051,
10.060,16.586,0.990,-9.554,1.583,0.000,6.271,3.055,0.000,1.561,1.410,2.130,0.000,3.347,2.100,0.000,3.705,0.000,3.142,0.000,3.987,0.000,0.000,0.000,0.000,0.000,0.000,0.000,0.000,0.000,3.142,6.283,0.000,1.003,1.569,1.569,4.085,6.281,1.199,4.712,0.000,0.000,0.655,-8.969,0.990,4.726,4.322,5.101,5.281,4.711,4.712,2.198,6.282,5.083,1.570,0.000,0.000,1.311,-8.961,0.990,4.725,4.373,5.051,
10.160,16.686,0.990,-9.554,1.583,0.000,6.271,3.055,0.000,1.561,1.410,2.130,0.000,3.347,2.100,0.000,3.705,0.000,3.142,0.000,0.000,0.000,0.000,0.000,0.000,0.000,0.000,0.000,0.000,0.000,3.142,6.283,0.000,1.003,1.569,1.569,4.085,6.281,1.199,4.712,0.000,0.000,0.655,-8.969,0.990,4.726,4.322,5.101,5.281,4.711,4.712,2.198,6.282,5.083,1.570,0.000,0.000,1.311,-8.961,0.990,4.725,4.373,5.051,
10.241,16.766,0.990,-9.554,1.583,0.000,6.271,3.055,0.000,1.561,1.410,2.130,0.000,3.347,2.100,0.000,3.705,0.000,3.142,0.000,0.000,0.000,0.000,0.000,0.000,0.000,0.000,0.000,0.000,0.000,3.142,6.283,0.000,1.003,1.569,1.569,4.085,6.281,1.199,4.712,0.000,0.000,0.655,-8.969,0.990,4.726,4.322,5.101,5.281,4.711,4.712,2.198,6.282,5.083,1.570,0.000,0.000,1.311,-8.961,0.990,4.725,4.373,5.051,
10.360,16.886,0.990,-9.554,1.583,0.000,6.271,3.055,0.000,1.561,1.410,2.130,0.000,3.347,2.100,0.000,3.705,0.000,3.142,0.000,0.000,0.000,0.000,0.000,0.000,0.000,0.000,0.000,0.000,0.000,3.142,6.283,0.000,1.003,1.569,1.569,4.085,6.281,1.199,4.712,0.000,0.000,0.655,-8.969,0.990,4.726,4.322,5.101,5.281,4.711,4.712,2.198,6.282,5.083,1.570,0.000,0.000,1.311,-8.961,0.990,4.725,4.373,5.051,
10.444,16.970,0.990,-9.554,1.583,0.000,6.271,3.055,0.000,1.561,1.410,2.130,0.000,3.347,2.100,0.000,3.705,0.000,3.142,0.000,0.000,0.000,0.000,0.000,0.000,0.000,0.000,0.000,0.000,0.000,3.142,6.283,0.000,1.003,1.569,1.569,4.085,6.281,1.199,4.712,0.000,0.000,0.655,-8.969,0.990,4.726,4.322,5.101,5.281,4.711,4.712,2.198,6.282,5.083,1.570,0.000,0.000,1.311,-8.961,0.990,4.725,4.373,5.051,
10.560,17.086,0.990,-9.554,1.583,0.000,6.271,3.055,0.000,1.561,1.410,2.130,0.000,3.347,2.100,0.000,3.705,0.000,3.142,0.000,0.000,0.000,0.000,0.000,0.000,0.000,0.000,0.000,0.000,0.000,3.142,6.283,0.000,1.003,1.569,1.569,4.085,6.281,1.199,4.712,0.000,0.000,0.655,-8.969,0.990,4.726,4.322,5.101,5.281,4.711,4.712,2.198,6.282,5.083,1.570,0.000,0.000,1.311,-8.961,0.990,4.725,4.373,5.051,
10.645,17.171,0.990,-9.554,1.583,0.000,6.271,3.055,0.000,1.561,1.410,2.130,0.000,3.347,2.100,0.000,3.705,0.000,3.142,0.000,0.000,0.000,0.000,0.000,0.000,0.000,0.000,0.000,0.000,0.000,3.142,6.283,0.000,1.003,1.569,1.569,4.085,6.281,1.199,4.712,0.000,0.000,0.655,-8.969,0.990,4.726,4.322,5.101,5.281,4.711,4.712,2.198,6.282,5.083,1.570,0.000,0.000,1.311,-8.961,0.990,4.725,4.373,5.051,
10.760,17.286,0.990,-9.554,1.583,0.000,6.271,3.055,0.000,1.561,1.410,2.130,0.000,3.347,2.100,0.000,3.705,0.000,3.142,0.000,0.000,0.000,0.000,0.000,0.000,0.000,0.000,0.000,0.000,0.000,3.142,6.283,0.000,1.003,1.569,1.569,4.085,6.281,1.199,4.712,0.000,0.000,0.655,-8.969,0.990,4.726,4.322,5.101,5.281,4.711,4.712,2.198,6.282,5.083,1.570,0.000,0.000,1.311,-8.961,0.990,4.725,4.373,5.051,
10.859,17.385,0.990,-9.554,1.583,0.000,6.271,3.055,0.000,1.561,1.410,2.130,0.000,3.347,2.100,0.000,3.705,0.000,3.142,0.000,0.000,0.000,0.000,0.000,0.000,0.000,0.000,0.000,0.000,0.000,3.142,6.283,0.000,1.003,1.569,1.569,4.085,6.281,1.199,4.712,0.000,0.000,0.655,-8.969,0.990,4.726,4.322,5.101,5.281,4.711,4.712,2.198,6.282,5.083,1.570,0.000,0.000,1.311,-8.961,0.990,4.725,4.373,5.051,
10.960,17.486,0.990,-9.554,1.583,0.000,6.271,3.055,0.000,1.561,1.410,2.130,0.000,3.347,2.100,0.000,3.705,0.000,3.142,0.000,0.000,0.000,0.000,0.000,0.000,0.000,0.000,0.000,0.000,0.000,3.142,6.283,0.000,1.003,1.569,1.569,4.085,6.281,1.199,4.712,0.000,0.000,0.655,-8.969,0.990,4.726,4.322,5.101,5.281,4.711,4.712,2.198,6.282,5.083,1.570,0.000,0.000,1.311,-8.961,0.990,4.725,4.373,5.051,
11.048,17.573,0.990,-9.554,1.583,0.000,6.271,3.055,0.000,1.561,1.410,2.130,0.000,3.347,2.100,0.000,3.705,0.000,3.142,0.000,0.000,0.000,0.000,0.000,0.000,0.000,0.000,0.000,0.000,0.000,3.142,6.283,0.000,1.003,1.569,1.569,4.085,6.281,1.199,4.712,0.000,0.000,0.655,-8.969,0.990,4.726,4.322,5.101,5.281,4.711,4.712,2.198,6.282,5.083,1.570,0.000,0.000,1.311,-8.961,0.990,4.725,4.373,5.051,
11.160,17.686,0.990,-9.554,1.583,0.000,6.271,3.055,0.000,1.561,1.410,2.130,0.000,3.347,2.100,0.000,3.705,0.000,3.142,0.000,0.000,0.000,0.000,0.000,0.000,0.000,0.000,0.000,0.000,0.000,3.142,6.283,0.000,1.003,1.569,1.569,4.085,6.281,1.199,4.712,0.000,0.000,0.655,-8.969,0.990,4.726,4.322,5.101,5.281,4.711,4.712,2.198,6.282,5.083,1.570,0.000,0.000,1.311,-8.961,0.990,4.725,4.373,5.051,
11.252,17.777,0.990,-9.554,1.583,0.000,6.271,3.055,0.000,1.561,1.410,2.130,0.000,3.347,2.100,0.000,3.705,0.000,3.142,0.000,0.000,0.000,0.000,0.000,0.000,0.000,0.000,0.000,0.000,0.000,3.142,6.283,0.000,1.003,1.569,1.569,4.085,6.281,1.199,4.712,0.000,0.000,0.655,-8.969,0.990,4.726,4.322,5.101,5.281,4.711,4.712,2.198,6.282,5.083,1.570,0.000,0.000,1.311,-8.961,0.990,4.725,4.373,5.051,
11.360,17.886,0.990,-9.554,1.583,0.000,6.271,3.055,0.000,1.561,1.410,2.130,0.000,3.347,2.100,0.000,3.705,0.000,3.142,0.000,0.000,0.000,0.000,0.000,0.000,0.000,0.000,0.000,0.000,0.000,3.142,6.283,0.000,1.003,1.569,1.569,4.085,6.281,1.199,4.712,0.000,0.000,0.655,-8.969,0.990,4.726,4.322,5.101,5.281,4.711,4.712,2.198,6.282,5.083,1.570,0.000,0.000,1.311,-8.961,0.990,4.725,4.373,5.051,
11.452,17.978,0.990,-9.554,1.583,0.000,6.271,3.055,0.000,1.561,1.410,2.130,0.000,3.347,2.100,0.000,3.705,0.000,3.142,0.000,0.000,0.000,0.000,0.000,0.000,0.000,0.000,0.000,0.000,0.000,3.142,6.283,0.000,1.003,1.569,1.569,4.085,6.281,1.199,4.712,0.000,0.000,0.655,-8.969,0.990,4.726,4.322,5.101,5.281,4.711,4.712,2.198,6.282,5.083,1.570,0.000,0.000,1.311,-8.961,0.990,4.725,4.373,5.051,
11.560,18.086,0.990,-9.554,1.583,0.000,6.271,3.055,0.000,1.561,1.410,2.130,0.000,3.347,2.100,0.000,3.705,0.000,3.142,0.000,0.000,0.000,0.000,0.000,0.000,0.000,0.000,0.000,0.000,0.000,3.142,6.283,0.000,1.003,1.569,1.569,4.085,6.281,1.199,4.712,0.000,0.000,0.655,-8.969,0.990,4.726,4.322,5.101,5.281,4.711,4.712,2.198,6.282,5.083,1.570,0.000,0.000,1.311,-8.961,0.990,4.725,4.373,5.051,
11.649,18.175,0.990,-9.554,1.583,0.000,6.271,3.055,0.000,1.561,1.410,2.130,0.000,3.347,2.100,0.000,3.705,0.000,3.142,0.000,0.000,0.000,0.000,0.000,0.000,0.000,0.000,0.000,0.000,0.000,3.142,6.283,0.000,1.003,1.569,1.569,4.085,6.281,1.199,4.712,0.000,0.000,0.655,-8.969,0.990,4.726,4.322,5.101,5.281,4.711,4.712,2.198,6.282,5.083,1.570,0.000,0.000,1.311,-8.961,0.990,4.725,4.373,5.051,
11.760,18.286,0.990,-9.554,1.583,0.000,6.271,3.055,0.000,1.561,1.410,2.130,0.000,3.347,2.100,0.000,3.705,0.000,3.142,0.000,0.000,0.000,0.000,0.000,0.000,0.000,0.000,0.000,0.000,0.000,3.142,6.283,0.000,1.003,1.569,1.569,4.085,6.281,1.199,4.712,0.000,0.000,0.655,-8.969,0.990,4.726,4.322,5.101,5.281,4.711,4.712,2.198,6.282,5.083,1.570,0.000,0.000,1.311,-8.961,0.990,4.725,4.373,5.051,
11.849,18.374,0.990,-9.554,1.583,0.000,6.271,3.055,0.000,1.561,1.410,2.130,0.000,3.347,2.100,0.000,3.705,0.000,3.142,0.000,0.000,0.000,0.000,0.000,0.000,0.000,0.000,0.000,0.000,0.000,3.142,6.283,0.000,1.003,1.569,1.569,4.085,6.281,1.199,4.712,0.000,0.000,0.655,-8.969,0.990,4.726,4.322,5.101,5.281,4.711,4.712,2.198,6.282,5.083,1.570,0.000,0.000,1.311,-8.961,0.990,4.725,4.373,5.051,
11.960,18.486,0.990,-9.554,1.583,0.000,6.271,3.055,0.000,1.561,1.410,2.130,0.000,3.347,2.100,0.000,3.705,0.000,3.142,0.000,0.000,0.000,0.000,0.000,0.000,0.000,0.000,0.000,0.000,0.000,3.142,6.283,0.000,1.003,1.569,1.569,4.085,6.281,1.199,4.712,0.000,0.000,0.655,-8.969,0.990,4.726,4.322,5.101,5.281,4.711,4.712,2.198,6.282,5.083,1.570,0.000,0.000,1.311,-8.961,0.990,4.725,4.373,5.051,
12.049,18.574,0.990,-9.554,1.583,0.000,6.271,3.055,0.000,1.561,1.410,2.130,0.000,3.347,2.100,0.000,3.705,0.000,3.142,0.000,0.000,0.000,0.000,0.000,0.000,0.000,0.000,0.000,0.000,0.000,3.142,6.283,0.000,1.003,1.569,1.569,4.085,6.281,1.199,4.712,0.000,0.000,0.655,-8.969,0.990,4.726,4.322,5.101,5.281,4.711,4.712,2.198,6.282,5.083,1.570,0.000,0.000,1.311,-8.961,0.990,4.725,4.373,5.051,
12.160,18.686,0.990,-9.554,1.583,0.000,6.271,3.055,0.000,1.561,1.410,2.130,0.000,3.347,2.100,0.000,3.705,0.000,3.142,0.000,0.000,0.000,0.000,0.000,0.000,0.000,0.000,0.000,0.000,0.000,3.142,6.283,0.000,1.003,1.569,1.569,4.085,6.281,1.199,4.712,0.000,0.000,0.655,-8.969,0.990,4.726,4.322,5.101,5.281,4.711,4.712,2.198,6.282,5.083,1.570,0.000,0.000,1.311,-8.961,0.990,4.725,4.373,5.051,
12.260,18.786,0.990,-9.554,1.583,0.000,6.271,3.055,0.000,1.561,1.410,2.130,0.000,3.347,2.100,0.000,3.705,0.000,3.142,0.000,0.000,0.000,0.000,0.000,0.000,0.000,0.000,0.000,0.000,0.000,3.142,6.283,0.000,1.003,1.569,1.569,4.085,6.281,1.199,4.712,0.000,0.000,0.655,-8.969,0.990,4.726,4.322,5.101,5.281,4.711,4.712,2.198,6.282,5.083,1.570,0.000,0.000,1.311,-8.961,0.990,4.725,4.373,5.051,
12.360,18.886,0.990,-9.554,1.583,0.000,6.271,3.055,0.000,1.561,1.410,2.130,0.000,3.347,2.100,0.000,3.705,0.000,3.142,0.000,0.000,0.000,0.000,0.000,0.000,0.000,0.000,0.000,0.000,0.000,3.142,6.283,0.000,1.003,1.569,1.569,4.085,6.281,1.199,4.712,0.000,0.000,0.655,-8.969,0.990,4.726,4.322,5.101,5.281,4.711,4.712,2.198,6.282,5.083,1.570,0.000,0.000,1.311,-8.961,0.990,4.725,4.373,5.051,
12.460,18.986,0.990,-9.554,1.583,0.000,6.271,3.055,0.000,1.561,1.410,2.130,0.000,3.347,2.100,0.000,3.705,0.000,3.142,0.000,0.000,0.000,0.000,0.000,0.000,0.000,0.000,0.000,0.000,0.000,3.142,6.283,0.000,1.003,1.569,1.569,4.085,6.281,1.199,4.712,0.000,0.000,0.655,-8.969,0.990,4.726,4.322,5.101,5.281,4.711,4.712,2.198,6.282,5.083,1.570,0.000,0.000,1.311,-8.961,0.990,4.725,4.373,5.051,
12.560,19.086,0.990,-9.554,1.583,0.000,6.271,3.055,0.000,1.561,1.410,2.130,0.000,3.347,2.100,0.000,3.705,0.000,3.142,0.000,0.000,0.000,0.000,0.000,0.000,0.000,0.000,0.000,0.000,0.000,3.142,6.283,0.000,1.003,1.569,1.569,4.085,6.281,1.199,4.712,0.000,0.000,0.655,-8.969,0.990,4.726,4.322,5.101,5.281,4.711,4.712,2.198,6.282,5.083,1.570,0.000,0.000,1.311,-8.961,0.990,4.725,4.373,5.051,
12.660,19.186,0.990,-9.554,1.583,0.000,6.271,3.055,0.000,1.561,1.410,2.130,0.000,3.347,2.100,0.000,3.705,0.000,3.142,0.000,0.000,0.000,0.000,0.000,0.000,0.000,0.000,0.000,0.000,0.000,3.142,6.283,0.000,1.003,1.569,1.569,4.085,6.281,1.199,4.712,0.000,0.000,0.655,-8.969,0.990,4.726,4.322,5.101,5.281,4.711,4.712,2.198,6.282,5.083,1.570,0.000,0.000,1.311,-8.961,0.990,4.725,4.373,5.051,
12.753,19.279,0.990,-9.554,1.583,0.000,6.271,3.055,0.000,1.561,1.410,2.130,0.000,3.347,2.100,0.000,3.705,0.000,3.142,0.000,0.000,0.000,0.000,0.000,0.000,0.000,0.000,0.000,0.000,0.000,3.142,6.283,0.000,1.003,1.569,1.569,4.085,6.281,1.199,4.712,0.000,0.000,0.655,-8.969,0.990,4.726,4.322,5.101,5.281,4.711,4.712,2.198,6.282,5.083,1.570,0.000,0.000,1.311,-8.961,0.990,4.725,4.373,5.051,
12.860,19.386,0.990,-9.554,1.583,0.000,6.271,3.055,0.000,1.561,1.410,2.130,0.000,3.347,2.100,0.000,3.705,0.000,3.142,0.000,0.000,0.000,0.000,0.000,0.000,0.000,0.000,0.000,0.000,0.000,3.142,6.283,0.000,1.003,1.569,1.569,4.085,6.281,1.199,4.712,0.000,0.000,0.655,-8.969,0.990,4.726,4.322,5.101,5.281,4.711,4.712,2.198,6.282,5.083,1.570,0.000,0.000,1.311,-8.961,0.990,4.725,4.373,5.051,
12.955,19.480,0.990,-9.554,1.583,0.000,6.271,3.055,0.000,1.561,1.410,2.130,0.000,3.347,2.100,0.000,3.705,0.000,3.142,0.000,0.000,0.000,0.000,0.000,0.000,0.000,0.000,0.000,0.000,0.000,3.142,6.283,0.000,1.003,1.569,1.569,4.085,6.281,1.199,4.712,0.000,0.000,0.655,-8.969,0.990,4.726,4.322,5.101,5.281,4.711,4.712,2.198,6.282,5.083,1.570,0.000,0.000,1.311,-8.961,0.990,4.725,4.373,5.051,
13.060,19.586,0.990,-9.554,1.583,0.000,6.271,3.055,0.000,1.561,1.410,2.130,0.000,3.347,2.100,0.000,3.705,0.000,3.142,0.000,0.000,0.000,0.000,0.000,0.000,0.000,0.000,0.000,0.000,0.000,3.142,6.283,0.000,1.003,1.569,1.569,4.085,6.281,1.199,4.712,0.000,0.000,0.655,-8.969,0.990,4.726,4.322,5.101,5.281,4.711,4.712,2.198,6.282,5.083,1.570,0.000,0.000,1.311,-8.961,0.990,4.725,4.373,5.051,
13.158,19.684,0.990,-9.554,1.583,0.000,6.271,3.055,0.000,1.561,1.410,2.130,0.000,3.347,2.100,0.000,3.705,0.000,3.142,0.000,0.000,0.000,0.000,0.000,0.000,0.000,0.000,0.000,0.000,0.000,3.142,6.283,0.000,1.003,1.569,1.569,4.085,6.281,1.199,4.712,0.000,0.000,0.655,-8.969,0.990,4.726,4.322,5.101,5.281,4.711,4.712,2.198,6.282,5.083,1.570,0.000,0.000,1.311,-8.961,0.990,4.725,4.373,5.051,
13.260,19.786,0.990,-9.554,1.583,0.000,6.271,3.055,0.000,1.561,1.410,2.130,0.000,3.347,2.100,0.000,3.705,0.000,3.142,0.000,0.000,0.000,0.000,0.000,0.000,0.000,0.000,0.000,0.000,0.000,3.142,6.283,0.000,1.003,1.569,1.569,4.085,6.281,1.199,4.712,0.000,0.000,0.655,-8.969,0.990,4.726,4.322,5.101,5.281,4.711,4.712,2.198,6.282,5.083,1.570,0.000,0.000,1.311,-8.961,0.990,4.725,4.373,5.051,
13.358,19.883,0.990,-9.554,1.583,0.000,6.271,3.055,0.000,1.561,1.410,2.130,0.000,3.347,2.100,0.000,3.705,0.000,3.142,0.000,0.000,0.000,0.000,0.000,0.000,0.000,0.000,0.000,0.000,0.000,3.142,6.283,0.000,1.003,1.569,1.569,4.085,6.281,1.199,4.712,0.000,0.000,0.655,-8.969,0.990,4.726,4.322,5.101,5.281,4.711,4.712,2.198,6.282,5.083,1.570,0.000,0.000,1.311,-8.961,0.990,4.725,4.373,5.051,
13.460,19.986,0.990,-9.554,1.583,0.000,6.271,3.055,0.000,1.561,1.410,2.130,0.000,3.347,2.100,0.000,3.705,0.000,3.142,0.000,0.000,0.000,0.000,0.000,0.000,0.000,0.000,0.000,0.000,0.000,3.142,6.283,0.000,1.003,1.569,1.569,4.085,6.281,1.199,4.712,0.000,0.000,0.655,-8.969,0.990,4.726,4.322,5.101,5.281,4.711,4.712,2.198,6.282,5.083,1.570,0.000,0.000,1.311,-8.961,0.990,4.725,4.373,5.051,
13.556,20.081,0.990,-9.554,1.583,0.000,6.271,3.055,0.000,1.561,1.410,2.130,0.000,3.347,2.100,0.000,3.705,0.000,3.142,0.000,0.000,0.000,0.000,0.000,0.000,0.000,0.000,0.000,0.000,0.000,3.142,6.283,0.000,1.003,1.569,1.569,4.085,6.281,1.199,4.712,0.000,0.000,0.655,-8.969,0.990,4.726,4.322,5.101,5.281,4.711,4.712,2.198,6.282,5.083,1.570,0.000,0.000,1.311,-8.961,0.990,4.725,4.373,5.051,
13.660,20.186,0.990,-9.554,1.583,0.000,6.271,3.055,0.000,1.561,1.410,2.130,0.000,3.347,2.100,0.000,3.705,0.000,3.142,0.000,0.000,0.000,0.000,0.000,0.000,0.000,0.000,0.000,0.000,0.000,3.142,6.283,0.000,1.003,1.569,1.569,4.085,6.281,1.199,4.712,0.000,0.000,0.655,-8.969,0.990,4.726,4.322,5.101,5.281,4.711,4.712,2.198,6.282,5.083,1.570,0.000,0.000,1.311,-8.961,0.990,4.725,4.373,5.051,
13.759,20.284,0.990,-9.554,1.583,0.000,6.271,3.055,0.000,1.561,1.410,2.130,0.000,3.347,2.100,0.000,3.705,0.000,3.142,0.000,0.000,0.000,0.000,0.000,0.000,0.000,0.000,0.000,0.000,0.000,3.142,6.283,0.000,1.003,1.569,1.569,4.085,6.281,1.199,4.712,0.000,0.000,0.655,-8.969,0.990,4.726,4.322,5.101,5.281,4.711,4.712,2.198,6.282,5.083,1.570,0.000,0.000,1.311,-8.961,0.990,4.725,4.373,5.051,
13.860,20.386,0.990,-9.554,1.583,0.000,6.271,3.055,0.000,1.561,1.410,2.130,0.000,3.347,2.100,0.000,3.705,0.000,3.142,0.000,0.000,0.000,0.000,0.000,0.000,0.000,0.000,0.000,0.000,0.000,3.142,6.283,0.000,1.003,1.569,1.569,4.085,6.281,1.199,4.712,0.000,0.000,0.655,-8.969,0.990,4.726,4.322,5.101,5.281,4.711,4.712,2.198,6.282,5.083,1.570,0.000,0.000,1.311,-8.961,0.990,4.725,4.373,5.051,
13.940,20.466,0.990,-9.554,1.583,0.000,6.271,3.055,0.000,1.561,1.410,2.130,0.000,3.347,2.100,0.000,3.705,0.000,3.142,0.000,0.000,0.000,0.000,0.000,0.000,0.000,0.000,0.000,0.000,0.000,3.142,6.283,0.000,1.003,1.569,1.569,4.085,6.281,1.199,4.712,0.000,0.000,0.655,-8.969,0.990,4.726,4.322,5.101,5.281,4.711,4.712,2.198,6.282,5.083,1.570,0.000,0.000,1.311,-8.961,0.990,4.725,4.373,5.051,
14.060,20.586,0.990,-9.554,1.583,0.000,6.271,3.055,0.000,1.561,1.410,2.130,0.000,3.347,2.100,0.000,3.705,0.000,3.142,0.000,0.000,0.000,0.000,0.000,0.000,0.000,0.000,0.000,0.000,0.000,3.142,6.283,0.000,1.003,1.569,1.569,4.085,6.281,1.199,4.712,0.000,0.000,0.655,-8.969,0.990,4.726,4.322,5.101,5.281,4.711,4.712,2.198,6.282,5.083,1.570,0.000,0.000,1.311,-8.961,0.990,4.725,4.373,5.051,
14.160,20.686,0.990,-9.554,1.583,0.000,6.271,3.055,0.000,1.561,1.410,2.130,0.000,3.347,2.100,0.000,3.705,0.000,3.142,0.000,0.000,0.000,0.000,0.000,0.000,0.000,0.000,0.000,0.000,0.000,3.142,6.283,0.000,1.003,1.569,1.569,4.085,6.281,1.199,4.712,0.000,0.000,0.655,-8.969,0.990,4.726,4.322,5.101,5.281,4.711,4.712,2.198,6.282,5.083,1.570,0.000,0.000,1.311,-8.961,0.990,4.725,4.373,5.051,
14.260,20.786,0.990,-9.554,1.583,0.000,6.271,3.055,0.000,1.561,1.410,2.130,0.000,3.347,2.100,0.000,3.705,0.000,3.142,0.000,0.000,0.000,0.000,0.000,0.000,0.000,0.000,0.000,0.000,0.000,3.142,6.283,0.000,1.003,1.569,1.569,4.085,6.281,1.199,4.712,0.000,0.000,0.655,-8.969,0.990,4.726,4.322,5.101,5.281,4.711,4.712,2.198,6.282,5.083,1.570,0.000,0.000,1.311,-8.961,0.990,4.725,4.373,5.051,
14.360,20.886,0.990,-9.554,1.583,0.000,6.271,3.055,0.000,1.561,1.410,2.130,0.000,3.347,2.100,0.000,3.705,0.000,3.142,0.000,0.000,0.000,0.000,0.000,0.000,0.000,0.000,0.000,0.000,0.000,3.142,6.283,0.000,1.003,1.569,1.569,4.085,6.281,1.199,4.712,0.000,0.000,0.655,-8.969,0.990,4.726,4.322,5.101,5.281,4.711,4.712,2.198,6.282,5.083,1.570,0.000,0.000,1.311,-8.961,0.990,4.725,4.373,5.051,
14.452,20.978,0.990,-9.554,1.583,0.000,6.271,3.055,0.000,1.561,1.410,2.130,0.000,3.347,2.100,0.000,3.705,0.000,3.142,0.000,0.000,0.000,0.000,0.000,0.000,0.000,0.000,0.000,0.000,0.000,3.142,6.283,0.000,1.003,1.569,1.569,4.085,6.281,1.199,4.712,0.000,0.000,0.655,-8.969,0.990,4.726,4.322,5.101,5.281,4.711,4.712,2.198,6.282,5.083,1.570,0.000,0.000,1.311,-8.961,0.990,4.725,4.373,5.051,
14.560,21.086,0.990,-9.554,1.583,0.000,6.271,3.055,0.000,1.561,1.410,2.130,0.000,3.347,2.100,0.000,3.705,0.000,3.142,0.000,0.000,0.000,0.000,0.000,0.000,0.000,0.000,0.000,0.000,0.000,3.142,6.283,0.000,1.003,1.569,1.569,4.085,6.281,1.199,4.712,0.000,0.000,0.655,-8.969,0.990,4.726,4.322,5.101,5.281,4.711,4.712,2.198,6.282,5.083,1.570,0.000,0.000,1.311,-8.961,0.990,4.725,4.373,5.051,
14.660,21.515,0.990,-9.554,1.583,0.000,6.271,3.055,0.000,1.561,1.410,2.130,0.000,3.347,2.100,0.000,3.705,0.000,3.142,0.000,0.000,0.000,0.000,0.000,0.000,0.000,0.000,0.000,0.000,0.000,3.142,6.283,0.000,1.003,1.569,1.569,4.085,6.281,1.199,4.712,0.000,0.000,0.655,-8.969,0.990,4.726,4.322,5.101,5.281,4.711,4.712,2.198,6.282,5.083,1.570,0.000,0.000,1.311,-8.961,0.990,4.725,4.373,5.051,
14.760,21.615,0.990,-9.554,1.583,0.000,6.271,3.055,0.000,1.561,1.410,2.130,0.000,3.347,2.100,0.000,3.705,0.000,3.142,0.000,0.000,0.000,0.000,0.000,0.000,0.000,0.000,0.000,0.000,0.000,3.142,6.283,0.000,1.003,1.569,1.569,4.085,6.281,1.199,4.712,0.000,0.000,0.655,-8.969,0.990,4.726,4.322,5.101,5.281,4.711,4.712,2.198,6.282,5.083,1.570,0.000,0.000,1.311,-8.961,0.990,4.725,4.373,5.051,
14.860,21.715,0.990,-9.554,1.583,0.000,6.271,3.055,0.000,1.561,1.410,2.130,0.000,3.347,2.100,0.000,3.705,0.000,3.142,0.000,0.000,0.000,0.000,0.000,0.000,0.000,0.000,0.000,0.000,0.000,3.142,6.283,0.000,1.003,1.569,1.569,4.085,6.281,1.199,4.712,0.000,0.000,0.655,-8.969,0.990,4.726,4.322,5.101,5.281,4.711,4.712,2.198,6.282,5.083,1.570,0.000,0.000,1.311,-8.961,0.990,4.725,4.373,5.051,
14.960,21.815,0.990,-9.554,1.583,0.000,6.271,3.055,0.000,1.561,1.410,2.130,0.000,3.347,2.100,0.000,3.705,0.000,3.142,0.000,0.000,0.000,0.000,0.000,0.000,0.000,0.000,0.000,0.000,0.000,3.142,6.283,0.000,1.003,1.569,1.569,4.085,6.281,1.199,4.712,0.000,0.000,0.655,-8.969,0.990,4.726,4.322,5.101,5.281,4.711,4.712,2.198,6.282,5.083,1.570,0.000,0.000,1.311,-8.961,0.990,4.725,4.373,5.051,
15.052,21.907,0.990,-9.554,1.583,0.000,6.271,3.055,0.000,1.561,1.410,2.130,0.000,3.347,2.100,0.000,3.705,0.000,3.142,0.000,0.000,0.000,0.000,0.000,0.000,0.000,0.000,0.000,0.000,0.000,3.142,6.283,0.000,1.003,1.569,1.569,4.085,6.281,1.199,4.712,0.000,0.000,0.655,-8.969,0.990,4.726,4.322,5.101,5.281,4.711,4.712,2.198,6.282,5.083,1.570,0.000,0.000,1.311,-8.961,0.990,4.725,4.373,5.051,
15.160,22.015,0.990,-9.554,1.583,0.000,6.271,3.055,0.000,1.561,1.410,2.130,0.000,3.347,2.100,0.000,3.705,0.000,3.142,0.000,0.000,0.000,0.000,0.000,0.000,0.000,0.000,0.000,0.000,0.000,3.142,6.283,0.000,1.003,1.569,1.569,4.085,6.281,1.199,4.712,0.000,0.000,0.655,-8.969,0.990,4.726,4.322,5.101,5.281,4.711,4.712,2.198,6.282,5.083,1.570,0.000,0.000,1.311,-8.961,0.990,4.725,4.373,5.051,
15.243,22.098,0.990,-9.554,1.583,0.000,6.271,3.055,0.000,1.561,1.410,2.130,0.000,3.347,2.100,0.000,3.705,0.000,3.142,0.000,0.000,0.000,0.000,0.000,0.000,0.000,0.000,0.000,0.000,0.000,3.142,6.283,0.000,1.003,1.569,1.569,4.085,6.281,1.199,4.712,0.000,0.000,0.655,-8.969,0.990,4.726,4.322,5.101,5.281,4.711,4.712,2.198,6.282,5.083,1.570,0.000,0.000,1.311,-8.961,0.990,4.725,4.373,5.051,
15.360,22.215,0.990,-9.554,1.583,0.000,6.271,3.055,0.000,1.561,1.410,2.130,0.000,3.347,2.100,0.000,3.705,0.000,3.142,0.000,0.000,0.000,0.000,0.000,0.000,0.000,0.000,0.000,0.000,0.000,3.142,6.283,0.000,1.003,1.569,1.569,4.085,6.281,1.199,4.712,0.000,0.000,0.655,-8.969,0.990,4.726,4.322,5.101,5.281,4.711,4.712,2.198,6.282,5.083,1.570,0.000,0.000,1.311,-8.961,0.990,4.725,4.373,5.051,
15.460,22.315,0.990,-9.554,1.583,0.000,6.271,3.055,0.000,1.561,1.410,2.130,0.000,3.347,2.100,0.000,3.705,0.000,3.142,0.000,0.000,0.000,0.000,0.000,0.000,0.000,0.000,0.000,0.000,0.000,3.142,6.283,0.000,1.003,1.569,1.569,4.085,6.281,1.199,4.712,0.000,0.000,0.655,-8.969,0.990,4.726,4.322,5.101,5.281,4.711,4.712,2.198,6.282,5.083,1.570,0.000,0.000,1.311,-8.961,0.990,4.725,4.373,5.051,
15.547,22.402,0.990,-9.554,1.583,0.000,6.271,3.055,0.000,1.561,1.410,2.130,0.000,3.347,2.100,0.000,3.705,0.000,3.142,0.000,0.000,0.000,0.000,0.000,0.000,0.000,0.000,0.000,0.000,0.000,3.142,6.283,0.000,1.003,1.569,1.569,4.085,6.281,1.199,4.712,0.000,0.000,0.655,-8.969,0.990,4.726,4.322,5.101,5.281,4.711,4.712,2.198,6.282,5.083,1.570,0.000,0.000,1.311,-8.961,0.990,4.725,4.373,5.051,
15.660,22.515,0.990,-9.554,1.583,0.000,6.271,3.055,0.000,1.561,1.410,2.130,0.000,3.347,2.100,0.000,3.705,0.000,3.142,0.000,0.000,0.000,0.000,0.000,0.000,0.000,0.000,0.000,0.000,0.000,3.142,6.283,0.000,1.003,1.569,1.569,4.085,6.281,1.199,4.712,0.000,0.000,0.655,-8.969,0.990,4.726,4.322,5.101,5.281,4.711,4.712,2.198,6.282,5.083,1.570,0.000,0.000,1.311,-8.961,0.990,4.725,4.373,5.051,
15.760,22.615,0.990,-9.554,1.583,0.000,6.271,3.055,0.000,1.561,1.410,2.130,0.000,3.347,2.100,0.000,3.705,0.000,3.142,0.000,0.000,0.000,0.000,0.000,0.000,0.000,0.000,0.000,0.000,0.000,3.142,6.283,0.000,1.003,1.569,1.569,4.085,6.281,1.199,4.712,0.000,0.000,0.655,-8.969,0.990,4.726,4.322,5.101,5.281,4.711,4.712,2.198,6.282,5.083,1.570,0.000,0.000,1.311,-8.961,0.990,4.725,4.373,5.051,
15.852,22.707,0.990,-9.521,1.584,0.699,6.281,3.023,0.000,1.544,1.434,2.131,0.000,3.344,2.100,0.000,3.664,0.000,3.142,0.000,0.000,0.000,0.000,0.000,0.000,0.000,0.000,0.000,0.000,0.000,3.142,6.278,6.283,1.008,1.567,1.566,4.077,6.281,1.199,4.712,0.000,0.000,0.651,-8.939,0.991,4.730,4.694,4.730,5.282,4.710,4.708,2.197,6.282,5.083,1.570,0.000,0.000,1.307,-8.928,0.991,4.730,4.458,4.967,
15.960,22.815,0.989,-9.441,1.583,1.290,6.269,2.943,0.000,1.502,1.496,2.127,0.000,3.349,2.102,0.000,3.569,0.000,3.142,0.000,0.000,0.000,0.000,0.000,0.000,0.000,0.000,0.000,0.000,0.000,3.142,6.279,6.283,1.007,1.568,1.566,4.079,6.281,1.199,4.712,0.000,0.000,0.651,-8.859,0.990,4.728,4.627,4.797,5.282,4.710,4.709,2.197,6.282,5.083,1.570,0.000,0.000,1.307,-8.848,0.991,4.728,4.435,4.990,
16.060,22.915,0.987,-9.282,1.584,1.199,6.265,2.783,3.149,1.840,1.618,2.125,0.000,3.350,2.104,0.000,3.374,0.000,3.142,0.000,0.000,0.000,0.000,0.000,0.000,0.000,0.000,0.000,0.000,0.000,3.142,0.001,0.001,1.002,1.570,1.571,4.088,6.281,1.200,4.712,0.000,0.000,0.652,-8.696,0.989,4.725,4.170,5.254,5.281,4.712,4.713,2.198,6.282,5.083,1.570,0.000,0.000,1.308,-8.688,0.990,4.725,4.330,5.095,
16.153,23.008,0.986,-9.185,1.584,0.821,6.265,2.687,3.028,2.175,1.692,2.124,0.000,3.350,2.105,0.000,3.256,0.000,3.142,0.000,0.000,0.000,0.000,0.000,0.000,0.000,0.000,0.000,0.000,0.000,3.142,0.000,0.001,1.003,1.570,1.570,4.087,6.281,1.200,4.712,0.000,0.000,0.650,-8.600,0.990,4.726,4.260,5.163,5.281,4.712,4.712,2.198,6.282,5.083,1.570,0.000,0.000,1.306,-8.592,0.990,4.726,4.362,5.063,
16.260,23.115,0.985,-9.121,1.584,0.873,6.265,2.622,2.947,0.000,1.741,2.124,0.000,3.350,1.689,0.000,3.177,0.000,3.142,0.000,0.000,0.000,0.000,0.000,0.000,0.000,0.000,0.000,0.000,0.000,3.142,6.282,0.000,1.004,1.569,1.568,4.084,6.281,1.199,4.712,0.000,0.000,0.647,-8.537,0.990,4.728,4.448,4.975,5.281,4.711,4.711,2.198,6.282,5.083,1.570,0.000,0.000,1.303,-8.527,0.990,4.728,4.416,5.008,
16.360,23.215,0.983,-9.002,1.608,1.111,0.758,2.505,2.850,0.000,1.813,2.201,0.000,3.251,1.680,0.000,2.985,0.000,3.142,0.000,0.000,0.000,0.000,0.000,0.000,0.000,0.000,0.000,0.000,0.000,3.142,0.000,0.000,1.004,1.570,1.572,4.085,6.281,1.199,4.712,0.000,0.000,0.634,-8.425,0.990,4.747,4.582,4.843,5.281,4.712,4.714,2.199,6.281,5.083,1.571,0.000,0.000,1.290,-8.401,0.991,4.747,4.620,4.805,
16.457,23.312,0.977,-8.893,1.711,1.055,1.431,2.424,0.000,4.274,1.821,2.636,0.000,2.899,1.648,0.000,2.690,0.000,3.142,0.000,0.000,0.000,0.000,0.000,0.000,0.000,0.000,0.000,0.000,0.000,3.142,0.002,0.000,1.003,1.571,1.571,4.087,6.282,1.199,4.712,0.000,0.000,0.570,-8.355,0.990,4.851,4.675,4.749,5.282,4.713,4.714,2.198,6.282,5.083,1.571,0.000,0.000,1.220,-8.264,0.991,4.850,4.690,4.734,
16.560,23.415,0.964,-8.815,1.808,0.972,1.218,2.392,0.000,1.857,1.824,3.262,0.000,2.666,2.638,4.347,2.490,0.000,3.142,0.000,0.000,0.000,0.000,0.000,0.000,0.000,0.000,0.000,0.000,0.000,3.142,0.002,0.000,1.003,1.570,1.569,4.086,6.282,1.199,4.712,0.000,0.000,0.506,-8.319,0.990,4.950,4.692,4.731,5.282,4.712,4.712,2.198,6.283,5.083,1.570,0.000,0.000,1.145,-8.165,0.991,4.949,4.698,4.726,
16.660,23.515,0.937,-8.716,1.908,0.530,0.680,2.363,4.719,1.691,1.846,4.378,4.291,2.502,0.000,3.604,2.303,0.000,3.071,0.000,0.000,0.000,0.000,0.000,0.000,0.000,0.000,0.000,0.000,0.000,3.142,0.005,0.001,1.000,1.571,1.572,4.093,6.281,1.200,4.712,0.000,0.000,0.433,-8.265,0.989,5.046,4.684,4.738,5.280,4.713,4.714,2.199,6.282,5.083,1.570,0.000,0.000,1.053,-8.051,0.990,5.047,4.700,4.723,
16.760,23.615,0.936,-8.711,1.956,-0.307,0.637,2.404,4.577,1.580,1.841,0.000,4.288,2.426,0.000,2.714,2.271,0.000,3.001,0.000,0.000,0.000,0.000,0.000,0.000,0.000,0.000,0.000,0.000,0.000,3.142,0.004,0.001,1.000,1.571,1.573,4.092,6.280,1.200,4.712,0.000,0.000,0.411,-8.286,0.989,5.093,4.691,4.731,5.280,4.713,4.715,2.200,6.281,5.083,1.570,0.000,0.000,1.020,-8.042,0.991,5.094,4.703,4.720,
16.860,23.715,0.947,-8.737,2.015,-0.330,1.076,2.498,4.563,1.437,1.828,0.000,4.371,1.880,0.000,3.218,1.822,0.000,2.966,0.000,0.000,0.000,0.000,0.000,0.000,0.000,0.000,0.000,0.000,0.000,3.142,0.002,6.283,1.003,1.570,1.571,4.085,6.281,1.199,4.712,0.000,0.000,0.399,-8.346,0.990,5.155,4.702,4.721,5.281,4.712,4.713,2.199,6.282,5.083,1.570,0.000,0.000,0.991,-8.064,0.991,5.154,4.706,4.718,
16.960,23.815,0.951,-8.746,2.146,0.121,1.284,2.770,0.000,1.560,1.869,0.000,3.766,1.766,0.000,2.868,2.248,0.000,2.826,0.000,0.000,0.000,0.000,0.000,0.000,0.000,0.000,0.000,0.000,0.000,3.142,0.000,6.283,1.004,1.569,1.568,4.083,6.281,1.199,4.712,0.000,0.000,0.355,-8.431,0.990,5.289,4.706,4.716,5.282,4.711,4.711,2.199,6.282,5.083,1.570,0.000,0.000,0.905,-8.074,0.991,5.288,4.708,4.716,
17.060,23.915,0.944,-8.736,2.255,0.103,1.187,2.538,0.000,1.755,2.181,0.000,3.251,1.713,0.000,2.641,2.241,0.000,2.720,0.000,0.000,0.000,0.000,0.000,0.000,0.000,0.000,0.000,0.000,0.000,3.142,0.002,0.000,1.002,1.570,1.570,4.087,6.281,1.199,4.712,0.000,0.000,0.317,-8.487,0.990,5.397,4.704,4.718,5.282,4.712,4.712,2.198,6.282,5.083,1.570,0.000,0.000,0.826,-8.072,0.991,5.396,4.707,4.716,
17.160,24.015,0.940,-8.730,2.329,0.218,1.026,2.706,0.000,1.923,2.481,0.000,2.996,2.095,4.102,2.524,2.253,0.000,2.650,0.000,0.000,0.000,0.000,0.000,0.000,0.000,0.000,0.000,0.000,0.000,3.142,6.282,6.283,1.005,1.568,1.568,4.081,6.281,1.199,4.712,0.000,0.000,0.296,-8.530,0.990,5.473,4.709,4.714,5.282,4.711,4.710,2.198,6.282,5.083,1.570,0.000,0.000,0.771,-8.077,0.991,5.472,4.707,4.716,
17.251,24.106,0.881,-8.670,2.384,1.162,0.191,0.000,4.155,1.892,2.642,0.000,2.916,2.639,4.473,2.390,2.214,0.000,2.580,0.000,0.000,0.000,0.000,0.000,0.000,0.000,0.000,0.000,0.000,0.000,3.142,6.279,6.283,1.007,1.567,1.565,4.078,6.282,1.199,4.712,0.000,0.000,0.226,-8.508,0.990,5.531,4.710,4.712,5.282,4.710,4.708,2.198,6.282,5.083,1.570,0.000,0.000,0.675,-8.029,0.991,5.530,4.708,4.715,
17.360,24.215,0.804,-8.598,2.411,1.385,0.747,0.000,4.068,1.876,2.612,0.000,2.948,3.566,4.129,2.284,2.153,0.000,2.580,0.000,0.000,0.000,0.000,0.000,0.000,0.000,0.000,0.000,0.000,0.000,3.142,0.001,0.000,1.004,1.570,1.572,4.085,6.281,1.199,4.712,0.000,0.000,0.147,-8.449,0.990,5.550,4.706,4.716,5.281,4.712,4.714,2.199,6.281,5.083,1.571,0.000,0.000,0.585,-7.960,0.991,5.550,4.708,4.715,
17.445,24.300,0.698,-8.508,2.533,0.929,1.358,4.452,3.951,1.825,3.359,4.559,2.805,0.000,3.294,2.092,2.136,0.000,2.475,0.000,0.000,0.000,0.000,0.000,0.000,0.000,0.000,0.000,0.000,0.000,3.142,0.003,0.001,1.001,1.572,1.572,4.089,6.281,1.199,4.712,0.000,0.000,0.027,-8.439,0.990,5.672,4.705,4.716,5.281,4.714,4.715,2.198,6.282,5.083,1.571,0.000,0.000,0.403,-7.901,0.991,5.672,4.708,4.714,
17.560,24.415,0.643,-8.471,2.613,0.824,0.730,4.176,1.631,1.802,4.464,4.669,2.269,0.000,2.939,2.013,2.166,0.000,2.404,0.000,0.000,0.000,0.000,0.000,0.000,0.000,0.000,0.000,0.000,0.000,3.142,0.000,0.000,1.004,1.569,1.567,4.085,6.282,1.199,4.712,0.000,0.000,-0.033,-8.459,0.990,5.758,4.707,4.713,5.282,4.712,4.710,2.198,6.283,5.083,1.570,0.000,0.000,0.298,-7.892,0.991,5.757,4.708,4.713,
17.643,24.498,0.547,-8.416,2.627,1.061,6.276,4.036,1.601,1.772,4.254,4.761,2.361,0.000,2.815,1.951,2.119,0.000,2.404,0.000,0.000,0.000,0.000,0.000,0.000,0.000,0.000,0.000,0.000,0.000,3.142,6.281,0.000,1.005,1.569,1.568,4.083,6.281,1.199,4.712,0.000,0.000,-0.127,-8.413,0.990,5.770,4.708,4.714,5.282,4.711,4.710,2.197,6.282,5.083,1.570,0.000,0.000,0.195,-7.842,0.990,5.770,4.707,4.715,
17.760,24.615,0.472,-8.374,2.626,1.107,6.274,3.951,1.600,1.749,3.811,4.808,2.448,0.000,2.754,1.908,2.072,0.000,2.615,0.000,0.000,0.000,0.000,0.000,0.000,0.000,0.000,0.000,0.000,0.000,3.142,6.282,0.000,1.004,1.569,1.569,4.084,6.281,1.199,4.712,0.000,0.000,-0.203,-8.370,0.990,5.769,4.707,4.714,5.281,4.711,4.711,2.197,6.282,5.083,1.570,0.000,0.000,0.120,-7.799,0.990,5.769,4.707,4.715,
17.860,24.715,0.364,-8.313,2.627,0.984,0.047,3.827,3.647,1.267,3.199,4.878,2.571,0.000,2.662,1.846,2.005,0.000,2.615,0.000,0.000,0.000,0.000,0.000,0.000,0.000,0.000,0.000,0.000,0.000,3.142,0.000,0.000,1.003,1.570,1.570,4.086,6.281,1.199,4.712,0.000,0.000,-0.311,-8.308,0.990,5.768,4.706,4.715,5.281,4.712,4.712,2.199,6.282,5.083,1.570,0.000,0.000,0.012,-7.737,0.990,5.768,4.708,4.714,
17.960,24.815,0.298,-8.275,2.652,0.962,0.790,3.821,3.593,1.087,3.280,4.982,2.611,0.000,2.540,1.800,1.986,0.000,2.615,0.000,0.000,0.000,0.000,0.000,0.000,0.000,0.000,0.000,0.000,0.000,3.142,0.001,0.000,1.003,1.571,1.572,4.086,6.281,1.199,4.712,0.000,0.000,-0.376,-8.286,0.990,5.790,4.707,4.715,5.281,4.712,4.714,2.199,6.281,5.083,1.571,0.000,0.000,-0.067,-7.708,0.991,5.790,4.709,4.714,
18.060,24.915,0.192,-8.224,2.771,1.028,0.997,4.847,1.346,1.163,0.000,4.944,2.585,0.000,1.645,1.726,1.711,0.000,2.510,0.000,0.000,0.000,0.000,0.000,0.000,0.000,0.000,0.000,0.000,0.000,3.142,0.000,0.000,1.004,1.569,1.568,4.084,6.282,1.199,4.712,0.000,0.000,-0.476,-8.318,0.990,5.915,4.708,4.713,5.282,4.712,4.711,2.198,6.283,5.083,1.570,0.000,0.000,-0.239,-7.706,0.991,5.914,4.709,4.713,
18.160,25.015,0.096,-8.188,2.801,1.039,6.253,0.000,3.250,0.957,0.000,4.907,2.819,0.000,2.117,1.688,1.702,0.000,2.510,0.000,0.000,0.000,0.000,0.000,0.000,0.000,0.000,0.000,0.000,0.000,3.142,6.282,0.000,1.004,1.569,1.567,4.085,6.281,1.199,4.712,0.000,0.000,-0.569,-8.302,0.990,5.945,4.707,4.713,5.281,4.711,4.710,2.198,6.282,5.083,1.570,0.000,0.000,-0.350,-7.684,0.990,5.945,4.707,4.713,
18.260,25.115,0.002,-8.154,2.800,1.000,6.273,0.000,3.046,0.938,0.000,0.000,2.917,0.000,2.076,1.655,1.661,0.000,2.545,0.000,0.000,0.000,0.000,0.000,0.000,0.000,0.000,0.000,0.000,0.000,3.142,6.282,0.000,1.004,1.569,1.569,4.085,6.281,1.199,4.712,0.000,0.000,-0.664,-8.268,0.990,5.943,4.707,4.713,5.281,4.711,4.711,2.197,6.282,5.083,1.570,0.000,0.000,-0.445,-7.649,0.990,5.943,4.707,4.714,
18.360,25.215,-0.072,-8.128,2.800,0.994,6.273,0.000,3.072,0.924,0.000,0.000,2.994,0.000,2.043,1.629,3.953,0.000,2.545,0.000,0.000,0.000,0.000,0.000,0.000,0.000,0.000,0.000,0.000,0.000,3.142,6.282,0.000,1.004,1.569,1.569,4.084,6.281,1.199,4.712,0.000,0.000,-0.737,-8.241,0.990,5.943,4.707,4.713,5.281,4.711,4.711,2.197,6.282,5.083,1.570,0.000,0.000,-0.518,-7.623,0.990,5.943,4.707,4.714,
18.460,25.315,-0.184,-8.089,2.800,1.018,6.271,0.000,3.007,0.902,2.104,0.000,3.111,0.000,1.993,1.589,3.904,0.000,2.580,0.000,0.000,0.000,0.000,0.000,0.000,0.000,0.000,0.000,0.000,0.000,3.142,6.282,0.000,1.004,1.569,1.569,4.084,6.281,1.199,4.712,0.000,0.000,-0.849,-8.202,0.990,5.943,4.708,4.713,5.281,4.711,4.711,2.197,6.282,5.083,1.570,0.000,0.000,-0.630,-7.583,0.990,5.943,4.707,4.713,
18.560,25.415,-0.279,-8.055,2.795,1.019,5.986,0.000,3.168,0.885,2.032,0.000,3.166,0.000,1.959,1.555,3.849,0.000,2.615,0.000,0.000,0.000,0.000,0.000,0.000,0.000,0.000,0.000,0.000,0.000,3.142,6.281,0.001,1.004,1.568,1.567,4.084,6.281,1.199,4.712,0.000,0.000,-0.945,-8.166,0.990,5.940,4.708,4.713,5.281,4.710,4.709,2.197,6.282,5.083,1.570,0.000,0.000,-0.723,-7.548,0.990,5.939,4.707,4.713,
18.660,25.515,-0.372,-8.020,2.726,1.010,5.054,3.927,2.959,0.877,0.958,0.000,3.250,0.000,2.026,1.526,3.838,0.000,2.720,0.000,0.000,0.000,0.000,0.000,0.000,0.000,0.000,0.000,0.000,0.000,3.142,6.280,0.001,1.005,1.568,1.565,4.084,6.281,1.199,4.711,0.000,0.000,-1.045,-8.086,0.990,5.873,4.707,4.713,5.282,4.710,4.708,2.197,6.282,5.083,1.570,0.000,0.000,-0.781,-7.485,0.990,5.872,4.707,4.713,
18.752,25.607,-0.462,-7.978,2.606,1.006,4.950,2.985,2.806,0.894,0.903,0.000,4.026,0.000,2.221,1.512,1.293,0.000,2.861,0.000,0.000,0.000,0.000,0.000,0.000,0.000,0.000,0.000,0.000,0.000,3.142,6.280,0.001,1.004,1.568,1.567,4.085,6.281,1.199,4.712,0.000,0.000,-1.137,-7.961,0.990,5.750,4.707,4.714,5.282,4.711,4.710,2.197,6.282,5.083,1.570,0.000,0.000,-0.802,-7.396,0.991,5.749,4.708,4.714,
18.860,25.715,-0.530,-7.937,2.533,1.009,5.674,2.975,0.000,3.158,0.885,0.000,4.302,0.000,2.358,1.497,1.211,0.000,2.931,0.000,0.000,0.000,0.000,0.000,0.000,0.000,0.000,0.000,0.000,0.000,3.142,6.281,0.000,1.004,1.570,1.570,4.085,6.280,1.199,4.712,0.000,0.000,-1.201,-7.869,0.990,5.673,4.706,4.715,5.282,4.712,4.712,2.198,6.281,5.083,1.571,0.000,0.000,-0.826,-7.330,0.991,5.673,4.708,4.715,
18.948,25.803,-0.627,-7.868,2.523,1.015,6.268,2.877,0.000,3.009,0.894,0.000,4.453,0.000,2.276,1.429,0.000,0.000,3.001,0.000,0.000,0.000,0.000,0.000,0.000,0.000,0.000,0.000,0.000,0.000,3.142,6.283,0.000,1.003,1.569,1.569,4.085,6.281,1.199,4.712,0.000,0.000,-1.298,-7.794,0.990,5.665,4.706,4.715,5.281,4.711,4.711,2.198,6.282,5.083,1.570,0.000,0.000,-0.918,-7.259,0.990,5.665,4.707,4.715,
19.060,25.915,-0.692,-7.821,2.524,1.012,6.267,2.797,0.000,2.928,0.902,0.000,4.530,0.000,2.196,1.380,0.000,0.000,3.001,0.000,0.000,0.000,0.000,0.000,0.000,0.000,0.000,0.000,0.000,0.000,3.142,6.283,0.000,1.003,1.569,1.569,4.085,6.281,1.199,4.712,0.000,0.000,-1.363,-7.748,0.990,5.665,4.706,4.715,5.281,4.711,4.711,2.198,6.282,5.083,1.570,0.000,0.000,-0.983,-7.213,0.990,5.665,4.707,4.715,
19.151,26.006,-0.790,-7.752,2.525,1.010,6.259,2.677,0.000,2.807,0.914,0.000,4.646,0.000,2.078,1.308,0.000,0.000,3.036,0.000,0.000,0.000,0.000,0.000,0.000,0.000,0.000,0.000,0.000,0.000,3.142,6.283,0.000,1.003,1.569,1.569,4.085,6.281,1.199,4.712,0.000,0.000,-1.460,-7.680,0.990,5.666,4.706,4.715,5.281,4.711,4.711,2.198,6.282,5.083,1.570,0.000,0.000,-1.081,-7.145,0.990,5.667,4.707,4.715,
19.260,26.115,-0.855,-7.707,2.525,1.011,6.260,2.597,0.000,2.726,0.921,0.000,4.723,0.000,2.000,1.260,0.000,0.000,3.036,0.000,0.000,0.000,0.000,0.000,0.000,0.000,0.000,0.000,0.000,0.000,3.142,6.283,0.000,1.003,1.569,1.569,4.085,6.281,1.199,4.712,0.000,0.000,-1.525,-7.634,0.990,5.667,4.706,4.715,5.281,4.711,4.711,2.198,6.282,5.083,1.570,0.000,0.000,-1.146,-7.099,0.990,5.667,4.707,4.715,
19.357,26.212,-0.952,-7.638,2.526,1.013,6.261,2.477,0.000,2.604,1.316,1.423,4.839,0.000,1.883,0.876,0.000,0.000,3.071,0.000,0.000,0.000,0.000,0.000,0.000,0.000,0.000,0.000,0.000,0.000,3.142,6.283,0.000,1.004,1.569,1.569,4.085,6.281,1.199,4.712,0.000,0.000,-1.623,-7.566,0.990,5.668,4.706,4.715,5.281,4.711,4.711,2.198,6.282,5.083,1.570,0.000,0.000,-1.245,-7.030,0.990,5.668,4.707,4.715,
19.460,26.315,-1.034,-7.580,2.527,1.012,6.262,2.378,0.000,2.502,1.637,1.438,4.937,0.000,1.787,0.816,0.000,0.000,3.106,0.000,0.000,0.000,0.000,0.000,0.000,0.000,0.000,0.000,0.000,0.000,3.142,6.283,0.000,1.004,1.569,1.569,4.085,6.281,1.199,4.712,0.000,0.000,-1.704,-7.509,0.990,5.669,4.706,4.715,5.281,4.711,4.711,2.198,6.282,5.083,1.570,0.000,0.000,-1.326,-6.973,0.990,5.669,4.707,4.715,
19.560,26.415,-1.115,-7.523,2.528,1.011,6.263,2.278,0.000,2.400,1.696,1.453,0.000,0.000,1.691,0.756,0.000,0.000,3.142,0.000,0.000,0.000,0.000,0.000,0.000,0.000,0.000,0.000,0.000,0.000,3.142,6.282,0.000,1.004,1.569,1.569,4.085,6.281,1.199,4.712,0.000,0.000,-1.786,-7.452,0.990,5.670,4.707,4.715,5.281,4.711,4.711,2.198,6.282,5.083,1.570,0.000,0.000,-1.408,-6.916,0.990,5.670,4.707,4.715,
19.660,26.515,-1.196,-7.466,2.528,1.012,6.263,2.179,0.000,2.477,1.756,1.469,0.000,0.000,0.871,0.701,3.427,0.000,3.142,0.000,0.000,0.000,0.000,0.000,0.000,0.000,0.000,0.000,0.000,0.000,3.142,6.282,0.000,1.004,1.569,1.569,4.085,6.281,1.199,4.712,0.000,0.000,-1.867,-7.395,0.990,5.670,4.707,4.715,5.281,4.711,4.711,2.198,6.282,5.083,1.570,0.000,0.000,-1.490,-6.859,0.990,5.670,4.707,4.715,
19.760,26.615,-1.260,-7.421,2.523,0.948,5.986,2.110,0.000,2.565,1.804,1.470,0.000,0.000,1.531,0.908,3.286,0.000,3.142,0.000,0.000,0.000,0.000,0.000,0.000,0.000,0.000,0.000,0.000,0.000,3.142,6.282,0.001,1.004,1.568,1.567,4.085,6.281,1.199,4.712,0.000,0.000,-1.931,-7.349,0.990,5.667,4.706,4.715,5.281,4.710,4.710,2.197,6.282,5.083,1.570,0.000,0.000,-1.551,-6.814,0.990,5.667,4.706,4.715,
19.860,26.715,-1.345,-7.358,2.432,0.881,4.932,2.148,4.863,2.265,3.794,1.347,0.000,0.000,1.630,0.929,0.000,0.000,3.142,0.000,0.000,0.000,0.000,0.000,0.000,0.000,0.000,0.000,0.000,0.000,3.142,6.280,0.001,1.004,1.568,1.565,4.085,6.281,1.199,4.711,0.000,0.000,-2.008,-7.226,0.990,5.578,4.706,4.715,5.282,4.710,4.709,2.197,6.282,5.083,1.570,0.000,0.000,-1.581,-6.727,0.991,5.577,4.706,4.715,
19.942,26.797,-1.411,-7.299,2.310,0.925,5.019,2.314,4.264,2.042,3.381,1.445,0.000,0.000,0.992,0.853,4.249,0.000,3.142,0.000,0.000,0.000,0.000,0.000,0.000,0.000,0.000,0.000,0.000,0.000,3.142,6.280,0.000,1.004,1.569,1.568,4.085,6.281,1.199,4.712,0.000,0.000,-2.051,-7.086,0.990,5.454,4.705,4.716,5.282,4.711,4.710,2.197,6.282,5.083,1.570,0.000,0.000,-1.567,-6.643,0.991,5.453,4.707,4.715,
20.060,26.915,-1.460,-7.243,2.234,0.951,5.344,2.448,2.863,2.350,2.872,1.733,0.000,0.000,1.013,0.841,3.817,0.000,3.142,0.000,0.000,0.000,0.000,0.000,0.000,0.000,0.000,0.000,0.000,0.000,3.142,6.281,0.001,1.004,1.569,1.568,4.085,6.281,1.199,4.712,0.000,0.000,-2.082,-6.982,0.990,5.376,4.705,4.717,5.282,4.711,4.711,2.198,6.282,5.083,1.570,0.000,0.000,-1.565,-6.577,0.991,5.376,4.706,4.717,
20.160,27.015,-1.527,-7.154,2.143,0.930,5.393,2.648,1.680,4.815,2.415,2.004,0.000,0.000,1.053,0.849,3.889,0.000,3.142,0.000,0.000,0.000,0.000,0.000,0.000,0.000,0.000,0.000,0.000,0.000,3.142,6.281,0.001,1.004,1.569,1.567,4.085,6.281,1.199,4.712,0.000,0.000,-2.123,-6.837,0.990,5.287,4.703,4.719,5.282,4.711,4.710,2.197,6.282,5.083,1.570,0.000,0.000,-1.571,-6.481,0.990,5.286,4.704,4.718,
20.260,27.115,-1.574,-7.077,2.058,0.912,5.245,2.487,1.572,0.000,2.607,2.093,2.031,4.705,1.081,0.839,4.316,0.000,1.457,0.000,0.000,0.000,0.000,0.000,0.000,0.000,0.000,0.000,0.000,0.000,3.142,6.280,0.001,1.004,1.568,1.567,4.085,6.281,1.199,4.712,0.000,0.000,-2.142,-6.711,0.990,5.202,4.702,4.720,5.282,4.711,4.710,2.197,6.282,5.083,1.570,0.000,0.000,-1.562,-6.403,0.991,5.201,4.703,4.720,
20.360,27.215,-1.607,-7.013,1.984,0.921,5.237,2.326,1.594,0.000,2.257,2.181,1.887,4.865,1.103,0.825,3.383,0.000,1.562,0.000,0.000,0.000,0.000,0.000,0.000,0.000,0.000,0.000,0.000,0.000,3.142,6.280,0.001,1.004,1.568,1.567,4.085,6.281,1.199,4.712,0.000,0.000,-2.146,-6.606,0.990,5.128,4.701,4.722,5.282,4.711,4.710,2.197,6.282,5.083,1.570,0.000,0.000,-1.545,-6.342,0.991,5.127,4.702,4.721,
20.452,27.307,-1.648,-6.911,1.877,0.935,5.302,2.203,1.655,4.552,2.010,4.163,1.756,0.000,1.138,0.807,3.371,0.000,1.667,0.000,0.000,0.000,0.000,0.000,0.000,0.000,0.000,0.000,0.000,0.000,3.142,6.281,0.001,1.004,1.569,1.567,4.085,6.281,1.199,4.712,0.000,0.000,-2.140,-6.449,0.990,5.021,4.697,4.726,5.282,4.711,4.710,2.197,6.282,5.083,1.570,0.000,0.000,-1.515,-6.251,0.991,5.020,4.698,4.725,
20.560,27.415,-1.670,-6.841,1.809,0.929,5.307,2.691,1.716,0.000,2.296,3.790,1.950,0.000,1.162,0.795,3.183,0.000,1.773,0.000,0.000,0.000,0.000,0.000,0.000,0.000,0.000,0.000,0.000,0.000,3.142,6.281,0.001,1.004,1.568,1.567,4.085,6.281,1.199,4.712,0.000,0.000,-2.129,-6.346,0.990,4.952,4.692,4.731,5.282,4.711,4.710,2.197,6.282,5.083,1.570,0.000,0.000,-1.491,-6.191,0.991,4.952,4.694,4.730,
20.660,27.515,-1.682,-6.788,1.723,-0.083,5.650,4.713,1.834,1.436,4.558,3.063,2.212,0.000,0.000,0.771,2.583,0.000,1.843,0.000,0.000,0.000,0.000,0.000,0.000,0.000,0.000,0.000,0.000,0.000,3.142,0.002,0.001,0.999,1.570,1.572,4.093,6.280,1.200,4.712,0.000,0.000,-2.095,-6.253,0.989,4.860,4.655,4.768,5.280,4.712,4.714,2.198,6.281,5.083,1.570,0.000,0.000,-1.446,-6.156,0.990,4.861,4.674,4.750,
20.760,27.615,-1.679,-6.816,1.649,-0.365,5.197,3.948,1.987,1.504,0.000,2.664,2.348,0.000,0.000,0.741,0.000,0.000,1.913,0.000,0.000,0.000,0.000,0.000,0.000,0.000,0.000,0.000,0.000,0.000,3.142,6.281,0.000,1.003,1.569,1.568,4.085,6.281,1.199,4.712,0.000,0.000,-2.053,-6.255,0.990,4.792,4.657,4.766,5.281,4.711,4.711,2.198,6.282,5.083,1.570,0.000,0.000,-1.399,-6.204,0.990,4.791,4.657,4.767,
20.860,27.715,-1.678,-6.834,1.542,0.006,5.084,3.406,2.272,1.392,0.000,2.671,2.324,0.000,0.000,0.712,4.977,0.000,2.018,0.000,0.000,0.000,0.000,0.000,0.000,0.000,0.000,0.000,0.000,0.000,3.142,6.279,0.000,1.006,1.568,1.567,4.082,6.281,1.199,4.712,0.000,0.000,-1.991,-6.237,0.990,4.738,1.685,1.455,5.282,4.711,4.710,2.197,6.282,5.083,1.571,0.000,0.000,-1.335,-6.254,0.991,4.739,1.709,1.432,
20.943,27.798,-1.678,-6.825,1.438,0.126,5.113,4.289,2.214,1.450,0.000,2.360,2.353,2.390,0.000,0.693,1.660,0.000,2.124,0.000,0.000,0.000,0.000,0.000,0.000,0.000,0.000,0.000,0.000,0.000,3.142,6.280,0.001,1.004,1.569,1.568,4.085,6.281,1.199,4.712,0.000,0.000,-1.927,-6.198,0.990,4.843,1.608,1.533,5.282,4.711,4.711,2.197,6.282,5.083,1.570,0.000,0.000,-1.276,-6.284,0.991,4.844,1.602,1.539,
21.060,27.915,-1.677,-6.819,1.361,0.048,5.254,3.562,2.121,1.507,0.000,2.180,4.173,2.137,4.921,0.684,0.927,0.000,2.229,0.000,0.000,0.000,0.000,0.000,0.000,0.000,0.000,0.000,0.000,0.000,3.142,6.281,0.001,1.003,1.569,1.569,4.086,6.281,1.199,4.712,0.000,0.000,-1.876,-6.174,0.990,4.922,1.596,1.545,5.281,4.712,4.712,2.198,6.282,5.083,1.570,0.000,0.000,-1.234,-6.310,0.991,4.923,1.591,1.550,
21.151,28.006,-1.676,-6.817,1.332,0.000,6.276,3.197,2.090,1.533,0.000,2.121,4.203,2.057,0.000,0.682,0.902,0.000,2.229,0.000,0.000,0.000,0.000,0.000,0.000,0.000,0.000,0.000,0.000,0.000,3.142,6.283,0.000,1.003,1.570,1.570,4.085,6.281,1.199,4.712,0.000,0.000,-1.856,-6.166,0.990,4.952,1.592,1.549,5.281,4.711,4.712,2.198,6.282,5.083,1.570,0.000,0.000,-1.219,-6.322,0.990,4.952,1.589,1.552,
21.260,28.115,-1.676,-6.817,1.332,0.000,6.274,3.197,2.090,1.533,0.000,2.121,4.203,2.057,0.000,0.682,0.902,0.000,2.229,0.000,0.000,0.000,0.000,0.000,0.000,0.000,0.000,0.000,0.000,0.000,3.142,6.283,0.000,1.003,1.569,1.569,4.085,6.281,1.199,4.712,0.000,0.000,-1.856,-6.166,0.990,4.952,1.592,1.549,5.281,4.711,4.711,2.198,6.282,5.083,1.570,0.000,0.000,-1.219,-6.322,0.990,4.952,1.589,1.553,
21.350,28.205,-1.676,-6.817,1.332,0.000,6.274,3.197,2.090,1.533,0.000,2.121,4.203,2.057,0.000,0.682,0.902,0.000,2.229,0.000,0.000,0.000,0.000,0.000,0.000,0.000,0.000,0.000,0.000,0.000,3.142,6.283,0.000,1.003,1.569,1.569,4.085,6.281,1.199,4.712,0.000,0.000,-1.856,-6.166,0.990,4.952,1.592,1.549,5.281,4.711,4.711,2.198,6.282,5.083,1.570,0.000,0.000,-1.219,-6.322,0.990,4.952,1.589,1.553,
21.460,28.315,-1.676,-6.817,1.332,0.000,6.274,3.197,2.090,1.533,0.000,2.121,4.203,2.057,0.000,0.682,0.902,0.000,2.229,0.000,0.000,0.000,0.000,0.000,0.000,0.000,0.000,0.000,0.000,0.000,3.142,6.283,0.000,1.003,1.569,1.569,4.085,6.281,1.199,4.712,0.000,0.000,-1.856,-6.166,0.990,4.952,1.592,1.549,5.281,4.711,4.711,2.198,6.282,5.083,1.570,0.000,0.000,-1.219,-6.322,0.990,4.952,1.589,1.553,
21.552,28.407,-1.676,-6.817,1.332,0.000,6.274,3.197,2.090,1.533,0.000,2.121,4.203,2.057,0.000,0.682,0.902,0.000,2.229,0.000,0.000,0.000,0.000,0.000,0.000,0.000,0.000,0.000,0.000,0.000,3.142,6.283,0.000,1.003,1.569,1.569,4.085,6.281,1.199,4.712,0.000,0.000,-1.856,-6.166,0.990,4.952,1.592,1.549,5.281,4.711,4.711,2.198,6.282,5.083,1.570,0.000,0.000,-1.219,-6.322,0.990,4.952,1.589,1.553,
21.660,28.515,-1.676,-6.817,1.332,0.000,6.274,3.197,2.090,1.533,0.000,2.121,4.203,2.057,0.000,0.682,0.902,0.000,2.229,0.000,0.000,0.000,0.000,0.000,0.000,0.000,0.000,0.000,0.000,0.000,3.142,6.283,0.000,1.003,1.569,1.569,4.085,6.281,1.199,4.712,0.000,0.000,-1.856,-6.166,0.990,4.952,1.592,1.549,5.281,4.711,4.711,2.198,6.282,5.083,1.570,0.000,0.000,-1.219,-6.322,0.990,4.952,1.589,1.553,
21.755,28.610,-1.676,-6.817,1.332,0.000,6.274,3.197,2.090,1.533,0.000,2.121,4.203,2.057,0.000,0.682,0.902,0.000,2.229,0.000,0.000,0.000,0.000,0.000,0.000,0.000,0.000,0.000,0.000,0.000,3.142,6.283,0.000,1.003,1.569,1.569,4.085,6.281,1.199,4.712,0.000,0.000,-1.856,-6.166,0.990,4.952,1.592,1.549,5.281,4.711,4.711,2.198,6.282,5.083,1.570,0.000,0.000,-1.219,-6.322,0.990,4.952,1.589,1.553,
21.860,28.715,-1.676,-6.817,1.332,0.000,6.274,3.197,2.090,1.533,0.000,2.121,4.203,2.057,0.000,0.682,0.902,0.000,2.229,0.000,0.000,0.000,0.000,0.000,0.000,0.000,0.000,0.000,0.000,0.000,3.142,6.283,0.000,1.003,1.569,1.569,4.085,6.281,1.199,4.712,0.000,0.000,-1.856,-6.166,0.990,4.952,1.592,1.549,5.281,4.711,4.711,2.198,6.282,5.083,1.570,0.000,0.000,-1.219,-6.322,0.990,4.952,1.589,1.553,
21.960,28.815,-1.676,-6.817,1.332,0.000,6.274,3.197,2.090,1.533,0.000,2.121,4.203,2.057,0.000,0.682,0.902,0.000,2.229,0.000,0.000,0.000,0.000,0.000,0.000,0.000,0.000,0.000,0.000,0.000,3.142,6.283,0.000,1.003,1.569,1.569,4.085,6.281,1.199,4.712,0.000,0.000,-1.856,-6.166,0.990,4.952,1.592,1.549,5.281,4.711,4.711,2.198,6.282,5.083,1.570,0.000,0.000,-1.219,-6.322,0.990,4.952,1.589,1.553,
22.040,28.895,-1.676,-6.817,1.332,0.000,6.274,3.197,2.090,1.533,0.000,2.121,4.203,2.057,0.000,0.682,0.902,0.000,2.229,0.000,0.000,0.000,0.000,0.000,0.000,0.000,0.000,0.000,0.000,0.000,3.142,6.283,0.000,1.003,1.569,1.569,4.085,6.281,1.199,4.712,0.000,0.000,-1.856,-6.166,0.990,4.952,1.592,1.549,5.281,4.711,4.711,2.198,6.282,5.083,1.570,0.000,0.000,-1.219,-6.322,0.990,4.952,1.589,1.553,
22.160,29.015,-1.676,-6.817,1.332,0.000,6.274,3.197,2.090,1.533,0.000,2.121,4.203,2.057,0.000,0.682,0.902,0.000,2.229,0.000,0.000,0.000,0.000,0.000,0.000,0.000,0.000,0.000,0.000,0.000,3.142,6.283,0.000,1.003,1.569,1.569,4.085,6.281,1.199,4.712,0.000,0.000,-1.856,-6.166,0.990,4.952,1.592,1.549,5.281,4.711,4.711,2.198,6.282,5.083,1.570,0.000,0.000,-1.219,-6.322,0.990,4.952,1.589,1.553,
22.242,29.097,-1.676,-6.817,1.332,0.000,6.274,3.197,2.090,1.533,0.000,2.121,4.203,2.057,0.000,0.682,0.902,0.000,2.229,0.000,0.000,0.000,0.000,0.000,0.000,0.000,0.000,0.000,0.000,0.000,3.142,6.283,0.000,1.003,1.569,1.569,4.085,6.281,1.199,4.712,0.000,0.000,-1.856,-6.166,0.990,4.952,1.592,1.549,5.281,4.711,4.711,2.198,6.282,5.083,1.570,0.000,0.000,-1.219,-6.322,0.990,4.952,1.589,1.553,
22.360,29.215,-1.676,-6.817,1.332,0.000,6.274,3.197,2.090,1.533,0.000,2.121,4.203,2.057,0.000,0.682,0.902,0.000,2.229,0.000,0.000,0.000,0.000,0.000,0.000,0.000,0.000,0.000,0.000,0.000,3.142,6.283,0.000,1.003,1.569,1.569,4.085,6.281,1.199,4.712,0.000,0.000,-1.856,-6.166,0.990,4.952,1.592,1.549,5.281,4.711,4.711,2.198,6.282,5.083,1.570,0.000,0.000,-1.219,-6.322,0.990,4.952,1.589,1.553,
22.446,29.301,-1.676,-6.817,1.332,0.000,6.274,3.197,2.090,1.533,0.000,2.121,4.203,2.057,0.000,0.682,0.902,0.000,2.229,0.000,0.000,0.000,0.000,0.000,0.000,0.000,0.000,0.000,0.000,0.000,3.142,6.283,0.000,1.003,1.569,1.569,4.085,6.281,1.199,4.712,0.000,0.000,-1.856,-6.166,0.990,4.952,1.592,1.549,5.281,4.711,4.711,2.198,6.282,5.083,1.570,0.000,0.000,-1.219,-6.322,0.990,4.952,1.589,1.553,
22.560,29.415,-1.676,-6.817,1.332,0.000,6.274,3.197,2.090,1.533,0.000,2.121,4.203,2.057,0.000,0.682,0.902,0.000,2.229,0.000,0.000,0.000,0.000,0.000,0.000,0.000,0.000,0.000,0.000,0.000,3.142,6.283,0.000,1.003,1.569,1.569,4.085,6.281,1.199,4.712,0.000,0.000,-1.856,-6.166,0.990,4.952,1.592,1.549,5.281,4.711,4.711,2.198,6.282,5.083,1.570,0.000,0.000,-1.219,-6.322,0.990,4.952,1.589,1.553,
22.642,29.497,-1.676,-6.817,1.332,0.000,6.274,3.197,2.090,1.533,0.000,2.121,4.203,2.057,0.000,0.682,0.902,0.000,2.229,0.000,0.000,0.000,0.000,0.000,0.000,0.000,0.000,0.000,0.000,0.000,3.142,6.283,0.000,1.003,1.569,1.569,4.085,6.281,1.199,4.712,0.000,0.000,-1.856,-6.166,0.990,4.952,1.592,1.549,5.281,4.711,4.711,2.198,6.282,5.083,1.570,0.000,0.000,-1.219,-6.322,0.990,4.952,1.589,1.553,
22.760,29.615,-1.676,-6.817,1.332,0.000,6.274,3.197,2.090,1.533,0.000,2.121,4.203,2.057,0.000,0.682,0.902,0.000,2.229,0.000,0.000,0.000,0.000,0.000,0.000,0.000,0.000,0.000,0.000,0.000,3.142,6.283,0.000,1.003,1.569,1.569,4.085,6.281,1.199,4.712,0.000,0.000,-1.856,-6.166,0.990,4.952,1.592,1.549,5.281,4.711,4.711,2.198,6.282,5.083,1.570,0.000,0.000,-1.219,-6.322,0.990,4.952,1.589,1.553,
22.860,29.715,-1.676,-6.817,1.332,0.000,6.274,3.197,2.090,1.533,0.000,2.121,4.203,2.057,0.000,0.682,0.902,0.000,2.229,0.000,0.000,0.000,0.000,0.000,0.000,0.000,0.000,0.000,0.000,0.000,3.142,6.283,0.000,1.003,1.569,1.569,4.085,6.281,1.199,4.712,0.000,0.000,-1.856,-6.166,0.990,4.952,1.592,1.549,5.281,4.711,4.711,2.198,6.282,5.083,1.570,0.000,0.000,-1.219,-6.322,0.990,4.952,1.589,1.553,
22.960,29.815,-1.676,-6.817,1.332,0.000,6.274,3.197,2.090,1.533,0.000,2.121,4.203,2.057,0.000,0.682,0.902,0.000,2.229,0.000,0.000,0.000,0.000,0.000,0.000,0.000,0.000,0.000,0.000,0.000,3.142,6.283,0.000,1.003,1.569,1.569,4.085,6.281,1.199,4.712,0.000,0.000,-1.856,-6.166,0.990,4.952,1.592,1.549,5.281,4.711,4.711,2.198,6.282,5.083,1.570,0.000,0.000,-1.219,-6.322,0.990,4.952,1.589,1.553,
23.060,29.915,-1.676,-6.817,1.332,0.000,6.274,3.197,2.090,1.533,0.000,2.121,4.203,2.057,0.000,0.682,0.902,0.000,2.229,0.000,0.000,0.000,0.000,0.000,0.000,0.000,0.000,0.000,0.000,0.000,3.142,6.283,0.000,1.003,1.569,1.569,4.085,6.281,1.199,4.712,0.000,0.000,-1.856,-6.166,0.990,4.952,1.592,1.549,5.281,4.711,4.711,2.198,6.282,5.083,1.570,0.000,0.000,-1.219,-6.322,0.990,4.952,1.589,1.553,
23.145,29.999,-1.676,-6.817,1.332,0.000,6.274,3.197,2.090,1.533,0.000,2.121,4.203,2.057,0.000,0.682,0.902,0.000,2.229,0.000,0.000,0.000,0.000,0.000,0.000,0.000,0.000,0.000,0.000,0.000,3.142,6.283,0.000,1.003,1.569,1.569,4.085,6.281,1.199,4.712,0.000,0.000,-1.856,-6.166,0.990,4.952,1.592,1.549,5.281,4.711,4.711,2.198,6.282,5.083,1.570,0.000,0.000,-1.219,-6.322,0.990,4.952,1.589,1.553,
23.260,30.115,-1.676,-6.817,1.332,0.000,6.274,3.197,2.090,1.533,0.000,2.121,4.203,2.057,0.000,0.682,0.902,0.000,2.229,0.000,0.000,0.000,0.000,0.000,0.000,0.000,0.000,0.000,0.000,0.000,3.142,6.283,0.000,1.003,1.569,1.569,4.085,6.281,1.199,4.712,0.000,0.000,-1.856,-6.166,0.990,4.952,1.592,1.549,5.281,4.711,4.711,2.198,6.282,5.083,1.570,0.000,0.000,-1.219,-6.322,0.990,4.952,1.589,1.553,
23.352,30.207,-1.676,-6.817,1.332,0.000,6.274,3.197,2.090,1.533,0.000,2.121,4.203,2.057,0.000,0.682,0.902,0.000,2.229,0.000,0.000,0.000,0.000,0.000,0.000,0.000,0.000,0.000,0.000,0.000,3.142,6.283,0.000,1.003,1.569,1.569,4.085,6.281,1.199,4.712,0.000,0.000,-1.856,-6.166,0.990,4.952,1.592,1.549,5.281,4.711,4.711,2.198,6.282,5.083,1.570,0.000,0.000,-1.219,-6.322,0.990,4.952,1.589,1.553,
23.460,30.315,-1.676,-6.817,1.332,0.000,6.274,3.197,2.090,1.533,0.000,2.121,4.203,2.057,0.000,0.682,0.902,0.000,2.229,0.000,0.000,0.000,0.000,0.000,0.000,0.000,0.000,0.000,0.000,0.000,3.142,6.283,0.000,1.003,1.569,1.569,4.085,6.281,1.199,4.712,0.000,0.000,-1.856,-6.166,0.990,4.952,1.592,1.549,5.281,4.711,4.711,2.198,6.282,5.083,1.570,0.000,0.000,-1.219,-6.322,0.990,4.952,1.589,1.553,
23.560,30.415,-1.676,-6.817,1.332,0.000,6.274,3.197,2.090,1.533,0.000,2.121,4.203,2.057,0.000,0.682,0.902,0.000,2.229,0.000,0.000,0.000,0.000,0.000,0.000,0.000,0.000,0.000,0.000,0.000,3.142,6.283,0.000,1.003,1.569,1.569,4.085,6.281,1.199,4.712,0.000,0.000,-1.856,-6.166,0.990,4.952,1.592,1.549,5.281,4.711,4.711,2.198,6.282,5.083,1.570,0.000,0.000,-1.219,-6.322,0.990,4.952,1.589,1.553,
23.660,30.515,-1.676,-6.817,1.332,0.000,6.274,3.197,2.090,1.533,0.000,2.121,4.203,2.057,0.000,0.682,0.902,0.000,2.229,0.000,0.000,0.000,0.000,0.000,0.000,0.000,0.000,0.000,0.000,0.000,3.142,6.283,0.000,1.003,1.569,1.569,4.085,6.281,1.199,4.712,0.000,0.000,-1.856,-6.166,0.990,4.952,1.592,1.549,5.281,4.711,4.711,2.198,6.282,5.083,1.570,0.000,0.000,-1.219,-6.322,0.990,4.952,1.589,1.553,
23.760,30.615,-1.676,-6.817,1.332,0.000,6.274,3.197,2.090,1.533,0.000,2.121,4.203,2.057,0.000,0.682,0.902,0.000,2.229,0.000,0.000,0.000,0.000,0.000,0.000,0.000,0.000,0.000,0.000,0.000,3.142,6.283,0.000,1.003,1.569,1.569,4.085,6.281,1.199,4.712,0.000,0.000,-1.856,-6.166,0.990,4.952,1.592,1.549,5.281,4.711,4.711,2.198,6.282,5.083,1.570,0.000,0.000,-1.219,-6.322,0.990,4.952,1.589,1.553,
23.860,30.715,-1.676,-6.817,1.332,0.000,6.274,3.197,2.090,1.533,0.000,2.121,4.203,2.057,0.000,0.682,0.902,0.000,2.229,0.000,0.000,0.000,0.000,0.000,0.000,0.000,0.000,0.000,0.000,0.000,3.142,6.283,0.000,1.003,1.569,1.569,4.085,6.281,1.199,4.712,0.000,0.000,-1.856,-6.166,0.990,4.952,1.592,1.549,5.281,4.711,4.711,2.198,6.282,5.083,1.570,0.000,0.000,-1.219,-6.322,0.990,4.952,1.589,1.553,
23.943,30.798,-1.676,-6.817,1.332,0.000,6.274,3.197,2.090,1.533,0.000,2.121,4.203,2.057,0.000,0.682,0.902,0.000,2.229,0.000,0.000,0.000,0.000,0.000,0.000,0.000,0.000,0.000,0.000,0.000,3.142,6.283,0.000,1.003,1.569,1.569,4.085,6.281,1.199,4.712,0.000,0.000,-1.856,-6.166,0.990,4.952,1.592,1.549,5.281,4.711,4.711,2.198,6.282,5.083,1.570,0.000,0.000,-1.219,-6.322,0.990,4.952,1.589,1.553,
24.060,30.915,-1.676,-6.817,1.332,0.000,6.274,3.197,2.090,1.533,0.000,2.121,4.203,2.057,0.000,0.682,0.902,0.000,2.229,0.000,0.000,0.000,0.000,0.000,0.000,0.000,0.000,0.000,0.000,0.000,3.142,6.283,0.000,1.003,1.569,1.569,4.085,6.281,1.199,4.712,0.000,0.000,-1.856,-6.166,0.990,4.952,1.592,1.549,5.281,4.711,4.711,2.198,6.282,5.083,1.570,0.000,0.000,-1.219,-6.322,0.990,4.952,1.589,1.553,
24.151,31.006,-1.676,-6.817,1.332,0.000,6.274,3.197,2.090,1.533,0.000,2.121,4.203,2.057,0.000,0.682,0.902,0.000,2.229,0.000,0.000,0.000,0.000,0.000,0.000,0.000,0.000,0.000,0.000,0.000,3.142,6.283,0.000,1.003,1.569,1.569,4.085,6.281,1.199,4.712,0.000,0.000,-1.856,-6.166,0.990,4.952,1.592,1.549,5.281,4.711,4.711,2.198,6.282,5.083,1.570,0.000,0.000,-1.219,-6.322,0.990,4.952,1.589,1.553,
24.260,31.115,-1.676,-6.817,1.332,0.000,6.274,3.197,2.090,1.533,0.000,2.121,4.203,2.057,0.000,0.682,0.902,0.000,2.229,0.000,0.000,0.000,0.000,0.000,0.000,0.000,0.000,0.000,0.000,0.000,3.142,6.283,0.000,1.003,1.569,1.569,4.085,6.281,1.199,4.712,0.000,0.000,-1.856,-6.166,0.990,4.952,1.592,1.549,5.281,4.711,4.711,2.198,6.282,5.083,1.570,0.000,0.000,-1.219,-6.322,0.990,4.952,1.589,1.553,
24.360,31.215,-1.676,-6.817,1.332,0.000,6.274,3.197,2.090,1.533,0.000,2.121,4.203,2.057,0.000,0.682,0.902,0.000,2.229,0.000,0.000,0.000,0.000,0.000,0.000,0.000,0.000,0.000,0.000,0.000,3.142,6.283,0.000,1.003,1.569,1.569,4.085,6.281,1.199,4.712,0.000,0.000,-1.856,-6.166,0.990,4.952,1.592,1.549,5.281,4.711,4.711,2.198,6.282,5.083,1.570,0.000,0.000,-1.219,-6.322,0.990,4.952,1.589,1.553,
24.458,31.313,-1.676,-6.817,1.332,0.000,6.274,3.197,2.090,1.533,0.000,2.121,4.203,2.057,0.000,0.682,0.902,0.000,2.229,0.000,0.000,0.000,0.000,0.000,0.000,0.000,0.000,0.000,0.000,0.000,3.142,6.283,0.000,1.003,1.569,1.569,4.085,6.281,1.199,4.712,0.000,0.000,-1.856,-6.166,0.990,4.952,1.592,1.549,5.281,4.711,4.711,2.198,6.282,5.083,1.570,0.000,0.000,-1.219,-6.322,0.990,4.952,1.589,1.553,
24.560,31.415,-1.676,-6.817,1.332,0.000,6.274,3.197,2.090,1.533,0.000,2.121,4.203,2.057,0.000,0.682,0.902,0.000,2.229,0.000,0.000,0.000,0.000,0.000,0.000,0.000,0.000,0.000,0.000,0.000,3.142,6.283,0.000,1.003,1.569,1.569,4.085,6.281,1.199,4.712,0.000,0.000,-1.856,-6.166,0.990,4.952,1.592,1.549,5.281,4.711,4.711,2.198,6.282,5.083,1.570,0.000,0.000,-1.219,-6.322,0.990,4.952,1.589,1.553,
24.660,31.515,-1.676,-6.817,1.332,0.000,6.274,3.197,2.090,1.533,0.000,2.121,4.203,2.057,0.000,0.682,0.902,0.000,2.229,0.000,0.000,0.000,0.000,0.000,0.000,0.000,0.000,0.000,0.000,0.000,3.142,6.283,0.000,1.003,1.569,1.569,4.085,6.281,1.199,4.712,0.000,0.000,-1.856,-6.166,0.990,4.952,1.592,1.549,5.281,4.711,4.711,2.198,6.282,5.083,1.570,0.000,0.000,-1.219,-6.322,0.990,4.952,1.589,1.553,
24.743,31.598,-1.676,-6.817,1.332,0.000,6.274,3.197,2.090,1.533,0.000,2.121,4.203,2.057,0.000,0.682,0.902,0.000,2.229,0.000,0.000,0.000,0.000,0.000,0.000,0.000,0.000,0.000,0.000,0.000,3.142,6.283,0.000,1.003,1.569,1.569,4.085,6.281,1.199,4.712,0.000,0.000,-1.856,-6.166,0.990,4.952,1.592,1.549,5.281,4.711,4.711,2.198,6.282,5.083,1.570,0.000,0.000,-1.219,-6.322,0.990,4.952,1.589,1.553,
24.860,31.715,-1.676,-6.817,1.332,0.000,6.274,3.197,2.090,1.533,0.000,2.121,4.203,2.057,0.000,0.682,0.902,0.000,2.229,0.000,0.000,0.000,0.000,0.000,0.000,0.000,0.000,0.000,0.000,0.000,3.142,6.283,0.000,1.003,1.569,1.569,4.085,6.281,1.199,4.712,0.000,0.000,-1.856,-6.166,0.990,4.952,1.592,1.549,5.281,4.711,4.711,2.198,6.282,5.083,1.570,0.000,0.000,-1.219,-6.322,0.990,4.952,1.589,1.553,
24.956,31.811,-1.676,-6.817,1.332,0.000,6.274,3.197,2.090,1.533,0.000,2.121,4.203,2.057,0.000,0.682,0.902,0.000,2.229,0.000,0.000,0.000,0.000,0.000,0.000,0.000,0.000,0.000,0.000,0.000,3.142,6.283,0.000,1.003,1.569,1.569,4.085,6.281,1.199,4.712,0.000,0.000,-1.856,-6.166,0.990,4.952,1.592,1.549,5.281,4.711,4.711,2.198,6.282,5.083,1.570,0.000,0.000,-1.219,-6.322,0.990,4.952,1.589,1.553,
25.060,31.915,-1.676,-6.817,1.332,0.000,6.274,3.197,2.090,1.533,0.000,2.121,4.203,2.057,0.000,0.682,0.902,0.000,2.229,0.000,0.000,0.000,0.000,0.000,0.000,0.000,0.000,0.000,0.000,0.000,3.142,6.283,0.000,1.003,1.569,1.569,4.085,6.281,1.199,4.712,0.000,0.000,-1.856,-6.166,0.990,4.952,1.592,1.549,5.281,4.711,4.711,2.198,6.282,5.083,1.570,0.000,0.000,-1.219,-6.322,0.990,4.952,1.589,1.553,
25.160,32.015,-1.676,-6.817,1.332,0.000,6.274,3.197,2.090,1.533,0.000,2.121,4.203,2.057,0.000,0.682,0.902,0.000,2.229,0.000,0.000,0.000,0.000,0.000,0.000,0.000,0.000,0.000,0.000,0.000,3.142,6.283,0.000,1.003,1.569,1.569,4.085,6.281,1.199,4.712,0.000,0.000,-1.856,-6.166,0.990,4.952,1.592,1.549,5.281,4.711,4.711,2.198,6.282,5.083,1.570,0.000,0.000,-1.219,-6.322,0.990,4.952,1.589,1.553,
25.254,32.109,-1.676,-6.817,1.332,0.000,6.274,3.197,2.090,1.533,0.000,2.121,4.203,2.057,0.000,0.682,0.902,0.000,2.229,0.000,0.000,0.000,0.000,0.000,0.000,0.000,0.000,0.000,0.000,0.000,3.142,6.283,0.000,1.003,1.569,1.569,4.085,6.281,1.199,4.712,0.000,0.000,-1.856,-6.166,0.990,4.952,1.592,1.549,5.281,4.711,4.711,2.198,6.282,5.083,1.570,0.000,0.000,-1.219,-6.322,0.990,4.952,1.589,1.553,
25.360,32.215,-1.676,-6.817,1.332,0.000,6.274,3.197,2.090,1.533,0.000,2.121,4.203,2.057,0.000,0.682,0.902,0.000,2.229,0.000,0.000,0.000,0.000,0.000,0.000,0.000,0.000,0.000,0.000,0.000,3.142,6.283,0.000,1.003,1.569,1.569,4.085,6.281,1.199,4.712,0.000,0.000,-1.856,-6.166,0.990,4.952,1.592,1.549,5.281,4.711,4.711,2.198,6.282,5.083,1.570,0.000,0.000,-1.219,-6.322,0.990,4.952,1.589,1.553,
25.460,32.315,-1.676,-6.817,1.332,0.000,6.274,3.197,2.090,1.533,0.000,2.121,4.203,2.057,0.000,0.682,0.902,0.000,2.229,0.000,0.000,0.000,0.000,0.000,0.000,0.000,0.000,0.000,0.000,0.000,3.142,6.283,0.000,1.003,1.569,1.569,4.085,6.281,1.199,4.712,0.000,0.000,-1.856,-6.166,0.990,4.952,1.592,1.549,5.281,4.711,4.711,2.198,6.282,5.083,1.570,0.000,0.000,-1.219,-6.322,0.990,4.952,1.589,1.553,
25.560,32.415,-1.676,-6.817,1.332,0.000,6.274,3.197,2.090,1.533,0.000,2.121,4.203,2.057,0.000,0.682,0.902,0.000,2.229,0.000,0.000,0.000,0.000,0.000,0.000,0.000,0.000,0.000,0.000,0.000,3.142,6.283,0.000,1.003,1.569,1.569,4.085,6.281,1.199,4.712,0.000,0.000,-1.856,-6.166,0.990,4.952,1.592,1.549,5.281,4.711,4.711,2.198,6.282,5.083,1.570,0.000,0.000,-1.219,-6.322,0.990,4.952,1.589,1.553,
25.660,32.924,-1.676,-6.817,1.332,0.000,6.274,3.197,2.090,1.533,0.000,2.121,4.203,2.057,0.000,0.682,0.902,0.000,2.229,0.000,0.000,0.000,0.000,0.000,0.000,0.000,0.000,0.000,0.000,0.000,3.142,6.283,0.000,1.003,1.569,1.569,4.085,6.281,1.199,4.712,0.000,0.000,-1.856,-6.166,0.990,4.952,1.592,1.549,5.281,4.711,4.711,2.198,6.282,5.083,1.570,0.000,0.000,-1.219,-6.322,0.990,4.952,1.589,1.553,
25.760,33.024,-1.676,-6.817,1.332,0.000,6.274,3.197,2.090,1.533,0.000,2.121,4.203,2.057,0.000,0.682,0.902,0.000,2.229,0.000,0.000,0.000,0.000,0.000,0.000,0.000,0.000,0.000,0.000,0.000,3.142,6.283,0.000,1.003,1.569,1.569,4.085,6.281,1.199,4.712,0.000,0.000,-1.856,-6.166,0.990,4.952,1.592,1.549,5.281,4.711,4.711,2.198,6.282,5.083,1.570,0.000,0.000,-1.219,-6.322,0.990,4.952,1.589,1.553,
25.860,33.124,-1.676,-6.817,1.332,0.000,6.274,3.197,2.090,1.533,0.000,2.121,4.203,2.057,0.000,0.682,0.902,0.000,2.229,0.000,0.000,0.000,0.000,0.000,0.000,0.000,0.000,0.000,0.000,0.000,3.142,6.283,0.000,1.003,1.569,1.569,4.085,6.281,1.199,4.712,0.000,0.000,-1.856,-6.166,0.990,4.952,1.592,1.549,5.281,4.711,4.711,2.198,6.282,5.083,1.570,0.000,0.000,-1.219,-6.322,0.990,4.952,1.589,1.553,
25.960,33.224,-1.676,-6.817,1.332,0.000,6.274,3.197,2.090,1.533,0.000,2.121,4.203,2.057,0.000,0.682,0.902,0.000,2.229,0.000,0.000,0.000,0.000,0.000,0.000,0.000,0.000,0.000,0.000,0.000,3.142,6.283,0.000,1.003,1.569,1.569,4.085,6.281,1.199,4.712,0.000,0.000,-1.856,-6.166,0.990,4.952,1.592,1.549,5.281,4.711,4.711,2.198,6.282,5.083,1.570,0.000,0.000,-1.219,-6.322,0.990,4.952,1.589,1.553,
26.060,33.324,-1.676,-6.817,1.332,0.000,6.274,3.197,2.090,1.533,0.000,2.121,4.203,2.057,0.000,0.682,0.902,0.000,2.229,0.000,0.000,0.000,0.000,0.000,0.000,0.000,0.000,0.000,0.000,0.000,3.142,6.283,0.000,1.003,1.569,1.569,4.085,6.281,1.199,4.712,0.000,0.000,-1.856,-6.166,0.990,4.952,1.592,1.549,5.281,4.711,4.711,2.198,6.282,5.083,1.570,0.000,0.000,-1.219,-6.322,0.990,4.952,1.589,1.553,
26.152,33.416,-1.676,-6.817,1.332,0.000,6.274,3.197,2.090,1.533,0.000,2.121,4.203,2.057,0.000,0.682,0.902,0.000,2.229,0.000,0.000,0.000,0.000,0.000,0.000,0.000,0.000,0.000,0.000,0.000,3.142,6.283,0.000,1.003,1.569,1.569,4.085,6.281,1.199,4.712,0.000,0.000,-1.856,-6.166,0.990,4.952,1.592,1.549,5.281,4.711,4.711,2.198,6.282,5.083,1.570,0.000,0.000,-1.219,-6.322,0.990,4.952,1.589,1.553,
26.260,33.524,-1.676,-6.817,1.332,0.000,6.274,3.197,2.090,1.533,0.000,2.121,4.203,2.057,0.000,0.682,0.902,0.000,2.229,0.000,0.000,0.000,0.000,0.000,0.000,0.000,0.000,0.000,0.000,0.000,3.142,6.283,0.000,1.003,1.569,1.569,4.085,6.281,1.199,4.712,0.000,0.000,-1.856,-6.166,0.990,4.952,1.592,1.549,5.281,4.711,4.711,2.198,6.282,5.083,1.570,0.000,0.000,-1.219,-6.322,0.990,4.952,1.589,1.553,
26.360,33.624,-1.676,-6.817,1.332,0.000,6.274,3.197,2.090,1.533,0.000,2.121,4.203,2.057,0.000,0.682,0.902,0.000,2.229,0.000,0.000,0.000,0.000,0.000,0.000,0.000,0.000,0.000,0.000,0.000,3.142,6.283,0.000,1.003,1.569,1.569,4.085,6.281,1.199,4.712,0.000,0.000,-1.856,-6.166,0.990,4.952,1.592,1.549,5.281,4.711,4.711,2.198,6.282,5.083,1.570,0.000,0.000,-1.219,-6.322,0.990,4.952,1.589,1.553,
26.460,33.724,-1.676,-6.817,1.332,0.000,6.274,3.197,2.090,1.533,0.000,2.121,4.203,2.057,0.000,0.682,0.902,0.000,2.229,0.000,0.000,0.000,0.000,0.000,0.000,0.000,0.000,0.000,0.000,0.000,3.142,6.283,0.000,1.003,1.569,1.569,4.085,6.281,1.199,4.712,0.000,0.000,-1.856,-6.166,0.990,4.952,1.592,1.549,5.281,4.711,4.711,2.198,6.282,5.083,1.570,0.000,0.000,-1.219,-6.322,0.990,4.952,1.589,1.553,
26.560,45.520,-1.676,-6.817,1.332,0.000,6.274,3.197,2.090,1.533,0.000,2.121,4.203,2.057,0.000,0.682,0.902,0.000,2.229,0.000,0.000,0.000,0.000,0.000,0.000,0.000,0.000,0.000,0.000,0.000,3.142,6.283,0.000,1.003,1.569,1.569,4.085,6.281,1.199,4.712,0.000,0.000,-1.856,-6.166,0.990,4.952,1.592,1.549,5.281,4.711,4.711,2.198,6.282,5.083,1.570,0.000,0.000,-1.219,-6.322,0.990,4.952,1.589,1.553,
26.660,45.620,-1.676,-6.817,1.332,0.000,6.274,3.197,2.090,1.533,0.000,2.121,4.203,2.057,0.000,0.682,0.902,0.000,2.229,0.000,0.000,0.000,0.000,0.000,0.000,0.000,0.000,0.000,0.000,0.000,3.142,6.283,0.000,1.003,1.569,1.569,4.085,6.281,1.199,4.712,0.000,0.000,-1.856,-6.166,0.990,4.952,1.592,1.549,5.281,4.711,4.711,2.198,6.282,5.083,1.570,0.000,0.000,-1.219,-6.322,0.990,4.952,1.589,1.553,
26.760,45.720,-1.676,-6.817,1.332,0.000,6.274,3.197,2.090,1.533,0.000,2.121,4.203,2.057,0.000,0.682,0.902,0.000,2.229,0.000,0.000,0.000,0.000,0.000,0.000,0.000,0.000,0.000,0.000,0.000,3.142,6.283,0.000,1.003,1.569,1.569,4.085,6.281,1.199,4.712,0.000,0.000,-1.856,-6.166,0.990,4.952,1.592,1.549,5.281,4.711,4.711,2.198,6.282,5.083,1.570,0.000,0.000,-1.219,-6.322,0.990,4.952,1.589,1.553,
26.860,45.820,-1.676,-6.817,1.332,0.000,6.274,3.197,2.090,1.533,0.000,2.121,4.203,2.057,0.000,0.682,0.902,0.000,2.229,0.000,0.000,0.000,0.000,0.000,0.000,0.000,0.000,0.000,0.000,0.000,3.142,6.283,0.000,1.003,1.569,1.569,4.085,6.281,1.199,4.712,0.000,0.000,-1.856,-6.166,0.990,4.952,1.592,1.549,5.281,4.711,4.711,2.198,6.282,5.083,1.570,0.000,0.000,-1.219,-6.322,0.990,4.952,1.589,1.553,
26.960,45.920,-1.676,-6.817,1.332,0.000,6.274,3.197,2.090,1.533,0.000,2.121,4.203,2.057,0.000,0.682,0.902,0.000,2.229,0.000,0.000,0.000,0.000,0.000,0.000,0.000,0.000,0.000,0.000,0.000,3.142,6.283,0.000,1.003,1.569,1.569,4.085,6.281,1.199,4.712,0.000,0.000,-1.856,-6.166,0.990,4.952,1.592,1.549,5.281,4.711,4.711,2.198,6.282,5.083,1.570,0.000,0.000,-1.219,-6.322,0.990,4.952,1.589,1.553,
27.060,46.020,-1.676,-6.817,1.332,0.000,6.274,3.197,2.090,1.533,0.000,2.121,4.203,2.057,0.000,0.682,0.902,0.000,2.229,0.000,0.000,0.000,0.000,0.000,0.000,0.000,0.000,0.000,0.000,0.000,3.142,6.283,0.000,1.003,1.569,1.569,4.085,6.281,1.199,4.712,0.000,0.000,-1.856,-6.166,0.990,4.952,1.592,1.549,5.281,4.711,4.711,2.198,6.282,5.083,1.570,0.000,0.000,-1.219,-6.322,0.990,4.952,1.589,1.553,
27.160,46.120,-1.676,-6.817,1.332,0.000,6.274,0.000,2.090,1.533,0.000,2.121,4.203,2.057,0.000,0.682,0.902,0.000,2.229,1.596,0.000,0.000,0.000,0.000,0.000,0.000,0.000,0.000,0.000,0.000,3.142,6.283,0.000,1.003,1.569,1.569,4.085,6.281,1.199,4.712,0.000,0.000,-1.856,-6.166,0.990,4.952,1.592,1.549,5.281,4.711,4.711,2.198,6.282,5.083,1.570,0.000,0.000,-1.219,-6.322,0.990,4.952,1.589,1.553,
27.258,46.218,-1.676,-6.817,1.332,0.000,6.274,0.000,2.090,1.533,0.000,2.121,4.203,2.057,0.000,0.682,0.902,0.000,2.229,1.602,0.000,0.000,0.000,0.000,0.000,0.000,0.000,0.000,0.000,0.000,3.142,6.283,0.000,1.003,1.569,1.569,4.085,6.281,1.199,4.712,0.000,0.000,-1.856,-6.166,0.990,4.952,1.592,1.549,5.281,4.711,4.711,2.198,6.282,5.083,1.570,0.000,0.000,-1.219,-6.322,0.990,4.952,1.589,1.553,
27.360,46.320,-1.676,-6.817,1.332,0.000,6.274,0.000,2.090,1.533,0.000,2.121,4.203,2.057,0.000,0.682,0.902,0.000,2.229,1.650,0.000,0.000,0.000,0.000,0.000,0.000,0.000,0.000,0.000,0.000,3.142,6.283,0.000,1.003,1.569,1.569,4.085,6.281,1.199,4.712,0.000,0.000,-1.856,-6.166,0.990,4.952,1.592,1.549,5.281,4.711,4.711,2.198,6.282,5.083,1.570,0.000,0.000,-1.219,-6.322,0.990,4.952,1.589,1.553,
27.460,46.420,-1.676,-6.817,1.332,0.000,6.274,3.197,2.090,1.533,0.000,2.121,4.203,2.057,0.000,0.682,0.902,0.000,2.229,0.000,0.000,0.000,0.000,0.000,0.000,0.000,0.000,0.000,0.000,0.000,3.142,6.283,0.000,1.003,1.569,1.569,4.085,6.281,1.199,4.712,0.000,0.000,-1.856,-6.166,0.990,4.952,1.592,1.549,5.281,4.711,4.711,2.198,6.282,5.083,1.570,0.000,0.000,-1.219,-6.322,0.990,4.952,1.589,1.553,
27.554,46.514,-1.676,-6.817,1.332,0.000,6.274,3.197,2.090,1.533,0.000,2.121,4.203,2.057,0.000,0.682,0.902,0.000,2.229,0.000,0.000,0.000,0.000,0.000,0.000,0.000,0.000,0.000,0.000,0.000,3.142,6.283,0.000,1.003,1.569,1.569,4.085,6.281,1.199,4.712,0.000,0.000,-1.856,-6.166,0.990,4.952,1.592,1.549,5.281,4.711,4.711,2.198,6.282,5.083,1.570,0.000,0.000,-1.219,-6.322,0.990,4.952,1.589,1.553,
27.660,46.620,-1.676,-6.817,1.332,0.000,6.274,3.197,2.090,1.533,0.000,2.121,4.203,2.057,0.000,0.682,0.902,0.000,2.229,0.000,0.000,0.000,0.000,0.000,0.000,0.000,0.000,0.000,0.000,0.000,3.142,6.283,0.000,1.003,1.569,1.569,4.085,6.281,1.199,4.712,0.000,0.000,-1.856,-6.166,0.990,4.952,1.592,1.549,5.281,4.711,4.711,2.198,6.282,5.083,1.570,0.000,0.000,-1.219,-6.322,0.990,4.952,1.589,1.553,
27.749,46.709,-1.676,-6.817,1.332,0.000,6.274,3.197,2.090,1.533,0.000,2.121,4.203,2.057,0.000,0.682,0.902,0.000,2.229,0.000,0.000,0.000,0.000,0.000,0.000,0.000,0.000,0.000,0.000,0.000,3.142,6.283,0.000,1.003,1.569,1.569,4.085,6.281,1.199,4.712,0.000,0.000,-1.856,-6.166,0.990,4.952,1.592,1.549,5.281,4.711,4.711,2.198,6.282,5.083,1.570,0.000,0.000,-1.219,-6.322,0.990,4.952,1.589,1.553,
27.860,46.820,-1.676,-6.817,1.332,0.000,6.274,3.197,2.090,1.533,0.000,2.121,4.203,2.057,0.000,0.682,0.902,0.000,2.229,0.000,0.000,0.000,0.000,0.000,0.000,0.000,0.000,0.000,0.000,0.000,3.142,6.283,0.000,1.003,1.569,1.569,4.085,6.281,1.199,4.712,0.000,0.000,-1.856,-6.166,0.990,4.952,1.592,1.549,5.281,4.711,4.711,2.198,6.282,5.083,1.570,0.000,0.000,-1.219,-6.322,0.990,4.952,1.589,1.553,
27.948,46.907,-1.676,-6.817,1.332,0.000,6.274,3.197,2.090,1.533,0.000,2.121,4.203,2.057,0.000,0.682,0.902,0.000,2.229,0.000,0.000,0.000,0.000,0.000,0.000,0.000,0.000,0.000,0.000,0.000,3.142,6.283,0.000,1.003,1.569,1.569,4.085,6.281,1.199,4.712,0.000,0.000,-1.856,-6.166,0.990,4.952,1.592,1.549,5.281,4.711,4.711,2.198,6.282,5.083,1.570,0.000,0.000,-1.219,-6.322,0.990,4.952,1.589,1.553,
28.060,47.020,-1.676,-6.817,1.332,0.000,6.274,3.197,2.090,1.533,0.000,2.121,4.203,2.057,0.000,0.682,0.902,0.000,2.229,0.000,0.000,0.000,0.000,0.000,0.000,0.000,0.000,0.000,0.000,0.000,3.142,6.283,0.000,1.003,1.569,1.569,4.085,6.281,1.199,4.712,0.000,0.000,-1.856,-6.166,0.990,4.952,1.592,1.549,5.281,4.711,4.711,2.198,6.282,5.083,1.570,0.000,0.000,-1.219,-6.322,0.990,4.952,1.589,1.553,
28.146,47.106,-1.676,-6.817,1.332,0.000,6.274,3.197,2.090,1.533,0.000,2.121,4.203,2.057,0.000,0.682,0.902,0.000,2.229,0.000,0.000,0.000,0.000,0.000,0.000,0.000,0.000,0.000,0.000,0.000,3.142,6.283,0.000,1.003,1.569,1.569,4.085,6.281,1.199,4.712,0.000,0.000,-1.856,-6.166,0.990,4.952,1.592,1.549,5.281,4.711,4.711,2.198,6.282,5.083,1.570,0.000,0.000,-1.219,-6.322,0.990,4.952,1.589,1.553,
28.260,47.220,-1.676,-6.817,1.332,0.000,6.274,3.197,2.090,1.533,0.000,2.121,4.203,2.057,0.000,0.682,0.902,0.000,2.229,0.000,0.000,0.000,0.000,0.000,0.000,0.000,0.000,0.000,0.000,0.000,3.142,6.283,0.000,1.003,1.569,1.569,4.085,6.281,1.199,4.712,0.000,0.000,-1.856,-6.166,0.990,4.952,1.592,1.549,5.281,4.711,4.711,2.198,6.282,5.083,1.570,0.000,0.000,-1.219,-6.322,0.990,4.952,1.589,1.553,
28.343,47.303,-1.676,-6.817,1.332,0.000,6.274,0.000,2.090,1.533,0.000,2.121,4.203,2.057,0.000,0.682,0.902,0.000,2.229,1.677,0.000,0.000,0.000,0.000,0.000,0.000,0.000,0.000,0.000,0.000,3.142,6.283,0.000,1.003,1.569,1.569,4.085,6.281,1.199,4.712,0.000,0.000,-1.856,-6.166,0.990,4.952,1.592,1.549,5.281,4.711,4.711,2.198,6.282,5.083,1.570,0.000,0.000,-1.219,-6.322,0.990,4.952,1.589,1.553,
28.460,47.420,-1.676,-6.817,1.332,0.000,6.274,0.000,2.090,1.533,0.000,2.121,4.203,2.057,0.000,0.682,0.902,0.000,2.229,1.636,0.000,0.000,0.000,0.000,0.000,0.000,0.000,0.000,0.000,0.000,3.142,6.283,0.000,1.003,1.569,1.569,4.085,6.281,1.199,4.712,0.000,0.000,-1.856,-6.166,0.990,4.952,1.592,1.549,5.281,4.711,4.711,2.198,6.282,5.083,1.570,0.000,0.000,-1.219,-6.322,0.990,4.952,1.589,1.553,
28.560,47.520,-1.676,-6.817,1.332,0.000,6.274,0.000,2.090,1.533,0.000,2.121,4.203,2.057,0.000,0.682,0.902,0.000,2.229,1.599,0.000,0.000,0.000,0.000,0.000,0.000,0.000,0.000,0.000,0.000,3.142,6.283,0.000,1.003,1.569,1.569,4.085,6.281,1.199,4.712,0.000,0.000,-1.856,-6.166,0.990,4.952,1.592,1.549,5.281,4.711,4.711,2.198,6.282,5.083,1.570,0.000,0.000,-1.219,-6.322,0.990,4.952,1.589,1.553,
28.660,47.620,-1.676,-6.817,1.332,0.000,6.274,0.000,2.090,1.533,0.000,2.121,4.203,2.057,0.000,0.682,0.902,0.000,2.229,1.619,0.000,0.000,0.000,0.000,0.000,0.000,0.000,0.000,0.000,0.000,3.142,6.283,0.000,1.003,1.569,1.569,4.085,6.281,1.199,4.712,0.000,0.000,-1.856,-6.166,0.990,4.952,1.592,1.549,5.281,4.711,4.711,2.198,6.282,5.083,1.570,0.000,0.000,-1.219,-6.322,0.990,4.952,1.589,1.553,
28.760,47.720,-1.676,-6.817,1.332,0.000,6.274,0.000,2.090,1.533,0.000,2.121,4.203,2.057,0.000,0.682,0.902,0.000,2.229,1.671,0.000,0.000,0.000,0.000,0.000,0.000,0.000,0.000,0.000,0.000,3.142,6.283,0.000,1.003,1.569,1.569,4.085,6.281,1.199,4.712,0.000,0.000,-1.856,-6.166,0.990,4.952,1.592,1.549,5.281,4.711,4.711,2.198,6.282,5.083,1.570,0.000,0.000,-1.219,-6.322,0.990,4.952,1.589,1.553,
28.860,47.820,-1.676,-6.817,1.332,0.000,6.274,0.000,2.090,1.533,0.000,2.121,4.203,2.057,0.000,0.682,0.902,0.000,2.229,1.767,0.000,0.000,0.000,0.000,0.000,0.000,0.000,0.000,0.000,0.000,3.142,6.283,0.000,1.003,1.569,1.569,4.085,6.281,1.199,4.712,0.000,0.000,-1.856,-6.166,0.990,4.952,1.592,1.549,5.281,4.711,4.711,2.198,6.282,5.083,1.570,0.000,0.000,-1.219,-6.322,0.990,4.952,1.589,1.553,
28.960,47.920,-1.676,-6.817,1.332,0.000,6.274,3.197,2.090,1.533,0.000,2.121,4.203,2.057,0.000,0.682,0.902,0.000,2.229,0.000,0.000,0.000,0.000,0.000,0.000,0.000,0.000,0.000,0.000,0.000,3.142,6.283,0.000,1.003,1.569,1.569,4.085,6.281,1.199,4.712,0.000,0.000,-1.856,-6.166,0.990,4.952,1.592,1.549,5.281,4.711,4.711,2.198,6.282,5.083,1.570,0.000,0.000,-1.219,-6.322,0.990,4.952,1.589,1.553,
29.060,48.020,-1.676,-6.817,1.332,0.000,6.274,3.197,2.090,1.533,0.000,2.121,4.203,2.057,0.000,0.682,0.902,0.000,2.229,0.000,0.000,0.000,0.000,0.000,0.000,0.000,0.000,0.000,0.000,0.000,3.142,6.283,0.000,1.003,1.569,1.569,4.085,6.281,1.199,4.712,0.000,0.000,-1.856,-6.166,0.990,4.952,1.592,1.549,5.281,4.711,4.711,2.198,6.282,5.083,1.570,0.000,0.000,-1.219,-6.322,0.990,4.952,1.589,1.553,
29.146,48.106,-1.676,-6.817,1.332,0.000,6.274,3.197,2.090,1.533,0.000,2.121,4.203,2.057,0.000,0.682,0.902,0.000,2.229,0.000,0.000,0.000,0.000,0.000,0.000,0.000,0.000,0.000,0.000,0.000,3.142,6.283,0.000,1.003,1.569,1.569,4.085,6.281,1.199,4.712,0.000,0.000,-1.856,-6.166,0.990,4.952,1.592,1.549,5.281,4.711,4.711,2.198,6.282,5.083,1.570,0.000,0.000,-1.219,-6.322,0.990,4.952,1.589,1.553,
29.260,48.220,-1.676,-6.817,1.332,0.000,6.274,3.197,2.090,1.533,0.000,2.121,4.203,2.057,0.000,0.682,0.902,0.000,2.229,0.000,0.000,0.000,0.000,0.000,0.000,0.000,0.000,0.000,0.000,0.000,3.142,6.283,0.000,1.003,1.569,1.569,4.085,6.281,1.199,4.712,0.000,0.000,-1.856,-6.166,0.990,4.952,1.592,1.549,5.281,4.711,4.711,2.198,6.282,5.083,1.570,0.000,0.000,-1.219,-6.322,0.990,4.952,1.589,1.553,
29.342,48.302,-1.676,-6.817,1.332,0.000,6.274,3.197,2.090,1.533,0.000,2.121,4.203,2.057,0.000,0.682,0.902,0.000,2.229,0.000,0.000,0.000,0.000,0.000,0.000,0.000,0.000,0.000,0.000,0.000,3.142,6.283,0.000,1.003,1.569,1.569,4.085,6.281,1.199,4.712,0.000,0.000,-1.856,-6.166,0.990,4.952,1.592,1.549,5.281,4.711,4.711,2.198,6.282,5.083,1.570,0.000,0.000,-1.219,-6.322,0.990,4.952,1.589,1.553,
29.460,48.420,-1.676,-6.817,1.332,0.000,6.274,3.197,2.090,1.533,0.000,2.121,4.203,2.057,0.000,0.682,0.902,0.000,2.229,0.000,0.000,0.000,0.000,0.000,0.000,0.000,0.000,0.000,0.000,0.000,3.142,6.283,0.000,1.003,1.569,1.569,4.085,6.281,1.199,4.712,0.000,0.000,-1.856,-6.166,0.990,4.952,1.592,1.549,5.281,4.711,4.711,2.198,6.282,5.083,1.570,0.000,0.000,-1.219,-6.322,0.990,4.952,1.589,1.553,
29.541,48.501,-1.676,-6.817,1.332,0.000,6.274,3.197,2.090,1.533,0.000,2.121,4.203,2.057,0.000,0.682,0.902,0.000,2.229,0.000,0.000,0.000,0.000,0.000,0.000,0.000,0.000,0.000,0.000,0.000,3.142,6.283,0.000,1.003,1.569,1.569,4.085,6.281,1.199,4.712,0.000,0.000,-1.856,-6.166,0.990,4.952,1.592,1.549,5.281,4.711,4.711,2.198,6.282,5.083,1.570,0.000,0.000,-1.219,-6.322,0.990,4.952,1.589,1.553,
29.660,48.620,-1.676,-6.817,1.332,0.000,6.274,3.197,2.090,1.533,0.000,2.121,4.203,2.057,0.000,0.682,0.902,0.000,2.229,0.000,0.000,0.000,0.000,0.000,0.000,0.000,0.000,0.000,0.000,0.000,3.142,6.283,0.000,1.003,1.569,1.569,4.085,6.281,1.199,4.712,0.000,0.000,-1.856,-6.166,0.990,4.952,1.592,1.549,5.281,4.711,4.711,2.198,6.282,5.083,1.570,0.000,0.000,-1.219,-6.322,0.990,4.952,1.589,1.553,
29.760,48.720,-1.676,-6.817,1.332,0.000,6.274,3.197,2.090,1.533,0.000,2.121,4.203,2.057,0.000,0.682,0.902,0.000,2.229,0.000,0.000,0.000,0.000,0.000,0.000,0.000,0.000,0.000,0.000,0.000,3.142,6.283,0.000,1.003,1.569,1.569,4.085,6.281,1.199,4.712,0.000,0.000,-1.856,-6.166,0.990,4.952,1.592,1.549,5.281,4.711,4.711,2.198,6.282,5.083,1.570,0.000,0.000,-1.219,-6.322,0.990,4.952,1.589,1.553,
29.860,48.820,-1.676,-6.817,1.332,0.000,6.274,3.197,2.090,1.533,0.000,2.121,4.203,2.057,0.000,0.682,0.902,0.000,2.229,0.000,0.000,0.000,0.000,0.000,0.000,0.000,0.000,0.000,0.000,0.000,3.142,6.283,0.000,1.003,1.569,1.569,4.085,6.281,1.199,4.712,0.000,0.000,-1.856,-6.166,0.990,4.952,1.592,1.549,5.281,4.711,4.711,2.198,6.282,5.083,1.570,0.000,0.000,-1.219,-6.322,0.990,4.952,1.589,1.553,
29.941,48.901,-1.676,-6.817,1.332,0.000,6.274,3.197,2.090,1.533,0.000,2.121,4.203,2.057,0.000,0.682,0.902,0.000,2.229,0.000,0.000,0.000,0.000,0.000,0.000,0.000,0.000,0.000,0.000,0.000,3.142,6.283,0.000,1.003,1.569,1.569,4.085,6.281,1.199,4.712,0.000,0.000,-1.856,-6.166,0.990,4.952,1.592,1.549,5.281,4.711,4.711,2.198,6.282,5.083,1.570,0.000,0.000,-1.219,-6.322,0.990,4.952,1.589,1.553,
30.060,49.020,-1.676,-6.817,1.332,0.000,6.274,3.197,2.090,1.533,0.000,2.121,4.203,2.057,0.000,0.682,0.902,0.000,2.229,0.000,0.000,0.000,0.000,0.000,0.000,0.000,0.000,0.000,0.000,0.000,3.142,6.283,0.000,1.003,1.569,1.569,4.085,6.281,1.199,4.712,0.000,0.000,-1.856,-6.166,0.990,4.952,1.592,1.549,5.281,4.711,4.711,2.198,6.282,5.083,1.570,0.000,0.000,-1.219,-6.322,0.990,4.952,1.589,1.553,
30.142,49.101,-1.676,-6.817,1.332,0.000,6.274,3.197,2.090,1.533,0.000,2.121,4.203,2.057,0.000,0.682,0.902,0.000,2.229,0.000,0.000,0.000,0.000,0.000,0.000,0.000,0.000,0.000,0.000,0.000,3.142,6.283,0.000,1.003,1.569,1.569,4.085,6.281,1.199,4.712,0.000,0.000,-1.856,-6.166,0.990,4.952,1.592,1.549,5.281,4.711,4.711,2.198,6.282,5.083,1.570,0.000,0.000,-1.219,-6.322,0.990,4.952,1.589,1.553,
30.260,49.220,-1.676,-6.817,1.332,0.000,6.274,3.197,2.090,1.533,0.000,2.121,4.203,2.057,0.000,0.682,0.902,0.000,2.229,0.000,0.000,0.000,0.000,0.000,0.000,0.000,0.000,0.000,0.000,0.000,3.142,6.283,0.000,1.003,1.569,1.569,4.085,6.281,1.199,4.712,0.000,0.000,-1.856,-6.166,0.990,4.952,1.592,1.549,5.281,4.711,4.711,2.198,6.282,5.083,1.570,0.000,0.000,-1.219,-6.322,0.990,4.952,1.589,1.553,
30.341,49.301,-1.676,-6.817,1.332,0.000,6.274,3.197,2.090,1.533,0.000,2.121,4.203,2.057,0.000,0.682,0.902,0.000,2.229,0.000,0.000,0.000,0.000,0.000,0.000,0.000,0.000,0.000,0.000,0.000,3.142,6.283,0.000,1.003,1.569,1.569,4.085,6.281,1.199,4.712,0.000,0.000,-1.856,-6.166,0.990,4.952,1.592,1.549,5.281,4.711,4.711,2.198,6.282,5.083,1.570,0.000,0.000,-1.219,-6.322,0.990,4.952,1.589,1.553,
30.460,49.420,-1.676,-6.817,1.332,0.000,6.274,3.197,2.090,1.533,0.000,2.121,4.203,2.057,0.000,0.682,0.902,0.000,2.229,0.000,0.000,0.000,0.000,0.000,0.000,0.000,0.000,0.000,0.000,0.000,3.142,6.283,0.000,1.003,1.569,1.569,4.085,6.281,1.199,4.712,0.000,0.000,-1.856,-6.166,0.990,4.952,1.592,1.549,5.281,4.711,4.711,2.198,6.282,5.083,1.570,0.000,0.000,-1.219,-6.322,0.990,4.952,1.589,1.553,
30.541,49.501,-1.676,-6.817,1.332,0.000,6.274,3.197,2.090,1.533,0.000,2.121,4.203,2.057,0.000,0.682,0.902,0.000,2.229,0.000,0.000,0.000,0.000,0.000,0.000,0.000,0.000,0.000,0.000,0.000,3.142,6.283,0.000,1.003,1.569,1.569,4.085,6.281,1.199,4.712,0.000,0.000,-1.856,-6.166,0.990,4.952,1.592,1.549,5.281,4.711,4.711,2.198,6.282,5.083,1.570,0.000,0.000,-1.219,-6.322,0.990,4.952,1.589,1.553,
30.660,49.620,-1.676,-6.817,1.332,0.000,6.274,3.197,2.090,1.533,0.000,2.121,4.203,2.057,0.000,0.682,0.902,0.000,2.229,0.000,0.000,0.000,0.000,0.000,0.000,0.000,0.000,0.000,0.000,0.000,3.142,6.283,0.000,1.003,1.569,1.569,4.085,6.281,1.199,4.712,0.000,0.000,-1.856,-6.166,0.990,4.952,1.592,1.549,5.281,4.711,4.711,2.198,6.282,5.083,1.570,0.000,0.000,-1.219,-6.322,0.990,4.952,1.589,1.553,
30.743,49.703,-1.676,-6.817,1.332,0.000,6.274,3.197,2.090,1.533,0.000,2.121,4.203,2.057,0.000,0.682,0.902,0.000,2.229,0.000,0.000,0.000,0.000,0.000,0.000,0.000,0.000,0.000,0.000,0.000,3.142,6.283,0.000,1.003,1.569,1.569,4.085,6.281,1.199,4.712,0.000,0.000,-1.856,-6.166,0.990,4.952,1.592,1.549,5.281,4.711,4.711,2.198,6.282,5.083,1.570,0.000,0.000,-1.219,-6.322,0.990,4.952,1.589,1.553,
30.860,49.820,-1.676,-6.817,1.332,0.000,6.274,3.197,2.090,1.533,0.000,2.121,4.203,2.057,0.000,0.682,0.902,0.000,2.229,0.000,0.000,0.000,0.000,0.000,0.000,0.000,0.000,0.000,0.000,0.000,3.142,6.283,0.000,1.003,1.569,1.569,4.085,6.281,1.199,4.712,0.000,0.000,-1.856,-6.166,0.990,4.952,1.592,1.549,5.281,4.711,4.711,2.198,6.282,5.083,1.570,0.000,0.000,-1.219,-6.322,0.990,4.952,1.589,1.553,
30.943,49.903,-1.676,-6.817,1.332,0.000,6.274,3.197,2.090,1.533,0.000,2.121,4.203,2.057,0.000,0.682,0.902,0.000,2.229,0.000,0.000,0.000,0.000,0.000,0.000,0.000,0.000,0.000,0.000,0.000,3.142,6.283,0.000,1.003,1.569,1.569,4.085,6.281,1.199,4.712,0.000,0.000,-1.856,-6.166,0.990,4.952,1.592,1.549,5.281,4.711,4.711,2.198,6.282,5.083,1.570,0.000,0.000,-1.219,-6.322,0.990,4.952,1.589,1.553,
31.060,50.020,-1.676,-6.817,1.332,0.000,6.274,3.197,2.090,1.533,0.000,2.121,4.203,2.057,0.000,0.682,0.902,0.000,2.229,0.000,0.000,0.000,0.000,0.000,0.000,0.000,0.000,0.000,0.000,0.000,3.142,6.283,0.000,1.003,1.569,1.569,4.085,6.281,1.199,4.712,0.000,0.000,-1.856,-6.166,0.990,4.952,1.592,1.549,5.281,4.711,4.711,2.198,6.282,5.083,1.570,0.000,0.000,-1.219,-6.322,0.990,4.952,1.589,1.553,
31.144,50.103,-1.676,-6.817,1.332,0.000,6.274,3.197,2.090,1.533,0.000,2.121,4.203,2.057,0.000,0.682,0.902,0.000,2.229,0.000,0.000,0.000,0.000,0.000,0.000,0.000,0.000,0.000,0.000,0.000,3.142,6.283,0.000,1.003,1.569,1.569,4.085,6.281,1.199,4.712,0.000,0.000,-1.856,-6.166,0.990,4.952,1.592,1.549,5.281,4.711,4.711,2.198,6.282,5.083,1.570,0.000,0.000,-1.219,-6.322,0.990,4.952,1.589,1.553,
31.260,50.220,-1.676,-6.817,1.332,0.000,6.274,3.197,2.090,1.533,0.000,2.121,4.203,2.057,0.000,0.682,0.902,0.000,2.229,0.000,0.000,0.000,0.000,0.000,0.000,0.000,0.000,0.000,0.000,0.000,3.142,6.283,0.000,1.003,1.569,1.569,4.085,6.281,1.199,4.712,0.000,0.000,-1.856,-6.166,0.990,4.952,1.592,1.549,5.281,4.711,4.711,2.198,6.282,5.083,1.570,0.000,0.000,-1.219,-6.322,0.990,4.952,1.589,1.553,
31.340,50.300,-1.676,-6.817,1.332,0.000,6.274,3.197,2.090,1.533,0.000,2.121,4.203,2.057,0.000,0.682,0.902,0.000,2.229,0.000,0.000,0.000,0.000,0.000,0.000,0.000,0.000,0.000,0.000,0.000,3.142,6.283,0.000,1.003,1.569,1.569,4.085,6.281,1.199,4.712,0.000,0.000,-1.856,-6.166,0.990,4.952,1.592,1.549,5.281,4.711,4.711,2.198,6.282,5.083,1.570,0.000,0.000,-1.219,-6.322,0.990,4.952,1.589,1.553,
31.460,50.420,-1.676,-6.817,1.332,0.000,6.274,3.197,2.090,1.533,0.000,2.121,4.203,2.057,0.000,0.682,0.902,0.000,2.229,0.000,0.000,0.000,0.000,0.000,0.000,0.000,0.000,0.000,0.000,0.000,3.142,6.283,0.000,1.003,1.569,1.569,4.085,6.281,1.199,4.712,0.000,0.000,-1.856,-6.166,0.990,4.952,1.592,1.549,5.281,4.711,4.711,2.198,6.282,5.083,1.570,0.000,0.000,-1.219,-6.322,0.990,4.952,1.589,1.553,
31.542,50.502,-1.676,-6.817,1.332,0.000,6.274,3.197,2.090,1.533,0.000,2.121,4.203,2.057,0.000,0.682,0.902,0.000,2.229,0.000,0.000,0.000,0.000,0.000,0.000,0.000,0.000,0.000,0.000,0.000,3.142,6.283,0.000,1.003,1.569,1.569,4.085,6.281,1.199,4.712,0.000,0.000,-1.856,-6.166,0.990,4.952,1.592,1.549,5.281,4.711,4.711,2.198,6.282,5.083,1.570,0.000,0.000,-1.219,-6.322,0.990,4.952,1.589,1.553,
31.660,50.620,-1.676,-6.817,1.332,0.000,6.274,3.197,2.090,1.533,0.000,2.121,4.203,2.057,0.000,0.682,0.902,0.000,2.229,0.000,0.000,0.000,0.000,0.000,0.000,0.000,0.000,0.000,0.000,0.000,3.142,6.283,0.000,1.003,1.569,1.569,4.085,6.281,1.199,4.712,0.000,0.000,-1.856,-6.166,0.990,4.952,1.592,1.549,5.281,4.711,4.711,2.198,6.282,5.083,1.570,0.000,0.000,-1.219,-6.322,0.990,4.952,1.589,1.553,
31.760,50.720,-1.676,-6.817,1.332,0.000,6.274,3.197,2.090,1.533,0.000,2.121,4.203,2.057,0.000,0.682,0.902,0.000,2.229,0.000,0.000,0.000,0.000,0.000,0.000,0.000,0.000,0.000,0.000,0.000,3.142,6.283,0.000,1.003,1.569,1.569,4.085,6.281,1.199,4.712,0.000,0.000,-1.856,-6.166,0.990,4.952,1.592,1.549,5.281,4.711,4.711,2.198,6.282,5.083,1.570,0.000,0.000,-1.219,-6.322,0.990,4.952,1.589,1.553,
31.860,50.820,-1.676,-6.817,1.332,0.000,6.274,3.197,2.090,1.533,0.000,2.121,4.203,2.057,0.000,0.682,0.902,0.000,2.229,0.000,0.000,0.000,0.000,0.000,0.000,0.000,0.000,0.000,0.000,0.000,3.142,6.283,0.000,1.003,1.569,1.569,4.085,6.281,1.199,4.712,0.000,0.000,-1.856,-6.166,0.990,4.952,1.592,1.549,5.281,4.711,4.711,2.198,6.282,5.083,1.570,0.000,0.000,-1.219,-6.322,0.990,4.952,1.589,1.553,
31.960,50.920,-1.676,-6.817,1.332,0.000,6.274,3.197,2.090,1.533,0.000,2.121,4.203,2.057,0.000,0.682,0.902,0.000,2.229,0.000,0.000,0.000,0.000,0.000,0.000,0.000,0.000,0.000,0.000,0.000,3.142,6.283,0.000,1.003,1.569,1.569,4.085,6.281,1.199,4.712,0.000,0.000,-1.856,-6.166,0.990,4.952,1.592,1.549,5.281,4.711,4.711,2.198,6.282,5.083,1.570,0.000,0.000,-1.219,-6.322,0.990,4.952,1.589,1.553,
32.060,51.020,-1.676,-6.817,1.332,0.000,6.274,3.197,2.090,1.533,0.000,2.121,4.203,2.057,0.000,0.682,0.902,0.000,2.229,0.000,0.000,0.000,0.000,0.000,0.000,0.000,0.000,0.000,0.000,0.000,3.142,6.283,0.000,1.003,1.569,1.569,4.085,6.281,1.199,4.712,0.000,0.000,-1.856,-6.166,0.990,4.952,1.592,1.549,5.281,4.711,4.711,2.198,6.282,5.083,1.570,0.000,0.000,-1.219,-6.322,0.990,4.952,1.589,1.553,
32.141,51.101,-1.676,-6.817,1.332,0.000,6.274,3.197,2.090,1.533,0.000,2.121,4.203,2.057,0.000,0.682,0.902,0.000,2.229,0.000,0.000,0.000,0.000,0.000,0.000,0.000,0.000,0.000,0.000,0.000,3.142,6.283,0.000,1.003,1.569,1.569,4.085,6.281,1.199,4.712,0.000,0.000,-1.856,-6.166,0.990,4.952,1.592,1.549,5.281,4.711,4.711,2.198,6.282,5.083,1.570,0.000,0.000,-1.219,-6.322,0.990,4.952,1.589,1.553,
32.260,51.220,-1.676,-6.817,1.332,0.000,6.274,3.197,2.090,1.533,0.000,2.121,4.203,2.057,0.000,0.682,0.902,0.000,2.229,0.000,0.000,0.000,0.000,0.000,0.000,0.000,0.000,0.000,0.000,0.000,3.142,6.283,0.000,1.003,1.569,1.569,4.085,6.281,1.199,4.712,0.000,0.000,-1.856,-6.166,0.990,4.952,1.592,1.549,5.281,4.711,4.711,2.198,6.282,5.083,1.570,0.000,0.000,-1.219,-6.322,0.990,4.952,1.589,1.553,
32.360,51.320,-1.676,-6.817,1.332,0.000,6.274,3.197,2.090,1.533,0.000,2.121,4.203,2.057,0.000,0.682,0.902,0.000,2.229,0.000,0.000,0.000,0.000,0.000,0.000,0.000,0.000,0.000,0.000,0.000,3.142,6.283,0.000,1.003,1.569,1.569,4.085,6.281,1.199,4.712,0.000,0.000,-1.856,-6.166,0.990,4.952,1.592,1.549,5.281,4.711,4.711,2.198,6.282,5.083,1.570,0.000,0.000,-1.219,-6.322,0.990,4.952,1.589,1.553,
32.460,51.420,-1.676,-6.817,1.332,0.000,6.274,3.197,2.090,1.533,0.000,2.121,4.203,2.057,0.000,0.682,0.902,0.000,2.229,0.000,0.000,0.000,0.000,0.000,0.000,0.000,0.000,0.000,0.000,0.000,3.142,6.283,0.000,1.003,1.569,1.569,4.085,6.281,1.199,4.712,0.000,0.000,-1.856,-6.166,0.990,4.952,1.592,1.549,5.281,4.711,4.711,2.198,6.282,5.083,1.570,0.000,0.000,-1.219,-6.322,0.990,4.952,1.589,1.553,
32.560,51.520,-1.676,-6.817,1.332,0.000,6.274,3.197,2.090,1.533,0.000,2.121,4.203,2.057,0.000,0.682,0.902,0.000,2.229,0.000,0.000,0.000,0.000,0.000,0.000,0.000,0.000,0.000,0.000,0.000,3.142,6.283,0.000,1.003,1.569,1.569,4.085,6.281,1.199,4.712,0.000,0.000,-1.856,-6.166,0.990,4.952,1.592,1.549,5.281,4.711,4.711,2.198,6.282,5.083,1.570,0.000,0.000,-1.219,-6.322,0.990,4.952,1.589,1.553,
32.660,51.620,-1.676,-6.817,1.332,0.000,6.274,3.197,2.090,1.533,0.000,2.121,4.203,2.057,0.000,0.682,0.902,0.000,2.229,0.000,0.000,0.000,0.000,0.000,0.000,0.000,1.808,0.000,0.000,0.000,3.142,6.283,0.000,1.003,1.569,1.569,4.085,6.281,1.199,4.712,0.000,0.000,-1.856,-6.166,0.990,4.952,1.592,1.549,5.281,4.711,4.711,2.198,6.282,5.083,1.570,0.000,0.000,-1.219,-6.322,0.990,4.952,1.589,1.553,
32.760,51.720,-1.676,-6.817,1.332,0.000,6.274,3.197,2.090,1.533,0.000,2.121,4.203,2.057,0.000,0.682,0.902,0.000,2.229,0.000,0.000,0.000,0.000,0.000,0.000,0.000,1.668,0.000,0.000,0.000,3.142,6.283,0.000,1.003,1.569,1.569,4.085,6.281,1.199,4.712,0.000,0.000,-1.856,-6.166,0.990,4.952,1.592,1.549,5.281,4.711,4.711,2.198,6.282,5.083,1.570,0.000,0.000,-1.219,-6.322,0.990,4.952,1.589,1.553,
