deveshdatwani/Gopher/Assets/Data/07-21 10-55-01/Obstacle Handling_robot_value.csv
game_time,true_time,x,y,az,vx,vaz,dis_to_obs_0,dis_to_obs_36,dis_to_obs_72,dis_to_obs_108,dis_to_obs_144,dis_to_obs_180,dis_to_obs_-144,dis_to_obs_-108,dis_to_obs_-72,dis_to_obs_-36,dis_to_min_obs,direction_to_min_obs,dis_to_human_0,dis_to_human_36,dis_to_human_72,dis_to_human_108,dis_to_human_144,dis_to_human_180,dis_to_human_-144,dis_to_human_-108,dis_to_human_-72,dis_to_human_-36,dis_to_min_human,direction_to_min_human,main_cam_yaw,main_cam_pitch,left_joint_1,left_joint_2,left_joint_3,left_joint_4,left_joint_5,left_joint_6,left_joint_7,left_joint_gripper,left_is_grasping,left_end_x,left_end_y,left_end_z,left_end_ax,left_end_ay,left_end_az,right_joint_1,right_joint_2,right_joint_3,right_joint_4,right_joint_5,right_joint_6,right_joint_7,right_joint_gripper,right_is_grasping,right_end_x,right_end_y,right_end_z,right_end_ax,right_end_ay,right_end_az,
8.520,15.157,0.997,-9.922,1.561,1.014,5.727,3.422,0.000,1.748,1.250,2.073,4.990,3.437,2.108,1.688,4.217,0.000,3.071,0.000,0.000,0.000,0.000,0.000,0.000,0.000,0.000,0.000,0.000,0.000,3.142,6.281,0.001,1.004,1.568,1.566,4.084,6.281,1.199,4.712,0.000,0.000,0.672,-9.330,0.990,4.720,2.252,0.888,5.281,4.710,4.709,2.197,6.282,5.083,1.570,0.000,0.000,1.328,-9.336,0.990,4.720,2.306,0.835,
8.620,15.257,0.999,-9.824,1.471,0.996,4.929,2.892,3.549,1.672,1.280,1.846,0.000,3.320,2.178,1.644,4.397,0.000,3.142,0.000,0.000,0.000,0.000,0.000,0.000,0.000,0.000,0.000,0.000,0.000,3.142,6.280,0.001,1.005,1.568,1.566,4.085,6.281,1.199,4.712,0.000,0.000,0.728,-9.205,0.990,4.808,1.621,1.519,5.282,4.710,4.709,2.197,6.282,5.083,1.570,0.000,0.000,1.382,-9.269,0.991,4.809,1.616,1.524,
8.720,15.357,1.012,-9.726,1.351,1.008,5.040,3.293,3.549,0.000,1.490,1.642,0.000,3.317,2.300,1.599,4.800,0.000,3.142,0.000,0.000,0.000,0.000,0.000,0.000,0.000,0.000,0.000,0.000,0.000,3.142,6.280,0.001,1.004,1.569,1.568,4.085,6.281,1.199,4.712,0.000,0.000,0.818,-9.079,0.990,4.930,1.593,1.547,5.282,4.711,4.710,2.197,6.282,5.083,1.570,0.000,0.000,1.459,-9.222,0.991,4.931,1.588,1.553,
8.820,15.457,1.036,-9.629,1.259,1.020,5.385,3.269,3.316,0.000,1.729,1.548,3.982,3.712,2.411,1.566,4.484,0.000,1.422,0.000,0.000,0.000,0.000,0.000,0.000,0.000,0.000,0.000,0.000,0.000,3.142,6.281,0.001,1.004,1.569,1.568,4.085,6.281,1.199,4.712,0.000,0.000,0.902,-8.967,0.990,5.023,1.587,1.555,5.282,4.711,4.711,2.197,6.282,5.083,1.570,0.000,0.000,1.527,-9.168,0.991,5.023,1.585,1.557,
8.907,15.544,1.068,-9.534,1.183,1.018,5.376,3.254,3.140,0.000,2.003,1.504,3.312,0.000,2.516,1.537,0.000,0.000,1.527,0.000,0.000,3.394,0.000,0.000,0.000,0.000,0.000,0.000,0.000,0.000,3.142,6.281,0.001,1.004,1.569,1.567,4.085,6.281,1.199,4.712,0.000,0.000,0.985,-8.864,0.990,5.098,1.584,1.557,5.282,4.711,4.710,2.197,6.282,5.083,1.570,0.000,0.000,1.593,-9.111,0.990,5.099,1.583,1.559,
9.020,15.656,1.099,-9.460,1.115,1.009,5.266,3.268,3.017,0.000,1.703,1.476,2.919,0.000,2.629,1.516,0.000,0.000,1.632,0.000,0.000,3.395,0.000,0.000,0.000,0.000,0.000,0.000,0.000,0.000,3.142,6.281,0.001,1.004,1.568,1.567,4.085,6.281,1.199,4.712,0.000,0.000,1.062,-8.786,0.990,5.165,1.582,1.559,5.282,4.711,4.710,2.197,6.282,5.083,1.570,0.000,0.000,1.651,-9.074,0.991,5.166,1.581,1.560,
9.120,15.757,1.144,-9.372,1.024,1.008,5.239,3.327,2.887,0.000,1.639,1.621,2.557,0.000,2.823,1.902,0.000,0.000,1.773,0.000,0.000,0.000,0.000,0.000,0.000,0.000,0.000,0.000,0.000,0.000,3.142,6.280,0.001,1.004,1.568,1.567,4.085,6.281,1.199,4.712,0.000,0.000,1.169,-8.697,0.990,5.257,1.580,1.561,5.282,4.711,4.710,2.197,6.282,5.083,1.570,0.000,0.000,1.730,-9.038,0.991,5.257,1.579,1.563,
9.210,15.847,1.210,-9.271,0.917,1.017,5.296,2.896,2.330,2.883,0.000,1.830,2.294,0.000,3.124,1.892,0.000,0.000,1.913,0.000,0.000,0.000,0.000,0.000,0.000,0.000,0.000,0.000,0.000,0.000,3.142,6.280,0.001,1.004,1.568,1.567,4.085,6.281,1.199,4.712,0.000,0.000,1.306,-8.603,0.990,5.364,1.579,1.563,5.282,4.711,4.710,2.197,6.282,5.083,1.570,0.000,0.000,1.827,-9.002,0.991,5.364,1.578,1.564,
9.320,15.957,1.259,-9.208,0.868,1.017,5.925,3.497,2.712,3.391,0.000,1.969,2.235,0.000,3.271,1.873,0.000,0.000,1.983,0.000,0.000,0.000,0.000,0.000,0.000,0.000,0.000,0.000,0.000,0.000,3.142,6.282,0.000,1.004,1.570,1.570,4.085,6.281,1.199,4.712,0.000,0.000,1.389,-8.547,0.990,5.416,1.578,1.564,5.282,4.712,4.712,2.198,6.281,5.083,1.571,0.000,0.000,1.890,-8.970,0.991,5.416,1.577,1.566,
9.406,16.042,1.336,-9.117,0.865,1.007,6.262,3.390,2.622,3.119,0.000,2.110,2.344,0.000,3.144,1.363,0.000,0.000,2.053,0.000,0.000,0.000,0.000,0.000,0.000,0.000,0.000,0.000,0.000,0.000,3.142,6.283,0.000,1.003,1.569,1.569,4.085,6.281,1.199,4.712,0.000,0.000,1.468,-8.456,0.990,5.418,1.578,1.564,5.281,4.711,4.711,2.198,6.282,5.083,1.570,0.000,0.000,1.968,-8.881,0.990,5.418,1.578,1.565,
9.517,16.154,1.388,-9.057,0.865,1.009,6.262,3.310,2.561,3.048,0.000,2.200,2.425,0.000,3.044,1.308,0.000,0.000,2.053,0.000,0.000,0.000,0.000,0.000,0.000,0.000,0.000,0.000,0.000,0.000,3.142,6.282,0.000,1.004,1.569,1.569,4.085,6.281,1.199,4.712,0.000,0.000,1.520,-8.395,0.990,5.418,1.578,1.564,5.281,4.711,4.711,2.198,6.282,5.083,1.570,0.000,0.000,2.019,-8.821,0.990,5.418,1.578,1.565,
9.620,16.257,1.452,-8.981,0.866,1.014,6.263,3.210,2.485,2.959,0.000,2.314,2.526,0.000,2.920,1.238,0.000,0.000,2.089,0.000,0.000,0.000,0.000,0.000,0.000,0.000,0.000,0.000,0.000,0.000,3.142,6.282,0.000,1.004,1.569,1.569,4.085,6.281,1.199,4.712,0.000,0.000,1.584,-8.320,0.990,5.417,1.578,1.564,5.281,4.711,4.711,2.198,6.282,5.083,1.570,0.000,0.000,2.083,-8.744,0.990,5.417,1.578,1.565,
9.720,16.357,1.530,-8.890,0.867,1.012,6.263,3.090,2.394,2.852,0.000,2.450,2.648,0.000,2.770,1.154,0.000,0.000,2.089,0.000,0.000,0.000,0.000,0.000,0.000,0.000,0.000,0.000,0.000,0.000,3.142,6.282,0.000,1.004,1.569,1.569,4.085,6.281,1.199,4.712,0.000,0.000,1.660,-8.228,0.990,5.416,1.578,1.564,5.281,4.711,4.711,2.198,6.282,5.083,1.570,0.000,0.000,2.161,-8.653,0.990,5.416,1.578,1.565,
9.801,16.438,1.594,-8.814,0.854,1.011,5.780,3.023,2.320,2.740,0.000,2.348,2.709,0.000,2.702,1.090,0.000,0.000,2.124,0.000,0.000,0.000,0.000,0.000,0.000,0.000,0.000,0.000,0.000,0.000,3.142,6.281,0.001,1.004,1.568,1.566,4.084,6.281,1.199,4.712,0.000,0.000,1.731,-8.153,0.990,5.425,1.577,1.564,5.281,4.710,4.709,2.197,6.282,5.083,1.570,0.000,0.000,2.227,-8.583,0.990,5.425,1.579,1.564,
9.901,16.538,1.647,-8.755,0.791,1.012,5.041,3.116,2.274,2.571,0.000,2.235,2.605,0.000,2.907,1.063,0.000,0.000,2.194,0.000,0.000,0.000,0.000,0.000,0.000,0.000,0.000,0.000,0.000,0.000,3.142,6.280,0.001,1.005,1.568,1.565,4.084,6.281,1.199,4.711,0.000,0.000,1.825,-8.103,0.990,5.487,1.577,1.564,5.282,4.710,4.708,2.197,6.282,5.083,1.570,0.000,0.000,2.293,-8.564,0.990,5.488,1.578,1.564,
10.013,16.650,1.719,-8.686,0.670,1.009,4.949,3.443,2.256,2.354,0.000,2.369,2.426,0.000,3.608,1.053,0.000,0.000,2.334,0.000,0.000,0.000,0.000,0.000,0.000,0.000,0.000,0.000,0.000,0.000,3.142,6.280,0.001,1.004,1.568,1.567,4.085,6.281,1.199,4.712,0.000,0.000,1.975,-8.061,0.990,5.611,1.577,1.565,5.282,4.711,4.710,2.197,6.282,5.083,1.570,0.000,0.000,2.383,-8.575,0.991,5.612,1.576,1.567,
10.120,16.757,1.798,-8.626,0.569,1.009,5.311,3.842,2.265,1.766,2.820,0.000,2.568,0.000,4.202,1.032,0.000,0.000,2.545,0.000,0.000,0.000,0.000,0.000,0.000,0.000,0.000,0.000,0.000,0.000,3.142,6.281,0.001,1.004,1.569,1.568,4.085,6.281,1.199,4.712,0.000,0.000,2.117,-8.031,0.990,5.713,1.577,1.566,5.282,4.711,4.711,2.197,6.282,5.083,1.570,0.000,0.000,2.471,-8.584,0.991,5.714,1.576,1.567,
10.200,16.837,1.901,-8.564,0.480,1.018,5.635,4.323,2.282,2.102,3.033,0.000,2.752,4.708,4.183,0.973,3.737,0.000,2.650,0.000,0.000,0.000,0.000,0.000,0.000,0.000,0.000,0.000,0.000,0.000,3.142,6.281,0.000,1.004,1.569,1.569,4.085,6.281,1.199,4.712,0.000,0.000,2.271,-8.000,0.990,5.803,1.576,1.567,5.282,4.711,4.711,2.198,6.282,5.083,1.570,0.000,0.000,2.575,-8.582,0.991,5.803,1.576,1.568,
10.309,16.946,1.972,-8.527,0.460,1.013,6.281,4.409,2.264,2.057,2.917,0.000,2.850,4.681,4.206,0.892,3.676,0.000,2.685,0.000,0.000,0.000,0.000,0.000,0.000,0.000,0.000,0.000,0.000,0.000,3.142,6.282,0.000,1.004,1.570,1.571,4.085,6.281,1.199,4.712,0.000,0.000,2.354,-7.972,0.990,5.825,1.576,1.568,5.281,4.712,4.712,2.198,6.281,5.083,1.571,0.000,0.000,2.646,-8.559,0.990,5.824,1.576,1.568,
10.420,17.057,2.061,-8.483,0.461,1.006,6.264,4.309,2.214,2.013,2.855,0.000,2.949,4.879,4.251,0.915,3.586,0.000,2.685,0.000,0.000,0.000,0.000,0.000,0.000,0.000,0.000,0.000,0.000,0.000,3.142,6.282,0.000,1.004,1.569,1.569,4.085,6.281,1.199,4.712,0.000,0.000,2.442,-7.927,0.990,5.822,1.576,1.567,5.281,4.711,4.711,2.198,6.282,5.083,1.570,0.000,0.000,2.734,-8.514,0.990,5.822,1.576,1.568,
10.520,17.157,2.167,-8.430,0.461,1.012,6.264,4.188,1.665,1.959,2.781,0.000,3.067,0.000,4.305,0.991,3.478,0.000,2.720,0.000,0.000,0.000,0.000,0.000,0.000,0.000,0.000,0.000,0.000,0.000,3.142,6.282,0.000,1.004,1.569,1.569,4.085,6.281,1.199,4.712,0.000,0.000,2.548,-7.874,0.990,5.821,1.576,1.567,5.281,4.711,4.711,2.198,6.282,5.083,1.570,0.000,0.000,2.841,-8.461,0.990,5.821,1.576,1.568,
10.612,17.249,2.257,-8.386,0.461,1.014,6.236,4.092,1.612,1.914,2.717,0.000,3.167,0.000,4.350,1.051,4.034,0.000,2.720,0.000,0.000,0.000,0.000,0.000,0.000,0.000,0.000,0.000,0.000,0.000,3.142,6.282,0.000,1.004,1.569,1.569,4.084,6.281,1.199,4.712,0.000,0.000,2.637,-7.829,0.990,5.821,1.576,1.568,5.281,4.711,4.711,2.197,6.282,5.083,1.570,0.000,0.000,2.930,-8.416,0.990,5.821,1.576,1.568,
10.713,17.350,2.328,-8.350,0.438,1.012,5.555,4.207,2.090,1.871,2.603,0.000,3.273,0.000,4.371,0.973,3.417,0.000,2.755,0.000,0.000,0.000,0.000,0.000,0.000,0.000,0.000,0.000,0.000,0.000,3.142,6.281,0.001,1.004,1.568,1.565,4.084,6.282,1.199,4.711,0.000,0.000,2.721,-7.801,0.990,5.841,1.576,1.567,5.281,4.710,4.708,2.197,6.282,5.083,1.570,0.000,0.000,3.000,-8.395,0.990,5.841,1.577,1.567,
10.820,17.457,2.419,-8.310,0.337,1.010,4.891,0.000,2.170,1.812,1.764,0.000,3.265,4.597,4.376,0.946,3.915,0.000,2.861,0.000,0.000,0.000,0.000,0.000,0.000,0.000,0.000,0.000,0.000,0.000,3.142,6.280,0.001,1.004,1.568,1.566,4.085,6.281,1.199,4.712,0.000,0.000,2.865,-7.803,0.990,5.943,1.576,1.567,5.282,4.710,4.709,2.197,6.282,5.083,1.570,0.000,0.000,3.083,-8.422,0.991,5.944,1.575,1.568,
10.903,17.540,2.533,-8.275,0.199,1.007,5.173,0.000,2.366,1.782,2.070,3.809,3.169,4.029,0.000,0.934,1.797,0.000,3.001,0.000,0.000,0.000,0.000,0.000,0.000,0.000,0.000,0.000,0.000,0.000,3.142,6.280,0.001,1.004,1.569,1.568,4.085,6.281,1.199,4.712,0.000,0.000,3.045,-7.835,0.990,6.083,1.576,1.568,5.282,4.711,4.711,2.198,6.282,5.083,1.570,0.000,0.000,3.175,-8.479,0.991,6.084,1.575,1.569,
11.020,17.657,2.611,-8.260,0.151,1.014,6.029,0.000,2.453,1.777,1.997,3.555,3.439,3.942,0.000,0.850,1.655,0.000,3.071,0.000,0.000,0.000,0.000,0.000,0.000,0.000,0.000,0.000,0.000,0.000,3.142,6.282,0.000,1.004,1.570,1.571,4.085,6.280,1.199,4.712,0.000,0.000,3.144,-7.848,0.990,6.135,1.576,1.570,5.282,4.712,4.713,2.198,6.281,5.083,1.571,0.000,0.000,3.243,-8.496,0.991,6.135,1.575,1.570,
11.120,17.757,2.730,-8.242,0.150,1.013,6.267,0.000,2.430,1.317,1.976,3.688,3.561,4.106,0.000,0.852,1.676,0.000,3.071,0.000,0.000,0.000,0.000,0.000,0.000,0.000,0.000,0.000,0.000,0.000,3.142,6.283,0.000,1.003,1.569,1.569,4.085,6.281,1.199,4.712,0.000,0.000,3.263,-7.829,0.990,6.133,1.576,1.569,5.281,4.711,4.711,2.198,6.282,5.083,1.570,0.000,0.000,3.361,-8.478,0.990,6.133,1.575,1.570,
11.202,17.839,2.828,-8.227,0.151,1.010,6.262,0.000,2.407,1.298,1.961,3.795,3.657,4.249,0.914,0.869,1.617,0.000,3.071,0.000,0.000,0.000,0.000,0.000,0.000,0.000,0.000,0.000,0.000,0.000,3.142,6.283,0.000,1.003,1.569,1.569,4.085,6.281,1.199,4.712,0.000,0.000,3.361,-7.814,0.990,6.132,1.576,1.569,5.281,4.711,4.711,2.198,6.282,5.083,1.570,0.000,0.000,3.460,-8.462,0.990,6.132,1.575,1.570,
11.306,17.943,2.906,-8.215,0.151,1.011,6.263,0.000,2.389,1.732,1.948,3.881,3.733,4.362,0.926,0.883,1.646,0.000,3.071,0.000,0.000,0.000,0.000,0.000,0.000,0.000,0.000,0.000,0.000,0.000,3.142,6.283,0.000,1.004,1.569,1.569,4.085,6.281,1.199,4.712,0.000,0.000,3.439,-7.801,0.990,6.132,1.576,1.569,5.281,4.711,4.711,2.198,6.282,5.083,1.570,0.000,0.000,3.538,-8.450,0.990,6.132,1.575,1.570,
11.420,18.057,3.005,-8.200,0.152,1.013,6.261,0.000,2.366,1.716,1.931,3.989,3.829,4.504,0.942,0.900,3.642,0.000,3.071,0.000,0.000,0.000,0.000,0.000,0.000,0.000,0.000,0.000,0.000,0.000,3.142,6.283,0.000,1.004,1.569,1.569,4.085,6.281,1.199,4.712,0.000,0.000,3.537,-7.786,0.990,6.131,1.576,1.569,5.281,4.711,4.711,2.198,6.282,5.083,1.570,0.000,0.000,3.637,-8.434,0.990,6.131,1.575,1.570,
11.520,18.157,3.123,-8.182,0.153,1.012,6.263,0.000,2.339,1.698,1.911,3.917,3.945,4.675,0.960,0.921,3.419,0.000,3.071,0.000,0.000,0.000,0.000,0.000,0.000,0.000,0.000,0.000,0.000,0.000,3.142,6.282,0.000,1.004,1.569,1.569,4.085,6.281,1.199,4.712,0.000,0.000,3.655,-7.767,0.990,6.130,1.576,1.569,5.281,4.711,4.711,2.198,6.282,5.083,1.570,0.000,0.000,3.755,-8.416,0.990,6.130,1.575,1.570,
11.607,18.243,3.221,-8.167,0.154,1.011,6.263,0.000,2.317,1.682,1.895,3.887,4.041,4.817,0.843,0.939,3.308,0.000,3.071,0.000,0.000,0.000,0.000,0.000,0.000,0.000,0.000,0.000,0.000,0.000,3.142,6.282,0.000,1.004,1.569,1.569,4.085,6.281,1.199,4.712,0.000,0.000,3.753,-7.752,0.990,6.129,1.576,1.569,5.281,4.711,4.711,2.198,6.282,5.083,1.570,0.000,0.000,3.854,-8.400,0.990,6.129,1.575,1.570,
11.704,18.341,3.300,-8.154,0.154,1.011,6.264,0.000,2.299,1.670,1.881,3.862,4.119,4.930,0.856,0.953,3.219,0.000,3.071,0.000,0.000,0.000,0.000,0.000,0.000,0.000,0.000,0.000,0.000,0.000,3.142,6.282,0.000,1.004,1.569,1.569,4.085,6.281,1.199,4.712,0.000,0.000,3.832,-7.739,0.990,6.129,1.576,1.569,5.281,4.711,4.711,2.198,6.282,5.083,1.570,0.000,0.000,3.933,-8.387,0.990,6.129,1.575,1.570,
11.816,18.453,3.398,-8.139,0.154,1.012,6.238,0.000,1.758,1.654,1.864,3.827,4.218,0.000,0.871,0.970,3.109,0.000,3.071,0.000,0.000,0.000,0.000,0.000,0.000,0.000,0.000,0.000,0.000,0.000,3.142,6.282,0.000,1.004,1.569,1.569,4.084,6.281,1.199,4.712,0.000,0.000,3.930,-7.723,0.990,6.128,1.575,1.569,5.281,4.711,4.711,2.197,6.282,5.083,1.570,0.000,0.000,4.031,-8.372,0.990,6.128,1.576,1.569,
11.919,18.555,3.497,-8.124,0.116,1.013,5.362,0.000,2.343,1.649,1.323,2.560,4.532,0.000,0.892,0.968,3.059,0.000,3.106,0.000,0.000,0.000,0.000,0.000,0.000,0.000,0.000,0.000,0.000,0.000,3.142,6.280,0.001,1.005,1.567,1.565,4.084,6.282,1.199,4.711,0.000,0.000,4.043,-7.727,0.990,6.162,1.575,1.568,5.281,4.710,4.708,2.197,6.282,5.083,1.570,0.000,0.000,4.120,-8.378,0.990,6.162,1.576,1.569,
12.017,18.654,3.596,-8.115,0.016,1.010,5.308,0.000,2.616,1.677,1.724,2.943,0.000,4.741,0.924,0.939,3.230,0.000,3.142,0.000,0.000,0.000,0.000,0.000,0.000,0.000,0.000,0.000,0.000,0.000,3.142,6.281,0.000,1.004,1.569,1.569,4.085,6.281,1.199,4.712,0.000,0.000,4.180,-7.776,0.990,6.267,1.576,1.570,5.282,4.711,4.711,2.198,6.281,5.083,1.570,0.000,0.000,4.191,-8.433,0.991,6.267,1.575,1.570,
12.119,18.755,3.696,-8.115,6.267,1.013,0.035,0.000,2.727,1.693,1.705,2.808,0.000,4.754,0.934,0.929,3.180,0.000,3.142,0.000,0.000,0.000,0.000,0.000,0.000,0.000,0.000,0.000,0.000,0.000,3.142,6.283,0.000,1.003,1.570,1.571,4.085,6.281,1.199,4.712,0.000,0.000,4.290,-7.796,0.990,0.017,1.576,1.570,5.281,4.712,4.712,2.198,6.281,5.083,1.570,0.000,0.000,4.280,-8.452,0.990,0.017,1.575,1.571,
12.220,18.857,3.795,-8.116,6.269,1.011,6.268,0.000,2.725,1.694,1.707,2.816,0.000,4.881,0.932,0.928,3.053,0.000,3.142,0.000,0.000,0.000,0.000,0.000,0.000,0.000,0.000,0.000,0.000,0.000,3.142,6.283,0.000,1.003,1.569,1.569,4.085,6.281,1.199,4.712,0.000,0.000,4.389,-7.796,0.990,0.014,1.576,1.570,5.281,4.711,4.711,2.198,6.282,5.083,1.570,0.000,0.000,4.380,-8.452,0.990,0.014,1.575,1.570,
12.320,18.957,3.915,-8.118,6.270,1.012,6.261,0.000,2.723,1.695,1.709,2.824,0.000,0.000,0.930,0.927,2.804,0.000,3.142,0.000,0.000,0.000,0.000,0.000,0.000,0.000,0.000,0.000,0.000,0.000,3.142,6.283,0.000,1.003,1.569,1.569,4.085,6.281,1.199,4.712,0.000,0.000,4.508,-7.797,0.990,0.013,1.576,1.570,5.281,4.711,4.711,2.198,6.282,5.083,1.570,0.000,0.000,4.499,-8.453,0.990,0.013,1.575,1.570,
12.420,19.057,4.014,-8.119,6.271,1.012,6.261,4.986,2.722,1.696,1.711,2.829,0.000,0.000,0.928,0.873,2.679,0.000,3.142,0.000,0.000,0.000,0.000,0.000,0.000,0.000,0.000,0.000,0.000,0.000,3.142,6.283,0.000,1.003,1.569,1.569,4.085,6.281,1.199,4.712,0.000,0.000,4.607,-7.798,0.990,0.012,1.576,1.570,5.281,4.711,4.711,2.198,6.282,5.083,1.570,0.000,0.000,4.599,-8.454,0.990,0.012,1.575,1.570,
12.502,19.139,4.114,-8.120,6.271,1.012,6.262,4.886,2.722,1.697,1.713,2.834,0.000,1.738,0.926,0.872,2.555,0.000,3.142,0.000,0.000,0.000,0.000,0.000,0.000,0.000,0.000,0.000,0.000,0.000,3.142,6.283,0.000,1.004,1.569,1.569,4.085,6.281,1.199,4.712,0.000,0.000,4.707,-7.798,0.990,0.012,1.576,1.570,5.281,4.711,4.711,2.198,6.282,5.083,1.570,0.000,0.000,4.699,-8.454,0.990,0.012,1.575,1.570,
12.603,19.240,4.193,-8.121,6.272,1.011,6.262,4.807,2.721,1.697,1.714,2.838,0.000,1.735,0.925,0.000,1.741,0.000,3.142,0.000,0.000,0.000,0.000,0.000,0.000,0.000,0.000,0.000,0.000,0.000,3.142,6.283,0.000,1.004,1.569,1.569,4.085,6.281,1.199,4.712,0.000,0.000,4.786,-7.799,0.990,0.011,1.576,1.570,5.281,4.711,4.711,2.198,6.282,5.083,1.570,0.000,0.000,4.779,-8.455,0.990,0.011,1.575,1.570,
12.720,19.357,4.293,-8.122,6.273,1.012,6.263,4.707,2.721,1.236,1.716,2.843,0.000,1.508,0.924,0.000,1.617,0.000,3.142,0.000,0.000,0.000,0.000,0.000,0.000,0.000,0.000,0.000,0.000,0.000,3.142,6.282,0.000,1.004,1.569,1.569,4.085,6.281,1.199,4.712,0.000,0.000,4.885,-7.800,0.990,0.010,1.576,1.570,5.281,4.711,4.711,2.198,6.282,5.083,1.570,0.000,0.000,4.879,-8.456,0.990,0.010,1.575,1.570,
12.816,19.453,4.412,-8.123,6.273,1.012,6.263,4.588,3.431,1.699,1.717,2.848,0.000,1.504,0.923,0.000,1.469,0.000,3.142,0.000,0.000,0.000,0.000,0.000,0.000,0.000,0.000,0.000,0.000,0.000,3.142,6.282,0.000,1.004,1.569,1.569,4.085,6.281,1.199,4.712,0.000,0.000,5.005,-7.800,0.990,0.010,1.576,1.570,5.281,4.711,4.711,2.198,6.282,5.083,1.570,0.000,0.000,4.998,-8.456,0.990,0.009,1.575,1.570,
12.916,19.553,4.492,-8.124,6.274,1.012,6.264,4.508,0.000,1.700,1.719,2.851,0.000,1.502,0.922,0.000,1.414,0.000,3.142,0.000,0.000,0.000,0.000,0.000,0.000,0.000,0.000,0.000,0.000,0.000,3.142,6.282,0.000,1.004,1.569,1.569,4.085,6.281,1.199,4.712,0.000,0.000,5.084,-7.801,0.990,0.009,1.576,1.570,5.281,4.711,4.711,2.198,6.282,5.083,1.570,0.000,0.000,5.078,-8.457,0.990,0.009,1.575,1.570,
13.017,19.654,4.591,-8.125,6.274,1.012,6.264,4.409,0.000,1.700,1.720,2.855,0.000,1.499,0.868,0.000,1.414,0.000,3.142,0.000,0.000,0.000,0.000,0.000,0.000,0.000,0.000,0.000,0.000,0.000,3.142,6.282,0.000,1.004,1.569,1.569,4.085,6.281,1.199,4.712,0.000,0.000,5.183,-7.802,0.990,0.009,1.576,1.570,5.281,4.711,4.711,2.198,6.282,5.083,1.570,0.000,0.000,5.178,-8.458,0.990,0.008,1.575,1.570,
13.113,19.750,4.691,-8.126,6.275,1.012,6.264,4.309,2.093,1.701,1.721,2.082,0.000,1.497,0.891,0.000,1.499,0.000,3.142,0.000,0.000,0.000,0.000,0.000,0.000,0.000,0.000,0.000,0.000,0.000,3.142,6.282,0.000,1.004,1.569,1.569,4.085,6.281,1.199,4.712,0.000,0.000,5.283,-7.802,0.990,0.008,1.576,1.570,5.281,4.711,4.711,2.198,6.282,5.083,1.570,0.000,0.000,5.277,-8.458,0.990,0.008,1.575,1.570,
13.220,19.857,4.790,-8.127,6.275,1.012,6.264,4.210,1.981,1.701,1.722,2.163,0.000,1.495,3.785,0.000,1.498,0.000,3.142,0.000,0.000,0.000,0.000,0.000,0.000,0.000,0.000,0.000,0.000,0.000,3.142,6.282,0.000,1.004,1.569,1.569,4.085,6.281,1.199,4.712,0.000,0.000,5.382,-7.803,0.990,0.008,1.576,1.570,5.281,4.711,4.711,2.198,6.282,5.083,1.570,0.000,0.000,5.377,-8.459,0.990,0.007,1.575,1.570,
13.315,19.952,4.910,-8.128,6.276,1.012,6.265,4.090,0.000,1.702,1.723,2.866,0.000,1.492,4.177,0.000,1.498,0.000,3.142,0.000,0.000,0.000,0.000,0.000,0.000,0.000,0.000,0.000,0.000,0.000,3.142,6.282,0.000,1.004,1.569,1.569,4.085,6.281,1.199,4.712,0.000,0.000,5.501,-7.803,0.990,0.007,1.576,1.570,5.281,4.711,4.711,2.198,6.282,5.083,1.570,0.000,0.000,5.497,-8.459,0.990,0.007,1.575,1.570,
13.420,20.057,4.989,-8.128,6.276,1.012,6.265,4.011,0.000,1.703,1.724,2.868,0.000,1.490,4.440,0.000,1.498,0.000,3.142,0.000,0.000,0.000,0.000,0.000,0.000,0.000,0.000,0.000,0.000,0.000,3.142,6.282,0.000,1.004,1.569,1.569,4.085,6.281,1.199,4.712,0.000,0.000,5.581,-7.803,0.990,0.007,1.576,1.570,5.281,4.711,4.711,2.198,6.282,5.083,1.570,0.000,0.000,5.577,-8.459,0.990,0.006,1.575,1.570,
13.514,20.151,5.109,-8.129,6.277,1.012,6.265,3.891,4.862,1.703,1.258,2.872,0.000,1.488,4.834,0.000,1.498,0.000,3.142,0.000,0.000,0.000,0.000,0.000,0.000,0.000,0.000,0.000,0.000,0.000,3.142,6.282,0.000,1.004,1.569,1.569,4.085,6.281,1.199,4.712,0.000,0.000,5.700,-7.804,0.990,0.006,1.576,1.570,5.281,4.711,4.711,2.198,6.282,5.083,1.570,0.000,0.000,5.696,-8.460,0.990,0.006,1.575,1.570,
13.616,20.253,5.188,-8.130,6.277,1.012,6.266,3.812,4.764,1.703,1.726,2.874,0.000,1.486,0.000,0.000,1.498,0.000,3.142,0.000,0.000,0.000,0.000,0.000,0.000,0.000,0.000,0.000,0.000,0.000,3.142,6.282,0.000,1.004,1.569,1.569,4.085,6.281,1.199,4.712,0.000,0.000,5.780,-7.804,0.990,0.006,1.576,1.570,5.281,4.711,4.711,2.198,6.282,5.083,1.570,0.000,0.000,5.776,-8.460,0.990,0.006,1.575,1.570,
13.714,20.351,5.288,-8.130,6.278,1.012,6.266,3.712,4.641,1.704,1.727,2.877,0.000,1.484,0.000,1.008,1.497,0.000,3.142,0.000,0.000,0.000,0.000,0.000,0.000,0.000,0.000,0.000,0.000,0.000,3.142,6.282,0.000,1.004,1.569,1.569,4.085,6.281,1.199,4.712,0.000,0.000,5.879,-7.805,0.990,0.005,1.576,1.570,5.281,4.711,4.711,2.198,6.282,5.083,1.570,0.000,0.000,5.876,-8.461,0.990,0.005,1.575,1.570,
13.813,20.450,5.388,-8.131,6.278,1.012,6.266,3.613,4.518,1.704,1.728,2.880,0.000,1.397,0.000,0.863,1.497,0.000,3.142,0.000,0.000,0.000,0.000,0.000,0.000,0.000,0.000,0.000,0.000,0.000,3.142,6.282,0.000,1.004,1.569,1.569,4.085,6.281,1.199,4.712,0.000,0.000,5.978,-7.805,0.990,0.005,1.576,1.570,5.281,4.711,4.711,2.198,6.282,5.083,1.570,0.000,0.000,5.975,-8.461,0.990,0.005,1.575,1.570,
13.911,20.548,5.487,-8.131,6.278,1.012,6.265,3.513,4.395,1.704,1.729,2.882,0.000,1.396,4.381,0.863,1.497,0.000,3.142,0.000,0.000,0.000,0.000,0.000,0.000,0.000,0.000,0.000,0.000,0.000,3.142,6.282,0.000,1.004,1.569,1.569,4.085,6.281,1.199,4.712,0.000,0.000,6.078,-7.805,0.990,0.004,1.576,1.570,5.281,4.711,4.711,2.198,6.282,5.083,1.570,0.000,0.000,6.075,-8.461,0.990,0.004,1.575,1.570,
14.011,20.648,5.587,-8.132,6.279,1.012,6.266,3.414,4.272,1.705,1.729,2.885,0.000,1.448,4.336,0.915,1.497,0.000,3.142,0.000,0.000,0.000,0.000,0.000,0.000,0.000,0.000,0.000,0.000,0.000,3.142,6.282,0.000,1.004,1.569,1.569,4.085,6.281,1.199,4.712,0.000,0.000,6.177,-7.805,0.990,0.004,1.576,1.570,5.281,4.711,4.711,2.198,6.282,5.083,1.570,0.000,0.000,6.175,-8.461,0.990,0.004,1.575,1.570,
14.106,20.742,5.686,-8.132,6.279,1.012,6.266,3.314,4.148,1.705,1.730,2.887,0.000,1.571,4.291,0.915,1.498,0.000,3.142,0.000,0.000,0.000,0.000,0.000,0.000,0.000,0.000,0.000,0.000,0.000,3.142,6.282,0.000,1.004,1.569,1.569,4.085,6.281,1.199,4.712,0.000,0.000,6.276,-7.805,0.990,0.004,1.576,1.570,5.281,4.711,4.711,2.198,6.282,5.083,1.570,0.000,0.000,6.274,-8.461,0.990,0.003,1.575,1.570,
14.211,20.848,5.786,-8.132,6.280,1.012,6.266,3.215,4.025,1.705,1.731,2.890,0.000,1.695,4.246,0.914,1.498,0.000,3.142,0.000,0.000,0.000,0.000,0.000,0.000,0.000,0.000,0.000,0.000,0.000,3.142,6.282,0.000,1.004,1.569,1.569,4.085,6.281,1.199,4.712,0.000,0.000,6.376,-7.806,0.990,0.003,1.576,1.570,5.281,4.711,4.711,2.198,6.282,5.083,1.570,0.000,0.000,6.374,-8.462,0.990,0.003,1.575,1.570,
14.307,20.944,5.885,-8.133,6.280,1.011,6.266,3.115,3.901,1.705,1.731,2.892,0.000,1.860,0.858,0.914,1.498,0.000,3.142,0.000,0.000,0.000,0.000,0.000,0.000,0.000,0.000,0.000,0.000,0.000,3.142,6.282,0.000,1.004,1.569,1.569,4.085,6.281,1.199,4.712,0.000,0.000,6.475,-7.806,0.990,0.003,1.576,1.570,5.281,4.711,4.711,2.198,6.282,5.083,1.570,0.000,0.000,6.473,-8.462,0.990,0.003,1.575,1.570,
14.410,21.047,5.985,-8.133,6.282,1.011,0.157,3.016,3.784,1.704,1.733,2.903,0.000,2.083,0.857,0.915,1.503,0.000,3.142,0.000,0.000,0.000,0.000,0.000,0.000,0.000,0.000,0.000,0.000,0.000,3.142,0.000,0.000,1.003,1.570,1.570,4.086,6.281,1.199,4.712,0.000,0.000,6.574,-7.806,0.990,0.002,1.576,1.570,5.281,4.712,4.712,2.199,6.282,5.083,1.570,0.000,0.000,6.573,-8.461,0.990,0.002,1.575,1.570,
14.508,21.145,6.084,-8.132,0.053,1.011,1.144,2.923,3.821,1.225,1.769,3.157,0.000,2.620,0.896,0.934,1.631,0.000,3.142,0.000,0.000,0.000,0.000,0.000,0.000,0.000,0.000,0.000,0.000,0.000,3.142,0.001,0.000,1.003,1.571,1.572,4.086,6.281,1.199,4.712,0.000,0.000,6.655,-7.775,0.990,6.233,1.576,1.570,5.282,4.713,4.714,2.199,6.282,5.083,1.571,0.000,0.000,6.690,-8.430,0.991,6.233,1.574,1.571,
14.610,21.246,6.176,-8.125,0.140,0.831,0.569,2.860,4.010,1.644,1.834,3.685,0.000,4.292,0.887,0.979,1.916,0.000,3.142,0.000,0.000,0.000,0.000,0.000,0.000,0.000,0.000,0.000,0.000,0.000,3.142,0.001,0.001,1.003,1.569,1.568,4.087,6.282,1.199,4.712,0.000,0.000,6.714,-7.716,0.990,6.141,1.577,1.568,5.281,4.712,4.710,2.198,6.283,5.083,1.570,0.000,0.000,6.805,-8.367,0.991,6.142,1.575,1.569,
14.709,21.346,6.249,-8.114,0.150,0.727,6.276,2.739,3.945,1.185,1.832,3.735,0.000,4.355,0.897,0.996,1.977,0.000,3.142,0.000,0.000,0.000,0.000,0.000,0.000,0.000,0.000,0.000,0.000,0.000,3.142,6.282,0.000,1.004,1.569,1.569,4.085,6.281,1.199,4.712,0.000,0.000,6.783,-7.701,0.990,6.133,1.576,1.569,5.281,4.711,4.711,2.197,6.282,5.083,1.570,0.000,0.000,6.881,-8.350,0.990,6.133,1.576,1.569,
14.810,21.447,6.323,-8.103,0.150,0.819,6.272,2.664,3.838,2.023,1.819,3.708,0.000,4.371,0.908,1.008,1.652,0.000,3.142,0.000,0.000,0.000,0.000,0.000,0.000,0.000,0.000,0.000,0.000,0.000,3.142,6.281,0.000,1.004,1.569,1.568,4.084,6.281,1.199,4.712,0.000,0.000,6.856,-7.690,0.990,6.132,1.575,1.569,5.281,4.711,4.710,2.197,6.282,5.083,1.570,0.000,0.000,6.955,-8.338,0.990,6.132,1.576,1.569,
14.909,21.546,6.406,-8.091,0.150,0.871,6.271,2.580,3.718,0.000,1.805,3.679,0.000,4.390,0.921,1.022,1.559,0.000,3.142,0.000,0.000,0.000,0.000,0.000,0.000,0.000,0.000,0.000,0.000,0.000,3.142,6.282,0.000,1.004,1.569,1.569,4.085,6.281,1.199,4.712,0.000,0.000,6.940,-7.678,0.990,6.133,1.575,1.569,5.281,4.711,4.711,2.197,6.282,5.083,1.570,0.000,0.000,7.038,-8.326,0.990,6.133,1.576,1.569,
15.010,21.647,6.489,-8.078,0.150,0.822,6.270,2.496,3.600,0.000,1.791,3.650,0.000,1.238,0.933,1.036,1.467,0.000,3.142,0.000,0.000,0.000,0.000,0.000,0.000,0.000,0.000,0.000,0.000,0.000,3.142,6.282,0.000,1.004,1.569,1.569,4.085,6.281,1.199,4.712,0.000,0.000,7.022,-7.665,0.990,6.133,1.576,1.569,5.281,4.711,4.711,2.198,6.282,5.083,1.570,0.000,0.000,7.120,-8.314,0.990,6.133,1.576,1.569,
15.106,21.743,6.567,-8.067,0.150,0.797,6.270,2.417,3.489,0.000,1.777,3.623,0.000,1.254,0.945,1.049,1.380,0.000,3.142,0.000,0.000,0.000,0.000,0.000,0.000,0.000,0.000,0.000,0.000,0.000,3.142,6.282,0.000,1.004,1.569,1.569,4.085,6.281,1.199,4.712,0.000,0.000,7.100,-7.654,0.990,6.133,1.576,1.569,5.281,4.711,4.711,2.198,6.282,5.083,1.570,0.000,0.000,7.198,-8.302,0.990,6.133,1.576,1.569,
15.212,21.848,6.645,-8.055,0.150,0.823,6.269,2.338,3.377,0.000,1.764,3.597,0.000,1.271,0.957,1.062,1.292,0.000,3.142,0.000,0.000,0.000,0.000,0.000,0.000,0.000,0.000,0.000,0.000,0.000,3.142,6.282,0.000,1.004,1.569,1.569,4.084,6.281,1.199,4.712,0.000,0.000,7.178,-7.642,0.990,6.133,1.575,1.569,5.281,4.711,4.711,2.198,6.282,5.083,1.570,0.000,0.000,7.277,-8.290,0.990,6.133,1.576,1.569,
15.309,21.946,6.726,-8.043,0.150,0.835,6.268,2.256,3.262,0.000,1.750,3.570,0.000,1.345,0.969,1.076,1.202,0.000,3.142,0.000,0.000,0.000,0.000,0.000,0.000,0.000,0.000,0.000,0.000,0.000,3.142,6.282,0.000,1.004,1.569,1.569,4.085,6.281,1.199,4.712,0.000,0.000,7.259,-7.630,0.990,6.133,1.576,1.569,5.281,4.711,4.711,2.198,6.282,5.083,1.570,0.000,0.000,7.357,-8.278,0.990,6.133,1.576,1.569,
15.412,22.049,6.808,-8.030,0.151,0.916,0.108,2.173,3.149,0.000,1.738,3.553,0.000,1.374,0.982,1.091,1.108,0.000,3.142,0.000,0.000,0.000,0.000,0.000,0.000,0.000,0.000,0.000,0.000,0.000,3.142,6.282,0.000,1.004,1.569,1.569,4.084,6.281,1.199,4.712,0.000,0.000,7.341,-7.617,0.990,6.132,1.575,1.569,5.281,4.711,4.712,2.199,6.282,5.083,1.570,0.000,0.000,7.440,-8.265,0.991,6.132,1.575,1.570,
15.506,22.143,6.907,-8.014,0.201,1.093,1.096,2.093,3.171,0.000,1.769,3.925,0.000,1.333,0.991,1.139,0.975,0.000,3.142,0.000,0.000,0.000,0.000,0.000,0.000,0.000,0.000,0.000,0.000,0.000,3.142,0.001,0.000,1.004,1.571,1.572,4.085,6.281,1.199,4.712,0.000,0.000,7.419,-7.577,0.990,6.085,1.575,1.570,5.282,4.713,4.714,2.199,6.282,5.083,1.571,0.000,0.000,7.550,-8.220,0.991,6.085,1.574,1.570,
15.615,22.252,7.012,-7.990,0.320,1.058,1.400,0.000,3.513,0.000,1.890,0.000,3.211,1.240,1.010,1.263,1.240,0.000,3.036,0.000,0.000,0.000,0.000,0.000,0.000,0.000,0.000,0.000,0.000,0.000,3.142,0.002,0.000,1.003,1.571,1.570,4.086,6.282,1.199,4.712,0.000,0.000,7.468,-7.494,0.990,5.964,1.576,1.568,5.282,4.713,4.713,2.198,6.282,5.083,1.571,0.000,0.000,7.675,-8.117,0.991,5.965,1.574,1.569,
15.711,22.348,7.106,-7.956,0.424,0.977,0.957,0.000,3.971,0.000,2.021,0.000,2.955,1.199,1.051,1.020,1.929,0.000,2.966,0.000,0.000,0.000,0.000,0.000,0.000,0.000,0.000,0.000,0.000,0.000,3.142,0.001,0.000,1.003,1.570,1.569,4.086,6.282,1.199,4.712,0.000,0.000,7.507,-7.414,0.990,5.858,1.576,1.567,5.282,4.712,4.712,2.198,6.283,5.083,1.570,0.000,0.000,7.778,-8.012,0.991,5.859,1.575,1.568,
15.815,22.452,7.193,-7.915,0.496,0.995,0.830,0.000,4.382,3.375,2.116,0.000,3.399,1.201,1.105,0.830,1.820,0.000,2.896,0.000,0.000,0.000,0.000,0.000,0.000,0.000,0.000,0.000,0.000,0.000,3.142,0.001,0.000,1.004,1.570,1.570,4.085,6.281,1.199,4.712,0.000,0.000,7.554,-7.346,0.990,5.787,1.576,1.567,5.282,4.712,4.712,2.198,6.282,5.083,1.570,0.000,0.000,7.867,-7.923,0.991,5.787,1.575,1.568,
15.918,22.554,7.280,-7.865,0.576,1.032,1.033,4.229,0.000,2.758,2.249,0.000,1.991,1.214,1.177,0.780,1.722,0.000,2.791,0.000,0.000,0.000,0.000,0.000,0.000,0.000,0.000,0.000,0.000,0.000,3.142,0.001,0.000,1.003,1.570,1.570,4.085,6.281,1.199,4.712,0.000,0.000,7.595,-7.269,0.990,5.708,1.576,1.567,5.282,4.712,4.713,2.198,6.282,5.083,1.570,0.000,0.000,7.953,-7.820,0.991,5.708,1.575,1.568,
16.020,22.657,7.363,-7.808,0.670,1.023,1.084,2.099,0.000,2.328,2.467,0.000,1.920,1.237,1.275,0.994,1.639,0.000,2.720,0.000,0.000,0.000,0.000,0.000,0.000,0.000,0.000,0.000,0.000,0.000,3.142,0.001,0.000,1.003,1.570,1.570,4.086,6.281,1.199,4.712,0.000,0.000,7.622,-7.185,0.990,5.614,1.577,1.566,5.282,4.712,4.712,2.198,6.282,5.083,1.570,0.000,0.000,8.029,-7.700,0.991,5.614,1.575,1.567,
16.107,22.744,7.455,-7.731,0.776,1.003,0.996,2.204,0.000,2.042,2.816,0.000,1.812,1.286,0.764,1.733,0.000,0.000,2.615,0.000,0.000,0.000,0.000,0.000,0.000,0.000,0.000,0.000,0.000,0.000,3.142,0.001,0.000,1.003,1.570,1.570,4.086,6.281,1.199,4.712,0.000,0.000,7.645,-7.084,0.990,5.507,1.577,1.565,5.282,4.712,4.712,2.198,6.282,5.083,1.570,0.000,0.000,8.105,-7.552,0.991,5.508,1.575,1.567,
16.220,22.857,7.510,-7.675,0.844,1.010,0.994,2.288,0.000,1.919,3.132,0.000,1.773,1.331,0.786,1.619,0.000,0.000,2.580,0.000,0.000,0.000,0.000,0.000,0.000,0.000,0.000,0.000,0.000,0.000,3.142,0.001,0.000,1.003,1.570,1.570,4.085,6.281,1.199,4.712,0.000,0.000,7.656,-7.016,0.990,5.439,1.578,1.564,5.282,4.712,4.712,2.198,6.282,5.083,1.570,0.000,0.000,8.147,-7.452,0.991,5.440,1.576,1.566,
16.319,22.956,7.587,-7.582,0.948,1.019,1.025,2.484,0.000,1.579,3.913,4.116,1.745,1.418,0.958,1.478,0.000,0.000,2.475,0.000,0.000,0.000,0.000,0.000,0.000,0.000,0.000,0.000,0.000,0.000,3.142,0.001,0.000,1.003,1.570,1.570,4.085,6.281,1.199,4.712,0.000,0.000,7.664,-6.912,0.990,5.335,1.579,1.563,5.282,4.712,4.712,2.198,6.282,5.083,1.570,0.000,0.000,8.197,-7.295,0.991,5.336,1.576,1.565,
16.408,23.044,7.633,-7.517,1.019,1.015,1.028,2.684,0.000,1.700,2.978,3.528,1.742,1.488,1.101,1.403,0.000,0.000,2.404,0.000,0.000,0.000,0.000,0.000,0.000,0.000,0.000,0.000,0.000,0.000,3.142,0.001,0.000,1.003,1.570,1.570,4.086,6.281,1.199,4.712,0.000,0.000,7.662,-6.843,0.990,5.265,1.580,1.562,5.282,4.712,4.712,2.198,6.282,5.083,1.570,0.000,0.000,8.221,-7.187,0.991,5.265,1.577,1.565,
16.520,23.157,7.683,-7.431,1.107,1.011,1.011,3.049,0.000,1.623,0.000,3.835,1.755,0.933,1.836,1.279,4.084,0.000,2.334,0.000,0.000,0.000,0.000,0.000,0.000,0.000,0.000,0.000,0.000,0.000,3.142,0.001,0.000,1.003,1.570,1.570,4.086,6.282,1.199,4.712,0.000,0.000,7.653,-6.757,0.990,5.177,1.581,1.560,5.282,4.712,4.712,2.198,6.282,5.083,1.570,0.000,0.000,8.240,-7.050,0.991,5.177,1.578,1.563,
16.620,23.257,7.733,-7.322,1.212,1.014,1.014,3.781,0.000,1.548,0.000,4.657,1.792,1.067,1.611,0.000,1.503,0.000,2.580,0.000,3.775,0.000,0.000,0.000,0.000,0.000,0.000,0.000,0.000,0.000,3.142,0.001,0.000,1.003,1.570,1.570,4.085,6.282,1.199,4.712,0.000,0.000,7.633,-6.655,0.990,5.072,1.584,1.557,5.282,4.712,4.712,2.198,6.282,5.083,1.570,0.000,0.000,8.248,-6.886,0.991,5.072,1.580,1.561,
16.720,23.357,7.766,-7.228,1.299,1.015,1.018,4.707,3.299,1.496,0.000,2.666,1.840,1.199,1.474,0.000,1.593,0.000,2.510,0.000,0.000,0.000,0.000,0.000,0.000,0.000,0.000,0.000,0.000,0.000,3.142,0.001,0.000,1.003,1.570,1.570,4.085,6.281,1.199,4.712,0.000,0.000,7.608,-6.572,0.990,4.984,1.588,1.553,5.282,4.712,4.712,2.198,6.282,5.083,1.570,0.000,0.000,8.240,-6.748,0.991,4.985,1.583,1.558,
16.820,23.457,7.791,-7.131,1.386,1.014,1.011,0.000,2.878,1.451,0.000,2.632,1.901,1.352,1.371,0.000,1.688,0.000,2.440,0.000,0.000,0.000,0.000,0.000,0.000,0.000,0.000,0.000,0.000,0.000,3.142,0.001,0.000,1.003,1.570,1.570,4.085,6.282,1.199,4.712,0.000,0.000,7.576,-6.491,0.990,4.897,1.596,1.545,5.282,4.712,4.712,2.198,6.282,5.083,1.570,0.000,0.000,8.221,-6.612,0.991,4.897,1.589,1.552,
16.920,23.557,7.807,-7.032,1.440,1.013,0.193,0.000,2.637,1.432,0.000,2.634,1.985,1.502,1.262,0.000,1.759,0.000,2.404,0.000,0.000,0.000,0.000,0.000,0.000,0.000,0.000,0.000,0.000,0.000,3.142,6.283,0.000,1.004,1.568,1.567,4.085,6.282,1.199,4.712,0.000,0.000,7.556,-6.405,0.990,4.840,1.609,1.531,5.281,4.711,4.709,2.198,6.283,5.083,1.570,0.000,0.000,8.207,-6.491,0.991,4.840,1.604,1.537,
17.001,23.637,7.820,-6.934,1.441,1.010,6.270,0.000,2.659,1.446,0.000,2.764,2.084,1.616,1.355,0.000,1.742,0.000,2.404,0.000,0.000,0.000,0.000,0.000,0.000,0.000,0.000,0.000,0.000,0.000,3.142,6.282,0.000,1.004,1.569,1.569,4.085,6.281,1.199,4.712,0.000,0.000,7.570,-6.307,0.990,4.842,1.607,1.534,5.281,4.711,4.711,2.198,6.282,5.083,1.570,0.000,0.000,8.221,-6.392,0.990,4.842,1.607,1.534,
17.102,23.739,7.831,-6.855,1.441,1.010,6.268,0.000,2.679,1.309,0.000,2.869,2.163,2.258,3.890,0.000,1.727,0.000,2.440,0.000,0.000,0.000,0.000,0.000,0.000,0.000,0.000,0.000,0.000,0.000,3.142,6.282,0.000,1.004,1.569,1.569,4.085,6.281,1.199,4.712,0.000,0.000,7.580,-6.228,0.990,4.842,1.607,1.534,5.281,4.711,4.711,2.198,6.282,5.083,1.570,0.000,0.000,8.231,-6.313,0.990,4.841,1.607,1.534,
17.206,23.842,7.843,-6.756,1.441,1.012,6.268,0.000,2.704,1.471,0.000,3.001,2.263,2.371,4.124,0.000,1.708,0.000,2.475,0.000,0.000,0.000,0.000,0.000,0.000,0.000,0.000,0.000,0.000,0.000,3.142,6.282,0.000,1.004,1.569,1.569,4.085,6.281,1.199,4.712,0.000,0.000,7.593,-6.130,0.990,4.841,1.607,1.534,5.281,4.711,4.711,2.198,6.282,5.083,1.570,0.000,0.000,8.244,-6.214,0.990,4.841,1.607,1.534,
17.310,23.947,7.856,-6.658,1.441,1.012,6.268,0.000,2.729,1.370,0.000,3.132,2.362,2.375,4.360,1.115,1.690,0.000,2.475,0.000,0.000,0.000,0.000,0.000,0.000,0.000,0.000,0.000,0.000,0.000,3.142,6.282,0.000,1.004,1.569,1.569,4.085,6.281,1.199,4.712,0.000,0.000,7.606,-6.031,0.990,4.841,1.607,1.533,5.281,4.711,4.711,2.198,6.282,5.083,1.570,0.000,0.000,8.257,-6.115,0.990,4.841,1.607,1.534,
17.418,24.055,7.869,-6.559,1.442,1.011,6.267,0.000,2.754,0.727,1.460,3.197,2.462,2.347,0.000,1.102,1.671,0.000,2.510,0.000,0.000,0.000,0.000,0.000,0.000,0.000,0.000,0.000,0.000,0.000,3.142,6.282,0.000,1.004,1.569,1.569,4.085,6.281,1.199,4.712,0.000,0.000,7.619,-5.932,0.990,4.841,1.608,1.533,5.281,4.711,4.711,2.198,6.282,5.083,1.570,0.000,0.000,8.269,-6.017,0.990,4.841,1.607,1.534,
17.515,24.152,7.882,-6.460,1.442,1.011,0.012,0.000,2.675,1.512,0.000,3.326,2.561,2.317,0.000,1.140,1.654,0.000,2.510,0.000,0.000,0.000,0.000,0.000,0.000,0.000,0.000,0.000,0.000,0.000,3.142,6.283,0.000,1.003,1.569,1.569,4.086,6.281,1.199,4.712,0.000,0.000,7.631,-5.834,0.990,4.841,1.610,1.531,5.281,4.711,4.712,2.198,6.282,5.083,1.570,0.000,0.000,8.282,-5.918,0.990,4.841,1.604,1.538,
17.620,24.257,7.894,-6.362,1.476,1.011,0.914,0.000,2.581,0.744,0.000,3.360,2.650,2.161,0.000,1.136,1.698,0.000,2.510,0.000,0.000,0.000,0.000,0.000,0.000,0.000,0.000,0.000,0.000,0.000,3.142,0.001,0.000,1.003,1.571,1.572,4.086,6.281,1.199,4.712,0.000,0.000,7.625,-5.744,0.990,4.811,1.623,1.519,5.281,4.713,4.714,2.199,6.281,5.083,1.571,0.000,0.000,8.278,-5.806,0.991,4.811,1.604,1.538,
17.720,24.357,7.902,-6.242,1.562,1.017,0.407,0.000,2.347,1.467,0.000,3.355,2.108,1.883,0.000,1.155,1.881,0.000,2.440,0.000,0.000,0.000,0.000,0.000,0.000,0.000,0.000,0.000,0.000,0.000,3.142,6.283,0.000,1.004,1.569,1.567,4.085,6.282,1.199,4.712,0.000,0.000,7.577,-5.650,0.990,4.720,2.229,0.911,5.281,4.711,4.710,2.198,6.283,5.083,1.570,0.000,0.000,8.233,-5.656,0.991,4.720,2.113,1.027,
17.820,24.457,7.903,-6.142,1.567,1.011,6.269,0.000,2.332,1.465,0.000,3.464,2.208,1.784,0.000,1.156,1.893,0.000,2.440,0.000,0.000,0.000,0.000,0.000,0.000,0.000,0.000,0.000,0.000,0.000,3.142,6.282,0.000,1.004,1.569,1.569,4.085,6.281,1.199,4.712,0.000,0.000,7.576,-5.552,0.990,4.718,2.454,0.686,5.281,4.711,4.711,2.198,6.282,5.083,1.570,0.000,0.000,8.232,-5.554,0.990,4.718,2.485,0.656,
17.920,24.557,7.903,-6.043,1.567,1.009,6.269,0.000,2.333,1.466,0.740,3.585,2.307,1.809,1.100,1.156,1.892,0.000,2.475,0.000,0.000,0.000,0.000,0.000,0.000,0.000,0.000,0.000,0.000,0.000,3.142,6.282,0.000,1.004,1.569,1.569,4.085,6.281,1.199,4.712,0.000,0.000,7.576,-5.453,0.990,4.718,2.508,0.632,5.281,4.711,4.711,2.198,6.282,5.083,1.570,0.000,0.000,8.232,-5.455,0.990,4.718,2.523,0.618,
18.020,24.657,7.903,-5.944,1.567,1.012,6.268,0.000,2.250,1.466,1.488,3.705,2.406,1.932,1.152,1.156,1.892,0.000,2.475,0.000,0.000,0.000,0.000,0.000,0.000,0.000,0.000,0.000,0.000,0.000,3.142,6.282,0.000,1.004,1.569,1.569,4.085,6.281,1.199,4.712,0.000,0.000,7.577,-5.354,0.990,4.718,2.519,0.622,5.281,4.711,4.711,2.198,6.282,5.083,1.570,0.000,0.000,8.233,-5.356,0.990,4.718,2.534,0.607,
18.105,24.742,7.904,-5.844,1.567,1.013,6.268,0.000,2.250,1.466,0.741,3.774,2.506,2.055,1.151,1.155,1.892,0.000,2.475,0.000,0.000,0.000,0.000,0.000,0.000,0.000,0.000,0.000,0.000,0.000,3.142,6.282,0.000,1.004,1.569,1.569,4.085,6.281,1.199,4.712,0.000,0.000,7.577,-5.254,0.990,4.718,2.540,0.600,5.281,4.711,4.711,2.198,6.282,5.083,1.570,0.000,0.000,8.233,-5.256,0.990,4.718,2.552,0.589,
18.202,24.838,7.904,-5.765,1.567,1.012,6.268,0.000,4.137,1.467,1.489,3.860,2.585,2.161,1.151,1.155,1.892,0.000,2.510,0.000,0.000,0.000,0.000,0.000,0.000,0.000,0.000,0.000,0.000,0.000,3.142,6.282,0.000,1.004,1.569,1.569,4.085,6.281,1.199,4.712,0.000,0.000,7.577,-5.174,0.990,4.718,2.561,0.580,5.281,4.711,4.711,2.198,6.282,5.083,1.570,0.000,0.000,8.233,-5.176,0.990,4.718,2.571,0.570,
18.320,24.957,7.904,-5.665,1.567,1.011,6.267,0.000,3.918,1.467,1.489,3.980,2.685,2.375,1.151,1.155,1.892,0.000,2.510,0.000,0.000,0.000,0.000,0.000,0.000,0.000,0.000,0.000,0.000,0.000,3.142,6.282,0.000,1.004,1.569,1.569,4.085,6.281,1.199,4.712,0.000,0.000,7.577,-5.075,0.990,4.718,2.593,0.548,5.281,4.711,4.711,2.198,6.282,5.083,1.570,0.000,0.000,8.233,-5.077,0.990,4.718,2.602,0.539,
18.420,25.057,7.905,-5.546,1.568,1.012,6.267,0.000,3.656,1.467,1.490,0.000,2.804,2.631,1.150,1.154,1.146,0.000,2.545,0.000,0.000,0.000,0.000,0.000,0.000,0.000,0.000,0.000,0.000,0.000,3.142,6.282,0.000,1.004,1.569,1.569,4.085,6.281,1.199,4.712,0.000,0.000,7.578,-4.956,0.990,4.718,2.639,0.501,5.281,4.711,4.711,2.198,6.282,5.083,1.570,0.000,0.000,8.234,-4.957,0.990,4.718,2.650,0.491,
18.520,25.157,7.905,-5.446,1.568,1.012,6.267,0.000,3.437,1.467,1.490,0.000,2.904,2.845,1.150,1.154,1.129,0.000,2.545,0.000,0.000,0.000,0.000,0.000,0.000,0.000,0.000,0.000,0.000,0.000,3.142,6.282,0.000,1.004,1.569,1.569,4.085,6.281,1.199,4.712,0.000,0.000,7.578,-4.856,0.990,4.718,2.684,0.457,5.281,4.711,4.711,2.198,6.282,5.083,1.570,0.000,0.000,8.234,-4.858,0.990,4.717,2.694,0.447,
18.620,25.257,7.905,-5.347,1.573,1.011,0.299,0.000,3.253,1.465,1.493,0.000,3.003,3.092,1.148,1.156,1.905,0.000,2.545,0.000,0.000,0.000,0.000,0.000,0.000,0.000,0.000,0.000,0.000,0.000,3.142,0.000,0.000,1.003,1.570,1.571,4.086,6.281,1.199,4.712,0.000,0.000,7.577,-4.758,0.990,4.717,3.180,6.244,5.281,4.712,4.713,2.199,6.282,5.083,1.570,0.000,0.000,8.232,-4.757,0.991,4.716,3.259,6.165,
18.720,25.357,7.904,-5.247,1.642,1.010,1.273,0.000,3.638,1.438,1.533,4.281,3.110,4.791,1.127,1.188,2.120,0.000,2.510,0.000,0.000,0.000,0.000,0.000,0.000,0.000,0.000,0.000,0.000,0.000,3.142,0.002,0.000,1.003,1.571,1.572,4.086,6.281,1.199,4.712,0.000,0.000,7.536,-4.682,0.990,4.780,4.641,4.783,5.282,4.713,4.714,2.199,6.282,5.083,1.571,0.000,0.000,8.191,-4.636,0.991,4.780,4.669,4.755,
18.803,25.440,7.894,-5.148,1.761,1.012,1.097,0.000,4.564,1.401,1.618,4.194,3.261,1.510,1.114,1.271,2.687,0.000,2.369,4.071,0.000,0.000,0.000,0.000,0.000,0.000,0.000,0.000,0.000,0.000,3.142,0.001,0.000,1.003,1.570,1.568,4.085,6.282,1.199,4.712,0.000,0.000,7.459,-4.632,0.990,4.904,4.689,4.734,5.282,4.712,4.711,2.198,6.283,5.083,1.570,0.000,0.000,8.104,-4.507,0.991,4.903,4.694,4.730,
18.920,25.557,7.878,-5.070,1.794,1.019,6.270,0.000,4.418,1.381,1.632,4.222,4.030,1.487,1.126,0.881,0.000,0.000,2.369,0.000,0.000,0.000,0.000,0.000,0.000,0.000,0.000,0.000,0.000,0.000,3.142,6.282,0.000,1.004,1.568,1.566,4.085,6.282,1.199,4.711,0.000,0.000,7.425,-4.569,0.990,4.940,4.691,4.731,5.281,4.710,4.708,2.198,6.283,5.083,1.570,0.000,0.000,8.065,-4.423,0.990,4.940,4.693,4.730,
19.001,25.637,7.851,-4.953,1.793,1.010,6.274,0.000,4.432,1.355,1.599,4.349,4.149,1.524,1.153,0.828,0.000,0.000,2.334,0.000,0.000,0.000,0.000,0.000,0.000,0.000,0.000,0.000,0.000,0.000,3.142,6.282,0.000,1.004,1.569,1.569,4.084,6.281,1.199,4.712,0.000,0.000,7.401,-4.451,0.990,4.935,4.692,4.732,5.281,4.711,4.711,2.197,6.282,5.083,1.570,0.000,0.000,8.040,-4.306,0.990,4.936,4.690,4.733,
19.120,25.757,7.834,-4.875,1.793,1.008,6.274,0.000,4.310,1.337,1.578,4.433,4.228,1.547,1.170,1.365,0.000,0.000,2.369,0.000,0.000,0.000,0.000,0.000,0.000,0.000,0.000,0.000,0.000,0.000,3.142,6.282,0.000,1.004,1.569,1.569,4.084,6.281,1.199,4.712,0.000,0.000,7.383,-4.373,0.990,4.935,4.692,4.732,5.281,4.711,4.711,2.197,6.282,5.083,1.570,0.000,0.000,8.023,-4.228,0.990,4.935,4.690,4.733,
19.200,25.837,7.808,-4.759,1.792,1.012,6.272,0.000,4.128,1.311,1.547,1.646,4.347,1.582,1.197,1.395,2.045,0.000,2.404,0.000,0.000,0.000,0.000,0.000,0.000,0.000,0.000,0.000,0.000,0.000,3.142,6.282,0.000,1.004,1.569,1.569,4.084,6.281,1.199,4.712,0.000,0.000,7.357,-4.257,0.990,4.935,4.692,4.732,5.281,4.711,4.711,2.197,6.282,5.083,1.570,0.000,0.000,7.997,-4.112,0.990,4.935,4.691,4.733,
19.305,25.942,7.790,-4.681,1.792,1.013,6.272,0.000,4.007,1.293,1.526,1.699,4.427,1.606,1.214,1.416,2.016,0.000,2.440,0.000,0.000,0.000,0.000,0.000,0.000,0.000,0.000,0.000,0.000,0.000,3.142,6.282,0.000,1.004,1.569,1.569,4.085,6.281,1.199,4.712,0.000,0.000,7.340,-4.179,0.990,4.935,4.691,4.732,5.281,4.711,4.711,2.197,6.282,5.083,1.570,0.000,0.000,7.980,-4.034,0.990,4.935,4.691,4.733,
19.420,26.057,7.768,-4.584,1.792,1.012,6.270,0.000,3.856,1.271,1.500,1.552,4.526,1.635,1.236,1.441,3.342,0.000,2.440,0.000,0.000,0.000,0.000,0.000,0.000,0.000,0.000,0.000,0.000,0.000,3.142,6.282,0.000,1.004,1.569,1.569,4.085,6.281,1.199,4.712,0.000,0.000,7.318,-4.082,0.990,4.935,4.691,4.732,5.281,4.711,4.711,2.197,6.282,5.083,1.570,0.000,0.000,7.958,-3.937,0.990,4.935,4.691,4.733,
19.519,26.156,7.742,-4.468,1.792,1.011,6.270,0.000,3.676,1.245,1.469,4.871,4.646,1.669,0.819,1.472,3.216,0.000,2.475,0.000,0.000,0.000,0.000,0.000,0.000,0.000,0.000,0.000,0.000,0.000,3.142,6.282,0.000,1.004,1.569,1.569,4.085,6.281,1.199,4.712,0.000,0.000,7.292,-3.966,0.990,4.935,4.691,4.732,5.281,4.711,4.711,2.198,6.282,5.083,1.570,0.000,0.000,7.932,-3.821,0.990,4.935,4.691,4.733,
19.613,26.250,7.725,-4.390,1.791,1.012,6.171,0.000,2.923,1.228,1.448,4.957,4.724,1.694,1.280,1.491,3.193,0.000,2.475,0.000,0.000,0.000,0.000,0.000,0.000,0.000,0.000,0.000,0.000,0.000,3.142,6.282,0.001,1.004,1.569,1.568,4.084,6.281,1.199,4.712,0.000,0.000,7.274,-3.888,0.990,4.934,4.692,4.731,5.281,4.711,4.710,2.197,6.282,5.083,1.570,0.000,0.000,7.914,-3.744,0.990,4.934,4.689,4.734,
19.713,26.349,7.703,-4.293,1.743,1.014,5.242,0.000,1.976,1.161,1.382,0.000,4.118,1.801,1.308,1.475,3.094,0.000,2.615,0.000,0.000,0.000,0.000,0.000,0.000,0.000,0.000,0.000,0.000,0.000,3.142,6.280,0.001,1.005,1.568,1.565,4.084,6.282,1.199,4.711,0.000,0.000,7.276,-3.770,0.990,4.890,4.687,4.736,5.281,4.710,4.708,2.197,6.282,5.083,1.570,0.000,0.000,7.923,-3.656,0.990,4.889,4.683,4.739,
19.818,26.455,7.688,-4.194,1.661,1.013,5.735,0.000,1.689,0.000,1.309,2.173,4.173,1.984,1.343,1.433,0.000,0.000,2.755,4.169,0.000,0.000,0.000,0.000,0.000,0.000,0.000,0.000,0.000,0.000,3.142,6.281,0.000,1.004,1.570,1.570,4.085,6.280,1.199,4.712,0.000,0.000,7.309,-3.637,0.990,4.802,4.656,4.767,5.282,4.712,4.712,2.198,6.281,5.083,1.571,0.000,0.000,7.962,-3.578,0.991,4.802,4.667,4.757,
19.908,26.545,7.680,-4.095,1.651,1.011,6.259,0.000,1.695,0.000,1.294,2.390,4.269,2.020,1.355,1.436,0.000,0.000,2.861,4.209,0.000,0.000,0.000,0.000,0.000,0.000,0.000,0.000,0.000,0.000,3.142,6.283,0.000,1.003,1.569,1.569,4.085,6.281,1.199,4.712,0.000,0.000,7.305,-3.534,0.990,4.793,4.652,4.771,5.281,4.711,4.711,2.198,6.282,5.083,1.570,0.000,0.000,7.959,-3.481,0.990,4.793,4.658,4.766,
20.009,26.646,7.672,-3.996,1.652,1.010,6.261,0.000,1.756,0.000,1.285,2.378,4.368,2.030,1.363,1.446,2.902,0.000,3.071,4.230,0.000,0.000,0.000,0.000,0.000,0.000,0.000,0.000,0.000,0.000,3.142,6.283,0.000,1.003,1.569,1.569,4.085,6.281,1.199,4.712,0.000,0.000,7.297,-3.435,0.990,4.794,4.653,4.771,5.281,4.711,4.711,2.198,6.282,5.083,1.570,0.000,0.000,7.950,-3.382,0.990,4.794,4.659,4.765,
20.114,26.751,7.664,-3.897,1.653,1.012,6.261,0.000,1.742,3.930,1.277,2.364,4.468,2.041,1.371,1.455,2.786,0.000,3.071,4.249,0.000,0.000,0.000,0.000,0.000,0.000,0.000,0.000,0.000,0.000,3.142,6.283,0.000,1.004,1.569,1.569,4.085,6.281,1.199,4.712,0.000,0.000,7.288,-3.337,0.990,4.795,4.654,4.770,5.281,4.711,4.711,2.198,6.282,5.083,1.570,0.000,0.000,7.942,-3.283,0.990,4.795,4.659,4.765,
20.216,26.853,7.656,-3.798,1.654,1.012,6.262,0.000,1.729,3.461,1.268,2.351,4.568,2.051,1.379,1.464,2.669,0.000,3.071,4.287,0.000,0.000,0.000,0.000,0.000,0.000,0.000,0.000,0.000,0.000,3.142,6.283,0.000,1.004,1.569,1.569,4.085,6.281,1.199,4.712,0.000,0.000,7.279,-3.238,0.990,4.795,4.654,4.769,5.281,4.711,4.711,2.198,6.282,5.083,1.570,0.000,0.000,7.933,-3.183,0.990,4.796,4.659,4.765,
20.313,26.949,7.647,-3.698,1.654,1.012,6.262,0.000,1.715,3.221,1.260,2.337,4.668,2.063,1.387,1.474,2.573,0.000,3.071,4.306,0.000,0.000,0.000,0.000,0.000,0.000,0.000,0.000,0.000,0.000,3.142,6.282,0.000,1.004,1.569,1.569,4.085,6.281,1.199,4.712,0.000,0.000,7.271,-3.139,0.990,4.796,4.655,4.769,5.281,4.711,4.711,2.198,6.282,5.083,1.570,0.000,0.000,7.924,-3.084,0.990,4.796,4.659,4.765,
20.413,27.050,7.639,-3.599,1.655,1.011,6.263,0.000,1.701,3.212,1.196,2.322,4.768,2.074,1.396,1.483,2.593,0.000,3.071,4.335,0.000,0.000,0.000,0.000,0.000,0.000,0.000,0.000,0.000,0.000,3.142,6.282,0.000,1.004,1.569,1.569,4.085,6.281,1.199,4.712,0.000,0.000,7.262,-3.040,0.990,4.797,4.655,4.768,5.281,4.711,4.711,2.198,6.282,5.083,1.570,0.000,0.000,7.916,-2.985,0.990,4.797,4.659,4.765,
20.514,27.150,7.631,-3.500,1.655,1.012,6.263,0.000,1.688,3.203,1.264,2.307,4.867,1.413,1.404,1.493,2.711,0.000,3.071,4.356,0.000,0.000,0.000,0.000,0.000,0.000,0.000,0.000,0.000,0.000,3.142,6.282,0.000,1.004,1.569,1.569,4.085,6.281,1.199,4.712,0.000,0.000,7.253,-2.941,0.990,4.797,4.656,4.768,5.281,4.711,4.711,2.198,6.282,5.083,1.570,0.000,0.000,7.907,-2.885,0.990,4.798,4.660,4.764,
20.615,27.251,7.622,-3.401,1.656,1.012,6.264,0.000,1.674,3.194,0.000,2.292,4.967,1.483,1.413,1.502,2.730,0.000,3.071,4.379,0.000,0.000,0.000,0.000,0.000,0.000,0.000,0.000,0.000,0.000,3.142,6.282,0.000,1.004,1.569,1.569,4.085,6.281,1.199,4.712,0.000,0.000,7.244,-2.842,0.990,4.798,4.656,4.767,5.281,4.711,4.711,2.198,6.282,5.083,1.570,0.000,0.000,7.898,-2.786,0.990,4.798,4.660,4.764,
20.717,27.353,7.614,-3.302,1.657,1.011,6.264,0.000,1.660,3.185,0.000,2.277,0.000,2.108,1.421,1.083,2.749,0.000,3.142,4.411,0.000,0.000,0.000,0.000,0.000,0.000,0.000,0.000,0.000,0.000,3.142,6.282,0.000,1.004,1.569,1.569,4.085,6.281,1.199,4.712,0.000,0.000,7.236,-2.743,0.990,4.799,4.657,4.767,5.281,4.711,4.711,2.198,6.282,5.083,1.570,0.000,0.000,7.889,-2.687,0.990,4.799,4.660,4.764,
20.820,27.457,7.605,-3.203,1.657,1.012,6.265,0.000,1.841,1.077,0.000,2.262,0.000,2.120,1.430,1.467,2.769,0.000,3.142,4.441,0.000,0.000,0.000,0.000,0.000,0.000,0.000,0.000,0.000,0.000,3.142,6.282,0.000,1.004,1.569,1.569,4.085,6.281,1.199,4.712,0.000,0.000,7.227,-2.644,0.990,4.799,4.657,4.766,5.281,4.711,4.711,2.198,6.282,5.083,1.570,0.000,0.000,7.880,-2.587,0.990,4.799,4.660,4.764,
20.917,27.553,7.595,-3.084,1.658,1.012,6.265,0.000,1.824,1.067,0.000,2.243,0.000,2.134,1.440,0.000,2.792,0.000,3.142,4.452,0.000,0.000,0.000,0.000,0.000,0.000,0.000,0.000,0.000,0.000,3.142,6.282,0.000,1.004,1.569,1.569,4.085,6.281,1.199,4.712,0.000,0.000,7.216,-2.525,0.990,4.800,4.658,4.766,5.281,4.711,4.711,2.198,6.282,5.083,1.570,0.000,0.000,7.870,-2.468,0.990,4.800,4.660,4.764,
21.020,27.657,7.588,-3.004,1.658,1.012,6.265,0.000,1.813,1.110,0.000,2.230,0.000,2.144,1.447,0.000,2.808,0.000,3.142,4.511,0.000,0.000,0.000,0.000,0.000,0.000,0.000,0.000,0.000,0.000,3.142,6.282,0.000,1.004,1.569,1.569,4.085,6.281,1.199,4.712,0.000,0.000,7.209,-2.446,0.990,4.800,4.658,4.766,5.281,4.711,4.711,2.198,6.282,5.083,1.570,0.000,0.000,7.862,-2.389,0.990,4.800,4.661,4.763,
21.119,27.756,7.577,-2.886,1.659,1.011,6.265,0.000,1.796,1.100,3.263,2.211,0.000,2.159,1.458,0.000,2.831,0.000,3.142,4.529,0.000,0.000,0.000,0.000,0.000,0.000,0.000,0.000,0.000,0.000,3.142,6.282,0.000,1.004,1.569,1.569,4.085,6.281,1.199,4.712,0.000,0.000,7.198,-2.328,0.990,4.801,4.658,4.765,5.281,4.711,4.711,2.198,6.282,5.083,1.570,0.000,0.000,7.852,-2.270,0.990,4.801,4.661,4.763,
21.220,27.857,7.570,-2.806,1.659,1.012,6.265,0.000,0.000,1.092,3.284,2.198,0.000,2.168,1.465,0.000,2.847,0.000,3.142,4.591,0.000,0.000,0.000,0.000,0.000,0.000,0.000,0.000,0.000,0.000,3.142,6.282,0.000,1.004,1.569,1.569,4.085,6.281,1.199,4.712,0.000,0.000,7.191,-2.248,0.990,4.801,4.659,4.765,5.281,4.711,4.711,2.198,6.282,5.083,1.570,0.000,0.000,7.844,-2.190,0.990,4.801,4.661,4.763,
21.316,27.953,7.560,-2.687,1.659,1.012,6.265,0.000,4.984,1.082,3.315,2.178,0.000,2.183,1.475,0.000,2.870,0.000,3.142,4.613,0.000,0.000,0.000,0.000,0.000,0.000,0.000,0.000,0.000,0.000,3.142,6.282,0.000,1.004,1.569,1.569,4.085,6.281,1.199,4.712,0.000,0.000,7.180,-2.130,0.990,4.802,4.659,4.765,5.281,4.711,4.711,2.198,6.282,5.083,1.570,0.000,0.000,7.833,-2.071,0.990,4.802,4.661,4.763,
21.414,28.051,7.553,-2.608,1.660,1.012,6.265,0.000,4.879,1.074,3.335,2.165,0.000,2.193,1.034,0.000,2.886,0.000,3.142,4.672,0.000,0.000,0.000,0.000,0.000,0.000,0.000,0.000,0.000,0.000,3.142,6.282,0.000,1.004,1.569,1.569,4.085,6.281,1.199,4.712,0.000,0.000,7.173,-2.051,0.990,4.802,4.659,4.765,5.281,4.711,4.711,2.198,6.282,5.083,1.570,0.000,0.000,7.826,-1.992,0.990,4.802,4.661,4.762,
21.513,28.150,7.544,-2.509,1.660,1.012,6.265,0.000,4.746,1.065,1.094,2.149,0.000,2.205,1.491,0.000,2.514,0.000,3.142,4.717,0.000,0.000,0.000,0.000,0.000,0.000,0.000,0.000,0.000,0.000,3.142,6.282,0.000,1.004,1.569,1.569,4.085,6.281,1.199,4.712,0.000,0.000,7.164,-1.952,0.990,4.802,4.659,4.764,5.281,4.711,4.711,2.198,6.282,5.083,1.570,0.000,0.000,7.817,-1.893,0.990,4.802,4.662,4.762,
21.613,28.250,7.535,-2.410,1.661,1.012,6.265,0.000,3.735,1.056,1.085,2.132,0.000,2.218,1.500,0.000,2.457,0.000,3.142,4.767,0.000,0.000,0.000,0.000,0.000,0.000,0.000,0.000,0.000,0.000,3.142,6.282,0.000,1.004,1.569,1.569,4.085,6.281,1.199,4.712,0.000,0.000,7.155,-1.853,0.990,4.803,4.660,4.764,5.281,4.711,4.711,2.198,6.282,5.083,1.570,0.000,0.000,7.808,-1.794,0.990,4.803,4.662,4.762,
21.712,28.349,7.526,-2.311,1.661,1.012,6.266,0.000,3.602,1.047,1.130,2.012,0.000,2.230,1.458,0.000,2.553,0.000,3.142,4.827,0.000,0.000,0.000,0.000,0.000,0.000,0.000,0.000,0.000,0.000,3.142,6.282,0.000,1.004,1.569,1.569,4.085,6.281,1.199,4.712,0.000,0.000,7.145,-1.754,0.990,4.803,4.660,4.764,5.281,4.711,4.711,2.198,6.282,5.083,1.570,0.000,0.000,7.799,-1.694,0.990,4.803,4.662,4.762,
21.812,28.448,7.517,-2.212,1.661,1.012,6.265,0.000,3.469,1.037,1.120,2.072,0.000,2.243,1.469,1.772,2.497,0.000,3.142,4.915,0.000,0.000,0.000,0.000,0.000,0.000,0.000,0.000,0.000,0.000,3.142,6.282,0.000,1.004,1.569,1.569,4.085,6.281,1.199,4.712,0.000,0.000,7.136,-1.655,0.990,4.804,4.660,4.763,5.281,4.711,4.711,2.198,6.282,5.083,1.570,0.000,0.000,7.789,-1.595,0.990,4.804,4.662,4.762,
21.912,28.549,7.508,-2.113,1.662,1.012,6.265,0.000,3.336,1.161,1.111,2.184,0.000,2.255,1.928,1.576,2.986,0.000,3.142,0.000,0.000,0.000,0.000,0.000,0.000,0.000,0.000,0.000,0.000,0.000,3.142,6.282,0.000,1.004,1.569,1.569,4.085,6.281,1.199,4.712,0.000,0.000,7.127,-1.556,0.990,4.804,4.660,4.763,5.281,4.711,4.711,2.198,6.282,5.083,1.570,0.000,0.000,7.780,-1.496,0.990,4.804,4.663,4.761,
22.013,28.649,7.499,-2.013,1.662,1.012,6.265,0.000,3.203,1.152,1.101,2.297,0.000,2.268,2.395,1.587,3.006,0.000,3.142,0.000,0.000,0.000,0.000,0.000,0.000,0.000,0.000,0.000,0.000,0.000,3.142,6.282,0.000,1.004,1.569,1.569,4.085,6.281,1.199,4.712,0.000,0.000,7.118,-1.457,0.990,4.804,4.661,4.763,5.281,4.711,4.711,2.198,6.282,5.083,1.570,0.000,0.000,7.771,-1.397,0.990,4.804,4.663,4.761,
22.111,28.748,7.490,-1.914,1.663,1.012,6.266,0.000,3.070,1.142,1.091,3.823,0.000,2.281,4.614,1.651,3.027,0.000,3.142,0.000,0.000,0.000,0.000,0.000,0.000,0.000,0.000,0.000,0.000,0.000,3.142,6.282,0.000,1.004,1.569,1.569,4.085,6.281,1.199,4.712,0.000,0.000,7.108,-1.358,0.990,4.805,4.661,4.763,5.281,4.711,4.711,2.198,6.282,5.083,1.570,0.000,0.000,7.761,-1.298,0.990,4.805,4.663,4.761,
22.210,28.847,7.481,-1.815,1.663,1.012,6.266,0.000,2.936,1.133,1.081,3.904,0.000,2.294,0.000,1.662,3.047,0.000,3.142,0.000,0.000,0.000,0.000,0.000,0.000,0.000,0.000,0.000,0.000,0.000,3.142,6.282,0.000,1.004,1.569,1.569,4.085,6.281,1.199,4.712,0.000,0.000,7.099,-1.259,0.990,4.805,4.661,4.763,5.281,4.711,4.711,2.198,6.282,5.083,1.570,0.000,0.000,7.752,-1.198,0.990,4.805,4.663,4.761,
22.307,28.944,7.471,-1.716,1.663,1.012,6.265,0.000,2.803,0.000,1.071,3.986,0.000,2.307,0.000,1.672,3.068,0.000,3.142,0.000,0.000,0.000,0.000,0.000,0.000,0.000,0.000,0.000,0.000,0.000,3.142,6.282,0.000,1.004,1.569,1.569,4.085,6.281,1.199,4.712,0.000,0.000,7.089,-1.160,0.990,4.806,4.661,4.762,5.281,4.711,4.711,2.198,6.282,5.083,1.570,0.000,0.000,7.743,-1.099,0.990,4.806,4.663,4.761,
22.416,29.052,7.462,-1.617,1.649,1.012,5.721,0.000,2.633,0.000,1.054,4.066,0.000,2.360,0.000,1.671,1.493,0.000,3.142,0.000,0.000,0.000,0.000,0.000,0.000,0.000,0.000,0.000,0.000,0.000,3.142,6.281,0.001,1.004,1.568,1.566,4.084,6.281,1.199,4.712,0.000,0.000,7.086,-1.056,0.990,4.795,4.659,4.764,5.281,4.710,4.708,2.197,6.282,5.083,1.570,0.000,0.000,7.741,-1.004,0.990,4.794,4.648,4.775,
22.509,29.145,7.456,-1.518,1.558,1.012,4.928,0.000,2.785,0.000,1.148,1.602,0.000,2.660,4.399,1.622,2.632,0.000,3.142,3.054,0.000,0.000,0.000,0.000,0.000,0.000,0.000,0.000,0.000,0.000,3.142,6.280,0.001,1.005,1.568,1.566,4.085,6.281,1.199,4.712,0.000,0.000,7.132,-0.925,0.990,4.722,2.093,1.047,5.282,4.710,4.709,2.197,6.282,5.083,1.570,0.000,0.000,7.789,-0.932,0.991,4.723,2.005,1.135,
22.612,29.248,7.460,-1.418,1.472,1.011,5.884,0.000,2.838,3.700,1.123,1.498,0.000,3.029,2.808,1.581,2.356,0.000,3.142,3.091,0.000,0.000,0.000,0.000,0.000,0.000,0.000,0.000,0.000,0.000,3.142,6.282,0.000,1.004,1.570,1.571,4.085,6.280,1.199,4.712,0.000,0.000,7.192,-0.800,0.990,4.813,1.621,1.521,5.282,4.712,4.713,2.198,6.281,5.083,1.571,0.000,0.000,7.845,-0.864,0.991,4.813,1.609,1.533,
22.707,29.344,7.470,-1.319,1.469,1.012,6.267,0.000,2.716,3.626,1.132,1.507,0.000,3.028,3.975,1.569,2.331,0.000,3.142,3.150,0.000,0.000,0.000,0.000,0.000,0.000,0.000,0.000,0.000,0.000,3.142,6.283,0.000,1.003,1.569,1.569,4.085,6.281,1.199,4.712,0.000,0.000,7.203,-0.699,0.990,4.814,1.619,1.522,5.281,4.711,4.711,2.198,6.282,5.083,1.570,0.000,0.000,7.855,-0.766,0.990,4.814,1.613,1.528,
22.807,29.443,7.480,-1.220,1.470,1.011,6.269,0.000,2.407,0.000,1.178,1.525,0.000,3.002,4.236,1.559,2.319,0.000,3.142,3.211,0.000,0.930,0.000,0.000,0.000,0.000,0.000,0.000,0.000,0.000,3.142,6.283,0.000,1.003,1.569,1.569,4.085,6.281,1.199,4.712,0.000,0.000,7.212,-0.601,0.990,4.813,1.619,1.521,5.281,4.711,4.711,2.198,6.282,5.083,1.570,0.000,0.000,7.865,-0.667,0.990,4.813,1.613,1.528,
22.920,29.557,7.490,-1.121,1.471,1.011,6.262,0.000,2.292,0.000,1.586,1.543,0.000,2.977,4.495,1.549,1.078,0.000,3.142,3.288,0.000,0.762,0.000,0.000,0.000,0.000,0.000,0.000,0.000,0.000,3.142,6.283,0.000,1.003,1.569,1.569,4.085,6.281,1.199,4.712,0.000,0.000,7.221,-0.502,0.990,4.812,1.620,1.521,5.281,4.711,4.711,2.198,6.282,5.083,1.570,0.000,0.000,7.874,-0.567,0.990,4.812,1.614,1.527,
23.020,29.657,7.501,-1.002,1.472,1.012,6.260,0.000,2.154,0.000,2.072,1.563,0.000,2.087,4.807,1.538,2.291,0.000,3.142,0.000,0.000,0.634,0.000,0.000,0.000,0.000,0.000,0.000,0.000,0.000,3.142,6.283,0.000,1.003,1.569,1.569,4.085,6.281,1.199,4.712,0.000,0.000,7.232,-0.384,0.990,4.811,1.620,1.521,5.281,4.711,4.711,2.198,6.282,5.083,1.570,0.000,0.000,7.885,-0.448,0.990,4.811,1.615,1.526,
23.120,29.757,7.511,-0.903,1.473,1.012,6.262,0.000,2.106,0.000,3.414,1.580,0.000,2.191,0.000,1.528,1.061,0.000,3.142,0.000,0.000,0.550,0.000,0.000,0.000,0.000,0.000,0.000,0.000,0.000,3.142,6.283,0.000,1.004,1.569,1.569,4.085,6.281,1.199,4.712,0.000,0.000,7.242,-0.285,0.990,4.810,1.620,1.521,5.281,4.711,4.711,2.198,6.282,5.083,1.570,0.000,0.000,7.895,-0.349,0.990,4.810,1.616,1.525,
23.220,29.857,7.521,-0.804,1.474,1.012,6.262,0.000,2.119,0.000,3.425,1.596,0.000,2.903,1.554,1.518,2.265,0.000,3.142,0.000,0.000,0.499,0.000,0.000,0.000,0.000,0.000,0.000,0.000,0.000,3.142,6.283,0.000,1.004,1.569,1.569,4.085,6.281,1.199,4.712,0.000,0.000,7.251,-0.186,0.990,4.810,1.621,1.520,5.281,4.711,4.711,2.198,6.282,5.083,1.570,0.000,0.000,7.904,-0.249,0.990,4.809,1.617,1.525,
23.320,29.957,7.531,-0.705,1.474,1.012,6.263,0.000,2.003,0.000,3.435,1.684,0.000,2.881,1.598,1.509,2.252,0.000,3.142,0.000,0.000,0.461,0.000,0.000,0.000,0.000,0.000,0.000,0.000,0.000,3.142,6.282,0.000,1.004,1.569,1.569,4.085,6.281,1.199,4.712,0.000,0.000,7.260,-0.087,0.990,4.809,1.621,1.520,5.281,4.711,4.711,2.198,6.282,5.083,1.570,0.000,0.000,7.913,-0.150,0.990,4.809,1.617,1.524,
23.420,30.057,7.540,-0.606,1.490,1.011,0.608,0.000,1.932,0.000,3.459,1.790,0.000,2.790,1.577,1.263,2.279,0.000,3.142,0.000,0.000,0.435,0.000,0.000,0.000,0.000,0.000,0.000,0.000,0.000,3.142,0.001,0.000,1.003,1.571,1.572,4.086,6.281,1.199,4.712,0.000,0.000,7.262,0.008,0.990,4.797,1.631,1.510,5.281,4.712,4.714,2.199,6.281,5.083,1.571,0.000,0.000,7.916,-0.046,0.991,4.796,1.612,1.530,
23.520,30.157,7.546,-0.507,1.579,1.011,1.172,0.000,1.904,0.000,3.565,1.886,0.000,2.520,1.521,0.687,0.000,0.000,3.142,3.320,0.000,0.418,0.000,0.000,0.000,0.000,0.000,0.000,0.000,0.000,3.142,0.001,0.000,1.003,1.570,1.570,4.085,6.282,1.199,4.712,0.000,0.000,7.213,0.080,0.990,4.722,4.197,5.226,5.282,4.713,4.713,2.198,6.282,5.083,1.571,0.000,0.000,7.869,0.085,0.991,4.721,4.314,5.111,
23.620,30.257,7.543,-0.407,1.633,1.019,0.057,0.000,1.739,0.000,4.052,2.047,0.000,2.757,1.502,1.573,0.000,0.000,3.142,3.411,0.000,0.421,0.000,0.000,0.000,0.000,0.000,0.000,0.000,0.000,3.142,6.283,0.000,1.004,1.568,1.566,4.085,6.282,1.199,4.711,0.000,0.000,7.177,0.161,0.990,4.778,4.639,4.784,5.281,4.710,4.709,2.198,6.283,5.083,1.570,0.000,0.000,7.832,0.202,0.990,4.778,4.647,4.777,
23.720,30.357,7.537,-0.307,1.632,1.011,6.273,0.000,1.725,0.000,3.631,2.034,0.000,2.885,1.508,0.711,0.000,0.000,3.142,3.446,0.000,0.440,0.000,0.000,0.000,0.000,0.000,0.000,0.000,0.000,3.142,6.282,0.000,1.004,1.569,1.569,4.085,6.281,1.199,4.712,0.000,0.000,7.172,0.261,0.990,4.775,4.638,4.786,5.281,4.711,4.711,2.197,6.282,5.083,1.570,0.000,0.000,7.827,0.302,0.990,4.775,4.635,4.789,
23.820,30.457,7.531,-0.208,1.632,1.007,6.272,0.000,1.594,0.000,0.000,2.084,0.000,3.014,1.515,1.586,4.890,0.000,3.142,3.471,0.000,0.517,0.581,0.000,0.000,0.000,0.000,0.000,0.000,0.000,3.142,6.282,0.000,1.004,1.569,1.569,4.085,6.281,1.199,4.712,0.000,0.000,7.166,0.360,0.990,4.775,4.638,4.786,5.281,4.711,4.711,2.197,6.282,5.083,1.570,0.000,0.000,7.821,0.401,0.990,4.775,4.636,4.788,
23.912,30.549,7.525,-0.109,1.632,1.012,6.271,0.000,1.571,2.028,0.000,2.199,0.000,3.142,0.691,1.592,3.093,0.000,3.142,3.484,0.000,0.000,0.538,0.000,0.000,0.000,0.000,0.000,0.000,0.000,3.142,6.282,0.000,1.004,1.569,1.569,4.085,6.281,1.199,4.712,0.000,0.000,7.160,0.459,0.990,4.775,4.638,4.786,5.281,4.711,4.711,2.197,6.282,5.083,1.570,0.000,0.000,7.815,0.500,0.990,4.775,4.636,4.788,
24.016,30.652,7.520,-0.029,1.632,1.014,6.270,0.000,1.563,1.766,0.000,2.291,0.000,3.246,1.526,1.598,3.000,0.000,3.142,3.523,0.000,0.000,0.572,0.000,0.000,0.000,0.000,0.000,0.000,0.000,3.142,6.282,0.000,1.004,1.569,1.569,4.085,6.281,1.199,4.712,0.000,0.000,7.155,0.538,0.990,4.775,4.637,4.786,5.281,4.711,4.711,2.198,6.282,5.083,1.570,0.000,0.000,7.810,0.579,0.990,4.775,4.637,4.787,
24.105,30.742,7.514,0.070,1.632,1.012,6.270,0.000,1.554,1.759,0.000,2.243,0.000,3.375,1.532,1.604,2.883,0.000,3.142,3.542,0.000,0.000,0.631,0.000,0.000,0.000,0.000,0.000,0.000,0.000,3.142,6.282,0.000,1.004,1.569,1.569,4.085,6.281,1.199,4.712,0.000,0.000,7.149,0.638,0.990,4.775,4.637,4.787,5.281,4.711,4.711,2.198,6.282,5.083,1.570,0.000,0.000,7.804,0.679,0.990,4.775,4.637,4.787,
24.209,30.846,7.508,0.169,1.632,1.010,6.268,0.000,1.544,1.753,0.000,2.231,0.000,3.505,1.538,1.611,2.766,0.000,3.142,3.566,0.000,0.000,0.723,0.000,0.000,0.000,0.000,0.000,0.000,0.000,3.142,6.282,0.000,1.004,1.569,1.569,4.085,6.281,1.199,4.712,0.000,0.000,7.143,0.737,0.990,4.775,4.637,4.787,5.281,4.711,4.711,2.198,6.282,5.083,1.570,0.000,0.000,7.798,0.778,0.990,4.775,4.637,4.787,
24.320,30.957,7.502,0.269,1.633,1.012,6.268,0.000,1.535,1.747,0.000,2.220,0.000,2.266,1.303,1.618,2.760,0.000,3.142,3.579,0.000,0.000,0.834,0.000,0.000,0.000,0.000,0.000,0.000,0.000,3.142,6.282,0.000,1.004,1.569,1.569,4.085,6.281,1.199,4.712,0.000,0.000,7.137,0.836,0.990,4.775,4.637,4.787,5.281,4.711,4.711,2.198,6.282,5.083,1.570,0.000,0.000,7.792,0.877,0.990,4.775,4.638,4.786,
24.420,31.057,7.494,0.388,1.633,1.012,6.268,0.000,1.523,1.739,0.000,2.206,0.000,2.277,1.552,1.626,2.870,0.000,3.142,3.645,0.000,0.000,1.034,0.000,0.000,0.000,0.000,0.000,0.000,0.000,3.142,6.282,0.000,1.004,1.569,1.569,4.085,6.281,1.199,4.712,0.000,0.000,7.129,0.955,0.990,4.775,4.637,4.787,5.281,4.711,4.711,2.198,6.282,5.083,1.570,0.000,0.000,7.784,0.996,0.990,4.775,4.638,4.786,
24.503,31.139,7.488,0.487,1.633,1.011,6.268,0.000,1.513,2.274,0.000,2.312,0.000,2.364,1.559,1.633,2.883,0.000,3.142,3.675,0.000,0.000,1.219,0.000,0.000,0.000,0.000,0.000,0.000,0.000,3.142,6.282,0.000,1.004,1.569,1.569,4.085,6.281,1.199,4.712,0.000,0.000,7.123,1.055,0.990,4.775,4.637,4.787,5.281,4.711,4.711,2.198,6.282,5.083,1.570,0.000,0.000,7.778,1.096,0.990,4.775,4.639,4.785,
24.620,31.257,7.483,0.567,1.633,1.011,6.267,0.000,1.505,1.184,0.000,2.404,0.000,1.114,1.564,1.638,2.893,0.000,3.142,3.658,0.000,0.000,1.383,0.000,0.000,0.000,0.000,0.000,0.000,0.000,3.142,6.282,0.000,1.004,1.569,1.569,4.085,6.281,1.199,4.712,0.000,0.000,7.118,1.134,0.990,4.775,4.637,4.786,5.281,4.711,4.711,2.198,6.282,5.083,1.570,0.000,0.000,7.773,1.175,0.990,4.776,4.639,4.785,
24.720,31.357,7.476,0.686,1.634,1.012,6.267,0.000,1.493,1.096,0.000,2.542,0.000,2.382,1.571,1.646,2.909,0.000,3.142,3.728,0.000,0.000,0.000,0.000,0.000,0.000,0.000,0.000,0.000,0.000,3.142,6.282,0.000,1.004,1.569,1.569,4.085,6.281,1.199,4.712,0.000,0.000,7.110,1.253,0.990,4.776,4.638,4.786,5.281,4.711,4.711,2.198,6.282,5.083,1.570,0.000,0.000,7.765,1.295,0.990,4.776,4.640,4.784,
24.820,31.457,7.469,0.785,1.617,1.012,5.690,0.000,1.512,0.999,0.000,2.683,0.000,2.439,1.584,1.589,2.846,0.000,3.142,3.717,0.000,0.000,0.000,0.000,0.000,0.000,0.000,0.000,0.000,0.000,3.142,6.281,0.001,1.004,1.568,1.566,4.084,6.281,1.199,4.711,0.000,0.000,7.111,1.358,0.990,4.763,4.627,4.796,5.281,4.710,4.708,2.197,6.282,5.083,1.570,0.000,0.000,7.767,1.389,0.990,4.763,4.608,4.815,
24.920,31.557,7.466,0.885,1.558,1.014,5.742,0.000,1.624,1.012,0.000,3.140,0.000,2.642,1.616,1.559,2.615,0.000,3.142,3.817,0.000,0.000,0.000,0.000,0.000,0.000,0.000,0.000,0.000,0.000,3.142,6.281,0.000,1.004,1.569,1.569,4.085,6.281,1.199,4.712,0.000,0.000,7.145,1.478,0.990,4.726,1.946,1.194,5.282,4.711,4.711,2.198,6.282,5.083,1.570,0.000,0.000,7.801,1.470,0.991,4.726,1.904,1.237,
25.020,31.657,7.468,0.984,1.543,1.009,6.264,0.000,1.662,1.019,1.754,3.076,0.000,1.280,1.622,1.550,2.559,0.000,3.142,0.000,0.000,0.000,0.000,0.000,0.000,0.000,0.000,0.000,0.000,0.000,3.142,6.282,0.000,1.004,1.569,1.570,4.085,6.281,1.199,4.712,0.000,0.000,7.156,1.582,0.990,4.741,1.739,1.402,5.281,4.711,4.712,2.198,6.282,5.083,1.570,0.000,0.000,7.812,1.565,0.990,4.740,1.733,1.408,
25.117,31.753,7.471,1.084,1.544,1.010,6.265,0.000,1.666,1.022,1.757,3.186,0.000,2.690,1.619,0.000,2.556,0.000,3.142,0.000,0.000,0.000,0.000,0.000,0.000,0.000,0.000,0.000,0.000,0.000,3.142,6.282,0.000,1.004,1.569,1.569,4.085,6.281,1.199,4.712,0.000,0.000,7.158,1.681,0.990,4.740,1.747,1.394,5.281,4.711,4.711,2.198,6.282,5.083,1.570,0.000,0.000,7.814,1.664,0.990,4.739,1.739,1.402,
25.220,31.857,7.473,1.163,1.544,1.013,6.264,0.000,1.668,1.024,1.760,3.283,0.000,2.685,1.616,0.000,1.904,0.000,3.142,0.000,0.000,0.000,0.000,0.000,0.000,0.000,0.000,0.000,0.000,0.000,3.142,6.282,0.000,1.004,1.569,1.569,4.085,6.281,1.199,4.712,0.000,0.000,7.160,1.761,0.990,4.739,1.749,1.392,5.281,4.711,4.711,2.198,6.282,5.083,1.570,0.000,0.000,7.816,1.744,0.990,4.739,1.741,1.400,
25.306,31.943,7.476,1.283,1.545,1.013,6.265,0.000,1.673,1.027,1.124,3.429,0.000,2.677,1.613,0.000,1.811,0.000,3.142,0.000,0.000,0.000,0.000,0.000,0.000,0.000,0.000,0.000,0.000,0.000,3.142,6.282,0.000,1.004,1.569,1.569,4.085,6.281,1.199,4.712,0.000,0.000,7.163,1.880,0.990,4.739,1.753,1.388,5.281,4.711,4.711,2.198,6.282,5.083,1.570,0.000,0.000,7.819,1.863,0.990,4.739,1.745,1.396,
25.401,32.038,7.478,1.362,1.545,1.011,6.265,0.000,1.675,1.029,1.029,3.526,0.000,2.672,1.610,0.000,2.548,0.000,3.142,0.000,0.000,0.000,0.000,0.000,0.000,0.000,0.000,0.000,0.000,0.000,3.142,6.282,0.000,1.004,1.569,1.569,4.085,6.281,1.199,4.712,0.000,0.000,7.165,1.960,0.990,4.738,1.756,1.385,5.281,4.711,4.711,2.198,6.282,5.083,1.570,0.000,0.000,7.820,1.943,0.990,4.738,1.748,1.394,
25.520,32.157,7.481,1.462,1.545,1.011,6.265,0.000,1.679,1.031,1.032,3.647,0.000,2.666,1.607,0.000,2.545,0.000,3.142,0.000,0.000,0.000,0.000,0.000,0.000,0.000,0.000,0.000,0.000,0.000,3.142,6.282,0.000,1.004,1.569,1.569,4.085,6.281,1.199,4.712,0.000,0.000,7.167,2.059,0.990,4.738,1.758,1.382,5.281,4.711,4.711,2.198,6.282,5.083,1.570,0.000,0.000,7.823,2.043,0.990,4.738,1.751,1.390,
25.620,32.257,7.484,1.581,1.546,1.012,6.265,0.000,1.683,1.034,1.035,3.793,0.000,2.247,1.604,0.000,2.542,0.000,3.142,4.960,0.000,0.000,0.000,0.000,0.000,0.000,0.000,0.000,0.000,0.000,3.142,6.282,0.000,1.004,1.569,1.569,4.085,6.281,1.199,4.712,0.000,0.000,7.170,2.178,0.990,4.737,1.762,1.378,5.281,4.711,4.711,2.198,6.282,5.083,1.570,0.000,0.000,7.825,2.162,0.990,4.737,1.755,1.386,
25.720,32.357,7.486,1.681,1.546,1.012,6.266,0.000,1.686,1.037,1.038,3.914,0.000,2.653,1.601,0.000,2.539,0.000,3.142,4.882,0.000,0.000,0.000,0.000,0.000,0.000,0.000,0.000,0.000,0.000,3.142,6.282,0.000,1.004,1.569,1.569,4.085,6.281,1.199,4.712,0.000,0.000,7.172,2.278,0.990,4.737,1.766,1.375,5.281,4.711,4.711,2.198,6.282,5.083,1.570,0.000,0.000,7.828,2.262,0.990,4.737,1.758,1.383,
25.805,32.442,7.489,1.780,1.547,1.011,6.265,0.000,1.689,1.039,1.041,4.035,0.000,2.236,1.598,0.000,2.536,0.000,3.142,4.839,0.000,0.000,0.000,0.000,0.000,0.000,0.000,0.000,0.000,0.000,3.142,6.282,0.000,1.004,1.569,1.569,4.085,6.281,1.199,4.712,0.000,0.000,7.174,2.377,0.990,4.737,1.769,1.372,5.281,4.711,4.711,2.198,6.282,5.083,1.570,0.000,0.000,7.830,2.362,0.990,4.736,1.761,1.380,
25.920,32.557,7.490,1.860,1.547,1.012,6.265,0.000,1.691,1.041,1.043,4.744,0.000,2.642,1.543,0.000,2.534,0.000,3.142,4.807,0.000,0.000,0.000,0.000,0.000,0.000,0.000,0.000,0.000,0.000,3.142,6.282,0.000,1.004,1.569,1.569,4.085,6.281,1.199,4.712,0.000,0.000,7.176,2.456,0.990,4.736,1.771,1.369,5.281,4.711,4.711,2.198,6.282,5.083,1.570,0.000,0.000,7.832,2.441,0.990,4.736,1.764,1.377,
26.020,32.657,7.493,1.979,1.548,1.012,6.265,0.000,1.670,1.044,1.046,4.889,0.000,2.636,1.540,0.000,2.531,0.000,3.142,0.000,0.000,0.000,0.000,0.000,0.000,0.000,0.000,0.000,0.000,0.000,3.142,6.282,0.000,1.004,1.569,1.569,4.085,6.281,1.199,4.712,0.000,0.000,7.178,2.576,0.990,4.736,1.776,1.365,5.281,4.711,4.711,2.198,6.282,5.083,1.570,0.000,0.000,7.834,2.561,0.990,4.736,1.768,1.373,
26.115,32.752,7.496,2.079,1.548,1.012,6.265,0.000,1.613,1.046,1.049,0.000,0.000,2.630,1.804,1.523,2.529,0.000,3.142,0.000,0.000,0.000,0.000,0.000,0.000,0.000,0.000,0.000,0.000,0.000,3.142,6.282,0.000,1.004,1.569,1.569,4.085,6.281,1.199,4.712,0.000,0.000,7.180,2.675,0.990,4.735,1.779,1.362,5.281,4.711,4.711,2.198,6.282,5.083,1.570,0.000,0.000,7.836,2.660,0.990,4.735,1.772,1.369,
26.203,32.839,7.497,2.158,1.548,1.012,6.265,0.000,1.615,1.048,1.051,0.000,0.000,2.626,2.052,1.522,2.527,0.000,3.142,0.000,0.000,0.000,0.000,0.000,0.000,0.000,0.000,0.000,0.000,0.000,3.142,6.282,0.000,1.004,1.569,1.569,4.085,6.281,1.199,4.712,0.000,0.000,7.182,2.755,0.990,4.735,1.782,1.359,5.281,4.711,4.711,2.198,6.282,5.083,1.570,0.000,0.000,7.838,2.740,0.990,4.735,1.774,1.367,
26.320,32.957,7.500,2.258,1.549,1.012,6.265,0.000,3.351,1.050,1.053,0.000,0.000,2.620,2.362,1.572,2.525,0.000,3.142,0.000,0.000,0.000,0.000,0.000,0.000,0.000,0.000,0.000,0.000,0.000,3.142,6.282,0.000,1.004,1.569,1.569,4.085,6.281,1.199,4.712,0.000,0.000,7.184,2.854,0.990,4.735,1.786,1.355,5.281,4.711,4.711,2.198,6.282,5.083,1.570,0.000,0.000,7.840,2.840,0.990,4.735,1.778,1.363,
26.420,33.057,7.502,2.377,1.549,1.012,6.266,0.000,3.097,1.053,1.056,1.888,0.000,2.614,2.735,1.107,2.522,0.000,3.142,0.000,0.000,0.000,0.000,0.000,0.000,0.000,0.000,0.000,0.000,0.000,3.142,6.282,0.000,1.004,1.569,1.569,4.085,6.281,1.199,4.712,0.000,0.000,7.186,2.973,0.990,4.734,1.790,1.350,5.281,4.711,4.711,2.198,6.282,5.083,1.570,0.000,0.000,7.842,2.959,0.990,4.734,1.783,1.358,
26.520,33.157,7.504,2.477,1.549,1.012,6.265,0.000,2.886,1.055,1.058,1.733,0.000,2.609,3.833,1.567,2.519,0.000,3.142,0.000,0.000,0.000,0.000,0.000,0.000,0.000,0.000,0.000,0.000,0.000,3.142,6.282,0.000,1.004,1.569,1.569,4.085,6.281,1.199,4.712,0.000,0.000,7.188,3.073,0.990,4.734,1.794,1.346,5.281,4.711,4.711,2.198,6.282,5.083,1.570,0.000,0.000,7.844,3.059,0.990,4.734,1.787,1.354,
26.617,33.254,7.506,2.576,1.550,1.012,6.266,0.000,2.674,1.057,1.061,1.738,0.000,2.604,3.830,1.565,2.517,0.000,3.142,0.000,0.000,0.000,0.000,0.000,0.000,0.000,0.000,0.000,0.000,0.000,3.142,6.282,0.000,1.004,1.569,1.569,4.085,6.281,1.199,4.712,0.000,0.000,7.190,3.172,0.990,4.733,1.798,1.342,5.281,4.711,4.711,2.198,6.282,5.083,1.570,0.000,0.000,7.846,3.159,0.990,4.733,1.791,1.350,
26.708,33.345,7.508,2.656,1.550,1.012,6.266,0.000,2.504,1.059,1.063,1.741,0.000,2.600,3.828,1.564,2.516,0.000,3.142,0.000,0.000,0.000,0.000,0.000,0.000,0.000,0.000,0.000,0.000,0.000,3.142,6.282,0.000,1.004,1.569,1.569,4.085,6.281,1.199,4.712,0.000,0.000,7.191,3.251,0.990,4.733,1.802,1.339,5.281,4.711,4.711,2.198,6.282,5.083,1.570,0.000,0.000,7.847,3.238,0.990,4.733,1.794,1.347,
26.820,33.457,7.510,2.755,1.551,1.012,6.266,0.000,2.291,1.061,1.065,1.746,0.000,2.595,3.826,1.562,2.513,0.000,3.142,0.000,0.000,0.000,0.000,0.000,0.000,0.000,0.000,0.000,0.000,0.000,3.142,6.282,0.000,1.004,1.569,1.569,4.085,6.281,1.199,4.712,0.000,0.000,7.193,3.351,0.990,4.733,1.806,1.335,5.281,4.711,4.711,2.198,6.282,5.083,1.570,0.000,0.000,7.849,3.338,0.990,4.733,1.798,1.343,
26.920,33.557,7.512,2.875,1.551,1.012,6.265,0.000,2.036,1.063,1.067,1.751,0.000,2.589,3.822,1.559,1.880,0.000,3.142,0.000,0.000,0.000,0.000,0.000,0.000,0.000,0.000,0.000,0.000,0.000,3.142,6.282,0.000,1.004,1.569,1.569,4.085,6.281,1.199,4.712,0.000,0.000,7.195,3.470,0.990,4.732,1.812,1.329,5.281,4.711,4.711,2.198,6.282,5.083,1.570,0.000,0.000,7.851,3.457,0.990,4.732,1.803,1.338,
27.020,33.657,7.514,2.974,1.551,1.012,6.266,0.000,1.897,1.065,1.070,1.755,0.000,2.584,3.820,1.558,1.763,0.000,3.142,0.000,0.000,0.000,0.000,0.000,0.000,0.000,0.000,0.000,0.000,0.000,3.142,6.282,0.000,1.004,1.569,1.569,4.085,6.281,1.199,4.712,0.000,0.000,7.197,3.570,0.990,4.732,1.816,1.325,5.281,4.711,4.711,2.198,6.282,5.083,1.570,0.000,0.000,7.853,3.557,0.990,4.732,1.808,1.333,
27.116,33.753,7.516,3.074,1.552,1.012,6.266,0.000,1.774,1.014,1.072,1.760,0.000,2.580,1.100,1.556,1.767,0.000,3.142,0.000,0.000,0.000,0.000,0.000,0.000,0.000,0.000,0.000,0.000,0.000,3.142,6.282,0.000,1.004,1.569,1.569,4.085,6.281,1.199,4.712,0.000,0.000,7.199,3.669,0.990,4.732,1.821,1.320,5.281,4.711,4.711,2.198,6.282,5.083,1.570,0.000,0.000,7.855,3.657,0.990,4.731,1.813,1.328,
27.206,33.842,7.518,3.153,1.552,1.012,6.266,0.000,1.676,1.016,1.073,1.763,0.000,2.576,1.162,1.554,2.506,0.000,3.142,0.000,0.000,0.000,0.000,0.000,0.000,0.000,0.000,0.000,0.000,0.000,3.142,6.282,0.000,1.004,1.569,1.569,4.085,6.281,1.199,4.712,0.000,0.000,7.200,3.748,0.990,4.731,1.825,1.316,5.281,4.711,4.711,2.198,6.282,5.083,1.570,0.000,0.000,7.856,3.736,0.990,4.731,1.817,1.324,
27.320,33.957,7.520,3.253,1.552,1.012,6.267,0.000,1.643,3.828,1.076,1.767,0.000,2.571,1.562,1.553,2.504,0.000,3.142,0.000,0.000,0.000,0.000,0.000,0.000,0.000,0.000,0.000,0.000,0.000,3.142,6.282,0.000,1.004,1.569,1.569,4.085,6.281,1.199,4.712,0.000,0.000,7.202,3.848,0.990,4.731,1.830,1.310,5.281,4.711,4.711,2.198,6.282,5.083,1.570,0.000,0.000,7.857,3.836,0.990,4.731,1.822,1.319,
27.420,34.057,7.522,3.372,1.553,1.012,6.266,0.000,1.731,3.439,1.078,1.772,0.000,2.479,1.560,1.551,2.502,0.000,3.142,0.000,0.000,0.000,0.000,0.000,0.000,0.000,0.000,0.000,0.000,0.000,3.142,6.282,0.000,1.004,1.569,1.569,4.085,6.281,1.199,4.712,0.000,0.000,7.203,3.967,0.990,4.730,1.837,1.303,5.281,4.711,4.711,2.198,6.282,5.083,1.570,0.000,0.000,7.859,3.956,0.990,4.730,1.829,1.312,
27.520,34.157,7.524,3.472,1.553,1.012,6.266,0.000,1.733,3.178,1.080,1.776,0.000,2.475,1.558,1.549,2.500,0.000,3.142,0.000,0.000,0.000,0.000,0.000,0.000,0.000,0.000,0.000,0.000,0.000,3.142,6.282,0.000,1.004,1.569,1.569,4.085,6.281,1.199,4.712,0.000,0.000,7.205,4.066,0.990,4.730,1.843,1.298,5.281,4.711,4.711,2.198,6.282,5.083,1.570,0.000,0.000,7.861,4.055,0.990,4.730,1.834,1.307,
27.620,34.257,7.525,3.571,1.554,1.012,6.266,0.000,1.735,3.179,1.082,1.780,0.000,2.544,1.556,1.547,2.499,0.000,3.142,0.000,0.000,0.000,0.000,0.000,0.000,0.000,0.000,0.000,0.000,0.000,3.142,6.282,0.000,1.004,1.569,1.569,4.085,6.281,1.199,4.712,0.000,0.000,7.206,4.166,0.990,4.730,1.849,1.292,5.281,4.711,4.711,2.198,6.282,5.083,1.570,0.000,0.000,7.862,4.155,0.990,4.730,1.840,1.301,
27.717,34.354,7.527,3.671,1.554,1.012,6.265,0.000,1.737,3.181,1.031,1.784,0.000,2.667,1.554,1.546,2.497,0.000,3.142,0.000,0.000,0.000,0.000,0.000,0.000,0.000,0.000,0.000,0.000,0.000,3.142,6.282,0.000,1.004,1.569,1.569,4.085,6.281,1.199,4.712,0.000,0.000,7.208,4.265,0.990,4.729,1.855,1.285,5.281,4.711,4.711,2.198,6.282,5.083,1.570,0.000,0.000,7.864,4.255,0.990,4.729,1.846,1.295,
27.819,34.456,7.528,3.750,1.554,1.012,6.265,0.000,1.738,3.182,1.033,1.787,0.000,2.765,1.552,1.545,2.496,0.000,3.142,0.000,0.000,0.000,0.000,0.000,0.000,0.000,0.000,0.000,0.000,0.000,3.142,6.282,0.000,1.004,1.569,1.569,4.085,6.281,1.199,4.712,0.000,0.000,7.209,4.345,0.990,4.729,1.860,1.280,5.281,4.711,4.711,2.198,6.282,5.083,1.570,0.000,0.000,7.865,4.334,0.990,4.729,1.851,1.290,
27.908,34.545,7.530,3.850,1.555,1.012,6.266,0.000,1.740,3.183,1.165,1.791,0.000,2.886,1.550,1.543,2.495,0.000,3.142,0.000,0.000,0.000,0.000,0.000,0.000,0.000,0.000,0.000,0.000,0.000,3.142,6.282,0.000,1.004,1.569,1.569,4.085,6.281,1.199,4.712,0.000,0.000,7.210,4.444,0.990,4.729,1.867,1.274,5.281,4.711,4.711,2.198,6.282,5.083,1.570,0.000,0.000,7.866,4.434,0.990,4.729,1.858,1.283,
28.020,34.657,7.531,3.949,1.555,1.012,6.266,0.000,1.742,3.184,0.000,1.794,0.000,3.009,1.549,1.542,2.493,0.000,3.142,0.000,0.000,0.000,0.000,0.000,0.000,0.000,0.000,0.000,0.000,0.000,3.142,6.282,0.000,1.004,1.569,1.569,4.085,6.281,1.199,4.712,0.000,0.000,7.212,4.544,0.990,4.728,1.874,1.267,5.281,4.711,4.711,2.198,6.282,5.083,1.570,0.000,0.000,7.868,4.534,0.990,4.728,1.864,1.277,
28.100,34.737,7.533,4.069,1.556,1.012,6.266,4.931,1.744,3.186,0.000,1.799,0.000,3.156,1.546,1.077,2.492,0.000,3.142,0.000,0.000,0.000,0.000,0.000,0.000,0.000,0.000,0.000,0.000,0.000,3.142,6.282,0.000,1.004,1.569,1.569,4.085,6.281,1.199,4.712,0.000,0.000,7.213,4.663,0.990,4.728,1.883,1.258,5.281,4.711,4.711,2.198,6.282,5.083,1.570,0.000,0.000,7.869,4.653,0.990,4.728,1.873,1.268,
28.220,34.857,7.534,4.148,1.556,1.012,6.266,4.852,0.000,1.196,3.053,1.802,0.000,1.770,1.545,1.075,2.491,0.000,3.142,0.000,0.000,0.000,0.000,0.000,0.000,0.000,0.000,0.000,0.000,0.000,3.142,6.282,0.000,1.004,1.569,1.569,4.085,6.281,1.199,4.712,0.000,0.000,7.214,4.742,0.990,4.728,1.889,1.252,5.281,4.711,4.711,2.198,6.282,5.083,1.570,0.000,0.000,7.870,4.733,0.990,4.727,1.879,1.262,
28.310,34.946,7.536,4.268,1.556,1.012,6.266,4.732,0.000,1.033,3.096,1.806,0.000,1.823,1.543,1.537,2.489,0.000,3.142,0.000,0.000,0.000,0.000,0.000,0.000,0.000,0.000,0.000,0.000,0.000,3.142,6.282,0.000,1.004,1.569,1.569,4.085,6.281,1.199,4.712,0.000,0.000,7.216,4.862,0.990,4.727,1.899,1.242,5.281,4.711,4.711,2.198,6.282,5.083,1.570,0.000,0.000,7.872,4.853,0.990,4.727,1.889,1.252,
28.408,35.044,7.537,4.348,1.557,1.012,6.265,4.652,0.000,1.035,3.124,1.809,0.000,3.501,1.542,1.536,2.452,0.000,3.142,0.000,0.000,0.000,0.000,0.000,0.000,0.000,0.000,0.000,0.000,0.000,3.142,6.282,0.000,1.004,1.569,1.569,4.085,6.281,1.199,4.712,0.000,0.000,7.217,4.941,0.990,4.727,1.906,1.235,5.281,4.711,4.711,2.198,6.282,5.083,1.570,0.000,0.000,7.873,4.932,0.990,4.727,1.896,1.245,
28.500,35.137,7.539,4.447,1.557,1.012,6.266,4.553,4.975,1.088,3.159,1.812,0.000,3.624,1.540,1.535,2.402,0.000,3.142,0.000,0.000,0.000,0.000,0.000,0.000,0.000,0.000,0.000,0.000,0.000,3.142,6.282,0.000,1.004,1.569,1.569,4.085,6.281,1.199,4.712,0.000,0.000,7.218,5.041,0.990,4.726,1.915,1.226,5.281,4.711,4.711,2.198,6.282,5.083,1.570,0.000,0.000,7.874,5.032,0.990,4.726,1.904,1.237,
28.620,35.257,7.540,4.547,1.558,1.012,6.266,4.453,4.852,1.090,3.195,1.815,0.000,2.432,1.538,1.534,2.401,0.000,3.142,0.000,0.000,0.000,0.000,0.000,0.000,0.000,0.000,0.000,0.000,0.000,3.142,6.282,0.000,1.004,1.569,1.569,4.085,6.281,1.199,4.712,0.000,0.000,7.219,5.140,0.990,4.726,1.924,1.217,5.281,4.711,4.711,2.198,6.282,5.083,1.570,0.000,0.000,7.875,5.132,0.990,4.726,1.914,1.227,
28.711,35.348,7.541,4.666,1.558,1.012,6.266,4.334,4.780,1.091,3.237,1.819,0.000,2.453,1.536,1.532,1.808,0.000,3.142,0.000,0.000,0.000,0.000,0.000,0.000,0.000,0.000,0.000,0.000,0.000,3.142,6.282,0.000,1.004,1.569,1.569,4.085,6.281,1.199,4.712,0.000,0.000,7.220,5.259,0.990,4.726,1.936,1.205,5.281,4.711,4.711,2.198,6.282,5.083,1.570,0.000,0.000,7.876,5.251,0.990,4.726,1.925,1.216,
28.805,35.441,7.542,4.746,1.558,1.012,6.266,4.254,4.780,1.092,3.265,1.822,0.000,2.511,1.070,1.532,1.738,0.000,3.142,0.000,0.000,0.000,0.000,0.000,0.000,0.000,0.000,0.000,0.000,0.000,3.142,6.282,0.000,1.004,1.569,1.569,4.085,6.281,1.199,4.712,0.000,0.000,7.221,5.339,0.990,4.725,1.944,1.196,5.281,4.711,4.711,2.198,6.282,5.083,1.570,0.000,0.000,7.877,5.331,0.990,4.725,1.934,1.207,
28.920,35.557,7.544,4.845,1.559,1.012,6.266,4.155,4.780,1.093,3.300,1.737,0.000,2.507,1.072,1.530,4.773,0.000,3.142,0.000,0.000,0.000,0.000,0.000,0.000,0.000,0.000,0.000,0.000,0.000,3.142,6.282,0.000,1.004,1.569,1.569,4.085,6.281,1.199,4.712,0.000,0.000,7.222,5.438,0.990,4.725,1.955,1.185,5.281,4.711,4.711,2.198,6.282,5.083,1.570,0.000,0.000,7.878,5.430,0.990,4.725,1.944,1.197,
29.020,35.657,7.545,4.965,1.559,1.012,6.266,4.035,0.000,1.094,1.052,1.813,0.000,2.503,1.532,1.529,4.624,0.000,3.142,0.000,2.131,0.000,0.000,0.000,0.000,0.000,0.000,0.000,0.000,0.000,3.142,6.282,0.000,1.004,1.569,1.569,4.085,6.281,1.199,4.712,0.000,0.000,7.223,5.557,0.990,4.725,1.969,1.171,5.281,4.711,4.711,2.198,6.282,5.083,1.570,0.000,0.000,7.879,5.550,0.990,4.724,1.958,1.183,
29.108,35.745,7.546,5.064,1.560,1.012,6.266,3.936,0.000,1.095,1.106,1.934,0.000,2.500,1.531,1.528,4.500,0.000,3.142,0.000,2.098,0.000,0.000,0.000,0.000,0.000,0.000,0.000,0.000,0.000,3.142,6.282,0.000,1.004,1.569,1.569,4.085,6.281,1.199,4.712,0.000,0.000,7.224,5.657,0.990,4.724,1.982,1.159,5.281,4.711,4.711,2.198,6.282,5.083,1.570,0.000,0.000,7.880,5.650,0.990,4.724,1.971,1.170,
29.220,35.857,7.547,5.144,1.560,1.012,6.266,3.856,0.000,1.096,1.107,2.031,0.000,2.498,1.530,1.527,4.366,0.000,3.142,0.000,2.166,0.000,0.000,0.000,0.000,0.000,0.000,0.000,0.000,0.000,3.142,6.282,0.000,1.004,1.569,1.569,4.085,6.281,1.199,4.712,0.000,0.000,7.225,5.736,0.990,4.724,1.992,1.149,5.281,4.711,4.711,2.198,6.282,5.083,1.570,0.000,0.000,7.881,5.729,0.990,4.724,1.981,1.160,
29.320,35.957,7.548,5.263,1.560,1.012,6.266,3.737,4.655,0.000,1.109,0.000,0.000,2.494,1.528,1.526,4.217,0.000,3.142,0.000,0.000,4.617,0.000,0.000,0.000,0.000,0.000,0.000,0.000,0.000,3.142,6.282,0.000,1.004,1.569,1.569,4.085,6.281,1.199,4.712,0.000,0.000,7.226,5.856,0.990,4.724,2.009,1.132,5.281,4.711,4.711,2.198,6.282,5.083,1.570,0.000,0.000,7.882,5.849,0.990,4.723,1.998,1.143,
29.416,36.052,7.549,5.363,1.561,1.012,6.266,3.637,4.532,0.000,1.110,0.000,0.000,2.491,1.527,1.525,2.663,0.000,3.142,0.000,0.000,4.671,0.000,0.000,0.000,0.000,0.000,0.000,0.000,0.000,3.142,6.282,0.000,1.004,1.569,1.569,4.085,6.281,1.199,4.712,0.000,0.000,7.227,5.955,0.990,4.723,2.024,1.117,5.281,4.711,4.711,2.198,6.282,5.083,1.570,0.000,0.000,7.883,5.949,0.990,4.723,2.012,1.129,
29.505,36.142,7.550,5.442,1.561,1.012,6.266,3.558,4.434,0.000,1.111,0.000,0.000,2.488,1.526,1.525,2.565,0.000,3.142,0.000,0.000,4.782,0.000,0.000,0.000,0.000,0.000,0.000,0.000,0.000,3.142,6.282,0.000,1.004,1.569,1.569,4.085,6.281,1.199,4.712,0.000,0.000,7.227,6.035,0.990,4.723,2.036,1.104,5.281,4.711,4.711,2.198,6.282,5.083,1.570,0.000,0.000,7.883,6.028,0.990,4.723,2.025,1.116,
29.620,36.257,7.551,5.542,1.561,1.012,6.267,3.458,4.311,0.000,1.112,0.000,0.000,2.485,1.525,1.524,2.441,0.000,3.142,0.000,0.000,0.000,0.000,0.000,0.000,0.000,0.000,0.000,0.000,0.000,3.142,6.282,0.000,1.004,1.569,1.569,4.085,6.281,1.199,4.712,0.000,0.000,7.228,6.134,0.990,4.723,2.053,1.088,5.281,4.711,4.711,2.198,6.282,5.083,1.570,0.000,0.000,7.884,6.128,0.990,4.722,2.042,1.099,
29.720,36.357,7.552,5.661,1.562,1.012,6.266,3.339,4.164,2.054,1.114,0.000,0.000,2.482,1.523,1.523,2.395,0.000,3.142,0.000,0.000,0.000,0.000,0.000,0.000,0.000,0.000,0.000,0.000,0.000,3.142,6.282,0.000,1.004,1.569,1.569,4.085,6.281,1.199,4.712,0.000,0.000,7.229,6.253,0.990,4.722,2.075,1.066,5.281,4.711,4.711,2.198,6.282,5.083,1.570,0.000,0.000,7.885,6.248,0.990,4.722,2.063,1.078,
29.820,36.457,7.553,5.761,1.562,1.012,6.266,3.239,4.041,1.799,1.115,0.000,0.000,2.479,1.522,1.522,2.480,0.000,3.142,0.000,0.000,0.000,0.000,0.000,0.000,0.000,0.000,0.000,0.000,0.000,3.142,6.282,0.000,1.004,1.569,1.569,4.085,6.281,1.199,4.712,0.000,0.000,7.229,6.353,0.990,4.722,2.094,1.047,5.281,4.711,4.711,2.198,6.282,5.083,1.570,0.000,0.000,7.885,6.347,0.990,4.722,2.082,1.059,
29.903,36.540,7.554,5.840,1.562,1.012,6.265,3.160,3.942,0.000,1.115,0.000,0.000,1.721,1.521,1.061,2.480,0.000,3.142,0.000,0.000,2.550,0.000,0.000,0.000,0.000,0.000,0.000,0.000,0.000,3.142,6.282,0.000,1.004,1.569,1.569,4.085,6.281,1.199,4.712,0.000,0.000,7.230,6.432,0.990,4.722,2.111,1.030,5.281,4.711,4.711,2.198,6.282,5.083,1.570,0.000,0.000,7.886,6.427,0.990,4.721,2.099,1.042,
30.000,36.637,7.555,5.940,1.563,1.012,6.266,3.060,3.819,0.000,1.341,0.000,0.000,1.761,1.520,1.468,2.480,0.000,3.142,0.000,0.000,2.503,0.000,0.000,0.000,0.000,0.000,0.000,0.000,0.000,3.142,6.282,0.000,1.004,1.569,1.569,4.085,6.281,1.199,4.712,0.000,0.000,7.230,6.532,0.990,4.721,2.132,1.008,5.281,4.711,4.711,2.198,6.282,5.083,1.570,0.000,0.000,7.886,6.527,0.990,4.721,2.121,1.020,
30.120,36.757,7.555,6.039,1.563,1.012,6.266,2.961,3.634,0.000,1.643,1.769,0.000,2.472,1.519,0.000,2.480,0.000,3.142,0.000,0.000,2.561,0.000,0.000,0.000,0.000,0.000,0.000,0.000,0.000,3.142,6.282,0.000,1.004,1.569,1.569,4.085,6.281,1.199,4.712,0.000,0.000,7.231,6.631,0.990,4.721,2.155,0.986,5.281,4.711,4.711,2.198,6.282,5.083,1.570,0.000,0.000,7.887,6.626,0.990,4.721,2.143,0.998,
30.220,36.857,7.556,6.159,1.564,1.012,6.266,2.841,3.486,0.000,2.004,1.811,0.000,2.469,1.518,0.000,2.480,0.000,3.142,0.000,0.000,2.823,0.000,0.000,0.000,0.000,0.000,0.000,0.000,0.000,3.142,6.282,0.000,1.004,1.569,1.569,4.085,6.281,1.199,4.712,0.000,0.000,7.232,6.750,0.990,4.721,2.185,0.955,5.281,4.711,4.711,2.198,6.282,5.083,1.570,0.000,0.000,7.888,6.746,0.990,4.720,2.174,0.967,
30.314,36.950,7.557,6.258,1.564,1.012,6.266,2.742,3.471,0.000,2.304,1.862,0.000,2.466,1.517,0.000,2.480,0.000,3.142,0.000,0.000,0.000,0.000,0.000,0.000,0.000,0.000,0.000,0.000,0.000,3.142,6.282,0.000,1.004,1.569,1.569,4.085,6.281,1.199,4.712,0.000,0.000,7.232,6.850,0.990,4.720,2.213,0.928,5.281,4.711,4.711,2.198,6.282,5.083,1.570,0.000,0.000,7.888,6.846,0.990,4.720,2.202,0.939,
30.410,37.047,7.557,6.338,1.564,1.012,6.266,2.662,3.471,0.000,1.832,1.864,0.000,2.464,1.516,0.000,2.480,0.000,3.142,0.000,0.000,0.000,0.000,0.000,0.000,0.000,0.000,0.000,0.000,0.000,3.142,6.282,0.000,1.004,1.569,1.569,4.085,6.281,1.199,4.712,0.000,0.000,7.232,6.929,0.990,4.720,2.237,0.904,5.281,4.711,4.711,2.198,6.282,5.083,1.570,0.000,0.000,7.888,6.925,0.990,4.720,2.226,0.915,
30.520,37.157,7.558,6.438,1.564,1.012,6.219,2.563,0.000,0.000,2.135,1.864,0.000,2.464,1.516,0.000,2.478,0.000,3.142,0.000,0.000,0.000,0.000,0.000,0.000,0.000,0.000,0.000,0.000,0.000,3.142,6.282,0.000,1.004,1.569,1.568,4.084,6.281,1.199,4.712,0.000,0.000,7.233,7.029,0.990,4.720,2.253,0.888,5.281,4.711,4.711,2.197,6.282,5.083,1.570,0.000,0.000,7.889,7.025,0.990,4.720,2.310,0.831,
30.608,37.244,7.560,6.553,1.505,0.772,5.308,2.450,0.000,4.248,3.855,1.723,0.000,2.685,1.076,0.000,2.291,0.000,3.142,0.000,0.000,0.000,0.000,0.000,0.000,0.000,0.000,0.000,0.000,0.000,3.142,6.283,0.001,1.002,1.569,1.568,4.090,6.281,1.199,4.712,0.000,0.000,7.269,7.164,0.989,4.777,1.691,1.449,5.281,4.711,4.710,2.198,6.282,5.083,1.570,0.000,0.000,7.924,7.119,0.990,4.777,1.652,1.489,
30.705,37.342,7.561,6.581,1.445,-0.009,5.548,2.433,0.000,4.330,0.000,1.606,0.000,2.966,1.585,0.000,2.135,0.000,3.142,0.000,0.000,0.000,0.000,0.000,0.000,0.000,0.000,0.000,0.000,0.000,3.142,0.002,0.001,0.999,1.571,1.573,4.094,6.280,1.200,4.712,0.000,0.000,7.311,7.209,0.989,4.842,1.640,1.502,5.280,4.713,4.714,2.198,6.281,5.083,1.570,0.000,0.000,7.962,7.125,0.990,4.841,1.614,1.527,
30.801,37.438,7.557,6.555,1.370,-0.380,5.173,2.486,0.000,4.027,1.771,1.510,0.000,3.450,1.651,0.000,1.984,0.000,3.142,0.000,0.000,0.000,0.000,0.000,0.000,0.000,0.000,0.000,0.000,0.000,3.142,6.282,0.001,1.003,1.569,1.568,4.086,6.281,1.199,4.712,0.000,0.000,7.351,7.198,0.990,4.911,1.595,1.546,5.281,4.712,4.711,2.198,6.282,5.083,1.570,0.000,0.000,7.995,7.067,0.990,4.912,1.593,1.548,
30.918,37.555,7.552,6.535,1.261,-0.028,5.068,2.574,2.614,3.455,0.000,1.680,3.283,0.000,1.776,0.000,1.751,0.000,3.071,0.000,0.000,0.000,0.000,0.000,0.000,0.000,0.000,0.000,0.000,0.000,3.142,6.279,0.000,1.006,1.568,1.567,4.082,6.281,1.199,4.712,0.000,0.000,7.417,7.196,0.990,5.020,1.581,1.560,5.282,4.711,4.710,2.198,6.282,5.083,1.570,0.000,0.000,8.043,6.997,0.991,5.021,1.582,1.559,
31.015,37.652,7.555,6.543,1.157,0.130,5.132,2.664,2.527,3.797,0.000,1.963,0.000,0.000,1.924,1.401,4.202,0.000,3.142,0.000,0.000,0.000,3.697,0.000,0.000,0.000,0.000,0.000,0.000,0.000,3.142,6.280,0.001,1.004,1.569,1.568,4.085,6.281,1.199,4.712,0.000,0.000,7.490,7.214,0.990,5.125,1.582,1.559,5.282,4.711,4.711,2.197,6.282,5.083,1.570,0.000,0.000,8.091,6.951,0.991,5.126,1.581,1.561,
31.103,37.740,7.558,6.550,1.063,0.040,5.298,2.709,2.475,3.423,0.000,2.337,2.154,0.000,2.103,1.467,4.987,0.000,2.159,0.000,0.000,0.000,0.000,0.000,0.000,0.000,0.000,0.000,0.000,0.000,3.142,6.281,0.001,1.003,1.569,1.569,4.086,6.281,1.199,4.712,0.000,0.000,7.558,7.225,0.990,5.221,1.582,1.560,5.281,4.712,4.712,2.198,6.282,5.083,1.570,0.000,0.000,8.131,6.905,0.990,5.221,1.580,1.562,
31.204,37.840,7.557,6.549,0.979,-0.050,5.235,2.655,2.455,3.272,0.000,2.185,1.894,0.000,2.319,1.496,0.000,0.000,2.369,0.000,0.000,0.000,0.000,0.000,0.000,0.000,0.000,0.000,0.000,0.000,3.142,6.281,0.001,1.003,1.569,1.568,4.085,6.281,1.199,4.712,0.000,0.000,7.613,7.222,0.990,5.303,1.580,1.562,5.281,4.711,4.711,2.198,6.282,5.083,1.570,0.000,0.000,8.157,6.856,0.990,5.304,1.579,1.563,
31.320,37.957,7.555,6.546,0.884,-0.020,5.138,2.330,2.456,0.000,4.397,3.689,1.664,0.000,2.649,1.077,0.000,0.000,2.334,0.000,0.000,0.000,0.000,0.000,0.000,0.000,0.000,0.000,0.000,0.000,3.142,6.281,0.001,1.004,1.569,1.568,4.085,6.281,1.199,4.712,0.000,0.000,7.673,7.210,0.990,5.397,1.578,1.564,5.281,4.711,4.710,2.198,6.282,5.083,1.570,0.000,0.000,8.181,6.795,0.991,5.398,1.578,1.565,
31.414,38.051,7.561,6.554,0.767,0.382,5.396,2.033,2.475,0.000,4.426,4.832,1.518,0.000,2.281,1.621,0.000,0.000,2.580,0.000,0.000,0.000,0.000,0.000,0.000,0.000,0.000,0.000,0.000,0.000,3.142,6.277,6.283,1.007,1.567,1.566,4.078,6.281,1.199,4.712,0.000,0.000,7.754,7.200,0.990,5.512,1.572,1.569,5.283,4.710,4.709,2.197,6.282,5.083,1.571,0.000,0.000,8.212,6.729,0.991,5.513,1.576,1.567,
31.510,38.147,7.601,6.592,0.733,0.990,6.147,1.913,2.451,0.000,3.910,4.846,1.632,0.000,2.318,1.605,0.000,0.000,2.615,0.000,0.000,0.000,0.000,0.000,0.000,0.000,0.000,0.000,0.000,0.000,3.142,6.278,6.283,1.007,1.568,1.568,4.079,6.281,1.199,4.712,0.000,0.000,7.816,7.230,0.990,5.548,1.573,1.569,5.282,4.710,4.710,2.197,6.282,5.083,1.571,0.000,0.000,8.258,6.744,0.991,5.548,1.576,1.567,
31.604,38.240,7.681,6.664,0.734,1.044,6.263,1.804,2.378,2.531,3.759,4.927,1.739,0.000,3.188,1.011,0.000,0.000,2.510,0.000,0.000,0.000,0.000,0.000,0.000,0.000,0.000,0.000,0.000,0.000,3.142,0.000,0.001,1.002,1.570,1.570,4.087,6.281,1.200,4.712,0.000,0.000,7.900,7.303,0.990,5.551,1.579,1.564,5.281,4.712,4.712,2.198,6.282,5.083,1.570,0.000,0.000,8.338,6.815,0.990,5.550,1.577,1.566,
31.720,38.357,7.741,6.719,0.734,0.627,6.263,1.723,2.322,2.494,3.650,4.989,1.819,0.000,3.038,1.444,0.000,0.000,2.650,0.000,0.000,0.000,0.000,0.000,0.000,0.000,0.000,0.000,0.000,0.000,3.142,0.001,0.001,1.002,1.570,1.571,4.088,6.281,1.200,4.712,0.000,0.000,7.960,7.357,0.989,5.551,1.580,1.564,5.281,4.712,4.713,2.198,6.282,5.083,1.570,0.000,0.000,8.399,6.870,0.990,5.550,1.577,1.566,
31.820,38.456,7.792,6.765,0.735,0.654,6.264,1.655,2.275,2.477,3.558,0.000,1.885,0.000,2.910,1.385,0.000,0.000,2.580,0.000,0.000,0.000,0.000,0.000,0.000,0.000,0.000,0.000,0.000,0.000,3.142,6.282,0.000,1.004,1.569,1.568,4.083,6.281,1.199,4.712,0.000,0.000,8.008,7.404,0.990,5.547,1.576,1.566,5.281,4.711,4.711,2.198,6.282,5.083,1.570,0.000,0.000,8.449,6.917,0.990,5.547,1.577,1.566,
31.908,38.545,7.835,6.804,0.736,0.825,6.264,1.596,2.235,2.434,3.559,0.000,1.943,0.000,2.803,1.335,0.000,0.000,2.615,0.000,0.000,0.000,0.000,0.000,0.000,0.000,0.000,0.000,0.000,0.000,3.142,6.282,0.000,1.004,1.569,1.568,4.083,6.281,1.199,4.712,0.000,0.000,8.051,7.443,0.990,5.546,1.576,1.566,5.281,4.711,4.711,2.198,6.282,5.083,1.570,0.000,0.000,8.492,6.957,0.990,5.546,1.577,1.566,
32.009,38.645,7.897,6.859,0.736,0.827,6.264,1.513,2.178,2.373,3.628,0.000,2.025,0.000,2.652,1.264,0.000,0.000,2.615,0.000,0.000,0.000,0.000,0.000,0.000,0.000,0.000,0.000,0.000,0.000,3.142,6.283,0.000,1.003,1.569,1.569,4.086,6.281,1.199,4.712,0.000,0.000,8.113,7.499,0.990,5.547,1.578,1.565,5.281,4.711,4.711,2.198,6.282,5.083,1.570,0.000,0.000,8.554,7.012,0.990,5.547,1.577,1.566,
32.120,38.757,7.946,6.904,0.735,0.369,6.243,1.444,2.133,2.323,3.686,0.000,2.093,0.000,2.540,1.151,0.000,0.000,2.615,0.000,0.000,0.000,0.000,0.000,0.000,0.000,0.000,0.000,0.000,0.000,3.142,0.002,0.001,1.001,1.570,1.571,4.091,6.281,1.200,4.712,0.000,0.000,8.165,7.543,0.989,5.550,1.582,1.562,5.281,4.712,4.713,2.197,6.282,5.083,1.570,0.000,0.000,8.603,7.055,0.990,5.550,1.578,1.565,
32.220,38.857,7.944,6.902,0.700,-0.254,5.377,1.401,2.150,2.287,3.758,0.000,2.178,0.000,2.760,1.236,0.000,0.000,2.650,0.000,0.000,0.000,0.000,0.000,0.000,0.000,0.000,0.000,0.000,0.000,3.142,6.283,0.001,1.002,1.569,1.567,4.088,6.281,1.199,4.712,0.000,0.000,8.183,7.535,0.990,5.581,1.579,1.564,5.280,4.711,4.710,2.198,6.282,5.083,1.570,0.000,0.000,8.605,7.032,0.990,5.582,1.577,1.565,
32.316,38.953,7.927,6.889,0.578,-0.129,4.739,1.235,2.242,2.201,3.483,0.000,2.544,4.038,2.469,1.367,0.000,0.000,2.791,0.000,0.000,0.000,0.000,0.000,0.000,0.000,0.000,0.000,0.000,0.000,3.142,6.279,0.000,1.005,1.568,1.567,4.083,6.281,1.199,4.712,0.000,0.000,8.240,7.488,0.990,5.702,1.575,1.567,5.282,4.711,4.710,2.198,6.282,5.083,1.570,0.000,0.000,8.600,6.938,0.991,5.704,1.575,1.568,
32.407,39.043,7.926,6.889,0.474,0.077,4.966,1.343,2.125,2.148,0.000,0.000,3.040,0.000,4.166,0.973,0.000,0.000,2.896,0.000,0.000,0.000,0.000,0.000,0.000,0.000,0.000,0.000,0.000,0.000,3.142,6.280,0.000,1.005,1.569,1.568,4.083,6.281,1.199,4.712,0.000,0.000,8.299,7.451,0.990,5.808,1.575,1.568,5.282,4.712,4.711,2.198,6.282,5.083,1.571,0.000,0.000,8.600,6.867,0.991,5.808,1.574,1.568,
32.512,39.149,7.934,6.893,0.376,0.061,5.535,4.740,2.057,2.115,0.000,0.000,3.789,2.629,0.000,0.974,4.319,0.000,3.001,0.000,0.000,0.000,0.000,0.000,0.000,0.000,0.000,0.000,0.000,0.000,3.142,6.282,0.000,1.003,1.570,1.570,4.086,6.281,1.199,4.712,0.000,0.000,8.361,7.414,0.990,5.908,1.577,1.568,5.282,4.712,4.713,2.198,6.281,5.083,1.571,0.000,0.000,8.602,6.804,0.991,5.909,1.575,1.569,
32.620,39.257,7.935,6.893,0.357,-0.001,6.276,4.971,1.991,2.112,0.000,4.789,3.987,2.611,0.000,1.690,4.003,0.000,3.001,0.000,0.000,0.000,0.000,0.000,0.000,0.000,0.000,0.000,0.000,0.000,3.142,6.283,0.000,1.003,1.570,1.570,4.085,6.281,1.199,4.712,0.000,0.000,8.372,7.407,0.990,5.927,1.576,1.568,5.281,4.711,4.712,2.198,6.282,5.083,1.570,0.000,0.000,8.602,6.792,0.990,5.927,1.575,1.569,
32.715,39.351,7.935,6.893,0.357,0.000,6.273,4.971,1.991,2.112,0.000,4.789,3.986,2.611,0.000,1.690,4.004,0.000,3.001,0.000,0.000,0.000,0.000,0.000,0.000,0.000,0.000,0.000,0.000,0.000,3.142,6.283,0.000,1.003,1.569,1.569,4.085,6.281,1.199,4.712,0.000,0.000,8.372,7.407,0.990,5.926,1.576,1.568,5.281,4.711,4.712,2.198,6.282,5.083,1.570,0.000,0.000,8.601,6.792,0.990,5.926,1.575,1.569,
32.820,39.457,7.935,6.893,0.357,0.001,0.033,4.967,1.992,2.112,0.000,4.795,3.983,2.612,0.000,1.690,4.008,0.000,3.001,0.000,0.000,0.000,0.000,0.000,0.000,0.000,0.000,0.000,0.000,0.000,3.142,0.000,0.000,1.003,1.570,1.570,4.086,6.281,1.199,4.712,0.000,0.000,8.372,7.407,0.990,5.927,1.576,1.568,5.280,4.712,4.712,2.199,6.282,5.083,1.570,0.000,0.000,8.601,6.792,0.990,5.927,1.575,1.569,
32.903,39.540,7.935,6.893,0.414,-0.002,1.197,4.277,2.192,2.123,0.000,0.000,3.461,0.000,0.000,0.930,0.000,0.000,2.966,0.000,0.000,0.000,0.000,0.000,0.000,0.000,0.000,0.000,0.000,0.000,3.142,0.002,0.000,1.003,1.571,1.572,4.087,6.281,1.199,4.712,0.000,0.000,8.344,7.429,0.990,5.873,1.577,1.568,5.281,4.713,4.715,2.199,6.281,5.083,1.571,0.000,0.000,8.607,6.829,0.991,5.873,1.574,1.570,
33.001,39.638,7.935,6.893,0.513,0.000,1.546,1.246,2.263,2.160,3.258,0.000,2.412,3.752,0.000,1.433,0.000,0.000,2.861,0.000,0.000,0.000,0.000,0.000,0.000,0.000,0.000,0.000,0.000,0.000,3.142,0.002,0.000,1.003,1.570,1.570,4.086,6.281,1.199,4.712,0.000,0.000,8.288,7.468,0.990,5.771,1.576,1.567,5.282,4.712,4.713,2.199,6.282,5.083,1.570,0.000,0.000,8.610,6.896,0.991,5.772,1.574,1.569,
33.111,39.747,7.936,6.894,0.639,0.009,1.280,1.343,2.193,2.242,3.788,0.000,2.337,4.857,3.268,1.296,0.000,0.000,2.720,0.000,0.000,0.000,0.000,0.000,0.000,0.000,0.000,0.000,0.000,0.000,3.142,0.002,0.000,1.003,1.569,1.568,4.086,6.281,1.199,4.712,0.000,0.000,8.212,7.509,0.990,5.643,1.577,1.566,5.281,4.712,4.711,2.199,6.282,5.083,1.570,0.000,0.000,8.604,6.982,0.991,5.644,1.575,1.568,
33.201,39.838,7.936,6.894,0.732,0.002,0.974,1.453,2.144,2.330,3.681,0.000,2.086,0.000,2.581,1.222,0.000,0.000,2.615,0.000,0.000,0.000,0.000,0.000,0.000,0.000,0.000,0.000,0.000,0.000,3.142,0.002,0.000,1.003,1.569,1.569,4.086,6.281,1.199,4.712,0.000,0.000,8.155,7.533,0.990,5.551,1.578,1.565,5.281,4.712,4.712,2.199,6.282,5.083,1.570,0.000,0.000,8.593,7.044,0.991,5.551,1.575,1.567,
33.320,39.957,7.936,6.894,0.811,-0.015,0.985,1.574,2.119,2.429,3.838,0.000,2.085,0.000,2.204,1.118,0.000,0.000,2.545,0.000,0.000,0.000,0.000,0.000,0.000,0.000,0.000,0.000,0.000,0.000,3.142,0.002,0.000,1.003,1.570,1.570,4.086,6.281,1.199,4.712,0.000,0.000,8.104,7.547,0.990,5.473,1.578,1.564,5.281,4.712,4.712,2.199,6.282,5.083,1.570,0.000,0.000,8.579,7.095,0.991,5.473,1.575,1.567,
33.414,40.051,7.936,6.893,0.923,0.011,1.210,1.805,2.107,0.000,4.549,4.351,2.379,0.000,1.843,1.261,0.000,0.000,2.440,0.000,0.000,0.000,0.000,0.000,0.000,0.000,0.000,0.000,0.000,0.000,3.142,0.002,0.000,1.003,1.570,1.570,4.086,6.281,1.199,4.712,0.000,0.000,8.030,7.562,0.990,5.361,1.579,1.564,5.281,4.712,4.713,2.199,6.282,5.083,1.570,0.000,0.000,8.553,7.165,0.991,5.362,1.576,1.566,
33.510,40.147,7.937,6.895,1.000,0.024,1.086,2.022,2.111,0.000,4.966,3.557,2.647,0.000,0.978,4.188,4.830,0.000,2.369,0.000,0.000,0.000,0.000,0.000,0.000,0.000,0.000,0.000,0.000,0.000,3.142,0.002,0.000,1.002,1.570,1.569,4.087,6.281,1.199,4.712,0.000,0.000,7.979,7.569,0.990,5.283,1.580,1.562,5.281,4.712,4.712,2.199,6.282,5.083,1.570,0.000,0.000,8.531,7.214,0.991,5.284,1.576,1.566,
33.608,40.244,7.938,6.896,1.097,-0.014,1.151,2.127,2.137,0.000,0.000,2.421,0.000,4.167,0.974,0.000,1.351,0.000,3.142,0.000,0.000,0.000,0.000,0.000,0.000,0.000,0.000,0.000,0.000,0.000,3.142,0.002,0.000,1.002,1.570,1.570,4.087,6.281,1.199,4.712,0.000,0.000,7.914,7.571,0.990,5.187,1.582,1.560,5.281,4.712,4.712,2.199,6.282,5.083,1.570,0.000,0.000,8.498,7.271,0.991,5.187,1.577,1.564,
33.701,40.337,7.937,6.894,1.194,-0.019,1.150,2.249,2.187,3.408,0.000,2.478,3.773,2.475,1.371,0.000,1.211,0.000,3.071,0.000,0.000,0.000,0.000,0.000,0.000,0.000,0.000,0.000,0.000,0.000,3.142,0.002,0.000,1.003,1.570,1.569,4.086,6.281,1.199,4.712,0.000,0.000,7.848,7.563,0.990,5.089,1.584,1.558,5.281,4.712,4.712,2.199,6.282,5.083,1.570,0.000,0.000,8.458,7.321,0.991,5.089,1.579,1.563,
33.817,40.454,7.937,6.894,1.288,0.011,1.099,2.183,2.256,3.886,0.000,2.188,0.000,3.113,1.280,0.000,1.360,0.000,3.142,0.000,0.000,0.000,0.000,0.000,0.000,0.000,0.000,0.000,0.000,0.000,3.142,0.002,0.000,1.003,1.570,1.569,4.086,6.281,1.199,4.712,0.000,0.000,7.786,7.552,0.990,4.996,1.588,1.553,5.281,4.712,4.712,2.199,6.282,5.083,1.570,0.000,0.000,8.416,7.368,0.991,4.996,1.582,1.560,
33.907,40.544,7.937,6.896,1.383,0.010,1.142,2.135,2.350,3.645,0.000,2.035,0.000,2.474,1.151,0.000,1.479,0.000,3.142,0.000,0.000,0.000,0.000,0.000,0.000,0.000,0.000,0.000,0.000,0.000,3.142,0.002,0.000,1.003,1.570,1.570,4.086,6.281,1.199,4.712,0.000,0.000,7.725,7.537,0.990,4.901,1.598,1.543,5.281,4.712,4.712,2.199,6.282,5.083,1.570,0.000,0.000,8.370,7.414,0.991,4.901,1.586,1.555,
34.019,40.656,7.937,6.897,1.482,-0.015,1.141,2.109,2.424,4.203,2.414,2.270,0.000,2.057,1.098,0.000,1.643,0.000,3.142,0.000,0.000,0.000,0.000,0.000,0.000,0.000,0.000,0.000,0.000,0.000,3.142,0.002,0.000,1.003,1.570,1.569,4.086,6.281,1.199,4.712,0.000,0.000,7.663,7.513,0.990,4.802,1.628,1.513,5.281,4.712,4.712,2.199,6.282,5.083,1.570,0.000,0.000,8.316,7.454,0.991,4.802,1.604,1.537,
34.103,40.740,7.937,6.895,1.575,-0.012,1.077,2.105,0.000,4.522,4.107,2.574,0.000,1.789,3.423,0.000,1.855,0.000,3.142,0.000,0.000,0.000,0.000,0.000,0.000,0.000,0.000,0.000,0.000,0.000,3.142,0.002,0.000,1.003,1.569,1.569,4.086,6.281,1.199,4.712,0.000,0.000,7.606,7.483,0.990,4.719,3.875,5.549,5.281,4.712,4.712,2.199,6.282,5.083,1.570,0.000,0.000,8.263,7.485,0.991,4.717,4.060,5.364,
34.201,40.838,7.937,6.895,1.667,0.009,1.113,2.119,0.000,0.000,3.286,0.000,0.000,0.939,4.876,4.376,2.146,0.000,3.142,0.000,0.000,0.000,0.000,0.000,0.000,0.000,0.000,0.000,0.000,0.000,3.142,0.002,0.000,1.003,1.570,1.570,4.086,6.281,1.199,4.712,0.000,0.000,7.554,7.450,0.990,4.809,4.662,4.762,5.281,4.712,4.712,2.199,6.282,5.083,1.570,0.000,0.000,8.207,7.513,0.991,4.808,4.680,4.744,
34.320,40.957,7.937,6.897,1.765,0.011,1.169,2.151,3.294,0.000,2.733,3.718,0.000,1.446,0.000,1.263,2.200,0.000,3.142,0.000,0.000,0.000,0.000,0.000,0.000,0.000,0.000,0.000,0.000,0.000,3.142,0.002,0.000,1.003,1.570,1.570,4.086,6.281,1.199,4.712,0.000,0.000,7.501,7.412,0.990,4.906,4.687,4.737,5.281,4.712,4.712,2.199,6.282,5.083,1.570,0.000,0.000,8.145,7.538,0.991,4.906,4.697,4.727,
