deveshdatwani/Gopher/Assets/Data/07-21 09-54-34/Obstacle Handling_robot_value.csv
game_time,true_time,x,y,az,vx,vaz,dis_to_obs_0,dis_to_obs_36,dis_to_obs_72,dis_to_obs_108,dis_to_obs_144,dis_to_obs_180,dis_to_obs_-144,dis_to_obs_-108,dis_to_obs_-72,dis_to_obs_-36,dis_to_min_obs,direction_to_min_obs,dis_to_human_0,dis_to_human_36,dis_to_human_72,dis_to_human_108,dis_to_human_144,dis_to_human_180,dis_to_human_-144,dis_to_human_-108,dis_to_human_-72,dis_to_human_-36,dis_to_min_human,direction_to_min_human,main_cam_yaw,main_cam_pitch,left_joint_1,left_joint_2,left_joint_3,left_joint_4,left_joint_5,left_joint_6,left_joint_7,left_joint_gripper,left_is_grasping,left_end_x,left_end_y,left_end_z,left_end_ax,left_end_ay,left_end_az,right_joint_1,right_joint_2,right_joint_3,right_joint_4,right_joint_5,right_joint_6,right_joint_7,right_joint_gripper,right_is_grasping,right_end_x,right_end_y,right_end_z,right_end_ax,right_end_ay,right_end_az,
13.560,23.146,1.251,-9.912,1.123,1.003,6.271,3.754,3.483,0.000,1.928,1.661,3.317,0.000,2.401,1.762,1.546,0.000,1.492,0.000,0.000,0.000,0.000,0.000,0.000,0.000,0.000,0.000,0.000,0.000,3.142,6.283,0.000,1.003,1.569,1.569,4.086,6.281,1.199,4.712,0.000,0.000,1.210,-9.239,0.990,5.160,1.582,1.559,5.281,4.711,4.712,2.198,6.282,5.083,1.570,0.000,0.000,1.802,-9.523,0.990,5.160,1.581,1.561,
13.660,23.246,1.294,-9.824,1.124,1.003,6.264,3.655,3.393,0.000,2.073,1.711,3.423,0.000,2.340,1.719,0.000,0.000,1.527,0.000,0.000,0.000,0.000,0.000,0.000,0.000,0.000,0.000,0.000,0.000,3.142,6.283,0.000,1.003,1.569,1.569,4.085,6.281,1.199,4.712,0.000,0.000,1.252,-9.150,0.990,5.159,1.582,1.560,5.281,4.711,4.711,2.198,6.282,5.083,1.570,0.000,0.000,1.844,-9.434,0.990,5.159,1.581,1.561,
13.760,23.346,1.328,-9.752,1.125,1.014,6.261,3.575,3.320,0.000,2.189,1.752,3.508,0.000,2.291,1.684,0.000,0.000,1.562,0.000,0.000,0.000,0.000,0.000,0.000,0.000,0.000,0.000,0.000,0.000,3.142,6.283,0.000,1.004,1.569,1.569,4.085,6.281,1.199,4.712,0.000,0.000,1.286,-9.079,0.990,5.158,1.582,1.560,5.281,4.711,4.711,2.198,6.282,5.083,1.570,0.000,0.000,1.878,-9.361,0.990,5.158,1.581,1.561,
13.860,23.446,1.380,-9.644,1.126,1.016,6.261,3.454,3.210,0.000,2.366,1.812,3.635,0.000,2.218,1.632,0.000,0.000,1.597,0.000,0.000,0.000,0.000,0.000,0.000,0.000,0.000,0.000,0.000,0.000,3.142,6.283,0.000,1.003,1.569,1.569,4.085,6.281,1.199,4.712,0.000,0.000,1.337,-8.970,0.990,5.157,1.582,1.560,5.281,4.711,4.711,2.198,6.282,5.083,1.570,0.000,0.000,1.929,-9.253,0.990,5.157,1.581,1.561,
13.958,23.544,1.414,-9.572,1.126,1.010,6.262,3.374,3.137,0.000,2.071,1.853,3.720,0.000,2.170,1.597,0.000,0.000,1.632,0.000,0.000,0.000,0.000,0.000,0.000,0.000,0.000,0.000,0.000,0.000,3.142,6.283,0.000,1.003,1.569,1.569,4.085,6.281,1.199,4.712,0.000,0.000,1.371,-8.898,0.990,5.157,1.582,1.560,5.281,4.711,4.711,2.198,6.282,5.083,1.570,0.000,0.000,1.963,-9.180,0.990,5.157,1.581,1.561,
14.060,23.646,1.457,-9.482,1.127,1.009,6.262,3.275,3.046,0.000,2.063,1.903,3.824,0.000,2.111,1.153,0.000,0.000,1.667,0.000,0.000,0.000,0.000,0.000,0.000,0.000,0.000,0.000,0.000,0.000,3.142,6.282,0.000,1.004,1.569,1.569,4.085,6.281,1.199,4.712,0.000,0.000,1.413,-8.809,0.990,5.156,1.582,1.560,5.281,4.711,4.711,2.198,6.282,5.083,1.570,0.000,0.000,2.005,-9.090,0.990,5.156,1.581,1.561,
14.153,23.739,1.499,-9.392,1.128,1.013,6.263,3.175,2.955,0.000,2.055,1.953,3.929,3.756,2.051,1.110,0.000,0.000,1.702,0.000,0.000,0.000,0.000,0.000,0.000,0.000,0.000,0.000,0.000,0.000,3.142,6.282,0.000,1.004,1.569,1.569,4.085,6.281,1.199,4.712,0.000,0.000,1.455,-8.719,0.990,5.155,1.582,1.560,5.281,4.711,4.711,2.198,6.282,5.083,1.570,0.000,0.000,2.048,-9.000,0.990,5.155,1.581,1.561,
14.253,23.839,1.542,-9.302,1.116,1.013,5.791,3.093,2.856,0.000,2.036,1.989,3.932,3.759,2.015,1.069,0.000,0.000,1.738,0.000,0.000,0.000,0.000,0.000,0.000,0.000,0.000,0.000,0.000,0.000,3.142,6.281,0.001,1.004,1.568,1.566,4.084,6.281,1.199,4.712,0.000,0.000,1.503,-8.628,0.990,5.163,1.581,1.560,5.281,4.710,4.709,2.197,6.282,5.083,1.570,0.000,0.000,2.093,-8.915,0.990,5.163,1.583,1.559,
14.343,23.929,1.597,-9.196,1.027,1.013,5.528,2.611,2.711,3.051,2.618,2.093,3.444,0.000,2.128,1.029,0.000,0.000,1.878,0.000,0.000,0.000,0.000,0.000,0.000,0.000,0.000,0.000,0.000,0.000,3.142,6.281,0.000,1.004,1.569,1.569,4.085,6.281,1.199,4.712,0.000,0.000,1.620,-8.522,0.990,5.256,1.580,1.562,5.282,4.711,4.711,2.198,6.281,5.083,1.570,0.000,0.000,2.182,-8.861,0.991,5.256,1.579,1.563,
14.447,24.033,1.650,-9.111,1.004,1.011,6.281,2.544,2.620,3.429,0.000,2.217,3.414,0.000,2.105,0.981,0.000,0.000,1.913,0.000,0.000,0.000,0.000,0.000,0.000,0.000,0.000,0.000,0.000,0.000,3.142,6.282,0.000,1.004,1.570,1.570,4.085,6.281,1.199,4.712,0.000,0.000,1.689,-8.438,0.990,5.280,1.580,1.562,5.281,4.711,4.712,2.198,6.282,5.083,1.570,0.000,0.000,2.243,-8.790,0.990,5.280,1.579,1.564,
14.556,24.142,1.692,-9.044,1.004,1.009,6.262,2.465,2.553,3.491,0.000,2.300,3.497,0.000,2.037,0.937,0.000,0.000,1.948,0.000,0.000,0.000,0.000,0.000,0.000,0.000,0.000,0.000,0.000,0.000,3.142,6.283,0.000,1.004,1.569,1.569,4.085,6.281,1.199,4.712,0.000,0.000,1.731,-8.371,0.990,5.279,1.580,1.562,5.281,4.711,4.711,2.198,6.282,5.083,1.570,0.000,0.000,2.285,-8.723,0.990,5.279,1.579,1.563,
14.654,24.240,1.745,-8.960,1.005,1.012,6.262,2.365,2.469,3.260,0.000,2.403,3.601,0.000,1.952,0.882,0.000,0.000,1.983,0.000,0.000,0.000,0.000,0.000,0.000,0.000,0.000,0.000,0.000,0.000,3.142,6.282,0.000,1.004,1.569,1.569,4.085,6.281,1.199,4.712,0.000,0.000,1.784,-8.287,0.990,5.278,1.580,1.562,5.281,4.711,4.711,2.198,6.282,5.083,1.570,0.000,0.000,2.338,-8.638,0.990,5.278,1.579,1.563,
14.753,24.339,1.799,-8.876,1.006,1.013,6.263,2.266,2.385,3.150,0.000,2.507,3.704,0.000,1.868,1.067,0.000,0.000,2.018,0.000,0.000,0.000,0.000,0.000,0.000,0.000,0.000,0.000,0.000,0.000,3.142,6.282,0.000,1.004,1.569,1.569,4.085,6.281,1.199,4.712,0.000,0.000,1.837,-8.203,0.990,5.277,1.580,1.562,5.281,4.711,4.711,2.198,6.282,5.083,1.570,0.000,0.000,2.391,-8.554,0.990,5.277,1.579,1.563,
14.855,24.441,1.852,-8.792,1.006,1.012,6.263,2.167,2.300,3.040,0.000,2.611,3.807,0.000,1.784,1.182,4.887,0.000,2.053,0.000,0.000,0.000,0.000,0.000,0.000,0.000,0.000,0.000,0.000,0.000,3.142,6.282,0.000,1.004,1.569,1.569,4.085,6.281,1.199,4.712,0.000,0.000,1.890,-8.119,0.990,5.277,1.580,1.562,5.281,4.711,4.711,2.198,6.282,5.083,1.570,0.000,0.000,2.444,-8.469,0.990,5.277,1.579,1.563,
14.953,24.539,1.905,-8.709,1.005,0.986,6.150,2.071,2.216,2.926,0.000,2.716,3.898,0.000,1.084,1.221,4.828,0.000,2.089,0.000,0.000,0.000,0.000,0.000,0.000,0.000,0.000,0.000,0.000,0.000,3.142,6.282,0.001,1.004,1.569,1.568,4.084,6.281,1.199,4.712,0.000,0.000,1.942,-8.035,0.990,5.277,1.580,1.562,5.281,4.711,4.710,2.197,6.282,5.083,1.570,0.000,0.000,2.497,-8.386,0.990,5.276,1.580,1.562,
15.051,24.637,1.956,-8.629,0.952,0.939,5.185,2.582,2.130,2.701,0.000,2.879,3.692,0.000,1.074,1.280,0.000,0.000,2.159,0.000,0.000,0.000,0.000,0.000,0.000,0.000,0.000,0.000,0.000,0.000,3.142,6.280,0.001,1.004,1.568,1.565,4.085,6.282,1.199,4.711,0.000,0.000,2.027,-7.957,0.990,5.326,1.579,1.562,5.281,4.710,4.708,2.197,6.282,5.083,1.570,0.000,0.000,2.563,-8.338,0.990,5.327,1.580,1.562,
15.160,24.746,2.011,-8.555,0.834,0.948,4.905,2.732,2.063,2.403,0.000,2.622,3.268,0.000,1.174,1.110,0.000,0.000,2.299,0.000,0.000,0.000,0.000,0.000,0.000,0.000,0.000,0.000,0.000,0.000,3.142,6.280,0.001,1.004,1.568,1.567,4.085,6.281,1.199,4.712,0.000,0.000,2.162,-7.897,0.990,5.447,1.578,1.564,5.282,4.711,4.710,2.197,6.282,5.083,1.570,0.000,0.000,2.649,-8.338,0.991,5.447,1.576,1.565,
15.246,24.832,2.077,-8.487,0.728,0.973,5.273,2.930,2.025,2.194,0.000,2.764,3.029,0.000,1.286,1.063,0.000,0.000,2.440,0.000,0.000,0.000,0.000,0.000,0.000,0.000,0.000,0.000,0.000,0.000,3.142,6.280,0.001,1.004,1.569,1.568,4.085,6.281,1.199,4.712,0.000,0.000,2.297,-7.849,0.990,5.554,1.577,1.565,5.282,4.711,4.711,2.197,6.281,5.083,1.570,0.000,0.000,2.734,-8.339,0.991,5.555,1.576,1.566,
15.360,24.946,2.165,-8.413,0.635,0.970,5.416,3.151,1.994,2.032,3.331,0.000,2.952,0.000,2.597,1.023,0.000,0.000,2.545,0.000,0.000,0.000,0.000,0.000,0.000,0.000,0.000,0.000,0.000,0.000,3.142,6.281,0.001,1.004,1.569,1.568,4.085,6.281,1.199,4.712,0.000,0.000,2.444,-7.798,0.990,5.647,1.577,1.566,5.282,4.711,4.710,2.197,6.282,5.083,1.570,0.000,0.000,2.833,-8.326,0.990,5.647,1.576,1.566,
15.449,25.036,2.226,-8.368,0.570,0.957,5.295,3.372,1.990,1.944,3.052,0.000,3.064,0.000,2.981,1.009,0.000,0.000,2.615,0.000,0.000,0.000,0.000,0.000,0.000,0.000,0.000,0.000,0.000,0.000,3.142,6.281,0.001,1.004,1.568,1.567,4.085,6.281,1.199,4.712,0.000,0.000,2.544,-7.773,0.990,5.711,1.577,1.566,5.282,4.711,4.710,2.197,6.282,5.083,1.570,0.000,0.000,2.899,-8.325,0.990,5.712,1.576,1.567,
15.560,25.146,2.323,-8.310,0.461,0.958,5.238,3.934,1.528,1.837,2.606,0.000,3.274,0.000,4.430,0.975,4.505,0.000,2.755,0.000,0.000,0.000,0.000,0.000,0.000,0.000,0.000,0.000,0.000,0.000,3.142,6.280,0.001,1.004,1.568,1.567,4.085,6.281,1.199,4.712,0.000,0.000,2.704,-7.753,0.990,5.820,1.576,1.567,5.282,4.711,4.710,2.197,6.282,5.083,1.570,0.000,0.000,2.996,-8.341,0.991,5.821,1.576,1.568,
15.660,25.246,2.391,-8.277,0.388,0.966,5.280,0.000,2.064,1.786,1.798,0.000,3.442,4.924,4.422,0.956,3.297,0.000,2.826,0.000,0.000,0.000,0.000,0.000,0.000,0.000,0.000,0.000,0.000,0.000,3.142,6.280,0.001,1.004,1.568,1.567,4.085,6.281,1.199,4.712,0.000,0.000,2.811,-7.749,0.990,5.893,1.576,1.567,5.282,4.711,4.710,2.197,6.282,5.083,1.570,0.000,0.000,3.061,-8.356,0.991,5.893,1.575,1.568,
15.748,25.334,2.480,-8.243,0.302,0.967,5.297,4.144,2.141,1.743,2.180,0.000,3.168,4.480,4.441,0.935,3.893,0.000,2.931,0.000,0.000,0.000,0.000,0.000,0.000,0.000,0.000,0.000,0.000,0.000,3.142,6.281,0.001,1.004,1.569,1.567,4.085,6.281,1.199,4.712,0.000,0.000,2.944,-7.753,0.990,5.979,1.576,1.568,5.282,4.711,4.710,2.197,6.282,5.083,1.570,0.000,0.000,3.140,-8.380,0.991,5.980,1.575,1.568,
15.860,25.446,2.590,-8.212,0.198,0.960,5.275,0.000,2.284,1.719,1.996,3.281,3.296,4.110,0.000,0.909,1.824,0.000,3.036,0.000,0.000,0.000,0.000,0.000,0.000,0.000,0.000,0.000,0.000,0.000,3.142,6.281,0.001,1.004,1.569,1.567,4.085,6.281,1.199,4.712,0.000,0.000,3.102,-7.773,0.990,6.083,1.576,1.568,5.282,4.711,4.710,2.197,6.282,5.083,1.570,0.000,0.000,3.232,-8.416,0.991,6.084,1.575,1.569,
15.957,25.543,2.664,-8.198,0.127,0.961,5.267,0.000,2.423,1.721,1.904,3.655,3.675,3.926,0.000,0.891,1.713,0.000,3.106,0.000,0.000,0.000,0.000,0.000,0.000,0.000,0.000,0.000,0.000,0.000,3.142,6.281,0.001,1.004,1.569,1.567,4.085,6.281,1.199,4.712,0.000,0.000,3.206,-7.796,0.990,6.154,1.576,1.569,5.282,4.711,4.710,2.197,6.282,5.083,1.570,0.000,0.000,3.290,-8.447,0.991,6.154,1.575,1.569,
16.060,25.646,2.780,-8.186,0.072,1.023,0.012,0.000,2.554,1.727,1.842,3.364,0.000,3.888,0.000,0.882,1.576,0.000,3.142,0.000,0.000,0.000,0.000,0.000,0.000,0.000,0.000,0.000,0.000,0.000,3.142,6.282,0.000,1.004,1.570,1.571,4.084,6.281,1.199,4.712,0.000,0.000,3.344,-7.817,0.990,6.213,1.575,1.570,5.282,4.712,4.713,2.198,6.281,5.083,1.571,0.000,0.000,3.391,-8.471,0.991,6.213,1.575,1.570,
16.160,25.746,2.861,-8.180,0.072,1.036,6.262,0.000,2.543,1.721,1.836,3.356,0.000,3.996,0.977,0.889,1.589,0.000,3.142,0.000,0.000,0.000,0.000,0.000,0.000,0.000,0.000,0.000,0.000,0.000,3.142,6.283,0.000,1.004,1.569,1.569,4.085,6.281,1.199,4.712,0.000,0.000,3.425,-7.810,0.990,6.210,1.576,1.569,5.281,4.711,4.711,2.198,6.282,5.083,1.570,0.000,0.000,3.473,-8.464,0.990,6.210,1.575,1.570,
16.249,25.835,2.962,-8.173,0.073,1.010,6.262,0.000,2.530,1.713,1.828,3.346,0.000,4.131,0.984,0.897,1.508,0.000,3.142,0.000,0.000,0.000,0.000,0.000,0.000,0.000,0.000,0.000,0.000,0.000,3.142,6.283,0.000,1.003,1.569,1.569,4.085,6.281,1.199,4.712,0.000,0.000,3.525,-7.802,0.990,6.210,1.576,1.569,5.281,4.711,4.711,2.198,6.282,5.083,1.570,0.000,0.000,3.573,-8.456,0.990,6.210,1.575,1.570,
16.360,25.946,3.060,-8.166,0.074,0.999,6.263,0.000,2.517,1.705,1.821,3.335,0.000,4.262,0.991,0.905,1.524,0.000,3.142,0.000,0.000,0.000,0.000,0.000,0.000,0.000,0.000,0.000,0.000,0.000,3.142,6.282,0.000,1.004,1.569,1.569,4.085,6.281,1.199,4.712,0.000,0.000,3.623,-7.795,0.990,6.209,1.576,1.569,5.281,4.711,4.711,2.198,6.282,5.083,1.570,0.000,0.000,3.672,-8.449,0.990,6.209,1.575,1.570,
16.448,26.034,3.159,-8.158,0.074,1.013,6.263,0.000,1.948,1.698,1.814,3.324,0.000,4.394,0.999,0.913,0.000,0.000,3.142,0.000,0.000,0.000,0.000,0.000,0.000,0.000,0.000,0.000,0.000,0.000,3.142,6.282,0.000,1.004,1.569,1.569,4.085,6.281,1.199,4.712,0.000,0.000,3.722,-7.787,0.990,6.209,1.576,1.569,5.281,4.711,4.711,2.198,6.282,5.083,1.570,0.000,0.000,3.771,-8.441,0.990,6.208,1.575,1.570,
16.558,26.144,3.258,-8.151,0.075,1.018,6.264,0.000,1.825,1.690,1.806,3.313,0.000,4.528,0.872,0.922,3.504,0.000,3.142,0.000,0.000,0.000,0.000,0.000,0.000,0.000,0.000,0.000,0.000,0.000,3.142,6.282,0.000,1.004,1.569,1.569,4.085,6.281,1.199,4.712,0.000,0.000,3.821,-7.779,0.990,6.208,1.576,1.569,5.281,4.711,4.711,2.198,6.282,5.083,1.570,0.000,0.000,3.871,-8.433,0.990,6.208,1.575,1.570,
16.660,26.246,3.378,-8.142,0.076,1.010,6.264,0.000,2.476,1.680,1.797,2.411,0.000,4.687,0.882,0.932,3.363,0.000,3.142,0.000,0.000,0.000,0.000,0.000,0.000,0.000,0.000,0.000,0.000,0.000,3.142,6.282,0.000,1.004,1.569,1.569,4.085,6.281,1.199,4.712,0.000,0.000,3.940,-7.770,0.990,6.207,1.576,1.569,5.281,4.711,4.711,2.198,6.282,5.083,1.570,0.000,0.000,3.990,-8.424,0.990,6.207,1.575,1.570,
16.760,26.346,3.477,-8.134,0.076,1.009,6.264,0.000,2.463,1.672,1.306,2.496,0.000,4.820,0.889,0.940,3.153,0.000,3.142,0.000,0.000,0.000,0.000,0.000,0.000,0.000,0.000,0.000,0.000,0.000,3.142,6.282,0.000,1.004,1.569,1.569,4.085,6.281,1.199,4.712,0.000,0.000,4.039,-7.762,0.990,6.207,1.576,1.569,5.281,4.711,4.711,2.198,6.282,5.083,1.570,0.000,0.000,4.089,-8.416,0.990,6.207,1.575,1.570,
16.860,26.446,3.576,-8.127,0.077,1.013,6.265,0.000,2.450,1.664,1.781,3.274,0.000,4.952,0.897,0.948,3.037,0.000,3.142,0.000,0.000,0.000,0.000,0.000,0.000,0.000,0.000,0.000,0.000,0.000,3.142,6.282,0.000,1.004,1.569,1.569,4.085,6.281,1.199,4.712,0.000,0.000,4.138,-7.754,0.990,6.206,1.576,1.569,5.281,4.711,4.711,2.198,6.282,5.083,1.570,0.000,0.000,4.188,-8.408,0.990,6.206,1.575,1.570,
16.942,26.529,3.655,-8.121,0.077,1.013,6.264,0.000,2.440,1.658,1.774,3.264,0.000,0.000,0.903,0.955,2.944,0.000,3.142,0.000,0.000,0.000,0.000,0.000,0.000,0.000,0.000,0.000,0.000,0.000,3.142,6.282,0.000,1.004,1.569,1.569,4.085,6.281,1.199,4.712,0.000,0.000,4.217,-7.748,0.990,6.206,1.576,1.569,5.281,4.711,4.711,2.198,6.282,5.083,1.570,0.000,0.000,4.268,-8.402,0.990,6.206,1.575,1.570,
17.051,26.637,3.755,-8.113,0.078,1.011,6.265,0.000,2.427,1.650,1.766,3.251,0.000,0.000,0.911,0.964,2.827,0.000,3.142,0.000,0.000,0.000,0.000,0.000,0.000,0.000,0.000,0.000,0.000,0.000,3.142,6.282,0.000,1.004,1.569,1.569,4.085,6.281,1.199,4.712,0.000,0.000,4.316,-7.740,0.990,6.205,1.576,1.569,5.281,4.711,4.711,2.198,6.282,5.083,1.570,0.000,0.000,4.368,-8.394,0.990,6.205,1.575,1.570,
17.157,26.743,3.854,-8.105,0.078,1.011,6.266,0.000,2.414,1.642,1.758,3.238,0.000,1.573,0.919,0.956,2.037,0.000,3.142,0.000,0.000,0.000,0.000,0.000,0.000,0.000,0.000,0.000,0.000,0.000,3.142,6.282,0.000,1.004,1.569,1.569,4.085,6.281,1.199,4.712,0.000,0.000,4.415,-7.732,0.990,6.205,1.576,1.569,5.281,4.711,4.711,2.198,6.282,5.083,1.570,0.000,0.000,4.467,-8.386,0.990,6.205,1.575,1.570,
17.260,26.846,3.973,-8.096,0.078,1.012,6.265,0.000,2.399,1.632,1.748,3.222,0.000,1.586,0.928,0.928,1.897,0.000,3.142,0.000,0.000,0.000,0.000,0.000,0.000,0.000,0.000,0.000,0.000,0.000,3.142,6.282,0.000,1.004,1.569,1.569,4.085,6.281,1.199,4.712,0.000,0.000,4.534,-7.722,0.990,6.204,1.576,1.569,5.281,4.711,4.711,2.198,6.282,5.083,1.570,0.000,0.000,4.586,-8.376,0.990,6.204,1.575,1.570,
17.345,26.931,4.052,-8.090,0.079,1.012,6.266,4.921,2.389,1.626,1.742,3.211,0.000,1.595,0.934,0.000,1.805,0.000,3.142,0.000,0.000,0.000,0.000,0.000,0.000,0.000,0.000,0.000,0.000,0.000,3.142,6.282,0.000,1.004,1.569,1.569,4.085,6.281,1.199,4.712,0.000,0.000,4.614,-7.716,0.990,6.204,1.576,1.569,5.281,4.711,4.711,2.198,6.282,5.083,1.570,0.000,0.000,4.665,-8.370,0.990,6.204,1.575,1.570,
17.453,27.039,4.151,-8.082,0.079,1.011,6.265,4.821,2.376,1.618,1.734,3.198,0.000,1.407,0.942,0.000,1.703,0.000,3.142,0.000,0.000,0.000,0.000,0.000,0.000,0.000,0.000,0.000,0.000,0.000,3.142,6.282,0.000,1.004,1.569,1.569,4.085,6.281,1.199,4.712,0.000,0.000,4.713,-7.707,0.990,6.204,1.576,1.569,5.281,4.711,4.711,2.198,6.282,5.083,1.570,0.000,0.000,4.765,-8.361,0.990,6.203,1.575,1.570,
17.557,27.143,4.251,-8.074,0.080,1.012,6.265,4.722,2.363,1.609,1.725,3.184,0.000,1.418,0.950,0.000,1.719,0.000,3.142,0.000,0.000,0.000,0.000,0.000,0.000,0.000,0.000,0.000,0.000,0.000,3.142,6.282,0.000,1.004,1.569,1.569,4.085,6.281,1.199,4.712,0.000,0.000,4.812,-7.699,0.990,6.203,1.576,1.569,5.281,4.711,4.711,2.198,6.282,5.083,1.570,0.000,0.000,4.864,-8.353,0.990,6.203,1.575,1.570,
17.660,27.246,4.370,-8.064,0.080,1.012,6.266,4.602,2.347,1.197,1.715,3.167,0.000,1.432,0.960,0.000,1.838,0.000,3.142,0.000,0.000,0.000,0.000,0.000,0.000,0.000,0.000,0.000,0.000,0.000,3.142,6.282,0.000,1.004,1.569,1.569,4.085,6.281,1.199,4.712,0.000,0.000,4.930,-7.690,0.990,6.203,1.576,1.569,5.281,4.711,4.711,2.198,6.282,5.083,1.570,0.000,0.000,4.983,-8.343,0.990,6.203,1.575,1.570,
17.748,27.335,4.449,-8.058,0.080,1.012,6.266,4.523,2.337,1.141,1.708,3.156,0.000,1.441,0.915,0.000,1.851,0.000,3.142,0.000,0.000,0.000,0.000,0.000,0.000,0.000,0.000,0.000,0.000,0.000,3.142,6.282,0.000,1.004,1.569,1.569,4.085,6.281,1.199,4.712,0.000,0.000,5.010,-7.683,0.990,6.202,1.576,1.569,5.281,4.711,4.711,2.198,6.282,5.083,1.570,0.000,0.000,5.063,-8.337,0.990,6.202,1.575,1.570,
17.844,27.430,4.548,-8.050,0.081,1.012,6.265,4.423,2.324,1.584,1.700,3.142,0.000,1.453,0.923,0.000,1.868,0.000,3.142,0.000,0.000,0.000,0.000,0.000,0.000,0.000,0.000,0.000,0.000,0.000,3.142,6.282,0.000,1.004,1.569,1.569,4.085,6.281,1.199,4.712,0.000,0.000,5.109,-7.675,0.990,6.202,1.576,1.569,5.281,4.711,4.711,2.198,6.282,5.083,1.570,0.000,0.000,5.162,-8.329,0.990,6.202,1.575,1.570,
17.954,27.540,4.647,-8.042,0.081,1.012,6.265,4.324,2.311,1.576,1.691,3.128,0.000,1.464,1.040,0.000,1.885,0.000,3.142,0.000,0.000,0.000,0.000,0.000,0.000,0.000,0.000,0.000,0.000,0.000,3.142,6.282,0.000,1.004,1.569,1.569,4.085,6.281,1.199,4.712,0.000,0.000,5.208,-7.666,0.990,6.202,1.576,1.569,5.281,4.711,4.711,2.198,6.282,5.083,1.570,0.000,0.000,5.261,-8.320,0.990,6.201,1.575,1.570,
18.058,27.644,4.747,-8.034,0.082,1.012,6.266,4.224,2.298,1.568,1.683,3.114,0.000,1.476,4.992,0.000,1.902,0.000,3.142,0.000,0.000,0.000,0.000,0.000,0.000,0.000,0.000,0.000,0.000,0.000,3.142,6.282,0.000,1.004,1.569,1.569,4.085,6.281,1.199,4.712,0.000,0.000,5.307,-7.658,0.990,6.201,1.576,1.569,5.281,4.711,4.711,2.198,6.282,5.083,1.570,0.000,0.000,5.361,-8.312,0.990,6.201,1.575,1.570,
18.159,27.745,4.866,-8.024,0.082,1.012,6.266,4.105,0.000,1.558,1.672,2.200,0.000,1.490,0.000,0.000,1.923,0.000,3.142,0.000,0.000,0.000,0.000,0.000,0.000,0.000,0.000,0.000,0.000,0.000,3.142,6.282,0.000,1.004,1.569,1.569,4.085,6.281,1.199,4.712,0.000,0.000,5.426,-7.648,0.990,6.201,1.576,1.569,5.281,4.711,4.711,2.198,6.282,5.083,1.570,0.000,0.000,5.480,-8.302,0.990,6.201,1.575,1.570,
18.260,27.846,4.965,-8.016,0.082,1.012,6.266,4.005,2.958,1.549,1.664,2.244,0.000,1.502,0.000,0.000,1.941,0.000,3.142,0.000,0.000,0.000,0.000,0.000,0.000,0.000,0.000,0.000,0.000,0.000,3.142,6.282,0.000,1.004,1.569,1.569,4.085,6.281,1.199,4.712,0.000,0.000,5.525,-7.640,0.990,6.200,1.576,1.569,5.281,4.711,4.711,2.198,6.282,5.083,1.570,0.000,0.000,5.579,-8.293,0.990,6.200,1.575,1.570,
18.348,27.935,5.044,-8.009,0.083,1.012,6.266,3.926,2.856,1.542,1.657,3.070,0.000,1.512,0.000,0.000,1.955,0.000,3.142,0.000,0.000,0.000,0.000,0.000,0.000,0.000,0.000,0.000,0.000,0.000,3.142,6.282,0.000,1.004,1.569,1.569,4.085,6.281,1.199,4.712,0.000,0.000,5.604,-7.633,0.990,6.200,1.576,1.569,5.281,4.711,4.711,2.198,6.282,5.083,1.570,0.000,0.000,5.659,-8.287,0.990,6.200,1.575,1.570,
18.447,28.033,5.143,-8.001,0.083,1.012,6.266,3.826,1.648,1.534,1.163,3.056,0.000,1.523,4.401,1.162,1.972,0.000,3.142,0.000,0.000,0.000,0.000,0.000,0.000,0.000,0.000,0.000,0.000,0.000,3.142,6.282,0.000,1.004,1.569,1.569,4.085,6.281,1.199,4.712,0.000,0.000,5.703,-7.624,0.990,6.200,1.576,1.569,5.281,4.711,4.711,2.198,6.282,5.083,1.570,0.000,0.000,5.758,-8.278,0.990,6.199,1.575,1.570,
18.550,28.136,5.243,-7.993,0.084,1.012,6.266,3.727,1.571,1.525,1.639,3.041,0.000,1.535,4.368,1.043,1.990,0.000,3.142,0.000,0.000,0.000,0.000,0.000,0.000,0.000,0.000,0.000,0.000,0.000,3.142,6.282,0.000,1.004,1.569,1.569,4.085,6.281,1.199,4.712,0.000,0.000,5.802,-7.616,0.990,6.199,1.576,1.569,5.281,4.711,4.711,2.198,6.282,5.083,1.570,0.000,0.000,5.857,-8.270,0.990,6.199,1.575,1.570,
18.648,28.234,5.342,-7.985,0.069,1.012,5.719,3.671,4.858,1.522,1.619,2.947,0.000,1.575,4.380,1.045,1.957,0.000,3.142,0.000,0.000,0.000,0.000,0.000,0.000,0.000,0.000,0.000,0.000,0.000,3.142,6.281,0.001,1.004,1.568,1.566,4.084,6.281,1.199,4.712,0.000,0.000,5.906,-7.614,0.990,6.210,1.575,1.569,5.281,4.710,4.708,2.197,6.282,5.083,1.570,0.000,0.000,5.952,-8.269,0.990,6.211,1.576,1.569,
18.756,28.342,5.441,-7.979,6.261,1.012,4.926,3.559,4.396,1.554,1.559,2.550,0.000,1.782,0.000,1.017,1.718,0.000,3.142,0.000,0.000,0.000,0.000,0.000,0.000,0.000,0.000,0.000,0.000,0.000,3.142,6.280,0.001,1.005,1.568,1.566,4.085,6.281,1.199,4.712,0.000,0.000,6.037,-7.661,0.990,0.018,1.576,1.569,5.282,4.710,4.709,2.197,6.282,5.083,1.570,0.000,0.000,6.024,-8.318,0.991,0.019,1.575,1.569,
18.843,28.430,5.541,-7.984,6.175,1.011,5.881,3.474,4.036,1.610,1.526,2.290,0.000,2.032,4.765,0.989,1.537,0.000,3.142,0.000,0.000,0.000,0.000,0.000,0.000,0.000,0.000,0.000,0.000,0.000,3.142,6.282,0.000,1.004,1.570,1.571,4.085,6.280,1.199,4.712,0.000,0.000,6.162,-7.722,0.990,0.111,1.576,1.571,5.282,4.712,4.713,2.198,6.281,5.083,1.571,0.000,0.000,6.091,-8.374,0.991,0.111,1.575,1.571,
18.952,28.538,5.640,-7.995,6.171,1.012,6.268,3.375,3.912,1.624,1.535,2.297,0.000,2.023,4.969,1.028,1.514,0.000,3.142,0.000,0.000,0.000,0.000,0.000,0.000,0.000,0.000,0.000,0.000,0.000,3.142,6.283,0.000,1.003,1.569,1.569,4.085,6.281,1.199,4.712,0.000,0.000,6.262,-7.734,0.990,0.112,1.576,1.570,5.281,4.711,4.711,2.198,6.282,5.083,1.570,0.000,0.000,6.189,-8.386,0.990,0.112,1.575,1.571,
19.047,28.633,5.739,-8.006,6.173,1.012,6.271,3.276,3.800,1.635,1.547,2.318,0.000,1.996,0.000,1.017,1.499,0.000,3.142,0.000,0.000,0.000,0.000,0.000,0.000,0.000,0.000,0.000,0.000,0.000,3.142,6.283,0.000,1.003,1.569,1.569,4.085,6.281,1.199,4.712,0.000,0.000,6.361,-7.744,0.990,0.111,1.576,1.570,5.281,4.711,4.711,2.198,6.282,5.083,1.570,0.000,0.000,6.288,-8.396,0.990,0.111,1.575,1.571,
19.154,28.740,5.838,-8.017,6.174,1.011,6.263,3.176,3.687,1.646,1.559,2.337,0.000,1.971,0.000,1.006,1.484,0.000,3.142,0.000,0.000,0.000,0.000,0.000,0.000,0.000,0.000,0.000,0.000,0.000,3.142,6.283,0.000,1.003,1.569,1.569,4.085,6.281,1.199,4.712,0.000,0.000,6.459,-7.755,0.990,0.110,1.576,1.570,5.281,4.711,4.711,2.198,6.282,5.083,1.570,0.000,0.000,6.387,-8.407,0.990,0.109,1.575,1.571,
19.250,28.836,5.936,-8.028,6.174,1.012,6.261,3.076,3.573,1.178,1.570,1.675,0.000,1.846,0.000,0.995,1.470,0.000,3.142,0.000,0.000,0.000,0.000,0.000,0.000,0.000,0.000,0.000,0.000,0.000,3.142,6.283,0.000,1.003,1.569,1.569,4.085,6.281,1.199,4.712,0.000,0.000,6.558,-7.765,0.990,0.109,1.576,1.570,5.281,4.711,4.711,2.198,6.282,5.083,1.570,0.000,0.000,6.487,-8.417,0.990,0.109,1.575,1.571,
19.343,28.930,6.035,-8.038,6.175,1.012,6.262,2.977,3.459,0.000,1.582,1.727,0.000,1.872,0.996,0.985,1.455,0.000,3.142,0.000,0.000,0.000,0.000,0.000,0.000,0.000,0.000,0.000,0.000,0.000,3.142,6.283,0.000,1.004,1.569,1.569,4.085,6.281,1.199,4.712,0.000,0.000,6.657,-7.775,0.990,0.108,1.576,1.570,5.281,4.711,4.711,2.198,6.282,5.083,1.570,0.000,0.000,6.586,-8.427,0.990,0.108,1.575,1.571,
19.443,29.029,6.134,-8.049,6.176,1.012,6.262,2.877,3.287,0.000,1.593,2.393,0.000,1.987,0.984,0.974,1.440,0.000,3.142,0.000,0.000,0.000,0.000,0.000,0.000,0.000,0.000,0.000,0.000,0.000,3.142,6.283,0.000,1.004,1.569,1.569,4.085,6.281,1.199,4.712,0.000,0.000,6.755,-7.785,0.990,0.107,1.576,1.570,5.281,4.711,4.711,2.198,6.282,5.083,1.570,0.000,0.000,6.685,-8.438,0.990,0.107,1.575,1.571,
19.560,29.146,6.253,-8.062,6.177,1.011,6.263,2.758,3.150,0.000,1.606,2.415,0.000,2.125,1.025,0.961,1.422,0.000,3.142,0.000,0.000,0.000,0.000,0.000,0.000,0.000,0.000,0.000,0.000,0.000,3.142,6.282,0.000,1.004,1.569,1.569,4.085,6.281,1.199,4.712,0.000,0.000,6.874,-7.798,0.990,0.106,1.576,1.570,5.281,4.711,4.711,2.198,6.282,5.083,1.570,0.000,0.000,6.804,-8.450,0.990,0.106,1.575,1.571,
19.657,29.243,6.352,-8.072,6.177,1.012,6.263,2.658,3.086,2.137,1.617,2.433,0.000,2.270,1.013,0.950,1.407,0.000,3.142,0.000,0.000,0.000,0.000,0.000,0.000,0.000,0.000,0.000,0.000,0.000,3.142,6.282,0.000,1.004,1.569,1.569,4.085,6.281,1.199,4.712,0.000,0.000,6.973,-7.808,0.990,0.106,1.576,1.570,5.281,4.711,4.711,2.198,6.282,5.083,1.570,0.000,0.000,6.904,-8.460,0.990,0.106,1.575,1.571,
19.760,29.346,6.442,-8.082,6.185,0.739,0.410,2.566,3.065,1.914,1.630,2.471,0.000,2.470,0.999,0.942,1.405,0.000,3.142,0.000,0.000,0.000,0.000,0.000,0.000,0.000,0.000,0.000,0.000,0.000,3.142,0.002,0.001,1.001,1.571,1.573,4.090,6.280,1.200,4.712,0.000,0.000,7.062,-7.815,0.989,0.103,1.578,1.571,5.281,4.713,4.715,2.199,6.281,5.083,1.570,0.000,0.000,6.996,-8.468,0.990,0.102,1.575,1.571,
19.860,29.446,6.497,-8.086,6.264,0.459,1.329,2.503,3.098,0.000,1.673,2.745,0.000,2.997,0.964,0.958,1.543,0.000,3.142,0.000,0.000,0.000,0.000,0.000,0.000,0.000,0.000,0.000,0.000,0.000,3.142,0.002,0.000,1.002,1.571,1.572,4.087,6.281,1.199,4.712,0.000,0.000,7.093,-7.771,0.990,0.023,1.576,1.570,5.282,4.713,4.714,2.198,6.282,5.083,1.571,0.000,0.000,7.079,-8.427,0.991,0.023,1.574,1.571,
19.959,29.546,6.547,-8.086,0.105,0.620,1.309,2.471,3.365,0.000,1.758,3.355,0.000,4.611,0.934,1.006,1.436,0.000,3.142,0.000,0.000,0.000,0.000,0.000,0.000,0.000,0.000,0.000,0.000,0.000,3.142,0.000,0.000,1.005,1.569,1.567,4.083,6.282,1.199,4.712,0.000,0.000,7.098,-7.696,0.990,6.176,1.574,1.569,5.282,4.711,4.711,2.198,6.282,5.083,1.570,0.000,0.000,7.167,-8.349,0.991,6.177,1.574,1.569,
20.060,29.646,6.616,-8.076,0.198,0.756,0.866,2.390,3.600,0.000,1.837,4.056,0.000,1.250,0.929,1.066,1.295,0.000,3.142,0.000,0.000,4.650,0.000,0.000,0.000,0.000,0.000,0.000,0.000,0.000,3.142,0.000,0.000,1.004,1.569,1.568,4.085,6.282,1.199,4.712,0.000,0.000,7.128,-7.638,0.990,6.084,1.575,1.569,5.282,4.712,4.711,2.198,6.282,5.083,1.570,0.000,0.000,7.258,-8.281,0.991,6.085,1.574,1.569,
20.155,29.742,6.671,-8.064,0.254,0.689,0.848,0.000,3.762,0.000,1.890,4.654,3.725,1.208,0.937,1.118,1.206,0.000,3.106,0.000,0.000,4.469,0.000,0.000,0.000,0.000,0.000,0.000,0.000,0.000,3.142,0.001,0.000,1.003,1.570,1.570,4.087,6.281,1.199,4.712,0.000,0.000,7.160,-7.599,0.990,6.030,1.577,1.568,5.281,4.712,4.712,2.198,6.282,5.083,1.570,0.000,0.000,7.324,-8.234,0.991,6.030,1.574,1.569,
20.260,29.846,6.743,-8.043,0.350,0.692,0.828,0.000,4.175,1.946,2.005,0.000,2.643,1.151,0.958,1.226,1.178,0.000,3.036,0.000,0.000,0.000,0.000,0.000,0.000,0.000,0.000,0.000,0.000,0.000,3.142,6.283,0.000,1.004,1.569,1.568,4.083,6.282,1.199,4.712,0.000,0.000,7.183,-7.531,0.990,5.931,1.575,1.568,5.282,4.711,4.710,2.198,6.282,5.083,1.570,0.000,0.000,7.409,-8.147,0.991,5.931,1.574,1.569,
20.359,29.945,6.808,-8.018,0.379,1.065,0.076,0.000,4.245,1.945,2.022,0.000,2.576,1.159,0.984,1.287,1.421,0.000,3.001,0.000,0.000,0.000,0.000,0.000,0.000,0.000,0.000,0.000,0.000,0.000,3.142,6.281,0.000,1.006,1.567,1.565,4.081,6.282,1.199,4.711,0.000,0.000,7.231,-7.493,0.990,5.899,1.574,1.568,5.282,4.710,4.708,2.198,6.283,5.083,1.570,0.000,0.000,7.476,-8.102,0.991,5.899,1.575,1.568,
20.460,30.046,6.938,-7.967,0.379,1.171,6.269,0.000,3.996,0.000,1.953,0.000,2.716,1.219,1.036,1.355,1.645,0.000,3.001,0.000,0.000,4.174,0.000,0.000,0.000,0.000,0.000,0.000,0.000,0.000,3.142,6.283,0.001,1.003,1.569,1.569,4.086,6.281,1.199,4.712,0.000,0.000,7.364,-7.443,0.990,5.904,1.576,1.568,5.281,4.711,4.711,2.198,6.282,5.083,1.570,0.000,0.000,7.606,-8.053,0.990,5.904,1.576,1.568,
20.560,30.146,7.016,-7.935,0.379,0.979,6.268,0.000,3.845,0.000,1.912,0.000,2.801,1.256,1.067,1.397,2.040,0.000,3.001,0.000,0.000,4.212,0.000,0.000,0.000,0.000,0.000,0.000,0.000,0.000,3.142,0.000,0.001,1.003,1.570,1.570,4.087,6.281,1.199,4.712,0.000,0.000,7.443,-7.412,0.990,5.905,1.577,1.568,5.281,4.711,4.712,2.198,6.282,5.083,1.570,0.000,0.000,7.685,-8.021,0.990,5.904,1.576,1.568,
20.659,30.245,7.117,-7.895,0.381,0.932,0.097,0.000,3.659,0.000,1.861,0.000,2.912,1.303,1.108,1.053,1.935,0.000,3.001,0.000,0.000,0.000,0.000,0.000,0.000,0.000,0.000,0.000,0.000,0.000,3.142,6.283,0.000,1.003,1.570,1.570,4.085,6.281,1.199,4.712,0.000,0.000,7.542,-7.371,0.990,5.903,1.576,1.568,5.281,4.711,4.712,2.199,6.282,5.083,1.570,0.000,0.000,7.786,-7.980,0.990,5.903,1.575,1.569,
20.760,30.346,7.208,-7.858,0.428,1.049,1.080,0.000,3.787,4.913,1.893,0.000,3.071,1.309,1.150,0.866,1.824,0.000,2.966,0.000,0.000,0.000,0.000,0.000,0.000,0.000,0.000,0.000,0.000,0.000,3.142,0.001,0.000,1.004,1.571,1.572,4.085,6.281,1.199,4.712,0.000,0.000,7.608,-7.316,0.990,5.858,1.576,1.568,5.282,4.713,4.714,2.199,6.282,5.083,1.571,0.000,0.000,7.880,-7.913,0.991,5.858,1.574,1.569,
20.860,30.446,7.284,-7.822,0.522,1.060,1.440,4.521,4.415,3.400,2.037,0.000,3.614,1.288,1.206,0.797,1.724,0.000,2.861,0.000,0.000,0.000,0.000,0.000,0.000,0.000,0.000,0.000,0.000,0.000,3.142,0.002,0.000,1.003,1.571,1.571,4.086,6.282,1.199,4.712,0.000,0.000,7.631,-7.244,0.990,5.762,1.576,1.567,5.282,4.713,4.713,2.198,6.282,5.083,1.571,0.000,0.000,7.958,-7.813,0.991,5.763,1.574,1.569,
20.956,30.542,7.371,-7.769,0.635,1.008,1.049,2.129,0.000,2.574,2.267,0.000,1.992,1.291,1.300,1.013,1.630,0.000,2.755,0.000,0.000,0.000,0.000,0.000,0.000,0.000,0.000,0.000,0.000,0.000,3.142,0.001,0.000,1.003,1.570,1.569,4.086,6.282,1.199,4.712,0.000,0.000,7.650,-7.154,0.990,5.648,1.577,1.566,5.282,4.712,4.711,2.198,6.283,5.083,1.570,0.000,0.000,8.039,-7.683,0.991,5.648,1.575,1.567,
21.060,30.646,7.448,-7.709,0.710,0.995,0.808,2.011,0.000,2.324,2.438,0.000,1.981,1.326,0.897,1.255,1.509,0.000,2.685,0.000,0.000,0.000,0.000,0.000,0.000,0.000,0.000,0.000,0.000,0.000,3.142,0.001,0.000,1.004,1.570,1.569,4.085,6.281,1.199,4.712,0.000,0.000,7.681,-7.076,0.990,5.573,1.577,1.566,5.282,4.712,4.712,2.198,6.282,5.083,1.570,0.000,0.000,8.109,-7.573,0.991,5.574,1.575,1.567,
21.152,30.738,7.522,-7.643,0.786,1.016,0.995,2.129,0.000,2.146,2.668,0.000,1.918,1.373,0.797,1.650,0.000,0.000,2.615,0.000,0.000,0.000,0.000,0.000,0.000,0.000,0.000,0.000,0.000,0.000,3.142,0.001,0.000,1.003,1.570,1.570,4.085,6.281,1.199,4.712,0.000,0.000,7.706,-6.994,0.990,5.498,1.578,1.565,5.282,4.712,4.713,2.198,6.282,5.083,1.570,0.000,0.000,8.171,-7.458,0.991,5.498,1.575,1.567,
21.260,30.846,7.605,-7.555,0.897,1.021,1.075,2.288,0.000,1.935,3.242,0.000,1.849,1.447,0.957,1.485,0.000,0.000,2.545,0.000,0.000,0.000,0.000,0.000,0.000,0.000,0.000,0.000,0.000,0.000,3.142,0.001,0.000,1.003,1.570,1.570,4.086,6.282,1.199,4.712,0.000,0.000,7.716,-6.889,0.990,5.386,1.578,1.564,5.282,4.712,4.712,2.198,6.282,5.083,1.570,0.000,0.000,8.229,-7.299,0.991,5.387,1.576,1.566,
21.360,30.946,7.665,-7.475,0.987,1.010,1.007,2.488,0.000,1.814,4.073,4.010,1.828,1.527,1.125,1.381,0.000,0.000,2.440,0.000,0.000,0.000,0.000,0.000,0.000,0.000,0.000,0.000,0.000,0.000,3.142,0.001,0.000,1.003,1.570,1.570,4.086,6.281,1.199,4.712,0.000,0.000,7.716,-6.803,0.990,5.297,1.579,1.562,5.282,4.712,4.712,2.198,6.282,5.083,1.570,0.000,0.000,8.264,-7.164,0.991,5.297,1.577,1.565,
21.460,31.046,7.718,-7.391,1.072,1.011,0.987,2.770,0.000,1.537,3.035,3.715,1.832,0.967,1.851,1.251,0.000,0.000,2.369,0.000,0.000,0.000,0.000,0.000,0.000,0.000,0.000,0.000,0.000,0.000,3.142,0.001,0.000,1.003,1.570,1.570,4.085,6.282,1.199,4.712,0.000,0.000,7.711,-6.717,0.990,5.211,1.581,1.561,5.282,4.712,4.712,2.198,6.282,5.083,1.570,0.000,0.000,8.288,-7.030,0.991,5.212,1.578,1.564,
21.560,31.146,7.755,-7.320,1.141,1.016,1.009,3.107,0.000,1.498,4.762,4.086,1.848,1.051,1.681,0.000,3.622,0.000,2.334,0.000,0.000,0.000,0.000,0.000,0.000,0.000,0.000,0.000,0.000,0.000,3.142,0.001,0.000,1.003,1.570,1.570,4.085,6.282,1.199,4.712,0.000,0.000,7.702,-6.648,0.990,5.143,1.582,1.560,5.282,4.712,4.712,2.198,6.282,5.083,1.570,0.000,0.000,8.299,-6.921,0.991,5.143,1.579,1.563,
21.660,31.246,7.802,-7.210,1.247,1.015,1.019,2.726,4.451,1.592,0.000,0.000,1.888,1.197,1.484,0.000,1.424,0.000,2.545,0.000,0.000,0.000,0.000,0.000,0.000,0.000,0.000,0.000,0.000,0.000,3.142,0.001,0.000,1.003,1.570,1.570,4.086,6.282,1.199,4.712,0.000,0.000,7.678,-6.547,0.990,5.037,1.586,1.556,5.282,4.712,4.712,2.198,6.282,5.083,1.570,0.000,0.000,8.300,-6.756,0.991,5.037,1.581,1.560,
21.760,31.346,7.826,-7.134,1.317,1.013,1.011,0.000,3.310,1.549,0.000,2.753,1.928,1.309,1.386,0.000,1.539,0.000,2.510,0.000,0.000,0.000,0.000,0.000,0.000,0.000,0.000,0.000,0.000,0.000,3.142,0.001,0.000,1.003,1.570,1.570,4.085,6.282,1.199,4.712,0.000,0.000,7.656,-6.481,0.990,4.966,1.590,1.552,5.282,4.712,4.712,2.198,6.282,5.083,1.570,0.000,0.000,8.291,-6.646,0.991,4.967,1.584,1.557,
21.842,31.428,7.852,-7.017,1.422,1.014,1.008,0.000,2.819,1.494,0.000,2.700,2.005,1.505,1.223,0.000,1.660,0.000,2.404,0.000,0.000,0.000,0.000,0.000,0.000,0.000,0.000,0.000,0.000,0.000,3.142,0.001,0.000,1.003,1.570,1.570,4.085,6.282,1.199,4.712,0.000,0.000,7.615,-6.385,0.990,4.862,1.602,1.539,5.282,4.712,4.712,2.198,6.282,5.083,1.570,0.000,0.000,8.264,-6.483,0.991,4.862,1.593,1.548,
21.960,31.546,7.863,-6.938,1.492,1.015,1.011,0.000,2.525,1.461,0.000,2.643,2.069,2.166,4.148,0.000,1.779,0.000,2.369,0.000,0.000,0.000,0.000,0.000,0.000,0.000,0.000,0.000,0.000,0.000,3.142,0.001,0.000,1.003,1.570,1.570,4.085,6.282,1.199,4.712,0.000,0.000,7.582,-6.324,0.990,4.792,1.630,1.511,5.282,4.712,4.712,2.198,6.282,5.083,1.570,0.000,0.000,8.237,-6.376,0.991,4.792,1.613,1.528,
22.060,31.646,7.869,-6.838,1.579,1.014,1.019,0.000,2.239,1.425,0.000,2.599,1.512,1.894,0.000,1.144,1.986,0.000,2.299,4.625,0.000,0.000,0.000,0.000,0.000,0.000,0.000,0.000,0.000,0.000,3.142,0.001,0.000,1.003,1.570,1.570,4.085,6.281,1.199,4.712,0.000,0.000,7.535,-6.252,0.990,4.722,4.178,5.246,5.282,4.712,4.712,2.198,6.282,5.083,1.570,0.000,0.000,8.192,-6.246,0.991,4.721,4.299,5.125,
22.160,31.746,7.865,-6.738,1.663,1.014,0.776,0.000,2.022,1.393,0.000,2.584,1.619,1.714,0.000,1.241,2.274,0.000,2.229,0.000,0.000,0.000,0.000,0.000,0.000,0.000,0.000,0.000,0.000,0.000,3.142,0.001,0.000,1.004,1.569,1.569,4.085,6.282,1.199,4.712,0.000,0.000,7.484,-6.182,0.990,4.806,4.662,4.761,5.282,4.712,4.711,2.198,6.282,5.083,1.570,0.000,0.000,8.137,-6.121,0.991,4.805,4.673,4.751,
22.260,31.846,7.853,-6.619,1.686,1.011,6.273,0.000,1.954,1.374,0.000,2.686,1.742,1.688,0.000,1.268,2.398,0.000,2.229,0.000,0.000,0.000,0.000,0.000,0.000,0.000,0.000,0.000,0.000,0.000,3.142,6.282,0.000,1.004,1.569,1.569,4.085,6.281,1.199,4.712,0.000,0.000,7.458,-6.072,0.990,4.829,4.672,4.752,5.281,4.711,4.711,2.198,6.282,5.083,1.570,0.000,0.000,8.110,-5.996,0.990,4.829,4.672,4.752,
22.360,31.946,7.841,-6.521,1.686,1.009,6.268,0.000,1.937,1.225,0.000,2.797,1.842,1.704,0.000,1.281,2.423,0.000,2.264,0.000,0.000,0.000,0.000,0.000,0.000,0.000,0.000,0.000,0.000,0.000,3.142,6.282,0.000,1.004,1.569,1.569,4.085,6.281,1.199,4.712,0.000,0.000,7.447,-5.974,0.990,4.829,4.672,4.752,5.281,4.711,4.711,2.198,6.282,5.083,1.570,0.000,0.000,8.098,-5.897,0.990,4.829,4.672,4.752,
22.460,32.046,7.830,-6.422,1.687,1.012,6.268,0.000,1.920,0.635,0.000,2.908,1.941,1.647,0.000,1.294,2.447,0.000,2.299,0.000,0.000,0.000,0.000,0.000,0.000,0.000,0.000,0.000,0.000,0.000,3.142,6.282,0.000,1.004,1.569,1.569,4.085,6.281,1.199,4.712,0.000,0.000,7.435,-5.875,0.990,4.829,4.672,4.752,5.281,4.711,4.711,2.198,6.282,5.083,1.570,0.000,0.000,8.087,-5.799,0.990,4.829,4.672,4.752,
22.560,32.146,7.818,-6.323,1.687,1.013,6.268,0.000,1.903,1.339,0.000,3.019,2.041,1.664,0.000,1.306,2.472,0.000,2.299,0.000,0.000,0.000,0.000,0.000,0.000,0.000,0.000,0.000,0.000,0.000,3.142,6.282,0.000,1.004,1.569,1.569,4.085,6.281,1.199,4.712,0.000,0.000,7.424,-5.776,0.990,4.829,4.672,4.752,5.281,4.711,4.711,2.198,6.282,5.083,1.570,0.000,0.000,8.075,-5.700,0.990,4.829,4.672,4.751,
22.640,32.226,7.807,-6.224,1.687,1.011,6.267,0.000,1.886,1.327,1.501,3.130,2.140,1.750,1.164,1.319,2.497,0.000,2.334,3.973,0.000,0.000,0.000,0.000,0.000,0.000,0.000,0.000,0.000,0.000,3.142,6.282,0.000,1.004,1.569,1.569,4.085,6.281,1.199,4.712,0.000,0.000,7.412,-5.677,0.990,4.829,4.672,4.752,5.281,4.711,4.711,2.198,6.282,5.083,1.570,0.000,0.000,8.063,-5.601,0.990,4.829,4.673,4.751,
22.741,32.327,7.795,-6.125,1.687,1.011,6.267,0.000,1.869,1.315,0.000,3.241,2.240,1.885,1.176,1.332,1.724,0.000,2.334,3.662,0.000,0.000,0.000,0.000,0.000,0.000,0.000,0.000,0.000,0.000,3.142,6.282,0.000,1.004,1.569,1.569,4.085,6.281,1.199,4.712,0.000,0.000,7.400,-5.579,0.990,4.829,4.672,4.752,5.281,4.711,4.711,2.198,6.282,5.083,1.570,0.000,0.000,8.052,-5.502,0.990,4.830,4.673,4.751,
22.860,32.446,7.786,-6.046,1.687,1.012,6.266,0.000,1.855,1.306,0.000,3.330,2.319,1.994,1.236,1.343,1.633,0.000,2.369,3.522,0.000,0.000,0.000,0.000,0.000,0.000,0.000,0.000,0.000,0.000,3.142,6.282,0.000,1.004,1.569,1.569,4.085,6.281,1.199,4.712,0.000,0.000,7.391,-5.500,0.990,4.830,4.672,4.752,5.281,4.711,4.711,2.198,6.282,5.083,1.570,0.000,0.000,8.042,-5.423,0.990,4.830,4.673,4.751,
22.960,32.546,7.772,-5.928,1.688,1.012,6.267,0.000,1.834,1.291,0.000,3.463,2.439,2.286,1.250,1.358,2.574,0.000,2.369,3.244,0.000,0.000,0.000,0.000,0.000,0.000,0.000,0.000,0.000,0.000,3.142,6.282,0.000,1.004,1.569,1.569,4.085,6.281,1.199,4.712,0.000,0.000,7.377,-5.381,0.990,4.830,4.672,4.752,5.281,4.711,4.711,2.198,6.282,5.083,1.570,0.000,0.000,8.028,-5.304,0.990,4.830,4.673,4.751,
23.060,32.646,7.761,-5.829,1.687,1.012,6.214,0.000,1.818,1.280,1.406,3.575,2.538,2.554,1.262,1.371,2.596,0.000,2.404,3.030,0.000,0.000,0.000,0.000,0.000,0.000,0.000,0.000,0.000,0.000,3.142,6.282,0.000,1.004,1.569,1.568,4.084,6.281,1.199,4.712,0.000,0.000,7.365,-5.282,0.990,4.830,4.674,4.749,5.281,4.711,4.710,2.197,6.282,5.083,1.570,0.000,0.000,8.016,-5.205,0.990,4.830,4.670,4.754,
23.152,32.738,7.749,-5.730,1.645,1.013,5.297,0.000,1.888,1.279,1.366,3.775,2.627,2.483,1.286,1.357,2.430,0.000,2.475,0.000,0.000,0.000,0.000,0.000,0.000,0.000,0.000,0.000,0.000,0.000,3.142,6.280,0.001,1.005,1.567,1.565,4.084,6.282,1.199,4.711,0.000,0.000,7.375,-5.167,0.990,4.791,4.655,4.767,5.281,4.710,4.708,2.197,6.282,5.083,1.570,0.000,0.000,8.030,-5.118,0.990,4.791,4.647,4.777,
23.260,32.846,7.744,-5.650,1.566,1.011,5.313,0.000,1.987,1.300,1.176,0.000,3.350,2.293,1.319,1.323,2.165,0.000,2.545,0.000,0.000,0.000,0.000,0.000,0.000,0.000,0.000,0.000,0.000,0.000,3.142,6.281,0.001,1.004,1.569,1.568,4.085,6.281,1.199,4.712,0.000,0.000,7.418,-5.060,0.990,4.719,2.516,0.625,5.282,4.711,4.711,2.198,6.281,5.083,1.570,0.000,0.000,8.074,-5.062,0.991,4.718,2.318,0.822,
23.360,32.946,7.747,-5.531,1.533,1.013,6.271,0.000,3.535,1.317,1.307,0.915,3.472,2.385,1.332,1.306,2.064,0.000,2.615,0.000,0.000,0.000,0.000,0.000,0.000,0.000,0.000,0.000,0.000,0.000,3.142,6.283,0.000,1.003,1.570,1.570,4.085,6.281,1.199,4.712,0.000,0.000,7.441,-4.929,0.990,4.751,1.697,1.444,5.281,4.711,4.712,2.198,6.282,5.083,1.570,0.000,0.000,8.097,-4.954,0.990,4.751,1.682,1.459,
23.460,33.046,7.751,-5.431,1.534,1.010,6.263,0.000,3.334,1.321,1.311,0.000,3.571,2.523,1.327,1.303,2.061,0.000,2.545,0.000,0.000,0.000,0.000,0.000,0.000,0.000,0.000,0.000,0.000,0.000,3.142,6.283,0.000,1.003,1.569,1.569,4.085,6.281,1.199,4.712,0.000,0.000,7.444,-4.830,0.990,4.750,1.702,1.439,5.281,4.711,4.711,2.198,6.282,5.083,1.570,0.000,0.000,8.100,-4.855,0.990,4.750,1.688,1.453,
23.560,33.146,7.754,-5.332,1.535,1.011,6.260,0.000,3.132,1.324,1.316,0.930,3.670,2.702,1.323,1.299,2.057,0.000,2.580,0.000,0.000,0.000,0.000,0.000,0.000,0.000,0.000,0.000,0.000,0.000,3.142,6.283,0.000,1.003,1.569,1.569,4.085,6.281,1.199,4.712,0.000,0.000,7.447,-4.731,0.990,4.749,1.704,1.436,5.281,4.711,4.711,2.198,6.282,5.083,1.570,0.000,0.000,8.103,-4.755,0.990,4.749,1.692,1.449,
23.660,33.246,7.758,-5.233,1.535,1.013,6.261,0.000,2.927,1.327,1.320,0.986,3.770,2.908,1.319,1.296,2.053,0.000,2.650,0.000,0.000,0.000,0.000,0.000,0.000,0.000,0.000,0.000,0.000,0.000,3.142,6.283,0.000,1.004,1.569,1.569,4.085,6.281,1.199,4.712,0.000,0.000,7.450,-4.632,0.990,4.748,1.707,1.434,5.281,4.711,4.711,2.198,6.282,5.083,1.570,0.000,0.000,8.106,-4.655,0.990,4.748,1.696,1.445,
23.760,33.346,7.761,-5.133,1.536,1.012,6.262,0.000,2.722,1.331,1.324,2.203,3.869,3.115,1.315,1.293,2.049,0.000,2.580,0.000,0.000,0.000,0.000,0.000,0.000,0.000,0.000,0.000,0.000,0.000,3.142,6.283,0.000,1.004,1.569,1.569,4.085,6.281,1.199,4.712,0.000,0.000,7.453,-4.533,0.990,4.747,1.710,1.431,5.281,4.711,4.711,2.198,6.282,5.083,1.570,0.000,0.000,8.109,-4.556,0.990,4.747,1.699,1.442,
23.860,33.446,7.765,-5.034,1.539,1.011,0.214,0.000,0.000,1.333,1.329,2.267,3.968,3.339,1.309,1.290,2.053,0.000,2.615,0.000,1.856,0.000,0.000,0.000,0.000,0.000,0.000,0.000,0.000,0.000,3.142,0.000,0.000,1.003,1.570,1.570,4.086,6.281,1.199,4.712,0.000,0.000,7.456,-4.434,0.990,4.746,1.724,1.417,5.281,4.712,4.712,2.199,6.282,5.083,1.570,0.000,0.000,8.111,-4.455,0.991,4.745,1.689,1.452,
23.960,33.546,7.767,-4.954,1.580,1.010,1.030,0.000,0.000,1.318,1.350,2.357,3.443,3.832,1.290,1.305,2.169,0.000,2.615,0.000,1.697,0.000,0.000,0.000,0.000,0.000,0.000,0.000,0.000,0.000,3.142,0.001,0.000,1.003,1.571,1.572,4.086,6.281,1.199,4.712,0.000,0.000,7.435,-4.368,0.990,4.720,4.009,5.416,5.282,4.713,4.714,2.199,6.281,5.083,1.571,0.000,0.000,8.091,-4.362,0.991,4.719,4.242,5.183,
24.042,33.628,7.761,-4.835,1.718,1.013,1.128,0.000,0.000,1.274,1.429,1.325,3.554,1.763,1.255,1.391,0.000,0.000,2.510,0.000,1.672,0.000,0.000,0.000,0.000,0.000,0.000,0.000,0.000,0.000,3.142,0.001,0.000,1.003,1.570,1.568,4.085,6.282,1.199,4.712,0.000,0.000,7.349,-4.300,0.990,4.861,4.683,4.740,5.282,4.712,4.711,2.198,6.283,5.083,1.570,0.000,0.000,7.999,-4.204,0.991,4.860,4.688,4.735,
24.152,33.738,7.749,-4.755,1.754,1.021,6.279,0.000,0.000,1.256,1.443,1.390,3.656,1.720,1.261,1.432,2.076,0.000,2.475,0.000,1.530,0.000,0.000,0.000,0.000,0.000,0.000,0.000,0.000,0.000,3.142,6.282,0.000,1.004,1.568,1.566,4.085,6.282,1.199,4.711,0.000,0.000,7.316,-4.237,0.990,4.900,4.687,4.736,5.281,4.710,4.708,2.198,6.283,5.083,1.570,0.000,0.000,7.961,-4.117,0.990,4.899,4.689,4.734,
24.254,33.840,7.730,-4.657,1.753,1.011,6.277,0.000,0.000,1.238,1.421,4.745,3.755,1.747,1.280,1.452,1.985,0.000,2.475,0.000,1.409,0.000,0.000,0.000,0.000,0.000,0.000,0.000,0.000,0.000,3.142,6.282,0.000,1.004,1.569,1.569,4.084,6.281,1.199,4.712,0.000,0.000,7.300,-4.138,0.990,4.895,4.687,4.736,5.281,4.711,4.711,2.197,6.282,5.083,1.570,0.000,0.000,7.945,-4.018,0.990,4.895,4.685,4.738,
24.360,33.946,7.709,-4.540,1.753,1.007,6.269,0.000,3.053,1.216,1.396,4.818,3.874,1.776,1.301,1.477,3.352,0.000,2.510,0.000,0.000,0.000,0.000,0.000,0.000,0.000,0.000,0.000,0.000,0.000,3.142,6.283,0.000,1.004,1.569,1.569,4.085,6.281,1.199,4.712,0.000,0.000,7.279,-4.020,0.990,4.895,4.686,4.738,5.281,4.711,4.711,2.198,6.282,5.083,1.570,0.000,0.000,7.924,-3.901,0.990,4.895,4.688,4.736,
24.451,34.037,7.691,-4.443,1.776,1.012,0.751,0.000,3.017,1.195,1.394,4.931,3.991,1.763,0.872,1.517,3.211,0.000,1.000,0.000,0.000,0.000,0.000,0.000,0.000,0.000,0.000,0.000,0.000,0.000,3.142,0.001,0.000,1.003,1.571,1.572,4.086,6.281,1.199,4.712,0.000,0.000,7.251,-3.932,0.990,4.914,4.687,4.737,5.281,4.712,4.714,2.199,6.281,5.083,1.571,0.000,0.000,7.893,-3.799,0.991,4.914,4.696,4.729,
24.547,34.133,7.668,-4.345,1.879,1.014,1.438,0.000,3.900,1.169,1.468,1.756,4.393,1.649,1.332,1.651,4.417,0.000,2.404,0.000,0.000,0.000,0.000,0.000,0.000,0.000,0.000,0.000,0.000,0.000,3.142,0.002,0.000,1.003,1.571,1.571,4.086,6.282,1.199,4.712,0.000,0.000,7.178,-3.883,0.990,5.019,4.697,4.726,5.282,4.713,4.713,2.198,6.282,5.083,1.571,0.000,0.000,7.803,-3.684,0.991,5.018,4.703,4.721,
24.660,34.246,7.643,-4.269,1.976,1.014,1.222,0.000,3.621,1.150,1.557,4.819,3.522,1.577,1.364,1.821,0.000,0.000,2.404,0.000,0.000,0.000,0.000,0.000,0.000,0.000,0.000,0.000,0.000,0.000,3.142,0.001,0.000,1.003,1.570,1.569,4.085,6.282,1.199,4.712,0.000,0.000,7.108,-3.857,0.990,5.118,4.701,4.722,5.282,4.712,4.712,2.198,6.283,5.083,1.570,0.000,0.000,7.712,-3.599,0.991,5.117,4.704,4.719,
24.760,34.346,7.592,-4.161,2.075,1.018,0.808,2.191,3.388,1.117,1.647,4.860,4.087,1.066,1.436,2.010,0.000,0.000,2.369,0.000,0.000,0.000,0.000,0.000,0.000,0.000,0.000,0.000,0.000,0.000,3.142,0.001,0.000,1.003,1.570,1.569,4.085,6.281,1.199,4.712,0.000,0.000,7.019,-3.803,0.990,5.217,4.702,4.720,5.282,4.712,4.712,2.198,6.282,5.083,1.570,0.000,0.000,7.594,-3.486,0.991,5.216,4.705,4.718,
24.842,34.428,7.542,-4.074,2.149,1.012,0.961,1.858,3.237,1.086,1.719,4.927,2.670,1.559,1.513,0.000,0.000,0.000,2.369,0.000,0.000,0.000,0.000,0.000,0.000,0.000,0.000,0.000,0.000,0.000,3.142,0.001,0.000,1.003,1.570,1.570,4.086,6.281,1.199,4.712,0.000,0.000,6.945,-3.759,0.990,5.289,4.703,4.719,5.282,4.712,4.713,2.198,6.282,5.083,1.570,0.000,0.000,7.495,-3.401,0.991,5.289,4.706,4.717,
24.960,34.546,7.497,-4.008,2.220,1.009,1.092,1.612,3.429,1.066,1.822,4.999,2.485,1.568,1.595,0.000,0.000,0.000,2.791,0.000,0.000,0.000,0.000,0.000,0.000,0.000,0.000,0.000,0.000,0.000,3.142,0.001,0.000,1.003,1.570,1.570,4.086,6.282,1.199,4.712,0.000,0.000,6.880,-3.737,0.990,5.361,4.705,4.718,5.282,4.712,4.713,2.198,6.282,5.083,1.570,0.000,0.000,7.402,-3.340,0.991,5.361,4.707,4.716,
25.060,34.646,7.422,-3.915,2.332,1.014,1.035,1.295,0.000,1.035,2.044,4.495,2.289,1.604,1.756,3.383,0.000,0.000,2.685,0.000,0.000,0.000,0.000,0.000,0.000,0.000,0.000,0.000,0.000,0.000,3.142,0.001,0.000,1.003,1.570,1.569,4.085,6.281,1.199,4.712,0.000,0.000,6.778,-3.715,0.990,5.473,4.706,4.716,5.282,4.712,4.712,2.198,6.282,5.083,1.570,0.000,0.000,7.253,-3.262,0.991,5.473,4.708,4.715,
25.146,34.732,7.351,-3.844,2.418,1.016,0.982,1.312,2.975,1.003,2.285,4.650,2.201,1.656,1.922,4.242,4.807,0.000,2.615,0.000,0.000,0.000,0.000,0.000,0.000,0.000,0.000,0.000,0.000,0.000,3.142,0.001,0.000,1.003,1.570,1.570,4.085,6.282,1.199,4.712,0.000,0.000,6.692,-3.700,0.990,5.559,4.706,4.716,5.282,4.712,4.712,2.198,6.282,5.083,1.570,0.000,0.000,7.127,-3.208,0.991,5.559,4.708,4.715,
25.260,34.846,7.290,-3.792,2.486,1.015,0.998,1.884,2.851,0.975,2.564,0.000,2.157,1.710,1.615,0.000,0.000,0.000,2.545,0.000,0.000,0.000,0.000,0.000,0.000,0.000,0.000,0.000,0.000,0.000,3.142,0.001,0.000,1.003,1.570,1.570,4.086,6.282,1.199,4.712,0.000,0.000,6.623,-3.693,0.990,5.627,4.706,4.715,5.282,4.712,4.712,2.198,6.282,5.083,1.570,0.000,0.000,7.023,-3.173,0.991,5.627,4.708,4.714,
25.360,34.946,7.210,-3.733,2.573,1.013,1.028,3.121,2.714,0.939,2.594,4.535,1.600,1.794,0.000,0.000,2.220,0.000,2.475,0.000,0.000,0.000,0.000,0.000,0.000,0.000,0.000,0.000,0.000,0.000,3.142,0.001,0.000,1.003,1.570,1.570,4.086,6.281,1.199,4.712,0.000,0.000,6.537,-3.693,0.990,5.715,4.707,4.714,5.282,4.712,4.712,2.198,6.282,5.083,1.570,0.000,0.000,6.890,-3.140,0.991,5.714,4.708,4.714,
25.460,35.046,7.125,-3.682,2.662,1.013,1.017,2.939,2.597,0.898,0.000,4.366,2.114,1.897,0.000,0.000,1.362,0.000,2.404,0.000,0.000,0.000,0.000,0.000,0.000,0.000,0.000,0.000,0.000,0.000,3.142,0.001,0.000,1.003,1.570,1.570,4.085,6.282,1.199,4.712,0.000,0.000,6.450,-3.701,0.990,5.803,4.707,4.714,5.282,4.712,4.712,2.198,6.282,5.083,1.570,0.000,0.000,6.754,-3.119,0.991,5.802,4.709,4.713,
25.560,35.146,7.017,-3.630,2.767,1.015,1.009,2.693,2.478,0.838,0.000,3.428,2.131,2.051,3.146,0.000,0.850,0.000,2.334,0.000,0.000,0.000,0.000,0.000,0.000,0.000,0.000,0.000,0.000,0.000,3.142,0.001,0.000,1.003,1.570,1.570,4.085,6.282,1.199,4.712,0.000,0.000,6.348,-3.719,0.990,5.908,4.707,4.713,5.282,4.712,4.712,2.198,6.282,5.083,1.570,0.000,0.000,6.589,-3.109,0.991,5.908,4.709,4.713,
25.646,35.232,6.923,-3.595,2.854,1.014,1.019,2.520,0.000,0.683,0.000,3.278,2.166,2.206,3.706,0.000,0.768,0.000,2.440,0.000,2.087,0.000,0.000,0.000,0.000,0.000,0.000,0.000,0.000,0.000,3.142,0.001,0.000,1.003,1.570,1.570,4.085,6.281,1.199,4.712,0.000,0.000,6.265,-3.743,0.990,5.995,4.707,4.713,5.282,4.712,4.712,2.198,6.282,5.083,1.570,0.000,0.000,6.451,-3.114,0.991,5.995,4.709,4.713,
25.760,35.346,6.846,-3.574,2.924,1.014,1.021,2.447,0.000,0.609,2.709,3.139,2.206,1.874,4.299,4.432,0.818,0.000,2.404,0.000,2.014,0.000,0.000,0.000,0.000,0.000,0.000,0.000,0.000,0.000,3.142,0.001,0.000,1.003,1.570,1.570,4.085,6.281,1.199,4.712,0.000,0.000,6.200,-3.767,0.990,6.065,4.708,4.712,5.282,4.712,4.712,2.198,6.282,5.083,1.570,0.000,0.000,6.342,-3.126,0.991,6.065,4.709,4.712,
25.850,35.437,6.787,-3.560,3.015,-0.045,0.485,0.000,0.000,0.586,4.903,2.953,2.231,0.000,0.000,1.458,1.235,0.000,2.334,0.000,2.115,0.000,0.000,0.000,0.000,0.000,0.000,0.000,0.000,0.000,3.142,0.006,0.001,0.998,1.572,1.573,4.094,6.281,1.200,4.712,0.000,0.000,6.158,-3.809,0.989,6.152,4.703,4.713,5.280,4.714,4.715,2.199,6.282,5.083,1.570,0.000,0.000,6.244,-3.159,0.990,6.153,4.708,4.712,
25.954,35.540,6.819,-3.564,3.067,-0.611,0.594,0.000,0.000,0.896,4.963,2.785,2.187,0.000,3.732,1.289,1.541,0.000,2.264,0.000,2.349,0.000,0.000,0.000,0.000,0.000,0.000,0.000,0.000,0.000,3.142,0.005,0.001,1.000,1.572,1.573,4.092,6.281,1.200,4.712,0.000,0.000,6.205,-3.845,0.989,6.204,4.704,4.712,5.280,4.714,4.715,2.200,6.282,5.083,1.570,0.000,0.000,6.257,-3.191,0.991,6.205,4.709,4.712,
26.060,35.646,6.911,-3.570,3.110,-1.205,0.528,2.559,4.886,1.302,0.000,2.582,2.090,0.000,0.000,1.423,1.744,0.000,2.194,0.000,0.000,0.000,0.000,0.000,0.000,0.000,0.000,0.000,0.000,0.000,3.142,0.004,0.001,1.000,1.572,1.572,4.092,6.281,1.199,4.712,0.000,0.000,6.310,-3.878,0.989,6.248,4.704,4.711,5.280,4.714,4.714,2.200,6.282,5.083,1.570,0.000,0.000,6.333,-3.222,0.991,6.248,4.709,4.711,
26.140,35.726,7.037,-3.573,3.154,-1.234,0.411,2.643,0.733,1.964,0.000,1.824,1.963,0.000,0.000,1.624,1.946,0.000,2.124,0.000,0.000,0.000,0.000,0.000,0.000,0.000,0.000,0.000,0.000,0.000,3.142,0.000,0.000,1.004,1.569,1.568,4.085,6.281,1.199,4.712,0.000,0.000,6.452,-3.910,0.990,0.014,4.708,4.711,5.281,4.711,4.710,2.199,6.282,5.083,1.570,0.000,0.000,6.444,-3.254,0.991,0.014,4.709,4.711,
26.260,35.846,7.124,-3.572,3.166,-0.959,0.013,2.719,0.734,2.376,0.000,1.747,1.877,0.000,0.000,4.173,1.619,0.000,1.913,0.000,0.000,0.000,0.000,0.000,0.000,0.000,0.000,0.000,0.000,0.000,3.142,6.282,0.000,1.005,1.568,1.567,4.083,6.281,1.199,4.712,0.000,0.000,6.543,-3.916,0.990,0.027,4.709,4.711,5.281,4.710,4.710,2.199,6.282,5.083,1.570,0.000,0.000,6.527,-3.260,0.991,0.026,4.709,4.711,
26.360,35.946,7.210,-3.570,3.166,-0.873,6.273,2.804,0.845,2.709,4.993,2.129,1.790,0.000,3.613,4.171,1.055,0.000,1.878,0.000,0.000,0.000,0.000,0.000,0.000,0.000,0.000,0.000,0.000,0.000,3.142,0.000,0.000,1.003,1.570,1.570,4.086,6.281,1.199,4.712,0.000,0.000,6.629,-3.912,0.990,0.023,4.707,4.711,5.280,4.712,4.712,2.199,6.282,5.083,1.570,0.000,0.000,6.613,-3.256,0.990,0.024,4.708,4.712,
26.442,36.028,7.325,-3.567,3.166,-1.068,6.243,2.918,1.055,3.421,4.675,1.993,1.676,0.000,0.000,4.459,1.032,0.000,1.878,0.000,0.000,0.000,0.000,0.000,0.000,0.000,0.000,0.000,0.000,0.000,3.142,0.000,0.001,1.003,1.570,1.570,4.087,6.281,1.199,4.712,0.000,0.000,6.743,-3.909,0.990,0.024,4.707,4.711,5.281,4.712,4.712,2.198,6.282,5.083,1.570,0.000,0.000,6.728,-3.254,0.990,0.024,4.708,4.712,
26.560,36.146,7.398,-3.565,3.145,-0.673,5.986,3.012,1.131,2.811,4.725,1.932,1.602,0.000,0.000,4.823,1.036,0.000,1.878,0.000,0.000,0.000,0.000,0.000,0.000,0.000,0.000,0.000,0.000,0.000,3.142,6.278,6.283,1.007,1.567,1.565,4.078,6.282,1.199,4.712,0.000,0.000,6.813,-3.899,0.991,0.009,4.712,4.711,5.282,4.709,4.708,2.198,6.282,5.083,1.570,0.000,0.000,6.808,-3.243,0.991,0.008,4.708,4.712,
26.660,36.246,7.412,-3.564,3.120,0.271,5.742,3.054,1.127,2.589,0.000,1.949,1.588,0.000,4.912,4.781,1.072,0.000,1.913,0.000,0.000,0.000,0.000,0.000,0.000,0.000,0.000,0.000,0.000,0.000,3.142,6.278,0.000,1.007,1.567,1.565,4.079,6.282,1.199,4.712,0.000,0.000,6.818,-3.883,0.990,6.267,4.711,4.711,5.282,4.710,4.707,2.196,6.283,5.083,1.570,0.000,0.000,6.830,-3.227,0.990,6.267,4.707,4.712,
26.750,36.336,7.382,-3.563,3.028,0.241,4.878,0.000,0.967,2.248,4.915,1.552,1.629,1.399,3.963,4.667,1.181,0.000,1.983,0.000,0.000,0.000,0.000,0.000,0.000,0.000,0.000,0.000,0.000,0.000,3.142,6.281,0.001,1.003,1.568,1.567,4.087,6.281,1.199,4.712,0.000,0.000,6.759,-3.824,0.989,6.172,4.706,4.712,5.282,4.711,4.710,2.197,6.282,5.083,1.570,0.000,0.000,6.833,-3.172,0.990,6.172,4.708,4.712,
26.860,36.446,7.365,-3.561,2.918,0.391,4.905,2.933,0.000,1.764,4.823,2.396,1.676,1.781,3.232,0.000,1.293,0.000,2.124,0.000,3.920,0.000,0.000,0.000,0.000,0.000,0.000,0.000,0.000,0.000,3.142,6.277,0.000,1.006,1.567,1.566,4.080,6.281,1.199,4.712,0.000,0.000,6.719,-3.754,0.990,6.064,4.711,4.712,5.283,4.710,4.709,2.197,6.282,5.083,1.570,0.000,0.000,6.862,-3.113,0.991,6.063,4.709,4.713,
26.960,36.546,7.266,-3.535,2.836,1.287,5.892,2.890,0.000,1.366,0.000,2.798,1.819,1.831,3.016,0.000,1.263,0.000,2.229,0.000,4.081,0.000,0.000,0.000,0.000,0.000,0.000,0.000,0.000,0.000,3.142,6.278,6.283,1.008,1.568,1.567,4.079,6.281,1.199,4.712,0.000,0.000,6.606,-3.674,0.990,5.981,4.710,4.712,5.283,4.710,4.709,2.197,6.282,5.083,1.571,0.000,0.000,6.801,-3.047,0.991,5.981,4.708,4.713,
27.049,36.635,7.138,-3.494,2.784,1.275,5.387,2.804,2.636,1.059,0.000,3.219,1.987,1.934,3.020,0.000,1.131,0.000,2.299,0.000,0.000,0.000,0.000,0.000,0.000,0.000,0.000,0.000,0.000,0.000,3.142,6.282,0.001,1.003,1.568,1.567,4.087,6.281,1.199,4.712,0.000,0.000,6.470,-3.597,0.989,5.929,4.706,4.713,5.281,4.711,4.710,2.197,6.282,5.083,1.570,0.000,0.000,6.700,-2.982,0.990,5.928,4.707,4.713,
27.160,36.746,7.057,-3.463,2.708,0.924,5.052,2.802,2.589,0.766,0.000,0.000,2.141,1.982,2.804,0.000,1.116,0.000,2.545,0.000,0.000,0.000,0.000,0.000,0.000,0.000,0.000,0.000,0.000,0.000,3.142,6.282,0.001,1.002,1.569,1.568,4.088,6.281,1.199,4.712,0.000,0.000,6.383,-3.514,0.989,5.850,4.705,4.714,5.281,4.711,4.711,2.198,6.282,5.083,1.570,0.000,0.000,6.660,-2.918,0.990,5.850,4.707,4.713,
27.260,36.846,6.968,-3.418,2.582,0.883,5.203,2.556,2.584,3.566,2.174,0.000,2.397,2.037,0.000,0.000,1.211,0.000,2.685,0.000,0.000,0.000,0.000,0.000,0.000,0.000,0.000,0.000,0.000,0.000,3.142,6.280,0.000,1.005,1.568,1.567,4.084,6.281,1.199,4.712,0.000,0.000,6.294,-3.386,0.990,5.726,4.708,4.714,5.282,4.711,4.710,2.197,6.282,5.083,1.570,0.000,0.000,6.642,-2.829,0.991,5.725,4.708,4.714,
27.360,36.946,6.904,-3.376,2.513,1.067,5.357,0.669,4.077,4.977,1.430,0.000,2.046,2.096,0.000,0.000,1.252,0.000,2.755,0.000,0.000,0.000,0.000,0.000,0.000,0.000,0.000,0.000,0.000,0.000,3.142,6.280,0.000,1.005,1.568,1.567,4.083,6.281,1.199,4.712,0.000,0.000,6.234,-3.298,0.990,5.658,4.708,4.714,5.282,4.711,4.710,2.197,6.282,5.083,1.570,0.000,0.000,6.618,-2.766,0.991,5.657,4.707,4.714,
27.458,37.044,6.817,-3.311,2.434,1.100,5.339,0.499,0.000,0.000,0.763,0.000,2.874,2.190,0.000,0.000,1.287,0.000,2.861,0.000,0.000,0.000,0.000,0.000,0.000,0.000,0.000,0.000,0.000,0.000,3.142,6.281,0.001,1.004,1.569,1.567,4.085,6.281,1.199,4.712,0.000,0.000,6.155,-3.178,0.990,5.577,4.706,4.715,5.282,4.711,4.710,2.198,0.000,5.082,1.569,0.000,0.000,6.581,-2.680,0.990,5.578,4.706,4.715,
27.560,37.146,6.766,-3.268,2.359,-0.033,5.818,0.397,2.292,0.000,0.835,0.000,3.149,2.259,0.000,3.271,4.334,0.000,2.931,0.000,0.000,4.455,0.000,0.000,0.000,0.000,0.000,0.000,0.000,0.000,3.142,0.003,0.001,0.998,1.571,1.573,4.094,6.280,1.200,4.712,0.000,0.000,6.116,-3.082,0.989,5.496,4.700,4.721,5.280,4.713,4.715,2.198,6.281,5.083,1.570,0.000,0.000,6.581,-2.619,0.990,5.497,4.705,4.718,
27.660,37.246,6.786,-3.289,2.299,-0.407,5.276,0.403,2.335,2.381,0.837,2.999,3.325,2.263,0.000,4.474,4.149,0.000,3.001,0.000,0.000,0.000,0.000,0.000,0.000,0.000,0.000,0.000,0.000,0.000,3.142,6.282,0.001,1.003,1.569,1.568,4.086,6.281,1.199,4.712,0.000,0.000,6.148,-3.069,0.990,5.443,4.705,4.716,5.280,4.711,4.710,2.198,6.282,5.083,1.570,0.000,0.000,6.638,-2.632,0.990,5.442,4.705,4.716,
27.760,37.346,6.800,-3.304,2.213,-0.107,5.016,0.407,2.398,2.378,2.278,0.000,3.672,2.301,2.277,3.876,0.000,0.000,3.071,0.000,0.000,0.000,0.000,0.000,0.000,0.000,0.000,0.000,0.000,0.000,3.142,6.279,0.000,1.006,1.568,1.566,4.081,6.282,1.199,4.712,0.000,0.000,6.183,-3.032,0.990,5.359,4.708,4.714,5.282,4.711,4.709,2.198,6.282,5.083,1.570,0.000,0.000,6.707,-2.637,0.991,5.358,4.707,4.716,
27.857,37.443,6.796,-3.299,2.101,0.149,5.077,0.473,2.490,2.391,2.311,2.735,4.974,2.402,2.260,3.356,0.000,0.000,3.036,0.000,0.000,0.000,0.000,0.000,0.000,0.000,0.000,0.000,0.000,0.000,3.142,6.280,0.000,1.005,1.568,1.568,4.079,6.280,1.208,4.736,0.000,0.000,6.215,-2.959,0.989,5.244,4.695,4.750,5.282,4.711,4.711,2.197,6.282,5.083,1.570,0.000,0.000,6.780,-2.626,0.991,5.243,4.705,4.718,
27.944,37.530,6.793,-3.294,2.041,-0.028,6.184,0.519,2.554,2.410,3.415,2.330,4.757,2.473,2.237,3.152,0.000,0.000,3.106,0.000,0.000,0.000,0.000,0.000,0.000,0.000,0.000,0.000,0.000,0.000,3.142,6.280,6.283,1.008,1.565,1.549,4.049,0.008,1.250,4.761,0.004,0.000,6.225,-2.935,0.987,5.213,4.661,4.802,5.280,4.713,4.714,2.199,6.282,5.083,1.571,0.000,0.000,6.820,-2.620,0.990,5.180,4.704,4.720,
28.049,37.635,6.795,-3.297,2.025,-0.060,5.924,0.648,2.659,2.417,3.465,2.078,0.000,2.492,2.229,3.099,0.000,0.000,3.142,0.000,0.000,0.000,0.000,0.000,0.000,0.000,0.000,0.000,0.000,0.000,3.142,6.278,6.283,1.009,1.562,1.539,4.042,0.024,1.251,4.774,0.004,0.000,6.225,-2.935,0.989,5.221,4.674,4.806,5.280,4.712,4.712,2.199,6.282,5.083,1.570,0.000,0.000,6.831,-2.624,0.990,5.167,4.702,4.721,
28.160,37.746,6.796,-3.303,1.985,-0.093,5.885,0.708,2.477,2.437,3.601,1.632,0.000,2.546,2.217,2.982,0.000,0.000,3.142,0.000,0.000,0.000,0.000,0.000,0.000,0.000,0.000,0.000,0.000,0.000,3.142,6.277,6.282,1.010,1.558,1.515,4.021,0.055,1.268,4.781,0.004,0.000,6.225,-2.935,0.991,5.233,4.679,4.808,5.279,4.713,4.713,2.201,6.282,5.083,1.570,0.000,0.000,6.861,-2.632,0.990,5.124,4.703,4.720,
28.257,37.843,6.800,-3.312,1.964,-0.144,0.024,0.750,2.405,2.449,3.670,1.483,0.000,2.574,2.209,2.855,0.000,0.000,3.142,0.000,0.000,0.000,0.000,0.000,0.000,0.000,0.000,0.000,0.000,0.000,3.142,6.277,6.282,1.010,1.557,1.506,4.028,0.087,1.258,4.770,0.004,0.000,6.224,-2.937,0.992,5.250,4.688,4.796,5.279,4.714,4.714,2.201,6.282,5.083,1.571,0.000,0.000,6.878,-2.642,0.990,5.102,4.703,4.720,
28.358,37.944,6.801,-3.319,1.954,-0.042,6.147,0.771,2.378,2.454,3.701,1.420,0.000,2.589,2.205,2.829,0.000,0.000,3.142,0.000,0.000,0.000,0.000,0.000,0.000,0.000,0.000,0.000,0.000,0.000,3.142,6.277,6.283,1.010,1.555,1.507,4.038,0.103,1.247,4.748,0.004,0.000,6.224,-2.937,0.991,5.255,4.689,4.781,5.280,4.711,4.710,2.200,6.282,5.083,1.570,0.000,0.000,6.884,-2.651,0.990,5.097,4.702,4.721,
28.460,38.046,6.799,-3.320,1.943,-0.017,6.242,0.787,2.338,3.985,3.744,1.346,0.000,2.608,2.205,2.840,0.000,0.000,3.142,0.000,0.000,0.000,0.000,0.000,0.000,0.000,0.000,0.000,0.000,0.000,3.142,6.277,6.283,1.010,1.555,1.502,4.029,0.108,1.257,4.759,0.004,0.000,6.224,-2.937,0.991,5.254,4.686,4.794,5.279,4.712,4.712,2.200,6.282,5.083,1.570,0.000,0.000,6.891,-2.653,0.990,5.084,4.702,4.721,
28.560,38.146,6.798,-3.322,1.936,-0.058,6.198,0.797,1.655,3.981,4.738,1.295,0.000,2.623,2.206,2.869,0.000,0.000,3.142,0.000,0.000,0.000,0.000,0.000,0.000,0.000,0.000,0.000,0.000,0.000,3.142,6.277,6.283,1.009,1.554,1.500,4.024,0.109,1.264,4.767,0.004,0.000,6.224,-2.936,0.991,5.250,4.683,4.802,5.279,4.712,4.713,2.200,6.282,5.083,1.570,0.000,0.000,6.894,-2.655,0.990,5.076,4.701,4.723,
28.660,38.246,6.800,-3.334,1.910,-0.198,6.116,0.859,1.082,3.977,4.868,1.178,0.000,2.130,2.201,2.982,0.000,0.000,3.142,0.000,0.000,0.000,0.000,0.000,0.000,0.000,0.000,0.000,0.000,0.000,3.142,6.277,6.283,1.009,1.553,1.490,4.033,0.143,1.254,4.745,0.004,0.000,6.223,-2.938,0.991,5.265,4.686,4.786,5.279,4.713,4.714,2.201,6.282,5.083,1.571,0.000,0.000,6.915,-2.669,0.990,5.049,4.701,4.722,
28.760,38.346,6.804,-3.349,1.883,-0.261,5.894,0.940,0.867,3.978,0.000,1.084,0.000,2.711,2.196,0.000,0.000,0.000,3.142,0.000,0.000,0.000,0.000,0.000,0.000,0.000,0.000,0.000,0.000,0.000,3.142,6.279,0.000,1.006,1.551,1.482,4.052,0.187,1.234,4.715,0.004,0.000,6.222,-2.941,0.991,5.286,4.695,4.762,5.279,4.713,4.713,2.200,6.282,5.083,1.570,0.000,0.000,6.936,-2.688,0.990,5.023,4.699,4.724,
28.860,38.446,6.818,-3.393,1.868,-0.708,0.106,1.028,1.047,3.990,0.000,1.077,0.000,2.724,2.182,0.000,0.000,0.000,3.142,0.000,0.000,0.000,0.000,0.000,0.000,0.000,0.000,0.000,0.000,0.000,3.142,0.001,0.001,0.999,1.556,1.507,4.086,0.169,1.199,4.684,0.015,0.000,6.256,-2.957,0.992,5.229,4.714,4.723,5.279,4.714,4.716,2.200,6.282,5.083,1.570,0.000,0.000,6.962,-2.733,0.990,5.004,4.699,4.724,
28.960,38.546,6.847,-3.488,1.867,-1.269,6.269,1.124,1.717,4.019,4.884,1.174,0.000,2.689,2.153,0.000,0.000,0.000,3.142,0.000,0.000,0.000,0.000,0.000,0.000,0.000,0.000,0.000,0.000,0.000,3.142,0.001,0.001,0.998,1.566,1.552,4.087,0.046,1.195,4.679,0.008,0.000,6.339,-3.028,0.993,5.071,4.719,4.684,5.280,4.712,4.713,2.199,6.282,5.083,1.570,0.000,0.000,6.990,-2.829,0.990,5.007,4.697,4.726,
29.060,38.646,6.884,-3.609,1.859,-1.183,6.148,1.277,2.549,2.506,4.736,1.263,4.944,2.660,2.116,0.000,0.000,0.000,3.036,0.000,0.000,0.000,0.000,0.000,0.000,0.000,0.000,0.000,0.000,0.000,3.142,6.281,0.000,1.005,1.569,1.569,4.083,6.281,1.199,4.712,0.000,0.000,6.402,-3.138,0.990,5.000,4.699,4.724,5.281,4.711,4.711,2.198,6.282,5.083,1.570,0.000,0.000,7.030,-2.951,0.990,5.001,4.697,4.727,
29.160,38.746,6.917,-3.721,1.856,-0.856,6.282,1.396,2.730,2.500,0.515,1.362,4.825,2.623,2.084,0.000,0.000,0.000,3.001,0.000,0.000,0.000,0.000,0.000,0.000,0.000,0.000,0.000,0.000,0.000,3.142,6.282,0.000,1.004,1.569,1.569,4.084,6.281,1.199,4.712,0.000,0.000,6.435,-3.249,0.990,4.999,4.697,4.726,5.281,4.711,4.711,2.198,6.282,5.083,1.570,0.000,0.000,7.065,-3.063,0.990,4.999,4.697,4.726,
29.260,38.846,6.941,-3.805,1.856,-0.965,0.001,1.480,2.869,2.495,0.484,1.441,4.737,2.593,2.059,0.000,3.914,0.000,3.001,0.000,0.000,0.000,0.000,0.000,0.000,0.000,0.000,0.000,0.000,0.000,3.142,0.001,0.000,1.003,1.570,1.570,4.087,6.281,1.200,4.712,0.000,0.000,6.461,-3.331,0.990,4.997,4.691,4.732,5.281,4.712,4.712,2.198,6.282,5.083,1.570,0.000,0.000,7.090,-3.147,0.990,4.997,4.697,4.727,
29.360,38.946,6.970,-3.903,1.850,-1.093,5.962,1.607,3.012,2.493,0.579,1.508,4.626,2.568,2.030,1.934,3.779,0.000,3.001,0.000,0.000,0.000,0.000,0.000,0.000,0.000,0.000,0.000,0.000,0.000,3.142,6.282,0.001,1.003,1.569,1.568,4.086,6.281,1.199,4.712,0.000,0.000,6.491,-3.428,0.990,4.994,4.694,4.729,5.281,4.711,4.710,2.198,6.282,5.083,1.570,0.000,0.000,7.122,-3.247,0.990,4.994,4.695,4.728,
29.460,39.046,6.990,-3.970,1.806,-0.261,6.025,1.956,2.953,2.532,0.585,1.387,4.504,2.635,2.015,2.373,0.000,0.000,3.036,0.000,0.000,0.000,0.000,0.000,0.000,0.000,0.000,0.000,0.000,0.000,3.142,6.277,6.283,1.008,1.567,1.567,4.076,6.281,1.199,4.712,0.000,0.000,6.531,-3.478,0.991,4.952,4.714,4.710,5.282,4.709,4.709,2.197,6.282,5.083,1.570,0.000,0.000,7.169,-3.321,0.991,4.951,4.696,4.729,
29.560,39.146,6.988,-3.958,1.762,0.376,5.404,0.000,2.786,2.586,0.566,1.237,4.474,2.744,2.026,2.314,4.905,0.000,3.106,0.000,0.000,0.000,0.000,0.000,0.000,0.000,0.000,0.000,0.000,0.000,3.142,6.279,0.000,1.006,1.567,1.564,4.081,6.282,1.199,4.711,0.000,0.000,6.550,-3.444,0.990,4.910,4.698,4.725,5.282,4.710,4.707,2.197,6.283,5.083,1.570,0.000,0.000,7.194,-3.317,0.990,4.909,4.688,4.735,
29.660,39.246,6.982,-3.929,1.659,0.139,4.927,4.956,1.599,0.000,0.476,0.990,2.108,3.060,2.067,2.203,4.017,0.000,3.106,0.000,0.000,0.000,0.000,0.000,0.000,0.000,0.000,0.000,0.000,0.000,3.142,6.282,0.001,1.002,1.569,1.569,4.088,6.281,1.200,4.712,0.000,0.000,6.603,-3.370,0.989,4.801,4.637,4.787,5.281,4.711,4.711,2.197,6.282,5.083,1.570,0.000,0.000,7.256,-3.313,0.990,4.801,4.660,4.764,
29.760,39.346,6.982,-3.932,1.543,-0.132,4.986,0.000,1.187,2.706,0.454,0.824,0.000,4.677,2.137,2.110,3.370,0.000,3.142,0.000,0.000,0.000,0.000,0.000,0.000,0.000,0.000,0.000,0.000,0.000,3.142,6.282,0.001,1.002,1.570,1.569,4.087,6.281,1.199,4.712,0.000,0.000,6.670,-3.333,0.990,4.741,1.759,1.381,5.281,4.712,4.712,2.198,6.282,5.083,1.570,0.000,0.000,7.326,-3.352,0.991,4.741,1.692,1.448,
29.860,39.446,6.981,-3.942,1.438,-0.084,5.271,0.000,1.092,2.726,0.441,0.722,0.000,4.114,2.231,2.057,0.000,0.000,3.142,0.000,0.000,0.000,0.000,0.000,0.000,0.000,0.000,0.000,0.000,0.000,3.142,6.281,0.000,1.004,1.569,1.569,4.084,6.281,1.199,4.712,0.000,0.000,6.733,-3.315,0.990,4.845,1.602,1.539,5.282,4.712,4.712,2.198,6.282,5.083,1.571,0.000,0.000,7.384,-3.401,0.991,4.846,1.601,1.540,
29.960,39.546,6.984,-3.925,1.383,0.557,5.864,0.000,1.040,2.803,2.384,0.684,2.587,4.696,2.292,2.035,0.000,0.000,1.597,0.000,0.000,0.000,0.000,0.000,0.000,0.000,0.000,0.000,0.000,0.000,3.142,6.277,6.283,1.008,1.569,1.568,4.076,6.282,1.199,4.712,0.000,0.000,6.769,-3.287,0.991,4.898,1.571,1.570,5.283,4.711,4.710,2.197,6.283,5.083,1.571,0.000,0.000,7.414,-3.406,0.991,4.898,1.589,1.553,
30.060,39.646,7.008,-3.804,1.359,1.388,6.004,0.000,1.199,2.866,2.462,0.702,2.417,4.885,2.294,2.005,0.000,0.000,2.089,0.000,0.000,0.000,0.000,0.000,0.000,0.000,0.000,0.000,0.000,0.000,3.142,6.279,0.000,1.007,1.567,1.566,4.080,6.282,1.199,4.712,0.000,0.000,6.807,-3.160,0.990,4.920,1.582,1.559,5.282,4.710,4.708,2.197,6.282,5.083,1.570,0.000,0.000,7.450,-3.296,0.990,4.920,1.595,1.546,
30.160,39.746,7.037,-3.674,1.294,1.180,5.109,0.000,1.473,2.936,2.577,0.635,1.968,0.000,2.352,1.965,0.000,0.000,2.299,0.000,0.000,0.000,0.000,0.000,0.000,0.000,0.000,0.000,0.000,0.000,3.142,6.282,0.001,1.003,1.569,1.567,4.088,6.281,1.199,4.712,0.000,0.000,6.880,-3.016,0.989,4.986,1.596,1.545,5.281,4.711,4.710,2.197,6.282,5.083,1.570,0.000,0.000,7.512,-3.196,0.990,4.987,1.590,1.551,
30.260,39.846,7.064,-3.583,1.212,0.816,5.799,3.449,4.416,1.181,2.711,0.763,1.607,4.950,2.462,1.937,0.000,0.000,2.475,0.000,0.000,0.000,0.000,0.000,0.000,0.000,0.000,0.000,0.000,0.000,3.142,6.283,0.001,1.003,1.570,1.572,4.087,6.280,1.199,4.712,0.000,0.000,6.966,-2.916,0.990,5.075,1.588,1.554,5.281,4.712,4.713,2.198,6.281,5.083,1.571,0.000,0.000,7.580,-3.147,0.991,5.074,1.583,1.559,
30.360,39.946,7.094,-3.506,1.205,0.931,6.272,0.000,4.693,0.842,4.267,0.906,1.660,0.000,2.438,1.908,0.000,0.000,2.510,0.000,0.000,0.000,0.000,0.000,0.000,0.000,0.000,0.000,0.000,0.000,3.142,6.282,0.000,1.004,1.569,1.568,4.083,6.281,1.199,4.712,0.000,0.000,6.997,-2.839,0.990,5.077,1.582,1.560,5.281,4.711,4.710,2.198,6.282,5.083,1.570,0.000,0.000,7.610,-3.072,0.990,5.077,1.583,1.559,
30.460,40.046,7.130,-3.410,1.206,1.114,6.260,0.000,4.595,0.732,0.000,0.000,1.766,0.000,1.825,1.871,0.000,0.000,2.545,0.000,0.000,0.000,0.000,0.000,0.000,0.000,0.000,0.000,0.000,0.000,3.142,6.282,0.000,1.004,1.569,1.569,4.084,6.281,1.199,4.712,0.000,0.000,7.033,-2.743,0.990,5.077,1.583,1.558,5.281,4.711,4.711,2.198,6.282,5.083,1.570,0.000,0.000,7.646,-2.977,0.990,5.077,1.583,1.559,
30.560,40.146,7.161,-3.329,1.207,1.076,6.262,0.000,4.511,0.770,0.000,0.000,1.857,0.000,2.348,1.840,0.000,0.000,2.580,0.000,0.000,0.000,0.000,0.000,0.000,0.000,0.000,0.000,0.000,0.000,3.142,6.283,0.000,1.003,1.570,1.570,4.086,6.281,1.199,4.712,0.000,0.000,7.065,-2.661,0.990,5.077,1.586,1.556,5.281,4.711,4.712,2.198,6.282,5.083,1.570,0.000,0.000,7.677,-2.895,0.990,5.077,1.583,1.559,
30.660,40.246,7.197,-3.236,1.207,0.966,6.263,0.000,4.415,0.878,0.000,0.000,1.960,0.000,2.301,1.804,0.000,0.000,2.580,0.000,0.000,0.000,0.000,0.000,0.000,0.000,0.000,0.000,0.000,0.000,3.142,6.283,0.000,1.003,1.570,1.570,4.086,6.281,1.199,4.712,0.000,0.000,7.099,-2.568,0.990,5.076,1.585,1.556,5.281,4.711,4.712,2.198,6.282,5.083,1.570,0.000,0.000,7.713,-2.801,0.990,5.076,1.583,1.558,
30.760,40.346,7.231,-3.147,1.208,0.980,6.262,0.000,4.324,0.919,2.927,0.000,2.059,0.000,2.257,1.771,0.000,0.000,2.580,0.000,0.000,0.000,0.000,0.000,0.000,0.000,0.000,0.000,0.000,0.000,3.142,6.282,0.000,1.004,1.569,1.569,4.085,6.281,1.199,4.712,0.000,0.000,7.132,-2.480,0.990,5.075,1.584,1.558,5.281,4.711,4.711,2.198,6.282,5.083,1.570,0.000,0.000,7.746,-2.712,0.990,5.075,1.583,1.558,
30.850,40.436,7.266,-3.054,1.209,1.036,6.263,0.000,4.227,0.963,2.772,0.000,2.162,0.000,2.211,1.735,0.000,0.000,2.615,0.000,0.000,0.000,0.000,0.000,0.000,0.000,0.000,0.000,0.000,0.000,3.142,6.282,0.000,1.004,1.569,1.569,4.085,6.281,1.199,4.712,0.000,0.000,7.167,-2.387,0.990,5.074,1.584,1.558,5.281,4.711,4.711,2.198,6.282,5.083,1.570,0.000,0.000,7.781,-2.619,0.990,5.074,1.583,1.558,
30.960,40.546,7.309,-2.940,1.216,1.020,0.394,2.762,4.118,1.012,0.759,0.000,2.330,0.000,2.143,1.692,0.000,0.000,2.615,0.000,0.000,0.000,0.000,0.000,0.000,0.000,0.000,0.000,0.000,0.000,3.142,0.001,0.000,1.003,1.570,1.571,4.086,6.281,1.199,4.712,0.000,0.000,7.207,-2.274,0.990,5.070,1.586,1.556,5.281,4.712,4.713,2.199,6.281,5.083,1.570,0.000,0.000,7.822,-2.502,0.991,5.069,1.581,1.561,
31.060,40.646,7.336,-2.865,1.271,0.998,1.197,0.000,4.114,1.006,0.787,0.000,2.832,4.950,2.026,1.226,2.242,0.000,2.545,0.000,0.000,0.000,0.000,0.000,0.000,0.000,0.000,0.000,0.000,0.000,3.142,0.002,0.000,1.003,1.571,1.572,4.086,6.281,1.199,4.712,0.000,0.000,7.198,-2.206,0.990,5.016,1.588,1.554,5.282,4.713,4.714,2.199,6.282,5.083,1.571,0.000,0.000,7.825,-2.400,0.991,5.016,1.581,1.561,
31.160,40.746,7.362,-2.770,1.393,1.006,1.364,0.000,3.502,0.966,0.823,4.203,0.000,3.735,1.851,1.605,2.300,0.000,3.142,0.000,0.000,0.000,0.000,0.000,0.000,0.000,0.000,0.000,0.000,0.000,3.142,0.001,0.000,1.003,1.570,1.570,4.085,6.282,1.199,4.712,0.000,0.000,7.143,-2.132,0.990,4.890,1.596,1.545,5.282,4.713,4.712,2.198,6.283,5.083,1.571,0.000,0.000,7.790,-2.249,0.991,4.891,1.589,1.552,
31.260,40.846,7.380,-2.651,1.458,1.027,6.254,0.000,3.493,0.956,0.852,3.184,0.000,3.264,1.774,4.731,2.438,0.000,3.142,0.000,0.000,0.000,0.000,0.000,0.000,0.000,0.000,0.000,0.000,0.000,3.142,6.282,0.000,1.004,1.568,1.566,4.085,6.282,1.199,4.712,0.000,0.000,7.118,-2.029,0.990,4.821,1.615,1.525,5.281,4.710,4.709,2.198,6.283,5.083,1.570,0.000,0.000,7.770,-2.102,0.990,4.822,1.613,1.528,
31.360,40.946,7.389,-2.571,1.458,1.015,6.276,0.000,3.399,0.966,0.913,3.259,0.000,3.249,1.764,4.721,2.423,0.000,3.142,0.000,0.000,0.000,0.000,0.000,0.000,0.000,0.000,0.000,0.000,0.000,3.142,6.282,0.000,1.004,1.569,1.569,4.084,6.281,1.199,4.712,0.000,0.000,7.129,-1.949,0.990,4.825,1.612,1.529,5.281,4.711,4.711,2.197,6.282,5.083,1.570,0.000,0.000,7.780,-2.022,0.990,4.825,1.615,1.527,
31.460,41.046,7.402,-2.453,1.457,1.004,6.274,0.000,3.260,0.981,0.927,4.115,0.000,2.378,1.750,4.707,2.402,0.000,3.142,0.000,0.000,0.000,0.000,0.000,0.000,0.000,0.000,0.000,0.000,0.000,3.142,6.282,0.000,1.004,1.569,1.569,4.084,6.281,1.199,4.712,0.000,0.000,7.142,-1.831,0.990,4.825,1.612,1.529,5.281,4.711,4.711,2.197,6.282,5.083,1.570,0.000,0.000,7.794,-1.905,0.990,4.825,1.614,1.527,
31.560,41.146,7.411,-2.375,1.457,1.010,6.273,0.000,3.169,1.214,0.936,4.169,0.000,3.207,1.740,4.698,2.388,0.000,3.142,0.000,0.000,0.000,0.000,0.000,0.000,0.000,0.000,0.000,0.000,0.000,3.142,6.282,0.000,1.004,1.569,1.569,4.084,6.281,1.199,4.712,0.000,0.000,7.151,-1.752,0.990,4.825,1.611,1.529,5.281,4.711,4.711,2.197,6.282,5.083,1.570,0.000,0.000,7.803,-1.826,0.990,4.825,1.613,1.528,
31.660,41.246,7.423,-2.276,1.457,1.016,6.271,0.000,3.179,1.145,0.947,4.615,0.000,3.185,1.258,0.000,2.370,0.000,3.142,0.000,0.000,0.000,0.000,0.000,0.000,0.000,0.000,0.000,0.000,0.000,3.142,6.282,0.000,1.004,1.569,1.569,4.085,6.281,1.199,4.712,0.000,0.000,7.163,-1.653,0.990,4.825,1.612,1.529,5.281,4.711,4.711,2.197,6.282,5.083,1.570,0.000,0.000,7.814,-1.727,0.990,4.825,1.613,1.528,
31.756,41.342,7.434,-2.176,1.457,1.012,6.271,0.000,3.202,1.157,0.959,4.746,0.000,3.162,1.716,0.000,2.353,0.000,3.142,0.000,0.000,0.000,0.000,0.000,0.000,0.000,0.000,0.000,0.000,0.000,3.142,6.282,0.000,1.004,1.569,1.569,4.085,6.281,1.199,4.712,0.000,0.000,7.174,-1.554,0.990,4.826,1.612,1.529,5.281,4.711,4.711,2.197,6.282,5.083,1.570,0.000,0.000,7.826,-1.628,0.990,4.825,1.613,1.529,
31.856,41.442,7.445,-2.078,1.457,1.009,6.270,0.000,3.224,1.169,0.971,4.877,0.000,3.139,1.703,0.000,2.336,0.000,3.142,0.000,0.000,0.000,0.000,0.000,0.000,0.000,0.000,0.000,0.000,0.000,3.142,6.282,0.000,1.004,1.569,1.569,4.085,6.281,1.199,4.712,0.000,0.000,7.185,-1.455,0.990,4.826,1.612,1.529,5.281,4.711,4.711,2.198,6.282,5.083,1.570,0.000,0.000,7.837,-1.529,0.990,4.825,1.613,1.529,
31.960,41.546,7.459,-1.959,1.461,1.012,0.239,0.000,3.231,0.000,0.985,0.000,0.000,3.093,1.631,0.000,2.326,0.000,3.142,0.000,0.000,0.000,0.000,0.000,0.000,0.000,0.000,0.000,0.000,0.000,3.142,0.000,0.000,1.003,1.570,1.571,4.086,6.281,1.199,4.712,0.000,0.000,7.198,-1.337,0.990,4.824,1.616,1.525,5.281,4.712,4.713,2.199,6.282,5.083,1.570,0.000,0.000,7.850,-1.410,0.991,4.824,1.605,1.536,
32.060,41.646,7.469,-1.860,1.524,1.012,1.235,0.000,2.945,0.000,1.013,4.594,0.000,2.773,1.921,1.540,2.494,0.000,3.142,4.594,0.000,0.000,0.000,0.000,0.000,0.000,0.000,0.000,0.000,0.000,3.142,0.002,0.000,1.003,1.571,1.572,4.086,6.281,1.199,4.712,0.000,0.000,7.170,-1.256,0.990,4.763,1.669,1.472,5.282,4.713,4.714,2.199,6.282,5.083,1.571,0.000,0.000,7.825,-1.287,0.991,4.763,1.629,1.512,
32.160,41.746,7.471,-1.760,1.613,1.018,0.529,0.000,2.739,0.000,1.047,3.948,0.000,2.451,4.349,1.638,2.824,0.000,3.142,0.000,0.000,0.000,0.000,0.000,0.000,0.000,0.000,0.000,0.000,0.000,3.142,0.000,0.000,1.004,1.569,1.567,4.085,6.282,1.199,4.712,0.000,0.000,7.116,-1.186,0.990,4.758,4.614,4.809,5.282,4.711,4.709,2.198,6.283,5.083,1.570,0.000,0.000,7.772,-1.158,0.991,4.757,4.625,4.799,
32.260,41.846,7.467,-1.680,1.620,1.016,6.273,0.000,2.651,0.000,1.046,4.015,0.000,2.435,4.779,1.647,2.862,0.000,3.142,0.000,0.000,0.000,0.000,0.000,0.000,0.000,0.000,0.000,0.000,0.000,3.142,6.282,0.000,1.004,1.569,1.568,4.085,6.281,1.199,4.712,0.000,0.000,7.109,-1.108,0.990,4.763,4.619,4.804,5.281,4.711,4.711,2.197,6.282,5.083,1.570,0.000,0.000,7.764,-1.075,0.990,4.763,4.617,4.807,
32.359,41.945,7.462,-1.581,1.620,1.008,6.273,0.000,2.586,0.000,1.100,4.099,0.000,2.444,0.000,1.652,2.870,0.000,3.142,4.117,0.000,0.000,0.000,0.000,0.000,0.000,0.000,0.000,0.000,0.000,3.142,6.282,0.000,1.004,1.569,1.569,4.085,6.281,1.199,4.712,0.000,0.000,7.105,-1.009,0.990,4.762,4.619,4.805,5.281,4.711,4.711,2.197,6.282,5.083,1.570,0.000,0.000,7.760,-0.976,0.990,4.762,4.616,4.808,
32.460,42.046,7.456,-1.462,1.619,1.010,6.271,0.000,2.577,0.000,1.412,1.740,0.000,1.757,0.000,1.658,1.379,0.000,3.142,3.732,0.000,0.000,0.000,0.000,0.000,0.000,0.000,0.000,0.000,0.000,3.142,6.282,0.000,1.004,1.569,1.569,4.085,6.281,1.199,4.712,0.000,0.000,7.099,-0.890,0.990,4.762,4.619,4.805,5.281,4.711,4.711,2.197,6.282,5.083,1.570,0.000,0.000,7.754,-0.857,0.990,4.762,4.617,4.807,
32.560,42.146,7.452,-1.363,1.619,1.014,6.270,0.000,2.570,0.000,1.170,1.730,0.000,1.836,0.000,1.663,2.889,0.000,3.142,3.485,0.000,0.000,0.000,0.000,0.000,0.000,0.000,0.000,0.000,0.000,3.142,6.282,0.000,1.004,1.569,1.569,4.085,6.281,1.199,4.712,0.000,0.000,7.094,-0.790,0.990,4.762,4.618,4.805,5.281,4.711,4.711,2.198,6.282,5.083,1.570,0.000,0.000,7.749,-0.758,0.990,4.762,4.617,4.807,
32.660,42.246,7.447,-1.263,1.620,1.012,6.270,0.000,2.562,0.000,1.165,1.817,0.000,2.469,4.928,1.668,1.397,0.000,3.142,3.248,0.000,0.000,0.000,0.000,0.000,0.000,0.000,0.000,0.000,0.000,3.142,6.282,0.000,1.004,1.569,1.569,4.085,6.281,1.199,4.712,0.000,0.000,7.089,-0.691,0.990,4.762,4.618,4.806,5.281,4.711,4.711,2.198,6.282,5.083,1.570,0.000,0.000,7.745,-0.658,0.990,4.762,4.618,4.807,
32.760,42.346,7.442,-1.164,1.620,1.010,6.269,0.000,2.554,0.000,1.160,1.808,0.000,2.476,4.755,1.673,2.908,0.000,3.142,3.015,0.000,0.000,0.000,0.000,0.000,0.000,0.000,0.000,0.000,0.000,3.142,6.282,0.000,1.004,1.569,1.569,4.085,6.281,1.199,4.712,0.000,0.000,7.085,-0.591,0.990,4.762,4.618,4.806,5.281,4.711,4.711,2.198,6.282,5.083,1.570,0.000,0.000,7.740,-0.559,0.990,4.762,4.618,4.806,
32.840,42.427,7.437,-1.064,1.601,1.012,5.639,0.000,2.653,0.000,1.204,1.745,0.000,2.544,1.573,1.666,2.832,0.000,3.142,2.794,0.000,0.000,0.000,0.000,0.000,0.000,0.000,0.000,0.000,0.000,3.142,6.281,0.001,1.004,1.568,1.566,4.084,6.281,1.199,4.711,0.000,0.000,7.088,-0.486,0.990,4.747,4.585,4.838,5.281,4.710,4.708,2.197,6.282,5.083,1.570,0.000,0.000,7.745,-0.465,0.990,4.747,4.558,4.866,
32.960,42.546,7.436,-0.965,1.509,1.012,5.145,0.000,2.160,3.388,1.942,1.529,0.000,2.167,0.000,1.620,2.499,0.000,3.142,0.000,0.000,0.000,0.000,0.000,0.000,0.000,0.000,0.000,0.000,0.000,3.142,6.280,0.001,1.004,1.568,1.567,4.085,6.281,1.199,4.712,0.000,0.000,7.143,-0.356,0.990,4.772,1.654,1.487,5.282,4.711,4.710,2.197,6.282,5.083,1.570,0.000,0.000,7.798,-0.396,0.991,4.773,1.637,1.503,
33.044,42.630,7.444,-0.865,1.457,1.014,6.254,0.000,2.029,3.243,3.332,1.497,0.000,2.257,4.984,1.592,2.340,0.000,3.142,0.000,0.000,0.000,0.000,0.000,0.000,0.000,0.000,0.000,0.000,0.000,3.142,6.282,0.000,1.004,1.570,1.571,4.085,6.280,1.199,4.712,0.000,0.000,7.185,-0.243,0.990,4.829,1.612,1.529,5.282,4.712,4.713,2.198,6.281,5.083,1.571,0.000,0.000,7.837,-0.317,0.991,4.828,1.606,1.535,
33.160,42.746,7.455,-0.766,1.459,1.011,6.268,0.000,2.056,3.178,3.345,1.625,0.000,2.331,1.637,1.581,2.326,0.000,3.142,0.000,0.000,0.000,0.000,0.000,0.000,0.000,0.000,0.000,0.000,0.000,3.142,6.283,0.000,1.003,1.569,1.569,4.085,6.281,1.199,4.712,0.000,0.000,7.194,-0.144,0.990,4.824,1.615,1.526,5.281,4.711,4.711,2.198,6.282,5.083,1.570,0.000,0.000,7.846,-0.217,0.990,4.824,1.609,1.532,
33.260,42.846,7.466,-0.667,1.460,1.010,6.261,0.000,1.942,2.608,3.357,1.754,0.000,3.084,1.679,1.570,2.312,0.000,3.142,0.000,0.000,0.000,0.000,0.000,0.000,0.000,0.000,0.000,0.000,0.000,3.142,6.283,0.000,1.003,1.569,1.569,4.085,6.281,1.199,4.712,0.000,0.000,7.205,-0.046,0.990,4.824,1.615,1.526,5.281,4.711,4.711,2.198,6.282,5.083,1.570,0.000,0.000,7.857,-0.118,0.990,4.823,1.610,1.531,
33.360,42.946,7.477,-0.569,1.460,1.012,6.261,0.000,1.903,2.359,3.600,1.705,0.000,3.057,1.666,1.319,2.298,0.000,3.142,0.000,0.000,0.000,0.000,0.000,0.000,0.000,0.000,0.000,0.000,0.000,3.142,6.283,0.000,1.003,1.569,1.569,4.085,6.281,1.199,4.712,0.000,0.000,7.215,0.053,0.990,4.823,1.615,1.526,5.281,4.711,4.711,2.198,6.282,5.083,1.570,0.000,0.000,7.867,-0.019,0.990,4.823,1.611,1.531,
33.460,43.046,7.488,-0.470,1.461,1.012,6.261,0.000,1.922,2.109,4.018,1.723,0.000,3.031,1.653,0.724,2.283,0.000,3.142,0.000,0.000,0.000,0.000,0.000,0.000,0.000,0.000,0.000,0.000,0.000,3.142,6.283,0.000,1.004,1.569,1.569,4.085,6.281,1.199,4.712,0.000,0.000,7.226,0.152,0.990,4.822,1.615,1.526,5.281,4.711,4.711,2.198,6.282,5.083,1.570,0.000,0.000,7.878,0.080,0.990,4.822,1.611,1.530,
33.560,43.146,7.497,-0.390,1.462,1.011,6.261,0.000,1.937,1.908,4.213,1.737,0.000,3.011,1.644,1.539,2.271,0.000,3.142,0.000,0.000,0.000,0.000,0.000,0.000,0.000,0.000,0.000,0.000,0.000,3.142,6.283,0.000,1.004,1.569,1.569,4.085,6.281,1.199,4.712,0.000,0.000,7.234,0.231,0.990,4.821,1.615,1.526,5.281,4.711,4.711,2.198,6.282,5.083,1.570,0.000,0.000,7.886,0.160,0.990,4.821,1.612,1.530,
33.660,43.246,7.510,-0.272,1.463,1.011,6.262,0.000,0.000,1.854,4.417,1.759,0.000,2.981,1.629,1.526,2.178,0.000,3.142,0.000,1.184,0.000,0.000,0.000,0.000,0.000,0.000,0.000,0.000,0.000,3.142,6.282,0.000,1.004,1.569,1.569,4.085,6.281,1.199,4.712,0.000,0.000,7.246,0.349,0.990,4.821,1.615,1.526,5.281,4.711,4.711,2.198,6.282,5.083,1.570,0.000,0.000,7.899,0.279,0.990,4.820,1.612,1.529,
33.760,43.346,7.518,-0.193,1.463,1.012,6.263,0.000,0.000,1.863,4.749,1.773,0.000,2.861,1.619,0.694,2.166,0.000,3.142,0.000,0.976,0.000,0.000,0.000,0.000,0.000,0.000,0.000,0.000,0.000,3.142,6.282,0.000,1.004,1.569,1.569,4.085,6.281,1.199,4.712,0.000,0.000,7.255,0.428,0.990,4.820,1.615,1.525,5.281,4.711,4.711,2.198,6.282,5.083,1.570,0.000,0.000,7.907,0.358,0.990,4.820,1.613,1.529,
33.860,43.446,7.528,-0.100,1.464,0.706,6.266,0.000,0.000,1.874,0.000,1.839,0.000,2.839,1.608,1.507,4.462,0.000,3.142,0.000,0.854,0.000,0.000,0.000,0.000,0.000,0.000,0.000,0.000,0.000,3.142,0.002,0.001,1.001,1.571,1.571,4.091,6.281,1.200,4.712,0.000,0.000,7.266,0.523,0.989,4.823,1.643,1.498,5.280,4.712,4.713,2.198,6.282,5.083,1.570,0.000,0.000,7.918,0.451,0.990,4.822,1.614,1.527,
33.957,43.543,7.533,-0.056,1.464,0.259,6.264,0.000,2.000,1.878,0.000,1.895,0.000,2.855,1.602,1.503,0.000,0.000,3.142,0.000,0.000,0.000,0.000,0.000,0.000,0.000,0.000,0.000,0.000,0.000,3.142,0.001,0.001,1.002,1.570,1.570,4.088,6.281,1.200,4.712,0.000,0.000,7.270,0.565,0.989,4.820,1.631,1.510,5.281,4.712,4.712,2.198,6.282,5.083,1.570,0.000,0.000,7.922,0.495,0.990,4.820,1.614,1.527,
34.059,43.646,7.534,-0.044,1.465,0.057,6.267,0.000,2.001,0.000,0.000,1.911,0.000,2.871,0.722,1.501,0.000,0.000,3.142,0.000,0.000,0.791,0.000,0.000,0.000,0.000,0.000,0.000,0.000,0.000,3.142,6.283,0.001,1.003,1.570,1.570,4.086,6.281,1.199,4.712,0.000,0.000,7.270,0.577,0.990,4.819,1.623,1.518,5.281,4.711,4.712,2.198,6.282,5.083,1.570,0.000,0.000,7.922,0.508,0.990,4.819,1.615,1.527,
34.160,43.746,7.534,-0.043,1.465,0.000,6.271,0.000,2.000,0.000,0.000,1.912,0.000,2.873,0.722,1.501,0.000,0.000,3.142,0.000,0.000,0.627,0.000,0.000,0.000,0.000,0.000,0.000,0.000,0.000,3.142,6.283,0.000,1.003,1.569,1.569,4.085,6.281,1.199,4.712,0.000,0.000,7.270,0.578,0.990,4.818,1.618,1.523,5.281,4.711,4.712,2.198,6.282,5.083,1.570,0.000,0.000,7.922,0.509,0.990,4.818,1.612,1.530,
34.260,43.846,7.534,-0.043,1.465,0.000,6.271,0.000,2.000,0.000,0.000,1.912,0.000,2.873,0.722,1.501,0.000,0.000,3.142,0.000,0.000,0.618,0.000,0.000,0.000,0.000,0.000,0.000,0.000,0.000,3.142,6.283,0.000,1.003,1.569,1.569,4.085,6.281,1.199,4.712,0.000,0.000,7.270,0.578,0.990,4.818,1.618,1.523,5.281,4.711,4.712,2.198,6.282,5.083,1.570,0.000,0.000,7.922,0.509,0.990,4.818,1.612,1.530,
34.357,43.943,7.534,-0.043,1.465,0.000,6.271,0.000,2.000,0.000,0.000,1.912,0.000,2.873,0.722,1.501,0.000,0.000,3.142,0.000,0.000,0.667,0.000,0.000,0.000,0.000,0.000,0.000,0.000,0.000,3.142,6.283,0.000,1.003,1.569,1.569,4.085,6.281,1.199,4.712,0.000,0.000,7.270,0.578,0.990,4.818,1.618,1.523,5.281,4.711,4.712,2.198,6.282,5.083,1.570,0.000,0.000,7.922,0.509,0.990,4.818,1.612,1.530,
34.460,44.046,7.534,-0.043,1.465,0.000,6.271,0.000,2.000,1.879,0.000,1.912,0.000,2.873,0.722,1.501,0.000,0.000,3.142,0.000,0.000,0.000,0.746,0.000,0.000,0.000,0.000,0.000,0.000,0.000,3.142,6.283,0.000,1.003,1.569,1.569,4.085,6.281,1.199,4.712,0.000,0.000,7.270,0.578,0.990,4.818,1.618,1.523,5.281,4.711,4.712,2.198,6.282,5.083,1.570,0.000,0.000,7.922,0.509,0.990,4.818,1.612,1.530,
34.560,44.146,7.534,-0.043,1.465,0.000,6.271,0.000,2.000,1.879,0.000,1.912,0.000,2.873,0.722,1.501,0.000,0.000,3.142,0.000,0.000,0.000,0.708,0.000,0.000,0.000,0.000,0.000,0.000,0.000,3.142,6.283,0.000,1.003,1.569,1.569,4.085,6.281,1.199,4.712,0.000,0.000,7.270,0.578,0.990,4.818,1.618,1.523,5.281,4.711,4.712,2.198,6.282,5.083,1.570,0.000,0.000,7.922,0.509,0.990,4.818,1.612,1.530,
34.660,44.246,7.534,-0.043,1.465,0.000,6.271,0.000,2.000,1.879,0.000,1.912,0.000,2.873,0.722,1.501,0.000,0.000,3.142,0.000,0.000,0.000,0.732,0.000,0.000,0.000,0.000,0.000,0.000,0.000,3.142,6.283,0.000,1.003,1.569,1.569,4.085,6.281,1.199,4.712,0.000,0.000,7.270,0.578,0.990,4.818,1.618,1.523,5.281,4.711,4.712,2.198,6.282,5.083,1.570,0.000,0.000,7.922,0.509,0.990,4.818,1.612,1.530,
34.760,44.346,7.534,-0.043,1.465,0.000,6.271,0.000,2.000,1.879,0.000,1.912,0.000,2.873,0.722,1.501,0.000,0.000,3.142,0.000,0.000,0.000,0.789,0.000,0.000,0.000,0.000,0.000,0.000,0.000,3.142,6.283,0.000,1.003,1.569,1.569,4.085,6.281,1.199,4.712,0.000,0.000,7.270,0.578,0.990,4.818,1.618,1.523,5.281,4.711,4.712,2.198,6.282,5.083,1.570,0.000,0.000,7.922,0.509,0.990,4.818,1.612,1.530,
34.853,44.439,7.534,-0.043,1.465,0.000,6.271,0.000,2.000,1.879,0.000,1.912,0.000,2.873,0.722,1.501,0.000,0.000,3.142,0.000,0.000,0.000,0.879,0.000,0.000,0.000,0.000,0.000,0.000,0.000,3.142,6.283,0.000,1.003,1.569,1.569,4.085,6.281,1.199,4.712,0.000,0.000,7.270,0.578,0.990,4.818,1.618,1.523,5.281,4.711,4.712,2.198,6.282,5.083,1.570,0.000,0.000,7.922,0.509,0.990,4.818,1.612,1.530,
34.946,44.532,7.534,-0.043,1.465,0.000,6.271,0.000,2.000,1.879,0.000,1.912,0.000,2.873,0.722,1.501,0.000,0.000,3.142,0.000,0.000,0.000,1.033,0.000,0.000,0.000,0.000,0.000,0.000,0.000,3.142,6.283,0.000,1.003,1.569,1.569,4.085,6.281,1.199,4.712,0.000,0.000,7.270,0.578,0.990,4.818,1.618,1.523,5.281,4.711,4.712,2.198,6.282,5.083,1.570,0.000,0.000,7.922,0.509,0.990,4.818,1.612,1.530,
35.060,44.646,7.534,-0.043,1.465,0.000,6.271,0.000,2.000,1.879,0.000,1.912,0.000,2.873,0.722,1.501,0.000,0.000,3.142,0.000,0.000,0.000,1.193,0.000,0.000,0.000,0.000,0.000,0.000,0.000,3.142,6.283,0.000,1.003,1.569,1.569,4.085,6.281,1.199,4.712,0.000,0.000,7.270,0.578,0.990,4.818,1.618,1.523,5.281,4.711,4.712,2.198,6.282,5.083,1.570,0.000,0.000,7.922,0.509,0.990,4.818,1.612,1.530,
35.160,44.746,7.534,-0.043,1.465,0.000,6.271,0.000,2.000,1.879,0.000,1.912,0.000,2.873,0.722,1.501,0.000,0.000,3.142,0.000,0.000,0.000,0.000,0.000,0.000,0.000,0.000,0.000,0.000,0.000,3.142,6.283,0.000,1.003,1.569,1.569,4.085,6.281,1.199,4.712,0.000,0.000,7.270,0.578,0.990,4.818,1.618,1.523,5.281,4.711,4.712,2.198,6.282,5.083,1.570,0.000,0.000,7.922,0.509,0.990,4.818,1.612,1.530,
35.260,44.846,7.534,-0.043,1.465,0.000,6.271,0.000,2.000,1.879,0.000,1.912,0.000,2.873,0.722,1.501,0.000,0.000,3.142,0.000,0.000,0.000,0.000,0.000,0.000,0.000,0.000,0.000,0.000,0.000,3.142,6.283,0.000,1.003,1.569,1.569,4.085,6.281,1.199,4.712,0.000,0.000,7.270,0.578,0.990,4.818,1.618,1.523,5.281,4.711,4.712,2.198,6.282,5.083,1.570,0.000,0.000,7.922,0.509,0.990,4.818,1.612,1.530,
35.360,44.946,7.534,-0.043,1.465,0.000,6.271,0.000,2.000,1.879,0.000,1.912,0.000,2.873,0.722,1.501,0.000,0.000,3.142,0.000,0.000,0.000,0.000,0.000,0.000,0.000,0.000,0.000,0.000,0.000,3.142,6.283,0.000,1.003,1.569,1.569,4.085,6.281,1.199,4.712,0.000,0.000,7.270,0.578,0.990,4.818,1.618,1.523,5.281,4.711,4.712,2.198,6.282,5.083,1.570,0.000,0.000,7.922,0.509,0.990,4.818,1.612,1.530,
35.450,45.036,7.534,-0.043,1.465,0.000,6.271,0.000,2.000,1.879,0.000,1.912,0.000,2.873,0.722,1.501,0.000,0.000,3.142,0.000,0.000,0.000,0.000,0.000,0.000,0.000,0.000,0.000,0.000,0.000,3.142,6.283,0.000,1.003,1.569,1.569,4.085,6.281,1.199,4.712,0.000,0.000,7.270,0.578,0.990,4.818,1.618,1.523,5.281,4.711,4.712,2.198,6.282,5.083,1.570,0.000,0.000,7.922,0.509,0.990,4.818,1.612,1.530,
35.560,45.146,7.534,-0.043,1.465,0.000,6.271,0.000,2.000,1.879,0.000,1.912,0.000,2.873,0.722,1.501,0.000,0.000,3.142,0.000,0.000,0.000,0.000,0.000,0.000,0.000,0.000,0.000,0.000,0.000,3.142,6.283,0.000,1.003,1.569,1.569,4.085,6.281,1.199,4.712,0.000,0.000,7.270,0.578,0.990,4.818,1.618,1.523,5.281,4.711,4.712,2.198,6.282,5.083,1.570,0.000,0.000,7.922,0.509,0.990,4.818,1.612,1.530,
35.642,45.228,7.534,-0.043,1.465,0.000,6.271,0.000,2.000,1.879,0.000,1.912,0.000,2.873,0.722,1.501,0.000,0.000,3.142,0.000,0.000,0.000,0.000,0.000,0.000,0.000,0.000,0.000,0.000,0.000,3.142,6.283,0.000,1.003,1.569,1.569,4.085,6.281,1.199,4.712,0.000,0.000,7.270,0.578,0.990,4.818,1.618,1.523,5.281,4.711,4.712,2.198,6.282,5.083,1.570,0.000,0.000,7.922,0.509,0.990,4.818,1.612,1.530,
35.760,45.346,7.534,-0.043,1.465,0.000,6.271,0.000,2.000,1.879,0.000,1.912,0.000,2.873,0.722,1.501,0.000,0.000,3.142,0.000,0.000,0.000,1.918,0.000,0.000,0.000,0.000,0.000,0.000,0.000,3.142,6.283,0.000,1.003,1.569,1.569,4.085,6.281,1.199,4.712,0.000,0.000,7.270,0.578,0.990,4.818,1.618,1.523,5.281,4.711,4.712,2.198,6.282,5.083,1.570,0.000,0.000,7.922,0.509,0.990,4.818,1.612,1.530,
35.860,45.446,7.534,-0.043,1.465,0.000,6.271,0.000,2.000,1.879,0.000,1.912,0.000,2.873,0.722,1.501,0.000,0.000,3.142,0.000,0.000,0.000,1.969,0.000,0.000,0.000,0.000,0.000,0.000,0.000,3.142,6.283,0.000,1.003,1.569,1.569,4.085,6.281,1.199,4.712,0.000,0.000,7.270,0.578,0.990,4.818,1.618,1.523,5.281,4.711,4.712,2.198,6.282,5.083,1.570,0.000,0.000,7.922,0.509,0.990,4.818,1.612,1.530,
35.956,45.542,7.534,-0.043,1.465,0.000,6.271,0.000,2.000,1.879,0.000,1.912,0.000,2.873,0.722,1.501,0.000,0.000,3.142,0.000,0.000,0.000,2.045,0.000,0.000,0.000,0.000,0.000,0.000,0.000,3.142,6.283,0.000,1.003,1.569,1.569,4.085,6.281,1.199,4.712,0.000,0.000,7.270,0.578,0.990,4.818,1.618,1.523,5.281,4.711,4.712,2.198,6.282,5.083,1.570,0.000,0.000,7.922,0.509,0.990,4.818,1.612,1.530,
36.054,45.640,7.534,-0.043,1.465,0.000,6.271,0.000,2.000,1.879,0.000,1.912,0.000,2.873,0.722,1.501,0.000,0.000,3.142,0.000,0.000,0.000,2.125,0.000,0.000,0.000,0.000,0.000,0.000,0.000,3.142,6.283,0.000,1.003,1.569,1.569,4.085,6.281,1.199,4.712,0.000,0.000,7.270,0.578,0.990,4.818,1.618,1.523,5.281,4.711,4.712,2.198,6.282,5.083,1.570,0.000,0.000,7.922,0.509,0.990,4.818,1.612,1.530,
36.140,45.726,7.534,-0.043,1.465,0.000,6.271,0.000,2.000,1.879,0.000,1.912,0.000,2.873,0.722,1.501,0.000,0.000,3.142,0.000,0.000,0.000,2.276,0.000,0.000,0.000,0.000,0.000,0.000,0.000,3.142,6.283,0.000,1.003,1.569,1.569,4.085,6.281,1.199,4.712,0.000,0.000,7.270,0.578,0.990,4.818,1.618,1.523,5.281,4.711,4.712,2.198,6.282,5.083,1.570,0.000,0.000,7.922,0.509,0.990,4.818,1.612,1.530,
36.260,45.846,7.534,-0.043,1.465,0.000,6.271,0.000,2.000,1.879,0.000,1.912,0.000,2.873,0.722,1.501,0.000,0.000,3.142,0.000,0.000,0.000,2.390,0.000,0.000,0.000,0.000,0.000,0.000,0.000,3.142,6.283,0.000,1.003,1.569,1.569,4.085,6.281,1.199,4.712,0.000,0.000,7.270,0.578,0.990,4.818,1.618,1.523,5.281,4.711,4.712,2.198,6.282,5.083,1.570,0.000,0.000,7.922,0.509,0.990,4.818,1.612,1.530,
36.360,45.946,7.534,-0.043,1.465,0.000,6.271,0.000,2.000,1.879,0.000,1.912,0.000,2.873,0.722,1.501,0.000,0.000,3.142,0.000,0.000,0.000,2.502,0.000,0.000,0.000,0.000,0.000,0.000,0.000,3.142,6.283,0.000,1.003,1.569,1.569,4.085,6.281,1.199,4.712,0.000,0.000,7.270,0.578,0.990,4.818,1.618,1.523,5.281,4.711,4.712,2.198,6.282,5.083,1.570,0.000,0.000,7.922,0.509,0.990,4.818,1.612,1.530,
36.460,46.046,7.538,-0.010,1.464,0.743,0.070,0.000,2.010,1.884,0.000,1.957,0.000,2.910,0.718,1.497,0.000,0.000,3.142,0.000,0.000,0.000,2.634,0.000,0.000,0.000,0.000,0.000,0.000,0.000,3.142,6.278,6.283,1.008,1.568,1.566,4.076,6.282,1.199,4.712,0.000,0.000,7.271,0.609,0.991,4.814,1.569,1.571,5.282,4.710,4.708,2.197,6.283,5.083,1.571,0.000,0.000,7.924,0.542,0.991,4.815,1.613,1.528,
36.560,46.146,7.550,0.102,1.466,1.427,6.276,0.000,2.029,1.896,0.000,2.101,0.000,3.041,1.582,1.485,0.000,0.000,3.142,0.000,0.000,0.000,2.791,0.000,0.000,0.000,0.000,0.000,0.000,0.000,3.142,6.280,6.283,1.006,1.568,1.567,4.081,6.281,1.199,4.712,0.000,0.000,7.283,0.721,0.990,4.814,1.596,1.545,5.281,4.710,4.709,2.198,6.282,5.083,1.570,0.000,0.000,7.936,0.654,0.990,4.815,1.613,1.528,
36.660,46.246,7.564,0.236,1.466,1.171,6.264,0.000,2.055,1.989,0.000,2.275,0.000,3.196,0.689,1.471,4.940,0.000,3.142,0.000,0.000,0.000,2.988,0.000,0.000,0.000,0.000,0.000,0.000,0.000,3.142,0.001,0.001,1.002,1.570,1.571,4.089,6.281,1.200,4.712,0.000,0.000,7.301,0.857,0.989,4.819,1.636,1.505,5.281,4.712,4.713,2.198,6.282,5.083,1.570,0.000,0.000,7.953,0.788,0.990,4.819,1.614,1.527,
36.760,46.346,7.574,0.328,1.467,0.794,6.265,0.000,2.071,1.316,0.000,2.395,0.000,3.304,1.556,1.461,4.815,0.000,3.142,0.000,0.000,0.000,3.162,0.000,0.000,0.000,0.000,0.000,0.000,0.000,3.142,0.000,0.001,1.003,1.570,1.570,4.087,6.281,1.199,4.712,0.000,0.000,7.309,0.949,0.990,4.818,1.627,1.514,5.281,4.712,4.712,2.198,6.282,5.083,1.570,0.000,0.000,7.961,0.880,0.990,4.817,1.615,1.526,
36.860,46.446,7.583,0.410,1.467,0.936,6.266,0.000,2.086,1.272,0.000,2.500,0.000,3.399,1.546,1.453,4.395,0.000,3.142,0.000,0.000,0.000,3.334,0.000,0.000,0.000,0.000,0.000,0.000,0.000,3.142,6.281,0.000,1.005,1.569,1.568,4.083,6.281,1.199,4.712,0.000,0.000,7.316,1.029,0.990,4.815,1.606,1.535,5.281,4.711,4.710,2.198,6.282,5.083,1.570,0.000,0.000,7.968,0.962,0.990,4.815,1.615,1.526,
36.960,46.546,7.593,0.513,1.467,1.126,6.266,0.000,2.105,1.273,0.000,2.634,0.000,3.519,1.534,1.442,4.567,0.000,3.142,0.000,0.000,0.000,3.559,0.000,0.000,0.000,0.000,0.000,0.000,0.000,3.142,6.282,0.000,1.004,1.569,1.569,4.084,6.281,1.199,4.712,0.000,0.000,7.327,1.132,0.990,4.815,1.612,1.529,5.281,4.711,4.711,2.198,6.282,5.083,1.570,0.000,0.000,7.979,1.065,0.990,4.815,1.615,1.526,
37.043,46.629,7.604,0.621,1.468,1.048,6.265,0.000,2.125,1.195,0.000,3.005,0.000,3.645,1.522,1.431,4.422,0.000,3.142,0.000,0.000,0.000,0.000,0.000,0.000,0.000,0.000,0.000,0.000,0.000,3.142,6.283,0.000,1.003,1.570,1.570,4.086,6.281,1.199,4.712,0.000,0.000,7.338,1.241,0.990,4.816,1.623,1.518,5.281,4.711,4.712,2.198,6.282,5.083,1.570,0.000,0.000,7.991,1.173,0.990,4.815,1.615,1.526,
37.160,46.746,7.613,0.699,1.468,0.960,6.265,0.000,2.139,1.204,0.000,3.019,0.000,1.154,1.513,1.422,4.317,0.000,3.142,0.000,0.000,0.000,0.000,0.000,0.000,0.000,0.000,0.000,0.000,0.000,3.142,6.283,0.000,1.003,1.569,1.569,4.086,6.281,1.199,4.712,0.000,0.000,7.346,1.318,0.990,4.815,1.621,1.520,5.281,4.711,4.711,2.198,6.282,5.083,1.570,0.000,0.000,7.998,1.251,0.990,4.815,1.616,1.526,
37.260,46.846,7.621,0.786,1.469,0.666,6.267,0.000,2.155,1.213,0.000,3.034,0.000,2.629,1.503,1.413,2.304,0.000,3.142,0.000,0.000,0.000,0.000,0.000,0.000,0.000,0.000,0.000,0.000,0.000,3.142,0.002,0.001,1.001,1.571,1.571,4.090,6.281,1.200,4.712,0.000,0.000,7.356,1.407,0.989,4.817,1.645,1.496,5.281,4.712,4.713,2.198,6.282,5.083,1.570,0.000,0.000,8.009,1.339,0.990,4.817,1.616,1.525,
37.360,46.946,7.626,0.827,1.469,0.241,6.265,0.000,2.161,1.218,1.880,3.042,0.000,2.618,1.498,1.409,2.249,0.000,3.142,0.000,0.000,0.000,0.000,0.000,0.000,0.000,0.000,0.000,0.000,0.000,3.142,0.001,0.001,1.002,1.570,1.570,4.088,6.281,1.200,4.712,0.000,0.000,7.359,1.447,0.990,4.815,1.633,1.508,5.281,4.712,4.712,2.198,6.282,5.083,1.570,0.000,0.000,8.012,1.380,0.990,4.815,1.617,1.525,
37.460,47.046,7.627,0.839,1.470,0.026,6.269,0.000,2.161,1.219,1.881,3.054,0.000,2.613,1.496,1.408,2.231,0.000,3.142,0.000,0.000,0.000,0.000,0.000,0.000,0.000,0.000,0.000,0.000,0.000,3.142,6.283,0.001,1.003,1.569,1.570,4.086,6.281,1.199,4.712,0.000,0.000,7.359,1.459,0.990,4.814,1.625,1.516,5.281,4.711,4.712,2.198,6.282,5.083,1.570,0.000,0.000,8.012,1.392,0.990,4.813,1.617,1.524,
37.560,47.146,7.627,0.839,1.470,0.000,6.271,0.000,2.161,1.219,1.882,3.054,0.000,2.612,1.496,1.408,2.231,0.000,3.142,0.000,0.000,0.000,0.000,0.000,0.000,0.000,0.000,0.000,0.000,0.000,3.142,6.283,0.000,1.003,1.569,1.569,4.085,6.281,1.199,4.712,0.000,0.000,7.359,1.458,0.990,4.813,1.621,1.520,5.281,4.711,4.712,2.198,6.282,5.083,1.570,0.000,0.000,8.012,1.392,0.990,4.813,1.614,1.527,
37.659,47.245,7.627,0.839,1.470,0.000,6.271,0.000,2.161,1.219,1.882,3.054,0.000,2.612,1.496,1.408,2.231,0.000,3.142,0.000,0.000,0.000,0.000,0.000,0.000,0.000,0.000,0.000,0.000,0.000,3.142,6.283,0.000,1.003,1.569,1.569,4.085,6.281,1.199,4.712,0.000,0.000,7.359,1.458,0.990,4.813,1.621,1.520,5.281,4.711,4.712,2.198,6.282,5.083,1.570,0.000,0.000,8.012,1.392,0.990,4.813,1.614,1.527,
37.760,47.346,7.627,0.839,1.470,0.000,6.271,0.000,2.161,1.219,1.882,3.054,0.000,2.612,1.496,1.408,2.231,0.000,3.142,0.000,0.000,0.000,0.000,0.000,0.000,0.000,0.000,0.000,0.000,0.000,3.142,6.283,0.000,1.003,1.569,1.569,4.085,6.281,1.199,4.712,0.000,0.000,7.359,1.458,0.990,4.813,1.621,1.520,5.281,4.711,4.712,2.198,6.282,5.083,1.570,0.000,0.000,8.012,1.392,0.990,4.813,1.614,1.527,
37.860,47.446,7.627,0.839,1.470,0.000,6.271,0.000,2.161,1.219,1.882,3.054,0.000,2.612,1.496,1.408,2.231,0.000,3.142,0.000,0.000,0.000,0.000,0.000,0.000,0.000,0.000,0.000,0.000,0.000,3.142,6.283,0.000,1.003,1.569,1.569,4.085,6.281,1.199,4.712,0.000,0.000,7.359,1.458,0.990,4.813,1.621,1.520,5.281,4.711,4.712,2.198,6.282,5.083,1.570,0.000,0.000,8.012,1.392,0.990,4.813,1.614,1.527,
37.960,47.546,7.627,0.839,1.470,0.000,6.271,0.000,2.161,1.219,1.882,3.054,0.000,2.612,1.496,1.408,2.231,0.000,3.142,0.000,0.000,0.000,0.000,0.000,0.000,0.000,0.000,0.000,0.000,0.000,3.142,6.283,0.000,1.003,1.569,1.569,4.085,6.281,1.199,4.712,0.000,0.000,7.359,1.458,0.990,4.813,1.621,1.520,5.281,4.711,4.712,2.198,6.282,5.083,1.570,0.000,0.000,8.012,1.392,0.990,4.813,1.614,1.527,
38.060,47.646,7.627,0.839,1.470,0.000,6.271,0.000,2.161,1.219,1.882,3.054,0.000,2.612,1.496,1.408,2.231,0.000,3.142,0.000,0.000,0.000,0.000,0.000,0.000,0.000,0.000,0.000,0.000,0.000,3.142,6.283,0.000,1.003,1.569,1.569,4.085,6.281,1.199,4.712,0.000,0.000,7.359,1.458,0.990,4.813,1.621,1.520,5.281,4.711,4.712,2.198,6.282,5.083,1.570,0.000,0.000,8.012,1.392,0.990,4.813,1.614,1.527,
38.156,47.742,7.627,0.839,1.470,0.000,6.271,0.000,2.161,1.219,1.882,3.054,0.000,2.612,1.496,1.408,2.231,0.000,3.142,0.000,0.000,0.000,0.000,0.000,0.000,0.000,0.000,0.000,0.000,0.000,3.142,6.283,0.000,1.003,1.569,1.569,4.085,6.281,1.199,4.712,0.000,0.000,7.359,1.458,0.990,4.813,1.621,1.520,5.281,4.711,4.712,2.198,6.282,5.083,1.570,0.000,0.000,8.012,1.392,0.990,4.813,1.614,1.527,
38.260,47.846,7.627,0.839,1.470,0.000,6.271,0.000,2.161,1.219,1.882,3.054,0.000,2.612,1.496,1.408,2.231,0.000,3.142,0.000,0.000,0.000,0.000,0.000,0.000,0.000,0.000,0.000,0.000,0.000,3.142,6.283,0.000,1.003,1.569,1.569,4.085,6.281,1.199,4.712,0.000,0.000,7.359,1.458,0.990,4.813,1.621,1.520,5.281,4.711,4.712,2.198,6.282,5.083,1.570,0.000,0.000,8.012,1.392,0.990,4.813,1.614,1.527,
38.360,47.946,7.627,0.839,1.470,0.000,6.271,0.000,2.161,1.219,1.882,3.054,0.000,2.612,1.496,1.408,2.231,0.000,3.142,0.000,0.000,0.000,0.000,0.000,0.000,0.000,0.000,0.000,0.000,0.000,3.142,6.283,0.000,1.003,1.569,1.569,4.085,6.281,1.199,4.712,0.000,0.000,7.359,1.458,0.990,4.813,1.621,1.520,5.281,4.711,4.712,2.198,6.282,5.083,1.570,0.000,0.000,8.012,1.392,0.990,4.813,1.614,1.527,
38.460,48.046,7.627,0.839,1.470,0.000,6.271,0.000,2.161,1.219,1.882,3.054,0.000,2.612,1.496,1.408,2.231,0.000,3.142,0.000,0.000,0.000,0.000,0.000,0.000,0.000,0.000,0.000,0.000,0.000,3.142,6.283,0.000,1.003,1.569,1.569,4.085,6.281,1.199,4.712,0.000,0.000,7.359,1.458,0.990,4.813,1.621,1.520,5.281,4.711,4.712,2.198,6.282,5.083,1.570,0.000,0.000,8.012,1.392,0.990,4.813,1.614,1.527,
38.560,48.146,7.627,0.839,1.470,0.000,6.271,0.000,2.161,1.219,1.882,3.054,0.000,2.612,1.496,1.408,2.231,0.000,3.142,0.000,0.000,0.000,0.000,0.000,0.000,0.000,0.000,0.000,0.000,0.000,3.142,6.283,0.000,1.003,1.569,1.569,4.085,6.281,1.199,4.712,0.000,0.000,7.359,1.458,0.990,4.813,1.621,1.520,5.281,4.711,4.712,2.198,6.282,5.083,1.570,0.000,0.000,8.012,1.392,0.990,4.813,1.614,1.527,
38.652,48.238,7.627,0.839,1.470,0.000,6.271,0.000,2.161,1.219,1.882,3.054,0.000,2.612,1.496,1.408,2.231,0.000,3.142,0.000,0.000,0.000,0.000,0.000,0.000,0.000,0.000,0.000,0.000,0.000,3.142,6.283,0.000,1.003,1.569,1.569,4.085,6.281,1.199,4.712,0.000,0.000,7.359,1.458,0.990,4.813,1.621,1.520,5.281,4.711,4.712,2.198,6.282,5.083,1.570,0.000,0.000,8.012,1.392,0.990,4.813,1.614,1.527,
38.760,48.346,7.627,0.839,1.470,0.000,6.271,0.000,2.161,1.219,1.882,3.054,0.000,2.612,1.496,1.408,2.231,0.000,3.142,0.000,0.000,0.000,0.000,0.000,0.000,0.000,0.000,0.000,0.000,0.000,3.142,6.283,0.000,1.003,1.569,1.569,4.085,6.281,1.199,4.712,0.000,0.000,7.359,1.458,0.990,4.813,1.621,1.520,5.281,4.711,4.712,2.198,6.282,5.083,1.570,0.000,0.000,8.012,1.392,0.990,4.813,1.614,1.527,
38.860,48.446,7.627,0.839,1.470,0.000,6.271,0.000,2.161,1.219,1.882,3.054,0.000,2.612,1.496,1.408,2.231,0.000,3.142,0.000,0.000,0.000,0.000,0.000,0.000,0.000,0.000,0.000,0.000,0.000,3.142,6.283,0.000,1.003,1.569,1.569,4.085,6.281,1.199,4.712,0.000,0.000,7.359,1.458,0.990,4.813,1.621,1.520,5.281,4.711,4.712,2.198,6.282,5.083,1.570,0.000,0.000,8.012,1.392,0.990,4.813,1.614,1.527,
38.960,48.546,7.627,0.839,1.470,0.000,6.271,0.000,2.161,1.219,1.882,3.054,0.000,2.612,1.496,1.408,2.231,0.000,3.142,0.000,0.000,0.000,0.000,0.000,0.000,0.000,0.000,0.000,0.000,0.000,3.142,6.283,0.000,1.003,1.569,1.569,4.085,6.281,1.199,4.712,0.000,0.000,7.359,1.458,0.990,4.813,1.621,1.520,5.281,4.711,4.712,2.198,6.282,5.083,1.570,0.000,0.000,8.012,1.392,0.990,4.813,1.614,1.527,
39.060,48.646,7.627,0.839,1.470,0.000,6.271,0.000,2.161,1.219,1.882,3.054,0.000,2.612,1.496,1.408,2.231,0.000,3.142,0.000,0.000,0.000,0.000,0.000,0.000,0.000,0.000,0.000,0.000,0.000,3.142,6.283,0.000,1.003,1.569,1.569,4.085,6.281,1.199,4.712,0.000,0.000,7.359,1.458,0.990,4.813,1.621,1.520,5.281,4.711,4.712,2.198,6.282,5.083,1.570,0.000,0.000,8.012,1.392,0.990,4.813,1.614,1.527,
39.160,48.746,7.627,0.839,1.470,0.000,6.271,0.000,2.161,1.219,1.882,3.054,0.000,2.612,1.496,1.408,2.231,0.000,3.142,0.000,0.000,0.000,0.000,0.000,0.000,0.000,0.000,0.000,0.000,0.000,3.142,6.283,0.000,1.003,1.569,1.569,4.085,6.281,1.199,4.712,0.000,0.000,7.359,1.458,0.990,4.813,1.621,1.520,5.281,4.711,4.712,2.198,6.282,5.083,1.570,0.000,0.000,8.012,1.392,0.990,4.813,1.614,1.527,
39.255,48.841,7.627,0.839,1.470,0.000,6.271,0.000,2.161,1.219,1.882,3.054,0.000,2.612,1.496,1.408,2.231,0.000,3.142,0.000,0.000,0.000,0.000,0.000,0.000,0.000,0.000,0.000,0.000,0.000,3.142,6.283,0.000,1.003,1.569,1.569,4.085,6.281,1.199,4.712,0.000,0.000,7.359,1.458,0.990,4.813,1.621,1.520,5.281,4.711,4.712,2.198,6.282,5.083,1.570,0.000,0.000,8.012,1.392,0.990,4.813,1.614,1.527,
