deveshdatwani/Gopher/Assets/Data/07-21 07-09-12/Obstacle Handling_robot_value.csv
game_time,true_time,x,y,az,vx,vaz,dis_to_obs_0,dis_to_obs_36,dis_to_obs_72,dis_to_obs_108,dis_to_obs_144,dis_to_obs_180,dis_to_obs_-144,dis_to_obs_-108,dis_to_obs_-72,dis_to_obs_-36,dis_to_min_obs,direction_to_min_obs,dis_to_human_0,dis_to_human_36,dis_to_human_72,dis_to_human_108,dis_to_human_144,dis_to_human_180,dis_to_human_-144,dis_to_human_-108,dis_to_human_-72,dis_to_human_-36,dis_to_min_human,direction_to_min_human,main_cam_yaw,main_cam_pitch,left_joint_1,left_joint_2,left_joint_3,left_joint_4,left_joint_5,left_joint_6,left_joint_7,left_joint_gripper,left_is_grasping,left_end_x,left_end_y,left_end_z,left_end_ax,left_end_ay,left_end_az,right_joint_1,right_joint_2,right_joint_3,right_joint_4,right_joint_5,right_joint_6,right_joint_7,right_joint_gripper,right_is_grasping,right_end_x,right_end_y,right_end_z,right_end_ax,right_end_ay,right_end_az,
13.520,21.528,0.997,-9.942,1.578,1.021,0.154,3.443,0.000,2.096,1.257,2.126,4.970,3.358,2.097,1.698,4.190,0.000,3.001,0.000,0.000,0.000,0.000,0.000,0.000,0.000,0.000,0.000,0.000,0.000,3.142,0.000,0.000,1.003,1.570,1.570,4.086,6.281,1.199,4.712,0.000,0.000,0.664,-9.355,0.990,4.720,4.009,5.415,5.281,4.712,4.712,2.199,6.282,5.083,1.570,0.000,0.000,1.320,-9.351,0.990,4.720,4.155,5.269,
13.607,21.615,0.995,-9.843,1.632,0.995,1.146,3.354,0.000,2.042,1.283,2.312,0.000,3.138,2.067,1.734,3.929,0.000,3.142,0.000,0.000,0.000,0.000,0.000,0.000,0.000,0.000,0.000,0.000,0.000,3.142,0.002,0.000,1.003,1.571,1.572,4.086,6.281,1.199,4.712,0.000,0.000,0.633,-9.275,0.990,4.770,4.625,4.799,5.282,4.713,4.714,2.199,6.282,5.083,1.571,0.000,0.000,1.288,-9.235,0.991,4.770,4.660,4.765,
13.720,21.728,0.989,-9.765,1.728,1.004,1.428,3.315,0.000,1.862,1.337,2.756,0.000,2.835,2.034,0.000,3.639,0.000,3.142,0.000,0.000,0.000,0.000,0.000,0.000,0.000,0.000,0.000,0.000,0.000,3.142,0.001,0.000,1.003,1.571,1.570,4.085,6.282,1.199,4.712,0.000,0.000,0.573,-9.234,0.990,4.869,4.684,4.740,5.282,4.713,4.713,2.198,6.282,5.083,1.571,0.000,0.000,1.222,-9.131,0.991,4.868,4.692,4.732,
13.820,21.828,0.965,-9.647,1.854,1.028,0.932,3.295,0.000,1.704,1.419,3.733,0.000,2.566,2.035,0.000,3.327,0.000,3.142,0.000,0.000,0.000,0.000,0.000,0.000,0.000,0.000,0.000,0.000,0.000,3.142,0.001,0.000,1.003,1.570,1.569,4.085,6.282,1.199,4.712,0.000,0.000,0.485,-9.173,0.990,4.997,4.696,4.727,5.282,4.712,4.711,2.198,6.283,5.083,1.570,0.000,0.000,1.115,-8.989,0.991,4.997,4.700,4.723,
13.919,21.927,0.935,-9.550,1.926,1.019,0.835,3.275,0.000,1.655,1.461,0.000,3.652,2.475,1.668,4.853,3.156,0.000,3.071,0.000,0.000,0.000,0.000,0.000,0.000,0.000,0.000,0.000,0.000,0.000,3.142,0.001,0.000,1.003,1.570,1.570,4.086,6.281,1.199,4.712,0.000,0.000,0.423,-9.112,0.990,5.067,4.698,4.725,5.281,4.712,4.712,2.198,6.282,5.083,1.570,0.000,0.000,1.038,-8.884,0.991,5.067,4.702,4.721,
14.020,22.028,0.907,-9.476,1.989,1.006,1.005,3.282,0.000,1.612,1.505,0.000,3.598,2.414,1.706,4.402,3.034,0.000,3.001,0.000,0.000,0.000,0.000,0.000,0.000,0.000,0.000,0.000,0.000,0.000,3.142,0.001,0.000,1.003,1.570,1.570,4.086,6.281,1.199,4.712,0.000,0.000,0.368,-9.070,0.990,5.129,4.700,4.723,5.282,4.712,4.713,2.198,6.282,5.083,1.570,0.000,0.000,0.968,-8.804,0.991,5.129,4.704,4.719,
14.120,22.128,0.855,-9.369,2.100,1.011,1.089,3.010,0.000,1.539,1.615,0.000,3.842,2.338,0.000,3.219,2.879,0.000,2.896,0.000,0.000,0.000,0.000,0.000,0.000,0.000,0.000,0.000,0.000,0.000,3.142,0.001,0.000,1.003,1.570,1.570,4.085,6.282,1.199,4.712,0.000,0.000,0.274,-9.026,0.990,5.242,4.703,4.719,5.282,4.712,4.712,2.198,6.282,5.083,1.570,0.000,0.000,0.840,-8.695,0.991,5.241,4.706,4.717,
14.208,22.216,0.802,-9.284,2.190,1.019,0.984,0.000,1.621,1.491,1.723,0.000,3.790,2.316,0.000,3.439,2.784,0.000,2.826,0.000,0.000,0.000,0.000,0.000,0.000,0.000,0.000,0.000,0.000,0.000,3.142,0.001,0.000,1.003,1.570,1.570,4.085,6.282,1.199,4.712,0.000,0.000,0.193,-8.994,0.990,5.331,4.704,4.718,5.282,4.712,4.712,2.198,6.282,5.083,1.570,0.000,0.000,0.727,-8.614,0.991,5.331,4.707,4.716,
14.320,22.328,0.755,-9.219,2.257,1.017,0.976,0.000,1.364,1.460,1.819,0.000,3.545,2.319,0.000,3.210,2.726,0.000,2.791,0.000,0.000,0.000,0.000,0.000,0.000,0.000,0.000,0.000,0.000,0.000,3.142,0.001,0.000,1.003,1.570,1.570,4.086,6.282,1.199,4.712,0.000,0.000,0.127,-8.971,0.990,5.398,4.705,4.717,5.282,4.712,4.712,2.198,6.282,5.083,1.570,0.000,0.000,0.635,-8.555,0.991,5.398,4.707,4.716,
14.420,22.428,0.676,-9.129,2.360,1.012,1.019,0.000,1.117,1.416,2.024,0.000,3.274,1.948,0.000,2.929,2.670,0.000,2.685,0.000,0.000,0.000,0.000,0.000,0.000,0.000,0.000,0.000,0.000,0.000,3.142,0.001,0.000,1.003,1.570,1.570,4.086,6.282,1.199,4.712,0.000,0.000,0.026,-8.947,0.990,5.501,4.706,4.716,5.282,4.712,4.712,2.198,6.282,5.083,1.570,0.000,0.000,0.489,-8.481,0.991,5.501,4.708,4.715,
14.520,22.528,0.604,-9.060,2.449,1.013,1.033,4.617,1.051,1.383,2.295,0.000,3.115,2.002,4.739,2.744,2.652,0.000,2.615,0.000,0.000,0.000,0.000,0.000,0.000,0.000,0.000,0.000,0.000,0.000,3.142,0.001,0.000,1.003,1.570,1.570,4.085,6.281,1.199,4.712,0.000,0.000,-0.060,-8.937,0.990,5.590,4.706,4.715,5.282,4.712,4.712,2.198,6.282,5.083,1.570,0.000,0.000,0.360,-8.432,0.991,5.590,4.708,4.714,
14.620,22.628,0.525,-8.999,2.537,1.015,1.011,4.361,0.989,1.353,2.734,0.000,3.009,0.000,4.081,2.600,2.661,0.000,2.545,0.000,0.000,0.000,0.000,0.000,0.000,0.000,0.000,0.000,0.000,0.000,3.142,0.001,0.000,1.003,1.570,1.570,4.085,6.282,1.199,4.712,0.000,0.000,-0.146,-8.933,0.990,5.678,4.707,4.715,5.282,4.712,4.712,2.198,6.282,5.083,1.570,0.000,0.000,0.227,-8.394,0.991,5.678,4.708,4.714,
14.702,22.710,0.442,-8.944,2.624,1.014,1.017,0.000,0.925,1.325,3.589,4.257,2.944,0.000,3.600,2.490,2.216,0.000,2.475,0.000,0.000,0.000,0.000,0.000,0.000,0.000,0.000,0.000,0.000,0.000,3.142,0.001,0.000,1.003,1.570,1.570,4.085,6.281,1.199,4.712,0.000,0.000,-0.233,-8.937,0.990,5.765,4.707,4.714,5.282,4.712,4.712,2.198,6.282,5.083,1.570,0.000,0.000,0.092,-8.367,0.991,5.765,4.709,4.714,
14.817,22.825,0.372,-8.905,2.674,1.014,0.388,0.000,0.859,1.303,4.437,4.321,2.945,0.000,3.367,2.430,2.386,0.000,2.404,0.000,0.000,0.000,0.000,0.000,0.000,0.000,0.000,0.000,0.000,0.000,3.142,6.283,0.000,1.004,1.569,1.567,4.085,6.282,1.199,4.712,0.000,0.000,-0.303,-8.934,0.990,5.818,4.707,4.713,5.281,4.711,4.710,2.198,6.283,5.083,1.570,0.000,0.000,-0.007,-8.348,0.991,5.818,4.708,4.713,
14.920,22.928,0.283,-8.860,2.678,1.010,6.269,0.000,0.731,1.271,3.871,4.403,3.037,0.000,3.289,2.383,2.341,0.000,2.440,0.000,0.000,0.000,0.000,0.000,0.000,0.000,0.000,0.000,0.000,0.000,3.142,6.282,0.000,1.004,1.569,1.569,4.085,6.281,1.199,4.712,0.000,0.000,-0.391,-8.891,0.990,5.820,4.707,4.714,5.281,4.711,4.711,2.198,6.282,5.083,1.570,0.000,0.000,-0.098,-8.304,0.990,5.820,4.707,4.714,
15.020,23.028,0.176,-8.807,2.645,1.011,5.427,4.962,0.727,1.233,2.353,4.457,3.211,0.000,3.323,2.341,2.242,0.000,2.475,0.000,0.000,0.000,0.000,0.000,0.000,0.000,0.000,0.000,0.000,0.000,3.142,6.280,0.001,1.005,1.567,1.565,4.084,6.282,1.199,4.711,0.000,0.000,-0.499,-8.818,0.990,5.792,4.707,4.713,5.281,4.710,4.708,2.197,6.282,5.083,1.570,0.000,0.000,-0.188,-8.240,0.990,5.791,4.706,4.714,
15.120,23.128,0.089,-8.758,2.537,1.012,4.884,3.836,0.844,0.928,1.393,0.000,3.536,0.000,3.684,2.349,2.088,0.000,2.615,0.000,0.000,0.000,0.000,0.000,0.000,0.000,0.000,0.000,0.000,0.000,3.142,6.280,0.001,1.004,1.568,1.566,4.085,6.281,1.199,4.712,0.000,0.000,-0.583,-8.695,0.990,5.682,4.706,4.714,5.282,4.711,4.709,2.197,6.282,5.083,1.570,0.000,0.000,-0.211,-8.154,0.991,5.681,4.708,4.714,
15.218,23.226,0.009,-8.699,2.423,1.007,5.146,3.939,1.061,0.526,1.298,0.000,3.975,3.456,3.399,2.382,1.866,0.000,2.931,0.000,0.000,0.000,0.000,0.000,0.000,0.000,0.000,0.000,0.000,0.000,3.142,6.280,0.001,1.004,1.569,1.568,4.085,6.281,1.199,4.712,0.000,0.000,-0.651,-8.559,0.990,5.566,4.706,4.715,5.282,4.711,4.711,2.198,6.282,5.083,1.570,0.000,0.000,-0.219,-8.065,0.991,5.565,4.707,4.715,
15.320,23.328,-0.050,-8.646,2.353,1.012,5.397,4.113,3.231,0.566,1.259,0.000,4.327,3.088,4.691,2.400,2.177,0.000,3.001,0.000,0.000,0.000,0.000,0.000,0.000,0.000,0.000,0.000,0.000,0.000,3.142,6.281,0.001,1.004,1.569,1.568,4.085,6.281,1.199,4.712,0.000,0.000,-0.699,-8.461,0.990,5.496,4.706,4.716,5.282,4.711,4.711,2.197,6.282,5.083,1.570,0.000,0.000,-0.234,-7.997,0.991,5.495,4.706,4.716,
15.420,23.428,-0.133,-8.559,2.265,1.017,5.587,4.391,0.000,0.644,1.229,0.000,4.898,2.819,0.000,2.418,2.065,0.000,3.106,0.000,0.000,0.000,0.000,0.000,0.000,0.000,0.000,0.000,0.000,0.000,3.142,6.281,0.000,1.004,1.569,1.568,4.085,6.281,1.199,4.712,0.000,0.000,-0.763,-8.317,0.990,5.407,4.705,4.717,5.282,4.711,4.711,2.198,6.282,5.083,1.570,0.000,0.000,-0.258,-7.896,0.991,5.407,4.706,4.717,
15.520,23.528,-0.196,-8.481,2.241,1.009,6.278,4.415,0.000,0.701,0.551,0.000,0.000,2.902,0.000,2.362,1.985,0.000,3.142,0.000,0.000,0.000,0.000,0.000,0.000,0.000,0.000,0.000,0.000,0.000,3.142,6.282,0.000,1.004,1.570,1.570,4.085,6.281,1.199,4.712,0.000,0.000,-0.819,-8.224,0.990,5.382,4.705,4.718,5.281,4.711,4.712,2.198,6.282,5.083,1.570,0.000,0.000,-0.305,-7.816,0.990,5.382,4.705,4.718,
15.620,23.628,-0.257,-8.404,2.242,1.007,6.263,4.315,0.000,0.747,0.588,0.000,0.000,2.965,0.000,2.269,1.907,0.000,3.142,0.000,0.000,0.000,0.000,0.000,0.000,0.000,0.000,0.000,0.000,0.000,3.142,6.282,0.000,1.004,1.569,1.569,4.085,6.281,1.199,4.712,0.000,0.000,-0.881,-8.147,0.990,5.384,4.705,4.717,5.281,4.711,4.711,2.198,6.282,5.083,1.570,0.000,0.000,-0.368,-7.739,0.990,5.384,4.705,4.717,
15.720,23.728,-0.319,-8.326,2.243,1.013,6.263,4.215,0.000,0.793,0.624,1.875,0.000,3.046,0.000,2.175,1.829,0.000,3.142,0.000,0.000,0.000,0.000,0.000,0.000,0.000,0.000,0.000,0.000,0.000,3.142,6.282,0.000,1.004,1.569,1.569,4.085,6.281,1.199,4.712,0.000,0.000,-0.943,-8.070,0.990,5.384,4.705,4.717,5.281,4.711,4.711,2.198,6.282,5.083,1.570,0.000,0.000,-0.430,-7.661,0.990,5.385,4.705,4.717,
15.806,23.813,-0.381,-8.248,2.243,1.014,6.263,4.114,0.000,2.823,0.661,1.894,0.000,3.348,4.895,2.081,1.312,0.000,3.142,0.000,0.000,0.000,0.000,0.000,0.000,0.000,0.000,0.000,0.000,0.000,3.142,6.282,0.000,1.004,1.569,1.569,4.085,6.281,1.199,4.712,0.000,0.000,-1.006,-7.992,0.990,5.385,4.705,4.717,5.281,4.711,4.711,2.198,6.282,5.083,1.570,0.000,0.000,-0.492,-7.583,0.990,5.385,4.705,4.717,
15.920,23.928,-0.431,-8.186,2.246,1.011,0.185,4.023,0.000,2.772,0.690,1.913,0.000,3.554,3.559,2.004,1.250,0.000,3.142,0.000,0.000,0.000,0.000,0.000,0.000,0.000,0.000,0.000,0.000,0.000,3.142,0.000,0.000,1.003,1.570,1.570,4.086,6.281,1.199,4.712,0.000,0.000,-1.055,-7.931,0.990,5.386,4.704,4.718,5.281,4.712,4.712,2.199,6.282,5.083,1.570,0.000,0.000,-0.543,-7.521,0.990,5.386,4.706,4.717,
16.008,24.016,-0.507,-8.094,2.325,1.009,1.310,3.576,0.000,2.788,0.732,0.000,0.000,4.817,3.689,1.809,1.308,0.000,3.142,0.000,0.000,0.000,0.000,0.000,0.000,0.000,0.000,0.000,0.000,0.000,3.142,0.002,0.000,1.003,1.571,1.572,4.086,6.281,1.199,4.712,0.000,0.000,-1.149,-7.888,0.990,5.463,4.705,4.717,5.282,4.713,4.714,2.199,6.282,5.083,1.571,0.000,0.000,-0.670,-7.439,0.991,5.463,4.708,4.715,
16.120,24.128,-0.563,-8.037,2.404,1.017,0.745,3.243,0.000,2.847,0.759,0.000,4.815,0.000,3.062,1.678,1.269,0.000,3.071,0.000,0.000,0.000,0.000,0.000,0.000,0.000,0.000,0.000,0.000,0.000,3.142,0.000,0.000,1.004,1.569,1.567,4.085,6.282,1.199,4.712,0.000,0.000,-1.220,-7.885,0.990,5.548,4.707,4.715,5.282,4.712,4.710,2.198,6.283,5.083,1.570,0.000,0.000,-0.779,-7.399,0.991,5.548,4.707,4.715,
16.210,24.217,-0.652,-7.957,2.418,1.016,6.275,3.084,0.000,2.767,0.785,0.000,4.872,0.000,2.831,1.580,1.191,0.000,3.106,0.000,0.000,0.000,0.000,0.000,0.000,0.000,0.000,0.000,0.000,0.000,3.142,6.282,0.000,1.004,1.569,1.569,4.084,6.281,1.199,4.712,0.000,0.000,-1.311,-7.813,0.990,5.560,4.706,4.716,5.281,4.711,4.711,2.197,6.282,5.083,1.570,0.000,0.000,-0.878,-7.321,0.990,5.561,4.706,4.716,
16.320,24.328,-0.712,-7.904,2.418,1.008,6.273,3.007,0.000,2.697,0.801,1.110,4.953,0.000,2.730,1.523,1.136,0.000,3.106,0.000,0.000,0.000,0.000,0.000,0.000,0.000,0.000,0.000,0.000,0.000,3.142,6.282,0.000,1.004,1.569,1.569,4.085,6.281,1.199,4.712,0.000,0.000,-1.371,-7.761,0.990,5.561,4.706,4.715,5.281,4.711,4.711,2.197,6.282,5.083,1.570,0.000,0.000,-0.937,-7.269,0.990,5.561,4.706,4.716,
16.420,24.428,-0.801,-7.825,2.418,1.009,6.272,2.890,0.000,2.591,0.825,1.142,0.000,0.000,2.578,1.438,4.828,0.000,3.142,0.000,0.000,0.000,0.000,0.000,0.000,0.000,0.000,0.000,0.000,0.000,3.142,6.282,0.000,1.004,1.569,1.569,4.084,6.281,1.199,4.712,0.000,0.000,-1.460,-7.682,0.990,5.560,4.706,4.715,5.281,4.711,4.711,2.197,6.282,5.083,1.570,0.000,0.000,-1.026,-7.190,0.990,5.560,4.706,4.716,
16.520,24.528,-0.876,-7.759,2.418,1.014,6.271,2.792,0.000,2.503,1.506,1.170,0.000,0.000,2.450,0.940,4.937,0.000,3.142,0.000,0.000,0.000,0.000,0.000,0.000,0.000,0.000,0.000,0.000,0.000,3.142,6.282,0.000,1.004,1.569,1.569,4.085,6.281,1.199,4.712,0.000,0.000,-1.535,-7.616,0.990,5.560,4.706,4.715,5.281,4.711,4.711,2.197,6.282,5.083,1.570,0.000,0.000,-1.101,-7.124,0.990,5.560,4.706,4.716,
16.620,24.628,-0.950,-7.693,2.418,1.013,6.270,2.694,0.000,2.470,1.577,1.198,0.000,0.000,2.321,1.295,0.000,0.000,3.142,0.000,0.000,0.000,0.000,0.000,0.000,0.000,0.000,0.000,0.000,0.000,3.142,6.282,0.000,1.004,1.569,1.569,4.085,6.281,1.199,4.712,0.000,0.000,-1.610,-7.550,0.990,5.560,4.706,4.716,5.281,4.711,4.711,2.198,6.282,5.083,1.570,0.000,0.000,-1.176,-7.058,0.990,5.560,4.706,4.716,
16.718,24.726,-1.025,-7.627,2.418,1.010,6.269,2.596,0.000,2.594,1.648,1.225,0.000,0.000,2.193,0.900,0.000,0.000,3.142,0.000,0.000,0.000,0.000,0.000,0.000,0.000,0.000,0.000,0.000,0.000,3.142,6.282,0.000,1.004,1.569,1.569,4.085,6.281,1.199,4.712,0.000,0.000,-1.684,-7.484,0.990,5.560,4.706,4.716,5.281,4.711,4.711,2.198,6.282,5.083,1.570,0.000,0.000,-1.250,-6.992,0.990,5.560,4.706,4.716,
16.820,24.828,-1.085,-7.575,2.418,1.011,6.269,2.517,0.000,2.693,1.705,1.247,0.000,0.000,2.090,0.843,0.000,0.000,3.142,0.000,0.000,0.000,0.000,0.000,0.000,0.000,0.000,0.000,0.000,0.000,3.142,6.282,0.000,1.004,1.569,1.569,4.085,6.281,1.199,4.712,0.000,0.000,-1.744,-7.431,0.990,5.560,4.706,4.716,5.281,4.711,4.711,2.198,6.282,5.083,1.570,0.000,0.000,-1.310,-6.940,0.990,5.560,4.706,4.716,
16.919,24.927,-1.174,-7.496,2.386,1.013,5.439,2.468,0.000,2.400,1.814,1.243,0.000,0.000,2.046,0.768,0.000,0.000,3.142,0.000,0.000,0.000,0.000,0.000,0.000,0.000,0.000,0.000,0.000,0.000,3.142,6.280,0.001,1.005,1.567,1.565,4.084,6.282,1.199,4.711,0.000,0.000,-1.830,-7.333,0.990,5.533,4.706,4.715,5.281,4.710,4.708,2.197,6.282,5.083,1.570,0.000,0.000,-1.380,-6.855,0.990,5.532,4.705,4.716,
17.000,25.008,-1.232,-7.440,2.304,1.012,4.908,2.593,0.000,2.234,3.718,1.183,0.000,0.000,2.277,0.737,4.004,0.000,3.142,0.000,0.000,0.000,0.000,0.000,0.000,0.000,0.000,0.000,0.000,0.000,3.142,6.280,0.001,1.005,1.568,1.566,4.085,6.281,1.199,4.712,0.000,0.000,-1.872,-7.224,0.990,5.449,4.705,4.716,5.282,4.710,4.709,2.197,6.282,5.083,1.570,0.000,0.000,-1.384,-6.784,0.991,5.448,4.706,4.716,
17.120,25.128,-1.296,-7.365,2.185,1.008,5.068,2.887,2.855,2.309,2.954,1.478,0.000,0.000,2.865,0.702,4.137,0.000,3.142,0.000,0.000,0.000,0.000,0.000,0.000,0.000,0.000,0.000,0.000,0.000,3.142,6.280,0.001,1.004,1.569,1.568,4.085,6.281,1.199,4.712,0.000,0.000,-1.905,-7.073,0.990,5.328,4.704,4.718,5.282,4.711,4.710,2.198,6.282,5.083,1.570,0.000,0.000,-1.369,-6.694,0.991,5.327,4.706,4.717,
17.220,25.228,-1.362,-7.265,2.080,1.015,5.412,2.735,1.908,0.000,2.485,1.899,0.000,4.473,3.819,0.631,3.587,0.000,3.142,0.000,0.000,0.000,0.000,0.000,0.000,0.000,0.000,0.000,0.000,0.000,3.142,6.281,0.001,1.004,1.569,1.568,4.085,6.281,1.199,4.712,0.000,0.000,-1.937,-6.911,0.990,5.223,4.703,4.720,5.282,4.711,4.710,2.197,6.282,5.083,1.570,0.000,0.000,-1.364,-6.591,0.991,5.222,4.703,4.719,
17.320,25.328,-1.409,-7.177,2.002,1.018,5.342,2.527,1.803,0.000,2.609,2.008,1.860,4.590,0.000,0.567,3.316,0.000,1.492,0.000,0.000,0.000,0.000,0.000,0.000,0.000,0.000,0.000,0.000,0.000,3.142,6.281,0.001,1.004,1.568,1.567,4.085,6.281,1.199,4.712,0.000,0.000,-1.955,-6.780,0.990,5.146,4.701,4.721,5.282,4.711,4.710,2.197,6.282,5.083,1.570,0.000,0.000,-1.359,-6.505,0.990,5.146,4.702,4.721,
17.420,25.428,-1.449,-7.085,1.914,1.010,5.232,2.551,1.852,0.000,2.326,2.140,1.752,0.000,4.342,0.576,3.547,0.000,1.597,0.000,0.000,0.000,0.000,0.000,0.000,0.000,0.000,0.000,0.000,0.000,3.142,6.280,0.001,1.004,1.568,1.567,4.085,6.281,1.199,4.712,0.000,0.000,-1.958,-6.642,0.990,5.058,4.698,4.724,5.282,4.711,4.710,2.197,6.282,5.083,1.570,0.000,0.000,-1.340,-6.420,0.991,5.057,4.699,4.723,
17.520,25.528,-1.481,-6.991,1.823,1.010,5.261,0.000,1.937,4.722,2.135,4.154,1.680,0.000,0.000,0.577,2.689,0.000,1.702,0.000,0.000,0.000,0.000,0.000,0.000,0.000,0.000,0.000,0.000,0.000,3.142,6.280,0.001,1.004,1.568,1.567,4.085,6.281,1.199,4.712,0.000,0.000,-1.947,-6.503,0.990,4.966,4.693,4.730,5.282,4.711,4.710,2.197,6.282,5.083,1.570,0.000,0.000,-1.312,-6.339,0.991,4.966,4.695,4.728,
17.620,25.628,-1.504,-6.894,1.739,1.015,5.539,4.835,2.051,2.845,2.468,3.602,1.843,0.000,0.000,0.575,0.000,0.000,1.808,0.000,0.000,0.000,0.000,0.000,0.000,0.000,0.000,0.000,0.000,0.000,3.142,6.281,0.000,1.004,1.569,1.569,4.085,6.281,1.199,4.712,0.000,0.000,-1.927,-6.368,0.990,4.881,4.683,4.740,5.282,4.711,4.711,2.198,6.282,5.083,1.570,0.000,0.000,-1.280,-6.258,0.991,4.881,4.688,4.736,
17.720,25.728,-1.520,-6.795,1.717,1.013,6.266,4.815,2.073,1.602,4.603,3.398,1.996,0.000,0.000,0.586,0.000,0.000,1.878,0.000,0.000,0.000,0.000,0.000,0.000,0.000,0.000,0.000,0.000,0.000,3.142,6.282,0.000,1.003,1.570,1.570,4.085,6.281,1.199,4.712,0.000,0.000,-1.930,-6.260,0.990,4.857,4.679,4.745,5.281,4.711,4.712,2.198,6.282,5.083,1.570,0.000,0.000,-1.281,-6.165,0.990,4.858,4.682,4.742,
17.820,25.828,-1.534,-6.697,1.717,1.008,6.261,4.705,2.051,1.481,4.797,3.370,2.094,0.000,0.544,0.603,2.488,0.000,1.878,0.000,0.000,0.000,0.000,0.000,0.000,0.000,0.000,0.000,0.000,0.000,3.142,6.283,0.000,1.004,1.569,1.569,4.085,6.281,1.199,4.712,0.000,0.000,-1.945,-6.162,0.990,4.859,4.679,4.744,5.281,4.711,4.711,2.198,6.282,5.083,1.570,0.000,0.000,-1.296,-6.066,0.990,4.859,4.682,4.742,
17.917,25.924,-1.549,-6.599,1.716,1.012,6.156,4.644,2.033,1.467,0.000,3.329,2.196,0.000,0.559,0.619,2.379,0.000,2.018,0.000,0.000,0.000,0.000,0.000,0.000,0.000,0.000,0.000,0.000,0.000,3.142,6.281,0.001,1.004,1.569,1.568,4.084,6.281,1.199,4.712,0.000,0.000,-1.960,-6.064,0.990,4.860,4.682,4.741,5.281,4.711,4.710,2.197,6.282,5.083,1.570,0.000,0.000,-1.311,-5.968,0.990,4.860,4.678,4.746,
18.020,26.028,-1.560,-6.520,1.683,1.014,5.403,3.620,2.086,1.463,0.000,2.891,2.377,0.000,0.574,0.622,2.331,0.000,1.948,0.000,0.000,0.000,0.000,0.000,0.000,0.000,0.000,0.000,0.000,0.000,3.142,6.280,0.001,1.005,1.567,1.565,4.084,6.282,1.199,4.711,0.000,0.000,-1.956,-5.972,0.990,4.830,4.675,4.748,5.281,4.710,4.708,2.197,6.282,5.083,1.570,0.000,0.000,-1.303,-5.897,0.990,4.829,4.668,4.755,
18.112,26.120,-1.570,-6.400,1.601,1.014,5.913,2.937,1.928,1.479,0.000,3.082,2.758,0.000,0.596,0.611,4.658,0.000,2.194,0.000,0.000,0.000,0.000,0.000,0.000,0.000,0.000,0.000,0.000,0.000,3.142,6.282,0.000,1.004,1.570,1.570,4.085,6.281,1.199,4.712,0.000,0.000,-1.915,-5.821,0.990,4.741,4.539,4.885,5.282,4.712,4.712,2.198,6.281,5.083,1.571,0.000,0.000,-1.260,-5.802,0.991,4.741,4.568,4.856,
18.220,26.228,-1.573,-6.321,1.596,1.009,6.274,2.865,1.819,1.479,0.000,3.186,2.837,0.000,0.599,1.142,4.630,0.000,2.229,0.000,0.000,0.000,0.000,0.000,0.000,0.000,0.000,0.000,0.000,0.000,3.142,6.283,0.000,1.004,1.569,1.569,4.085,6.281,1.199,4.712,0.000,0.000,-1.916,-5.740,0.990,4.738,4.521,4.902,5.281,4.711,4.711,2.198,6.282,5.083,1.570,0.000,0.000,-1.260,-5.724,0.990,4.738,4.541,4.883,
18.311,26.319,-1.576,-6.202,1.597,1.010,6.262,2.745,1.668,1.475,0.000,3.099,2.956,0.000,0.602,1.145,2.074,0.000,2.966,0.000,0.000,0.000,0.000,0.000,0.000,0.000,0.000,0.000,0.000,0.000,3.142,6.282,0.000,1.004,1.569,1.569,4.085,6.281,1.199,4.712,0.000,0.000,-1.919,-5.622,0.990,4.739,4.531,4.893,5.281,4.711,4.711,2.198,6.282,5.083,1.570,0.000,0.000,-1.264,-5.604,0.990,4.739,4.545,4.879,
18.420,26.428,-1.578,-6.122,1.597,1.013,6.262,2.666,1.567,1.473,0.000,3.098,3.036,0.000,0.604,1.148,1.978,0.000,2.966,0.000,0.000,0.000,0.000,0.000,0.000,0.000,0.000,0.000,0.000,0.000,3.142,6.282,0.000,1.004,1.569,1.569,4.085,6.281,1.199,4.712,0.000,0.000,-1.922,-5.542,0.990,4.740,4.535,4.889,5.281,4.711,4.711,2.198,6.282,5.083,1.570,0.000,0.000,-1.266,-5.525,0.990,4.740,4.548,4.876,
18.520,26.528,-1.581,-6.003,1.598,1.012,6.263,2.546,1.414,1.469,1.635,3.096,3.156,0.954,0.608,1.098,1.861,0.000,2.966,0.000,0.000,0.000,0.000,0.000,0.000,0.000,0.000,0.000,0.000,0.000,3.142,6.282,0.000,1.004,1.569,1.569,4.085,6.281,1.199,4.712,0.000,0.000,-1.926,-5.423,0.990,4.740,4.539,4.885,5.281,4.711,4.711,2.198,6.282,5.083,1.570,0.000,0.000,-1.270,-5.405,0.990,4.740,4.552,4.873,
18.620,26.628,-1.584,-5.903,1.599,1.011,6.264,2.447,1.287,1.466,1.519,3.093,3.255,0.957,0.923,1.101,1.868,0.000,2.966,0.000,0.000,0.000,0.000,0.000,0.000,0.000,0.000,0.000,0.000,0.000,3.142,6.282,0.000,1.004,1.569,1.569,4.085,6.281,1.199,4.712,0.000,0.000,-1.929,-5.324,0.990,4.741,4.543,4.880,5.281,4.711,4.711,2.198,6.282,5.083,1.570,0.000,0.000,-1.273,-5.305,0.990,4.741,4.554,4.870,
18.720,26.727,-1.587,-5.804,1.599,1.011,6.264,2.348,1.218,1.463,1.516,3.091,3.355,0.961,1.130,4.436,1.965,0.000,2.966,0.000,0.000,0.000,0.000,0.000,0.000,0.000,0.000,0.000,0.000,0.000,3.142,6.282,0.000,1.004,1.569,1.569,4.085,6.281,1.199,4.712,0.000,0.000,-1.932,-5.224,0.990,4.741,4.547,4.877,5.281,4.711,4.711,2.198,6.282,5.083,1.570,0.000,0.000,-1.276,-5.206,0.990,4.742,4.557,4.867,
18.820,26.828,-1.589,-5.724,1.600,1.012,6.264,2.268,1.213,1.461,1.514,3.089,3.434,0.965,1.132,4.411,1.970,0.000,2.966,0.000,0.000,0.000,0.000,0.000,0.000,0.000,0.000,0.000,0.000,0.000,3.142,6.282,0.000,1.004,1.569,1.569,4.085,6.281,1.199,4.712,0.000,0.000,-1.934,-5.145,0.990,4.742,4.550,4.874,5.281,4.711,4.711,2.198,6.282,5.083,1.570,0.000,0.000,-1.279,-5.126,0.990,4.742,4.559,4.865,
18.920,26.928,-1.592,-5.605,1.600,1.012,6.264,2.149,1.207,1.457,1.511,3.085,3.554,0.970,1.136,4.652,1.979,0.000,2.966,0.000,0.000,0.000,0.000,0.000,0.000,0.000,0.000,0.000,0.000,0.000,3.142,6.282,0.000,1.004,1.569,1.569,4.085,6.281,1.199,4.712,0.000,0.000,-1.938,-5.026,0.990,4.743,4.553,4.871,5.281,4.711,4.711,2.198,6.282,5.083,1.570,0.000,0.000,-1.283,-5.006,0.990,4.743,4.562,4.862,
19.020,27.028,-1.595,-5.506,1.601,1.011,6.265,2.050,1.201,1.453,1.508,3.082,3.653,0.974,1.139,4.360,1.985,0.000,2.966,0.000,0.000,0.000,0.000,0.000,0.000,0.000,0.000,0.000,0.000,0.000,3.142,6.282,0.000,1.004,1.569,1.569,4.085,6.281,1.199,4.712,0.000,0.000,-1.942,-4.927,0.990,4.743,4.556,4.868,5.281,4.711,4.711,2.198,6.282,5.083,1.570,0.000,0.000,-1.286,-4.907,0.990,4.743,4.564,4.860,
19.120,27.128,-1.597,-5.441,1.601,0.396,6.264,1.985,1.197,1.451,1.506,3.151,3.718,0.976,1.141,4.168,1.991,0.000,2.966,0.000,0.000,0.000,0.000,0.000,0.000,0.000,0.000,0.000,0.000,0.000,3.142,0.001,0.001,1.001,1.570,1.571,4.089,6.281,1.200,4.712,0.000,0.000,-1.942,-4.860,0.989,4.742,4.468,4.956,5.281,4.712,4.713,2.198,6.282,5.083,1.570,0.000,0.000,-1.287,-4.842,0.990,4.742,4.550,4.874,
19.220,27.228,-1.598,-5.421,1.602,0.159,6.265,1.965,1.196,1.450,1.506,3.174,3.738,0.977,1.141,4.106,1.993,0.000,2.966,0.000,0.000,0.000,0.000,0.000,0.000,0.000,0.000,0.000,0.000,0.000,3.142,0.000,0.001,1.002,1.570,1.570,4.087,6.281,1.200,4.712,0.000,0.000,-1.944,-4.841,0.990,4.743,4.514,4.910,5.281,4.712,4.712,2.198,6.282,5.083,1.570,0.000,0.000,-1.288,-4.822,0.990,4.743,4.559,4.865,
19.320,27.328,-1.598,-5.415,1.602,0.000,6.268,1.958,1.195,1.450,1.506,3.180,3.744,0.976,1.141,4.081,1.995,0.000,2.966,0.000,0.000,0.000,0.000,0.000,0.000,0.000,0.000,0.000,0.000,0.000,3.142,6.283,0.000,1.003,1.569,1.569,4.086,6.281,1.199,4.712,0.000,0.000,-1.945,-4.836,0.990,4.744,4.546,4.877,5.281,4.711,4.712,2.198,6.282,5.083,1.570,0.000,0.000,-1.289,-4.815,0.990,4.744,4.569,4.855,
19.420,27.428,-1.598,-5.415,1.602,0.000,6.272,1.958,1.195,1.450,1.506,3.180,3.744,0.976,1.141,4.081,1.995,0.000,2.966,0.000,0.000,0.000,0.000,0.000,0.000,0.000,0.000,0.000,0.000,0.000,3.142,6.283,0.000,1.003,1.569,1.569,4.085,6.281,1.199,4.712,0.000,0.000,-1.945,-4.836,0.990,4.744,4.554,4.869,5.281,4.711,4.712,2.198,6.282,5.083,1.570,0.000,0.000,-1.289,-4.815,0.990,4.744,4.576,4.848,
19.520,27.528,-1.598,-5.415,1.602,0.000,6.272,1.958,1.195,1.450,1.506,3.180,3.744,0.976,1.141,4.081,1.995,0.000,2.966,0.000,0.000,0.000,0.000,0.000,0.000,0.000,0.000,0.000,0.000,0.000,3.142,6.283,0.000,1.003,1.569,1.569,4.085,6.281,1.199,4.712,0.000,0.000,-1.945,-4.836,0.990,4.744,4.554,4.869,5.281,4.711,4.712,2.198,6.282,5.083,1.570,0.000,0.000,-1.289,-4.815,0.990,4.744,4.576,4.848,
19.620,27.628,-1.598,-5.415,1.602,0.000,6.272,1.958,1.195,1.450,1.506,3.180,3.744,0.976,1.141,4.081,1.995,0.000,2.966,0.000,0.000,0.000,0.000,0.000,0.000,0.000,0.000,0.000,0.000,0.000,3.142,6.283,0.000,1.003,1.569,1.569,4.085,6.281,1.199,4.712,0.000,0.000,-1.945,-4.836,0.990,4.744,4.554,4.869,5.281,4.711,4.712,2.198,6.282,5.083,1.570,0.000,0.000,-1.289,-4.815,0.990,4.744,4.576,4.848,
19.719,27.727,-1.599,-5.385,1.602,0.671,0.014,1.929,1.193,1.449,1.505,3.215,3.774,0.981,1.142,4.029,1.997,0.000,2.966,0.000,0.000,0.000,0.000,0.000,0.000,0.000,0.000,0.000,0.000,0.000,3.142,6.278,6.283,1.008,1.567,1.566,4.077,6.282,1.199,4.712,0.000,0.000,-1.949,-4.809,0.991,4.749,4.702,4.722,5.282,4.710,4.708,2.197,6.282,5.083,1.570,0.000,0.000,-1.293,-4.785,0.991,4.748,4.589,4.835,
19.820,27.828,-1.601,-5.308,1.602,1.220,6.263,1.854,1.190,1.447,1.502,3.308,3.851,1.078,1.093,4.030,1.999,0.000,3.001,0.000,0.000,0.000,0.000,0.000,0.000,0.000,0.000,0.000,0.000,0.000,3.142,6.280,6.283,1.006,1.568,1.567,4.080,6.281,1.199,4.712,0.000,0.000,-1.950,-4.731,0.990,4.747,4.655,4.769,5.281,4.710,4.709,2.198,6.282,5.083,1.570,0.000,0.000,-1.294,-4.709,0.990,4.746,4.583,4.841,
19.920,27.928,-1.606,-5.170,1.602,0.835,6.266,1.716,1.183,1.056,1.497,3.471,3.989,1.254,1.239,4.036,1.763,0.000,3.001,0.000,0.000,0.000,0.000,0.000,0.000,0.000,0.000,0.000,0.000,0.000,3.142,0.003,0.001,1.000,1.571,1.572,4.092,6.281,1.200,4.712,0.000,0.000,-1.950,-4.589,0.989,4.741,4.410,5.013,5.280,4.713,4.714,2.198,6.282,5.083,1.570,0.000,0.000,-1.295,-4.571,0.990,4.741,4.545,4.879,
20.020,28.028,-1.607,-5.117,1.603,0.317,6.264,1.663,1.179,0.851,1.496,3.532,4.042,1.321,4.719,4.038,1.438,0.000,3.001,0.000,0.000,0.000,0.000,0.000,0.000,0.000,0.000,0.000,0.000,0.000,3.142,0.001,0.001,1.002,1.570,1.570,4.089,6.281,1.200,4.712,0.000,0.000,-1.954,-4.537,0.989,4.743,4.494,4.930,5.281,4.712,4.712,2.198,6.282,5.083,1.570,0.000,0.000,-1.298,-4.518,0.990,4.743,4.561,4.863,
20.120,28.128,-1.608,-5.097,1.603,0.244,6.266,1.643,1.177,0.775,1.496,3.554,4.062,1.347,4.801,4.040,1.440,0.000,3.001,0.000,0.000,0.000,0.000,0.000,0.000,0.000,0.000,0.000,0.000,0.000,3.142,6.281,0.000,1.005,1.569,1.569,4.083,6.281,1.199,4.712,0.000,0.000,-1.956,-4.520,0.990,4.746,4.601,4.823,5.281,4.711,4.711,2.197,6.282,5.083,1.570,0.000,0.000,-1.301,-4.498,0.990,4.746,4.575,4.849,
20.205,28.213,-1.610,-5.043,1.604,0.879,6.266,1.589,1.174,0.765,1.494,3.617,4.116,1.416,0.000,4.043,1.609,0.000,3.001,0.000,0.000,0.000,0.000,0.000,0.000,0.000,0.000,0.000,0.000,0.000,3.142,6.279,6.283,1.007,1.568,1.567,4.080,6.281,1.199,4.712,0.000,0.000,-1.960,-4.467,0.990,4.749,4.662,4.762,5.282,4.710,4.709,2.197,6.282,5.083,1.570,0.000,0.000,-1.304,-4.443,0.990,4.749,4.589,4.835,
20.320,28.328,-1.612,-4.965,1.604,1.026,6.265,1.511,2.200,0.763,1.491,3.709,4.195,1.516,0.000,4.046,1.516,0.000,3.001,0.000,0.000,0.000,0.000,0.000,0.000,0.000,0.000,0.000,0.000,0.000,3.142,6.282,0.000,1.004,1.569,1.569,4.085,6.281,1.199,4.712,0.000,0.000,-1.961,-4.387,0.990,4.746,4.574,4.850,5.281,4.711,4.711,2.198,6.282,5.083,1.570,0.000,0.000,-1.305,-4.365,0.990,4.746,4.578,4.846,
20.420,28.428,-1.616,-4.864,1.604,0.659,6.265,1.411,2.193,0.759,1.488,3.826,4.295,1.644,0.000,1.138,1.395,0.000,3.001,0.000,0.000,0.000,0.000,0.000,0.000,0.000,0.000,0.000,0.000,0.000,3.142,0.001,0.001,1.002,1.570,1.570,4.088,6.281,1.200,4.712,0.000,0.000,-1.963,-4.286,0.990,4.745,4.521,4.902,5.281,4.712,4.712,2.198,6.282,5.083,1.570,0.000,0.000,-1.308,-4.265,0.990,4.746,4.571,4.853,
20.520,28.528,-1.618,-4.806,1.605,0.612,6.266,1.353,2.189,0.757,1.486,3.894,4.354,1.809,0.000,1.140,1.324,0.000,3.001,0.000,0.000,0.000,0.000,0.000,0.000,0.000,0.000,0.000,0.000,0.000,3.142,6.282,0.000,1.004,1.569,1.569,4.084,6.281,1.199,4.712,0.000,0.000,-1.967,-4.229,0.990,4.748,4.586,4.838,5.281,4.711,4.711,2.198,6.282,5.083,1.570,0.000,0.000,-1.311,-4.206,0.990,4.748,4.582,4.842,
20.620,28.628,-1.619,-4.769,1.605,0.217,6.265,1.316,2.185,0.755,1.485,3.937,4.391,1.810,0.000,1.142,1.279,0.000,3.001,0.000,0.000,0.000,0.000,0.000,0.000,0.000,0.000,0.000,0.000,0.000,3.142,0.001,0.001,1.002,1.570,1.570,4.088,6.281,1.200,4.712,0.000,0.000,-1.967,-4.190,0.990,4.746,4.526,4.898,5.281,4.712,4.712,2.198,6.282,5.083,1.570,0.000,0.000,-1.312,-4.168,0.990,4.746,4.574,4.850,
20.705,28.713,-1.619,-4.759,1.606,0.038,6.268,1.305,2.183,0.755,1.485,3.948,4.401,1.810,0.000,1.143,1.267,0.000,3.001,0.000,0.000,0.000,0.000,0.000,0.000,0.000,0.000,0.000,0.000,0.000,3.142,6.283,0.001,1.003,1.570,1.570,4.086,6.281,1.199,4.712,0.000,0.000,-1.968,-4.181,0.990,4.748,4.555,4.868,5.281,4.711,4.712,2.198,6.282,5.083,1.570,0.000,0.000,-1.313,-4.158,0.990,4.748,4.580,4.844,
20.820,28.828,-1.619,-4.758,1.606,0.000,6.272,1.305,2.183,0.755,1.485,3.947,4.402,1.809,0.000,1.143,1.266,0.000,3.001,0.000,0.000,0.000,0.000,0.000,0.000,0.000,0.000,0.000,0.000,0.000,3.142,6.283,0.000,1.003,1.569,1.569,4.085,6.281,1.199,4.712,0.000,0.000,-1.969,-4.181,0.990,4.748,4.572,4.852,5.281,4.711,4.712,2.198,6.282,5.083,1.570,0.000,0.000,-1.313,-4.158,0.990,4.748,4.591,4.833,
20.917,28.925,-1.619,-4.758,1.606,0.000,6.272,1.305,2.183,0.755,1.485,3.947,4.402,1.809,0.000,1.143,1.266,0.000,3.001,0.000,0.000,0.000,0.000,0.000,0.000,0.000,0.000,0.000,0.000,0.000,3.142,6.283,0.000,1.003,1.569,1.569,4.085,6.281,1.199,4.712,0.000,0.000,-1.969,-4.181,0.990,4.748,4.572,4.852,5.281,4.711,4.712,2.198,6.282,5.083,1.570,0.000,0.000,-1.313,-4.158,0.990,4.748,4.591,4.833,
21.020,29.028,-1.619,-4.758,1.606,0.000,6.272,1.305,2.183,0.755,1.485,3.947,4.402,1.809,0.000,1.143,1.266,0.000,3.001,0.000,0.000,0.000,0.000,0.000,0.000,0.000,0.000,0.000,0.000,0.000,3.142,6.283,0.000,1.003,1.569,1.569,4.085,6.281,1.199,4.712,0.000,0.000,-1.969,-4.181,0.990,4.748,4.572,4.852,5.281,4.711,4.712,2.198,6.282,5.083,1.570,0.000,0.000,-1.313,-4.158,0.990,4.748,4.591,4.833,
21.120,29.128,-1.619,-4.758,1.606,0.000,6.272,1.305,2.183,0.755,1.485,3.947,4.402,1.809,0.000,1.143,1.266,0.000,3.001,0.000,0.000,0.000,0.000,0.000,0.000,0.000,0.000,0.000,0.000,0.000,3.142,6.283,0.000,1.003,1.569,1.569,4.085,6.281,1.199,4.712,0.000,0.000,-1.969,-4.181,0.990,4.748,4.572,4.852,5.281,4.711,4.712,2.198,6.282,5.083,1.570,0.000,0.000,-1.313,-4.158,0.990,4.748,4.591,4.833,
21.220,29.228,-1.619,-4.758,1.606,0.000,6.272,1.305,2.183,0.755,1.485,3.947,4.402,1.809,0.000,1.143,1.266,0.000,3.001,0.000,0.000,0.000,0.000,0.000,0.000,0.000,0.000,0.000,0.000,0.000,3.142,6.283,0.000,1.003,1.569,1.569,4.085,6.281,1.199,4.712,0.000,0.000,-1.969,-4.181,0.990,4.748,4.572,4.852,5.281,4.711,4.712,2.198,6.282,5.083,1.570,0.000,0.000,-1.313,-4.158,0.990,4.748,4.591,4.833,
21.320,29.328,-1.619,-4.758,1.606,0.000,6.272,1.305,2.183,0.755,1.485,3.947,4.402,1.809,0.000,1.143,1.266,0.000,3.001,0.000,0.000,0.000,0.000,0.000,0.000,0.000,0.000,0.000,0.000,0.000,3.142,6.283,0.000,1.003,1.569,1.569,4.085,6.281,1.199,4.712,0.000,0.000,-1.969,-4.181,0.990,4.748,4.572,4.852,5.281,4.711,4.712,2.198,6.282,5.083,1.570,0.000,0.000,-1.313,-4.158,0.990,4.748,4.591,4.833,
21.404,29.412,-1.619,-4.768,1.606,-0.391,6.204,1.315,2.184,0.755,1.485,3.937,4.391,1.810,0.000,1.142,1.279,0.000,3.001,0.000,0.000,0.000,0.000,0.000,0.000,0.000,0.000,0.000,0.000,0.000,3.142,0.004,0.001,0.999,1.572,1.573,4.093,6.281,1.200,4.712,0.000,0.000,-1.966,-4.188,0.989,4.744,4.419,5.005,5.280,4.713,4.715,2.199,6.282,5.083,1.570,0.000,0.000,-1.310,-4.168,0.990,4.744,4.578,4.846,
21.520,29.528,-1.617,-4.827,1.599,-1.057,6.102,1.378,2.206,0.759,1.484,3.883,4.332,1.821,0.000,1.137,1.355,0.000,3.001,0.000,0.000,0.000,0.000,0.000,0.000,0.000,0.000,0.000,0.000,0.000,3.142,0.004,0.001,0.999,1.572,1.573,4.094,6.281,1.200,4.712,0.000,0.000,-1.959,-4.245,0.989,4.738,4.332,5.091,5.280,4.714,4.715,2.199,6.282,5.083,1.570,0.000,0.000,-1.304,-4.229,0.990,4.738,4.545,4.879,
21.610,29.618,-1.612,-4.985,1.596,-1.360,6.274,1.537,2.221,0.764,1.487,3.702,4.173,1.481,0.000,4.034,1.548,0.000,3.001,0.000,0.000,0.000,0.000,0.000,0.000,0.000,0.000,0.000,0.000,0.000,3.142,6.283,0.000,1.004,1.569,1.569,4.084,6.281,1.199,4.712,0.000,0.000,-1.956,-4.405,0.990,4.739,4.545,4.879,5.281,4.711,4.711,2.199,6.282,5.083,1.570,0.000,0.000,-1.300,-4.388,0.990,4.739,4.556,4.868,
21.720,29.728,-1.610,-5.078,1.596,-0.980,6.276,1.629,1.184,0.767,1.490,3.592,4.080,1.364,4.757,4.032,1.429,0.000,3.001,0.000,0.000,0.000,0.000,0.000,0.000,0.000,0.000,0.000,0.000,0.000,3.142,6.281,6.283,1.005,1.568,1.568,4.082,6.281,1.199,4.712,0.000,0.000,-1.955,-4.499,0.990,4.740,4.607,4.817,5.281,4.711,4.710,2.199,6.282,5.083,1.570,0.000,0.000,-1.299,-4.481,0.991,4.740,4.569,4.855,
21.820,29.828,-1.607,-5.177,1.597,-0.835,6.274,1.727,1.188,1.063,1.492,3.474,3.981,1.239,1.189,4.030,1.778,0.000,3.001,0.000,0.000,0.000,0.000,0.000,0.000,0.000,0.000,0.000,0.000,0.000,3.142,0.001,0.000,1.003,1.570,1.570,4.087,6.281,1.200,4.712,0.000,0.000,-1.951,-4.596,0.990,4.738,4.484,4.939,5.280,4.712,4.712,2.199,6.282,5.083,1.570,0.000,0.000,-1.295,-4.580,0.990,4.738,4.550,4.874,
21.920,29.928,-1.605,-5.271,1.597,-1.074,6.274,1.820,1.191,1.445,1.495,3.361,3.887,1.121,1.098,4.028,1.992,0.000,3.001,0.000,0.000,0.000,0.000,0.000,0.000,0.000,0.000,0.000,0.000,0.000,3.142,0.001,0.000,1.002,1.570,1.571,4.088,6.281,1.200,4.712,0.000,0.000,-1.948,-4.690,0.990,4.738,4.462,4.962,5.280,4.712,4.713,2.199,6.282,5.083,1.570,0.000,0.000,-1.292,-4.674,0.990,4.738,4.547,4.877,
22.020,30.028,-1.602,-5.380,1.597,-1.101,6.275,1.928,1.195,1.448,1.499,3.231,3.778,0.989,1.147,4.035,1.988,0.000,3.001,0.000,0.000,0.000,0.000,0.000,0.000,0.000,0.000,0.000,0.000,0.000,3.142,6.283,0.000,1.003,1.570,1.570,4.085,6.281,1.199,4.712,0.000,0.000,-1.946,-4.800,0.990,4.739,4.527,4.897,5.281,4.711,4.712,2.199,6.282,5.083,1.570,0.000,0.000,-1.290,-4.783,0.990,4.739,4.559,4.865,
22.120,30.128,-1.599,-5.482,1.598,-0.978,6.276,2.029,1.199,1.450,1.502,3.109,3.676,0.984,1.144,4.329,1.984,0.000,3.001,0.000,0.000,0.000,0.000,0.000,0.000,0.000,0.000,0.000,0.000,0.000,3.142,6.283,0.000,1.004,1.569,1.569,4.085,6.281,1.199,4.712,0.000,0.000,-1.944,-4.902,0.990,4.740,4.540,4.884,5.281,4.711,4.711,2.199,6.282,5.083,1.570,0.000,0.000,-1.288,-4.885,0.990,4.740,4.563,4.861,
22.220,30.228,-1.598,-5.545,1.598,-0.382,6.277,2.090,1.202,1.452,1.504,3.063,3.614,0.981,1.142,4.509,1.981,0.000,2.966,0.000,0.000,0.000,0.000,0.000,0.000,0.000,0.000,0.000,0.000,0.000,3.142,6.281,6.283,1.005,1.569,1.568,4.082,6.281,1.199,4.712,0.000,0.000,-1.943,-4.966,0.990,4.741,4.609,4.814,5.281,4.711,4.710,2.199,6.282,5.083,1.570,0.000,0.000,-1.287,-4.947,0.991,4.741,4.576,4.848,
22.320,30.328,-1.597,-5.566,1.598,-0.114,6.276,2.112,1.203,1.453,1.504,3.064,3.592,0.980,1.142,4.571,1.980,0.000,2.966,0.000,0.000,0.000,0.000,0.000,0.000,0.000,0.000,0.000,0.000,0.000,3.142,6.282,0.000,1.004,1.569,1.569,4.084,6.281,1.199,4.712,0.000,0.000,-1.942,-4.987,0.990,4.740,4.562,4.862,5.281,4.711,4.711,2.199,6.282,5.083,1.570,0.000,0.000,-1.286,-4.969,0.990,4.740,4.569,4.855,
22.420,30.428,-1.597,-5.570,1.598,-0.001,6.267,2.115,1.202,1.453,1.504,3.065,3.589,0.980,1.142,4.579,1.981,0.000,2.966,0.000,0.000,0.000,0.000,0.000,0.000,0.000,0.000,0.000,0.000,0.000,3.142,6.283,0.000,1.003,1.569,1.569,4.085,6.281,1.199,4.712,0.000,0.000,-1.942,-4.990,0.990,4.740,4.538,4.886,5.281,4.711,4.712,2.199,6.282,5.083,1.570,0.000,0.000,-1.286,-4.972,0.990,4.740,4.563,4.861,
22.502,30.510,-1.597,-5.570,1.598,-0.001,6.268,2.115,1.202,1.453,1.504,3.065,3.589,0.980,1.142,4.579,1.981,0.000,2.966,0.000,0.000,0.000,0.000,0.000,0.000,0.000,0.000,0.000,0.000,0.000,3.142,6.283,0.000,1.003,1.569,1.569,4.085,6.281,1.199,4.712,0.000,0.000,-1.942,-4.990,0.990,4.740,4.530,4.893,5.281,4.711,4.711,2.198,6.282,5.083,1.570,0.000,0.000,-1.286,-4.972,0.990,4.740,4.556,4.868,
22.620,30.628,-1.597,-5.570,1.598,-0.001,6.268,2.115,1.202,1.453,1.504,3.065,3.589,0.980,1.142,4.579,1.981,0.000,2.966,0.000,0.000,0.000,0.000,0.000,0.000,0.000,0.000,0.000,0.000,0.000,3.142,6.283,0.000,1.003,1.569,1.569,4.085,6.281,1.199,4.712,0.000,0.000,-1.942,-4.990,0.990,4.740,4.530,4.893,5.281,4.711,4.712,2.198,6.282,5.083,1.570,0.000,0.000,-1.286,-4.972,0.990,4.740,4.556,4.868,
22.703,30.711,-1.597,-5.570,1.598,-0.001,6.267,2.115,1.202,1.453,1.504,3.065,3.589,0.980,1.142,4.579,1.981,0.000,2.966,0.000,0.000,0.000,0.000,0.000,0.000,0.000,0.000,0.000,0.000,0.000,3.142,6.283,0.000,1.003,1.569,1.569,4.085,6.281,1.199,4.712,0.000,0.000,-1.942,-4.990,0.990,4.740,4.530,4.893,5.281,4.711,4.712,2.198,6.282,5.083,1.570,0.000,0.000,-1.286,-4.972,0.990,4.740,4.556,4.868,
22.820,30.828,-1.597,-5.570,1.598,-0.001,6.268,2.115,1.202,1.453,1.504,3.065,3.589,0.980,1.142,4.579,1.981,0.000,2.966,0.000,0.000,0.000,0.000,0.000,0.000,0.000,0.000,0.000,0.000,0.000,3.142,6.283,0.000,1.003,1.569,1.569,4.085,6.281,1.199,4.712,0.000,0.000,-1.942,-4.990,0.990,4.740,4.530,4.893,5.281,4.711,4.711,2.198,6.282,5.083,1.570,0.000,0.000,-1.286,-4.972,0.990,4.740,4.556,4.868,
22.919,30.927,-1.597,-5.570,1.598,-0.001,6.267,2.115,1.202,1.453,1.504,3.065,3.589,0.980,1.142,4.579,1.981,0.000,2.966,0.000,0.000,0.000,0.000,0.000,0.000,0.000,0.000,0.000,0.000,0.000,3.142,6.283,0.000,1.003,1.569,1.569,4.085,6.281,1.199,4.712,0.000,0.000,-1.942,-4.990,0.990,4.740,4.530,4.893,5.281,4.711,4.711,2.198,6.282,5.083,1.570,0.000,0.000,-1.286,-4.972,0.990,4.740,4.556,4.868,
23.020,31.028,-1.597,-5.570,1.598,-0.001,6.268,2.115,1.202,1.453,1.504,3.065,3.589,0.980,1.142,4.579,1.981,0.000,2.966,0.000,0.000,0.000,0.000,0.000,0.000,0.000,0.000,0.000,0.000,0.000,3.142,6.283,0.000,1.003,1.569,1.569,4.085,6.281,1.199,4.712,0.000,0.000,-1.942,-4.990,0.990,4.740,4.530,4.893,5.281,4.711,4.711,2.198,6.282,5.083,1.570,0.000,0.000,-1.286,-4.972,0.990,4.740,4.556,4.868,
23.120,31.128,-1.597,-5.570,1.598,-0.001,6.267,2.115,1.202,1.453,1.504,3.065,3.589,0.980,1.142,4.579,1.981,0.000,2.966,0.000,0.000,0.000,0.000,0.000,0.000,0.000,0.000,0.000,0.000,0.000,3.142,6.283,0.000,1.003,1.569,1.569,4.085,6.281,1.199,4.712,0.000,0.000,-1.942,-4.990,0.990,4.740,4.530,4.893,5.281,4.711,4.711,2.198,6.282,5.083,1.570,0.000,0.000,-1.286,-4.972,0.990,4.740,4.556,4.868,
23.220,31.228,-1.597,-5.570,1.598,-0.001,6.268,2.115,1.202,1.453,1.504,3.065,3.589,0.980,1.142,4.579,1.981,0.000,2.966,0.000,0.000,0.000,0.000,0.000,0.000,0.000,0.000,0.000,0.000,0.000,3.142,6.283,0.000,1.003,1.569,1.569,4.085,6.281,1.199,4.712,0.000,0.000,-1.942,-4.990,0.990,4.740,4.530,4.893,5.281,4.711,4.711,2.198,6.282,5.083,1.570,0.000,0.000,-1.286,-4.972,0.990,4.740,4.556,4.868,
23.320,31.328,-1.597,-5.570,1.598,-0.001,6.267,2.115,1.202,1.453,1.504,3.065,3.589,0.980,1.142,4.579,1.981,0.000,2.966,0.000,0.000,0.000,0.000,0.000,0.000,0.000,0.000,0.000,0.000,0.000,3.142,6.283,0.000,1.003,1.569,1.569,4.085,6.281,1.199,4.712,0.000,0.000,-1.942,-4.990,0.990,4.740,4.530,4.893,5.281,4.711,4.712,2.198,6.282,5.083,1.570,0.000,0.000,-1.286,-4.972,0.990,4.740,4.556,4.868,
23.420,31.428,-1.597,-5.570,1.598,-0.001,6.268,2.115,1.202,1.453,1.504,3.065,3.589,0.980,1.142,4.579,1.981,0.000,2.966,0.000,0.000,0.000,0.000,0.000,0.000,0.000,0.000,0.000,0.000,0.000,3.142,6.283,0.000,1.003,1.569,1.569,4.085,6.281,1.199,4.712,0.000,0.000,-1.942,-4.990,0.990,4.740,4.530,4.893,5.281,4.711,4.711,2.198,6.282,5.083,1.570,0.000,0.000,-1.286,-4.972,0.990,4.740,4.556,4.868,
23.520,31.528,-1.597,-5.570,1.598,-0.001,6.267,2.115,1.202,1.453,1.504,3.065,3.589,0.980,1.142,4.579,1.981,0.000,2.966,0.000,0.000,0.000,0.000,0.000,0.000,0.000,0.000,0.000,0.000,0.000,3.142,6.283,0.000,1.003,1.569,1.569,4.085,6.281,1.199,4.712,0.000,0.000,-1.942,-4.990,0.990,4.740,4.530,4.893,5.281,4.711,4.711,2.198,6.282,5.083,1.570,0.000,0.000,-1.286,-4.972,0.990,4.740,4.556,4.868,
23.620,31.628,-1.597,-5.570,1.598,-0.001,6.267,2.115,1.202,1.453,1.504,3.065,3.589,0.980,1.142,4.579,1.981,0.000,2.966,0.000,0.000,0.000,0.000,0.000,0.000,0.000,0.000,0.000,0.000,0.000,3.142,6.283,0.000,1.003,1.569,1.569,4.085,6.281,1.199,4.712,0.000,0.000,-1.942,-4.990,0.990,4.740,4.530,4.893,5.281,4.711,4.711,2.198,6.282,5.083,1.570,0.000,0.000,-1.286,-4.972,0.990,4.740,4.556,4.868,
23.720,31.728,-1.597,-5.570,1.598,-0.001,6.267,2.115,1.202,1.453,1.504,3.065,3.589,0.980,1.142,4.579,1.981,0.000,2.966,0.000,0.000,0.000,0.000,0.000,0.000,0.000,0.000,0.000,0.000,0.000,3.142,6.283,0.000,1.003,1.569,1.569,4.085,6.281,1.199,4.712,0.000,0.000,-1.942,-4.990,0.990,4.740,4.530,4.893,5.281,4.711,4.711,2.198,6.282,5.083,1.570,0.000,0.000,-1.286,-4.972,0.990,4.740,4.556,4.868,
23.820,31.828,-1.597,-5.570,1.598,-0.001,6.267,2.115,1.202,1.453,1.504,3.065,3.589,0.980,1.142,4.579,1.981,0.000,2.966,0.000,0.000,0.000,0.000,0.000,0.000,0.000,0.000,0.000,0.000,0.000,3.142,6.283,0.000,1.003,1.569,1.569,4.085,6.281,1.199,4.712,0.000,0.000,-1.942,-4.990,0.990,4.740,4.530,4.893,5.281,4.711,4.712,2.198,6.282,5.083,1.570,0.000,0.000,-1.286,-4.972,0.990,4.740,4.556,4.868,
23.920,31.928,-1.597,-5.570,1.598,-0.001,6.267,2.115,1.202,1.453,1.504,3.065,3.589,0.980,1.142,4.579,1.981,0.000,2.966,0.000,0.000,0.000,0.000,0.000,0.000,0.000,0.000,0.000,0.000,0.000,3.142,6.283,0.000,1.003,1.569,1.569,4.085,6.281,1.199,4.712,0.000,0.000,-1.942,-4.990,0.990,4.740,4.530,4.893,5.281,4.711,4.711,2.198,6.282,5.083,1.570,0.000,0.000,-1.286,-4.972,0.990,4.740,4.556,4.868,
24.020,32.028,-1.597,-5.570,1.598,-0.001,6.268,2.115,1.202,1.453,1.504,3.065,3.589,0.980,1.142,4.579,1.981,0.000,2.966,0.000,0.000,0.000,0.000,0.000,0.000,0.000,0.000,0.000,0.000,0.000,3.142,6.283,0.000,1.003,1.569,1.569,4.085,6.281,1.199,4.712,0.000,0.000,-1.942,-4.990,0.990,4.740,4.530,4.893,5.281,4.711,4.712,2.198,6.282,5.083,1.570,0.000,0.000,-1.286,-4.972,0.990,4.740,4.556,4.868,
24.120,32.128,-1.597,-5.570,1.598,-0.001,6.268,2.115,1.202,1.453,1.504,3.065,3.589,0.980,1.142,4.579,1.981,0.000,2.966,0.000,0.000,0.000,0.000,0.000,0.000,0.000,0.000,0.000,0.000,0.000,3.142,6.283,0.000,1.003,1.569,1.569,4.085,6.281,1.199,4.712,0.000,0.000,-1.942,-4.990,0.990,4.740,4.530,4.893,5.281,4.711,4.711,2.198,6.282,5.083,1.570,0.000,0.000,-1.286,-4.972,0.990,4.740,4.556,4.868,
24.208,32.216,-1.597,-5.570,1.598,-0.001,6.267,2.115,1.202,1.453,1.504,3.065,3.589,0.980,1.142,4.579,1.981,0.000,2.966,0.000,0.000,0.000,0.000,0.000,0.000,0.000,0.000,0.000,0.000,0.000,3.142,6.283,0.000,1.003,1.569,1.569,4.085,6.281,1.199,4.712,0.000,0.000,-1.942,-4.990,0.990,4.740,4.530,4.893,5.281,4.711,4.711,2.198,6.282,5.083,1.570,0.000,0.000,-1.286,-4.972,0.990,4.740,4.556,4.868,
24.320,32.328,-1.597,-5.570,1.598,-0.001,6.267,2.115,1.202,1.453,1.504,3.065,3.589,0.980,1.142,4.579,1.981,0.000,2.966,0.000,0.000,0.000,0.000,0.000,0.000,0.000,0.000,0.000,0.000,0.000,3.142,6.283,0.000,1.003,1.569,1.569,4.085,6.281,1.199,4.712,0.000,0.000,-1.942,-4.990,0.990,4.740,4.530,4.893,5.281,4.711,4.711,2.198,6.282,5.083,1.570,0.000,0.000,-1.286,-4.972,0.990,4.740,4.556,4.868,
24.420,32.428,-1.597,-5.570,1.598,-0.001,6.267,2.115,1.202,1.453,1.504,3.065,3.589,0.980,1.142,4.579,1.981,0.000,2.966,0.000,0.000,0.000,0.000,0.000,0.000,0.000,0.000,0.000,0.000,0.000,3.142,6.283,0.000,1.003,1.569,1.569,4.085,6.281,1.199,4.712,0.000,0.000,-1.942,-4.990,0.990,4.740,4.530,4.893,5.281,4.711,4.711,2.198,6.282,5.083,1.570,0.000,0.000,-1.286,-4.972,0.990,4.740,4.556,4.868,
24.520,32.528,-1.597,-5.570,1.598,-0.001,6.268,2.115,1.202,1.453,1.504,3.065,3.589,0.980,1.142,4.579,1.981,0.000,2.966,0.000,0.000,0.000,0.000,0.000,0.000,0.000,0.000,0.000,0.000,0.000,3.142,6.283,0.000,1.003,1.569,1.569,4.085,6.281,1.199,4.712,0.000,0.000,-1.942,-4.990,0.990,4.740,4.530,4.893,5.281,4.711,4.711,2.198,6.282,5.083,1.570,0.000,0.000,-1.286,-4.972,0.990,4.740,4.556,4.868,
24.620,32.628,-1.597,-5.570,1.598,-0.001,6.267,2.115,1.202,1.453,1.504,3.065,3.589,0.980,1.142,4.579,1.981,0.000,2.966,0.000,0.000,0.000,0.000,0.000,0.000,0.000,0.000,0.000,0.000,0.000,3.142,6.283,0.000,1.003,1.569,1.569,4.085,6.281,1.199,4.712,0.000,0.000,-1.942,-4.990,0.990,4.740,4.530,4.893,5.281,4.711,4.712,2.198,6.282,5.083,1.570,0.000,0.000,-1.286,-4.972,0.990,4.740,4.556,4.868,
24.702,32.709,-1.597,-5.570,1.598,-0.001,6.267,2.115,1.202,1.453,1.504,3.065,3.589,0.980,1.142,4.579,1.981,0.000,2.966,0.000,0.000,0.000,0.000,0.000,0.000,0.000,0.000,0.000,0.000,0.000,3.142,6.283,0.000,1.003,1.569,1.569,4.085,6.281,1.199,4.712,0.000,0.000,-1.942,-4.990,0.990,4.740,4.530,4.893,5.281,4.711,4.711,2.198,6.282,5.083,1.570,0.000,0.000,-1.286,-4.972,0.990,4.740,4.556,4.868,
24.820,32.828,-1.597,-5.570,1.598,-0.001,6.267,2.115,1.202,1.453,1.504,3.065,3.589,0.980,1.142,4.579,1.981,0.000,2.966,0.000,0.000,0.000,0.000,0.000,0.000,0.000,0.000,0.000,0.000,0.000,3.142,6.283,0.000,1.003,1.569,1.569,4.085,6.281,1.199,4.712,0.000,0.000,-1.942,-4.990,0.990,4.740,4.530,4.893,5.281,4.711,4.711,2.198,6.282,5.083,1.570,0.000,0.000,-1.286,-4.972,0.990,4.740,4.556,4.868,
24.920,32.928,-1.597,-5.570,1.598,-0.001,6.267,2.115,1.202,1.453,1.504,3.065,3.589,0.980,1.142,4.579,1.981,0.000,2.966,0.000,0.000,0.000,0.000,0.000,0.000,0.000,0.000,0.000,0.000,0.000,3.142,6.283,0.000,1.003,1.569,1.569,4.085,6.281,1.199,4.712,0.000,0.000,-1.942,-4.990,0.990,4.740,4.530,4.893,5.281,4.711,4.711,2.198,6.282,5.083,1.570,0.000,0.000,-1.286,-4.972,0.990,4.740,4.556,4.868,
25.005,33.013,-1.597,-5.570,1.598,-0.001,6.267,2.115,1.202,1.453,1.504,3.065,3.589,0.980,1.142,4.579,1.981,0.000,2.966,0.000,0.000,0.000,0.000,0.000,0.000,0.000,0.000,0.000,0.000,0.000,3.142,6.283,0.000,1.003,1.569,1.569,4.085,6.281,1.199,4.712,0.000,0.000,-1.942,-4.990,0.990,4.740,4.530,4.893,5.281,4.711,4.711,2.198,6.282,5.083,1.570,0.000,0.000,-1.286,-4.972,0.990,4.740,4.556,4.868,
25.119,33.127,-1.597,-5.570,1.598,-0.001,6.267,2.115,1.202,1.453,1.504,3.065,3.589,0.980,1.142,4.579,1.981,0.000,2.966,0.000,0.000,0.000,0.000,0.000,0.000,0.000,0.000,0.000,0.000,0.000,3.142,6.283,0.000,1.003,1.569,1.569,4.085,6.281,1.199,4.712,0.000,0.000,-1.942,-4.990,0.990,4.740,4.530,4.893,5.281,4.711,4.711,2.198,6.282,5.083,1.570,0.000,0.000,-1.286,-4.972,0.990,4.740,4.556,4.868,
25.220,33.228,-1.597,-5.570,1.598,-0.001,6.268,2.115,1.202,1.453,1.504,3.065,3.589,0.980,1.142,4.579,1.981,0.000,2.966,0.000,0.000,0.000,0.000,0.000,0.000,0.000,0.000,0.000,0.000,0.000,3.142,6.283,0.000,1.003,1.569,1.569,4.085,6.281,1.199,4.712,0.000,0.000,-1.942,-4.990,0.990,4.740,4.530,4.893,5.281,4.711,4.712,2.198,6.282,5.083,1.570,0.000,0.000,-1.286,-4.972,0.990,4.740,4.556,4.868,
25.320,33.328,-1.597,-5.570,1.598,-0.001,6.268,2.115,1.202,1.453,1.504,3.065,3.589,0.980,1.142,4.579,1.981,0.000,2.966,0.000,0.000,0.000,0.000,0.000,0.000,0.000,0.000,0.000,0.000,0.000,3.142,6.283,0.000,1.003,1.569,1.569,4.085,6.281,1.199,4.712,0.000,0.000,-1.942,-4.990,0.990,4.740,4.530,4.893,5.281,4.711,4.712,2.198,6.282,5.083,1.570,0.000,0.000,-1.286,-4.972,0.990,4.740,4.556,4.868,
25.404,33.412,-1.597,-5.570,1.598,-0.001,6.268,2.115,1.202,1.453,1.504,3.065,3.589,0.980,1.142,4.579,1.981,0.000,2.966,0.000,0.000,0.000,0.000,0.000,0.000,0.000,0.000,0.000,0.000,0.000,3.142,6.283,0.000,1.003,1.569,1.569,4.085,6.281,1.199,4.712,0.000,0.000,-1.942,-4.990,0.990,4.740,4.530,4.893,5.281,4.711,4.712,2.198,6.282,5.083,1.570,0.000,0.000,-1.286,-4.972,0.990,4.740,4.556,4.868,
25.520,33.528,-1.597,-5.570,1.598,-0.001,6.267,2.115,1.202,1.453,1.504,3.065,3.589,0.980,1.142,4.579,1.981,0.000,2.966,0.000,0.000,0.000,0.000,0.000,0.000,0.000,0.000,0.000,0.000,0.000,3.142,6.283,0.000,1.003,1.569,1.569,4.085,6.281,1.199,4.712,0.000,0.000,-1.942,-4.990,0.990,4.740,4.530,4.893,5.281,4.711,4.711,2.198,6.282,5.083,1.570,0.000,0.000,-1.286,-4.972,0.990,4.740,4.556,4.868,
25.608,33.616,-1.597,-5.570,1.598,-0.001,6.267,2.115,1.202,1.453,1.504,3.065,3.589,0.980,1.142,4.579,1.981,0.000,2.966,0.000,0.000,0.000,0.000,0.000,0.000,0.000,0.000,0.000,0.000,0.000,3.142,6.283,0.000,1.003,1.569,1.569,4.085,6.281,1.199,4.712,0.000,0.000,-1.942,-4.990,0.990,4.740,4.530,4.893,5.281,4.711,4.711,2.198,6.282,5.083,1.570,0.000,0.000,-1.286,-4.972,0.990,4.740,4.556,4.868,
25.720,33.728,-1.597,-5.570,1.598,-0.001,6.267,2.115,1.202,1.453,1.504,3.065,3.589,0.980,1.142,4.579,1.981,0.000,2.966,0.000,0.000,0.000,0.000,0.000,0.000,0.000,0.000,0.000,0.000,0.000,3.142,6.283,0.000,1.003,1.569,1.569,4.085,6.281,1.199,4.712,0.000,0.000,-1.942,-4.990,0.990,4.740,4.530,4.893,5.281,4.711,4.711,2.198,6.282,5.083,1.570,0.000,0.000,-1.286,-4.972,0.990,4.740,4.556,4.868,
25.820,33.828,-1.597,-5.570,1.598,-0.001,6.267,2.115,1.202,1.453,1.504,3.065,3.589,0.980,1.142,4.579,1.981,0.000,2.966,0.000,0.000,0.000,0.000,0.000,0.000,0.000,0.000,0.000,0.000,0.000,3.142,6.283,0.000,1.003,1.569,1.569,4.085,6.281,1.199,4.712,0.000,0.000,-1.942,-4.990,0.990,4.740,4.530,4.893,5.281,4.711,4.711,2.198,6.282,5.083,1.570,0.000,0.000,-1.286,-4.972,0.990,4.740,4.556,4.868,
25.920,33.928,-1.597,-5.570,1.598,-0.001,6.267,2.115,1.202,1.453,1.504,3.065,3.589,0.980,1.142,4.579,1.981,0.000,2.966,0.000,0.000,0.000,0.000,0.000,0.000,0.000,0.000,0.000,0.000,0.000,3.142,6.283,0.000,1.003,1.569,1.569,4.085,6.281,1.199,4.712,0.000,0.000,-1.942,-4.990,0.990,4.740,4.530,4.893,5.281,4.711,4.711,2.198,6.282,5.083,1.570,0.000,0.000,-1.286,-4.972,0.990,4.740,4.556,4.868,
26.013,34.021,-1.597,-5.570,1.598,-0.001,6.267,2.115,1.202,1.453,1.504,3.065,3.589,0.980,1.142,0.000,1.981,0.000,2.966,0.000,0.000,0.000,0.000,0.000,0.000,0.000,0.000,1.685,0.000,0.000,3.142,6.283,0.000,1.003,1.569,1.569,4.085,6.281,1.199,4.712,0.000,0.000,-1.942,-4.990,0.990,4.740,4.530,4.893,5.281,4.711,4.711,2.198,6.282,5.083,1.570,0.000,0.000,-1.286,-4.972,0.990,4.740,4.556,4.868,
26.120,34.799,-1.597,-5.570,1.598,-0.001,6.267,2.115,1.202,1.453,1.504,3.065,3.589,0.980,1.142,0.000,1.981,0.000,2.966,0.000,0.000,0.000,0.000,0.000,0.000,0.000,0.000,1.582,0.000,0.000,3.142,6.283,0.000,1.003,1.569,1.569,4.085,6.281,1.199,4.712,0.000,0.000,-1.942,-4.990,0.990,4.740,4.530,4.893,5.281,4.711,4.711,2.198,6.282,5.083,1.570,0.000,0.000,-1.286,-4.972,0.990,4.740,4.556,4.868,
26.220,34.899,-1.597,-5.570,1.598,-0.001,6.268,2.115,1.202,1.453,1.504,3.065,3.589,0.980,1.142,0.000,1.981,0.000,2.966,0.000,0.000,0.000,0.000,0.000,0.000,0.000,0.000,1.488,0.000,0.000,3.142,6.283,0.000,1.003,1.569,1.569,4.085,6.281,1.199,4.712,0.000,0.000,-1.942,-4.990,0.990,4.740,4.530,4.893,5.281,4.711,4.712,2.198,6.282,5.083,1.570,0.000,0.000,-1.286,-4.972,0.990,4.740,4.556,4.868,
26.320,34.999,-1.597,-5.570,1.598,-0.001,6.268,2.115,1.202,1.453,1.504,3.065,3.589,0.980,1.142,0.000,1.981,0.000,2.966,0.000,0.000,0.000,0.000,0.000,0.000,0.000,0.000,1.488,0.000,0.000,3.142,6.283,0.000,1.003,1.569,1.569,4.085,6.281,1.199,4.712,0.000,0.000,-1.942,-4.990,0.990,4.740,4.530,4.893,5.281,4.711,4.711,2.198,6.282,5.083,1.570,0.000,0.000,-1.286,-4.972,0.990,4.740,4.556,4.868,
26.420,35.247,-1.597,-5.570,1.598,-0.001,6.268,2.115,1.202,1.453,1.504,3.065,3.589,0.980,1.142,0.000,1.981,0.000,2.966,0.000,0.000,0.000,0.000,0.000,0.000,0.000,0.000,1.488,0.000,0.000,3.142,6.283,0.000,1.003,1.569,1.569,4.085,6.281,1.199,4.712,0.000,0.000,-1.942,-4.990,0.990,4.740,4.530,4.893,5.281,4.711,4.711,2.198,6.282,5.083,1.570,0.000,0.000,-1.286,-4.972,0.990,4.740,4.556,4.868,
26.520,35.347,-1.597,-5.570,1.598,-0.001,6.268,2.115,1.202,1.453,1.504,3.065,3.589,0.980,1.142,0.000,1.981,0.000,2.966,0.000,0.000,0.000,0.000,0.000,0.000,0.000,0.000,1.091,0.000,0.000,3.142,6.283,0.000,1.003,1.569,1.569,4.085,6.281,1.199,4.712,0.000,0.000,-1.942,-4.990,0.990,4.740,4.530,4.893,5.281,4.711,4.711,2.198,6.282,5.083,1.570,0.000,0.000,-1.286,-4.972,0.990,4.740,4.556,4.868,
26.620,35.447,-1.597,-5.570,1.598,-0.001,6.267,2.115,1.202,1.453,1.504,3.065,3.589,0.980,1.142,0.000,1.981,0.000,2.966,0.000,0.000,0.000,0.000,0.000,0.000,0.000,0.000,1.091,0.000,0.000,3.142,6.283,0.000,1.003,1.569,1.569,4.085,6.281,1.199,4.712,0.000,0.000,-1.942,-4.990,0.990,4.740,4.530,4.893,5.281,4.711,4.711,2.198,6.282,5.083,1.570,0.000,0.000,-1.286,-4.972,0.990,4.740,4.556,4.868,
26.720,35.547,-1.597,-5.570,1.598,-0.001,6.267,2.115,1.202,1.453,1.504,3.065,3.589,0.980,1.142,0.000,1.981,0.000,2.966,0.000,0.000,0.000,0.000,0.000,0.000,0.000,0.000,1.091,0.000,0.000,3.142,6.283,0.000,1.003,1.569,1.569,4.085,6.281,1.199,4.712,0.000,0.000,-1.942,-4.990,0.990,4.740,4.530,4.893,5.281,4.711,4.711,2.198,6.282,5.083,1.570,0.000,0.000,-1.286,-4.972,0.990,4.740,4.556,4.868,
26.801,35.628,-1.597,-5.570,1.598,-0.001,6.268,2.115,1.202,1.453,1.504,3.065,3.589,0.980,1.142,4.579,1.981,0.000,2.966,0.000,0.000,0.000,0.000,0.000,0.000,0.000,0.000,0.000,0.000,0.000,3.142,6.283,0.000,1.003,1.569,1.569,4.085,6.281,1.199,4.712,0.000,0.000,-1.942,-4.990,0.990,4.740,4.530,4.893,5.281,4.711,4.711,2.198,6.282,5.083,1.570,0.000,0.000,-1.286,-4.972,0.990,4.740,4.556,4.868,
26.920,35.747,-1.597,-5.570,1.598,-0.001,6.267,2.115,1.202,1.453,1.504,3.065,3.589,0.980,1.142,4.579,1.981,0.000,2.966,0.000,0.000,0.000,0.000,0.000,0.000,0.000,0.000,0.000,0.000,0.000,3.142,6.283,0.000,1.003,1.569,1.569,4.085,6.281,1.199,4.712,0.000,0.000,-1.942,-4.990,0.990,4.740,4.530,4.893,5.281,4.711,4.711,2.198,6.282,5.083,1.570,0.000,0.000,-1.286,-4.972,0.990,4.740,4.556,4.868,
27.020,35.847,-1.597,-5.570,1.598,-0.001,6.268,2.115,1.202,1.453,1.504,3.065,3.589,0.980,1.142,4.579,0.000,0.000,2.966,0.000,0.000,0.000,0.000,0.000,0.000,0.000,0.000,0.000,0.739,0.000,3.142,6.283,0.000,1.003,1.569,1.569,4.085,6.281,1.199,4.712,0.000,0.000,-1.942,-4.990,0.990,4.740,4.530,4.893,5.281,4.711,4.711,2.198,6.282,5.083,1.570,0.000,0.000,-1.286,-4.972,0.990,4.740,4.556,4.868,
27.120,35.947,-1.597,-5.570,1.598,-0.001,6.268,2.115,1.202,1.453,1.504,3.065,3.589,0.980,1.142,4.579,0.000,0.000,2.966,0.000,0.000,0.000,0.000,0.000,0.000,0.000,0.000,0.000,0.709,0.000,3.142,6.283,0.000,1.003,1.569,1.569,4.085,6.281,1.199,4.712,0.000,0.000,-1.942,-4.990,0.990,4.740,4.530,4.893,5.281,4.711,4.711,2.198,6.282,5.083,1.570,0.000,0.000,-1.286,-4.972,0.990,4.740,4.556,4.868,
27.203,36.030,-1.597,-5.570,1.598,-0.001,6.267,2.115,1.202,1.453,1.504,3.065,3.589,0.980,1.142,4.579,0.000,0.000,2.966,0.000,0.000,0.000,0.000,0.000,0.000,0.000,0.000,0.000,0.709,0.000,3.142,6.283,0.000,1.003,1.569,1.569,4.085,6.281,1.199,4.712,0.000,0.000,-1.942,-4.990,0.990,4.740,4.530,4.893,5.281,4.711,4.711,2.198,6.282,5.083,1.570,0.000,0.000,-1.286,-4.972,0.990,4.740,4.556,4.868,
27.320,36.147,-1.597,-5.570,1.598,-0.001,6.268,2.115,1.202,1.453,1.504,3.065,3.589,0.980,1.142,4.579,0.000,0.000,2.966,0.000,0.000,0.000,0.000,0.000,0.000,0.000,0.000,0.000,0.709,0.000,3.142,6.283,0.000,1.003,1.569,1.569,4.085,6.281,1.199,4.712,0.000,0.000,-1.942,-4.990,0.990,4.740,4.530,4.893,5.281,4.711,4.711,2.198,6.282,5.083,1.570,0.000,0.000,-1.286,-4.972,0.990,4.740,4.556,4.868,
27.413,36.240,-1.597,-5.570,1.598,-0.001,6.267,2.115,1.202,1.453,1.504,3.065,3.589,0.980,1.142,4.579,0.000,0.000,2.966,0.000,0.000,0.000,0.000,0.000,0.000,0.000,0.000,0.000,0.728,0.000,3.142,6.283,0.000,1.003,1.569,1.569,4.085,6.281,1.199,4.712,0.000,0.000,-1.942,-4.990,0.990,4.740,4.530,4.893,5.281,4.711,4.711,2.198,6.282,5.083,1.570,0.000,0.000,-1.286,-4.972,0.990,4.740,4.556,4.868,
27.520,36.347,-1.597,-5.570,1.598,-0.001,6.268,2.115,1.202,1.453,1.504,3.065,3.589,0.980,1.142,4.579,0.000,0.000,2.966,0.000,0.000,0.000,0.000,0.000,0.000,0.000,0.000,0.000,0.755,0.000,3.142,6.283,0.000,1.003,1.569,1.569,4.085,6.281,1.199,4.712,0.000,0.000,-1.942,-4.990,0.990,4.740,4.530,4.893,5.281,4.711,4.712,2.198,6.282,5.083,1.570,0.000,0.000,-1.286,-4.972,0.990,4.740,4.556,4.868,
27.617,36.444,-1.597,-5.570,1.598,-0.001,6.267,2.115,1.202,1.453,1.504,3.065,3.589,0.980,1.142,4.579,1.981,0.000,2.966,0.000,0.000,0.000,0.000,0.000,0.000,0.000,0.000,0.000,0.000,0.000,3.142,6.283,0.000,1.003,1.569,1.569,4.085,6.281,1.199,4.712,0.000,0.000,-1.942,-4.990,0.990,4.740,4.530,4.893,5.281,4.711,4.711,2.198,6.282,5.083,1.570,0.000,0.000,-1.286,-4.972,0.990,4.740,4.556,4.868,
27.720,36.547,-1.597,-5.570,1.598,-0.001,6.267,2.115,1.202,1.453,1.504,3.065,3.589,0.980,1.142,4.579,1.981,0.000,2.966,0.000,0.000,0.000,0.000,0.000,0.000,0.000,0.000,0.000,0.000,0.000,3.142,6.283,0.000,1.003,1.569,1.569,4.085,6.281,1.199,4.712,0.000,0.000,-1.942,-4.990,0.990,4.740,4.530,4.893,5.281,4.711,4.711,2.198,6.282,5.083,1.570,0.000,0.000,-1.286,-4.972,0.990,4.740,4.556,4.868,
27.820,36.647,-1.597,-5.570,1.598,-0.001,6.267,2.115,1.202,1.453,1.504,3.065,3.589,0.980,1.142,4.579,1.981,0.000,2.966,0.000,0.000,0.000,0.000,0.000,0.000,0.000,0.000,0.000,0.000,0.000,3.142,6.283,0.000,1.003,1.569,1.569,4.085,6.281,1.199,4.712,0.000,0.000,-1.942,-4.990,0.990,4.740,4.530,4.893,5.281,4.711,4.711,2.198,6.282,5.083,1.570,0.000,0.000,-1.286,-4.972,0.990,4.740,4.556,4.868,
27.920,36.747,-1.597,-5.570,1.598,-0.001,6.267,2.115,1.202,1.453,1.504,3.065,3.589,0.980,1.142,4.579,1.981,0.000,2.966,0.000,0.000,0.000,0.000,0.000,0.000,0.000,0.000,0.000,0.000,0.000,3.142,6.283,0.000,1.003,1.569,1.569,4.085,6.281,1.199,4.712,0.000,0.000,-1.942,-4.990,0.990,4.740,4.530,4.893,5.281,4.711,4.711,2.198,6.282,5.083,1.570,0.000,0.000,-1.286,-4.972,0.990,4.740,4.556,4.868,
28.008,36.835,-1.597,-5.570,1.598,-0.001,6.268,2.115,1.202,1.453,1.504,3.065,3.589,0.980,1.142,0.000,1.981,0.000,2.966,0.000,0.000,0.000,0.000,0.000,0.000,0.000,0.000,0.990,0.000,0.000,3.142,6.283,0.000,1.003,1.569,1.569,4.085,6.281,1.199,4.712,0.000,0.000,-1.942,-4.990,0.990,4.740,4.530,4.893,5.281,4.711,4.711,2.198,6.282,5.083,1.570,0.000,0.000,-1.286,-4.972,0.990,4.740,4.556,4.868,
28.120,36.947,-1.597,-5.570,1.598,-0.001,6.267,2.115,1.202,1.453,1.504,3.065,3.589,0.980,1.142,0.000,1.981,0.000,2.966,0.000,0.000,0.000,0.000,0.000,0.000,0.000,0.000,1.003,0.000,0.000,3.142,6.283,0.000,1.003,1.569,1.569,4.085,6.281,1.199,4.712,0.000,0.000,-1.942,-4.990,0.990,4.740,4.530,4.893,5.281,4.711,4.711,2.198,6.282,5.083,1.570,0.000,0.000,-1.286,-4.972,0.990,4.740,4.556,4.868,
28.220,37.047,-1.597,-5.570,1.598,-0.001,6.267,2.115,1.202,1.453,1.504,3.065,3.589,0.980,1.142,0.000,1.981,0.000,2.966,0.000,0.000,0.000,0.000,0.000,0.000,0.000,0.000,1.092,0.000,0.000,3.142,6.283,0.000,1.003,1.569,1.569,4.085,6.281,1.199,4.712,0.000,0.000,-1.942,-4.990,0.990,4.740,4.530,4.893,5.281,4.711,4.711,2.198,6.282,5.083,1.570,0.000,0.000,-1.286,-4.972,0.990,4.740,4.556,4.868,
28.320,37.147,-1.597,-5.570,1.598,-0.001,6.267,2.115,1.202,1.453,1.504,3.065,3.589,0.980,1.142,0.000,1.981,0.000,2.966,0.000,0.000,0.000,0.000,0.000,0.000,0.000,0.000,1.157,0.000,0.000,3.142,6.283,0.000,1.003,1.569,1.569,4.085,6.281,1.199,4.712,0.000,0.000,-1.942,-4.990,0.990,4.740,4.530,4.893,5.281,4.711,4.711,2.198,6.282,5.083,1.570,0.000,0.000,-1.286,-4.972,0.990,4.740,4.556,4.868,
28.420,37.247,-1.597,-5.570,1.598,-0.001,6.267,2.115,1.202,1.453,1.504,3.065,3.589,0.980,1.142,0.000,1.981,0.000,2.966,0.000,0.000,0.000,0.000,0.000,0.000,0.000,0.000,1.296,0.000,0.000,3.142,6.283,0.000,1.003,1.569,1.569,4.085,6.281,1.199,4.712,0.000,0.000,-1.942,-4.990,0.990,4.740,4.530,4.893,5.281,4.711,4.711,2.198,6.282,5.083,1.570,0.000,0.000,-1.286,-4.972,0.990,4.740,4.556,4.868,
28.520,37.347,-1.597,-5.570,1.598,-0.001,6.268,2.115,1.202,1.453,1.504,3.065,3.589,0.980,1.142,0.000,1.981,0.000,2.966,0.000,0.000,0.000,0.000,0.000,0.000,0.000,0.000,1.381,0.000,0.000,3.142,6.283,0.000,1.003,1.569,1.569,4.085,6.281,1.199,4.712,0.000,0.000,-1.942,-4.990,0.990,4.740,4.530,4.893,5.281,4.711,4.712,2.198,6.282,5.083,1.570,0.000,0.000,-1.286,-4.972,0.990,4.740,4.556,4.868,
28.620,37.447,-1.597,-5.570,1.598,-0.001,6.267,2.115,1.202,1.453,1.504,3.065,3.589,0.980,1.142,0.000,1.981,0.000,2.966,0.000,0.000,0.000,0.000,0.000,0.000,0.000,0.000,1.565,0.000,0.000,3.142,6.283,0.000,1.003,1.569,1.569,4.085,6.281,1.199,4.712,0.000,0.000,-1.942,-4.990,0.990,4.740,4.530,4.893,5.281,4.711,4.712,2.198,6.282,5.083,1.570,0.000,0.000,-1.286,-4.972,0.990,4.740,4.556,4.868,
28.720,37.547,-1.597,-5.570,1.598,-0.001,6.267,2.115,1.202,1.453,1.504,3.065,3.589,0.980,1.142,0.000,1.981,0.000,2.966,0.000,0.000,0.000,0.000,0.000,0.000,0.000,0.000,1.670,0.000,0.000,3.142,6.283,0.000,1.003,1.569,1.569,4.085,6.281,1.199,4.712,0.000,0.000,-1.942,-4.990,0.990,4.740,4.530,4.893,5.281,4.711,4.711,2.198,6.282,5.083,1.570,0.000,0.000,-1.286,-4.972,0.990,4.740,4.556,4.868,
28.820,37.647,-1.597,-5.570,1.598,-0.001,6.267,2.115,1.202,1.453,1.504,3.065,3.589,0.980,1.142,0.000,1.981,0.000,2.966,0.000,0.000,0.000,0.000,0.000,0.000,0.000,0.000,1.923,0.000,0.000,3.142,6.283,0.000,1.003,1.569,1.569,4.085,6.281,1.199,4.712,0.000,0.000,-1.942,-4.990,0.990,4.740,4.530,4.893,5.281,4.711,4.712,2.198,6.282,5.083,1.570,0.000,0.000,-1.286,-4.972,0.990,4.740,4.556,4.868,
28.906,37.733,-1.597,-5.570,1.598,-0.001,6.268,2.115,1.202,1.453,1.504,3.065,3.589,0.980,1.142,4.579,1.981,0.000,2.966,0.000,0.000,0.000,0.000,0.000,0.000,0.000,0.000,0.000,0.000,0.000,3.142,6.283,0.000,1.003,1.569,1.569,4.085,6.281,1.199,4.712,0.000,0.000,-1.942,-4.990,0.990,4.740,4.530,4.893,5.281,4.711,4.711,2.198,6.282,5.083,1.570,0.000,0.000,-1.286,-4.972,0.990,4.740,4.556,4.868,
29.020,37.847,-1.597,-5.570,1.598,-0.001,6.268,2.115,1.202,1.453,1.504,3.065,3.589,0.980,1.142,4.579,1.981,0.000,2.966,0.000,0.000,0.000,0.000,0.000,0.000,0.000,0.000,0.000,0.000,0.000,3.142,6.283,0.000,1.003,1.569,1.569,4.085,6.281,1.199,4.712,0.000,0.000,-1.942,-4.990,0.990,4.740,4.530,4.893,5.281,4.711,4.711,2.198,6.282,5.083,1.570,0.000,0.000,-1.286,-4.972,0.990,4.740,4.556,4.868,
29.120,37.947,-1.597,-5.570,1.598,-0.001,6.268,2.115,1.202,1.453,1.504,3.065,3.589,0.980,1.142,4.579,1.981,0.000,2.966,0.000,0.000,0.000,0.000,0.000,0.000,0.000,0.000,0.0