deveshdatwani/Gopher/Assets/Data/07-21 01-39-54/Obstacle Handling_robot_value.csv
game_time,true_time,x,y,az,vx,vaz,dis_to_obs_0,dis_to_obs_36,dis_to_obs_72,dis_to_obs_108,dis_to_obs_144,dis_to_obs_180,dis_to_obs_-144,dis_to_obs_-108,dis_to_obs_-72,dis_to_obs_-36,dis_to_min_obs,direction_to_min_obs,dis_to_human_0,dis_to_human_36,dis_to_human_72,dis_to_human_108,dis_to_human_144,dis_to_human_180,dis_to_human_-144,dis_to_human_-108,dis_to_human_-72,dis_to_human_-36,dis_to_min_human,direction_to_min_human,main_cam_yaw,main_cam_pitch,left_joint_1,left_joint_2,left_joint_3,left_joint_4,left_joint_5,left_joint_6,left_joint_7,left_joint_gripper,left_is_grasping,left_end_x,left_end_y,left_end_z,left_end_ax,left_end_ay,left_end_az,right_joint_1,right_joint_2,right_joint_3,right_joint_4,right_joint_5,right_joint_6,right_joint_7,right_joint_gripper,right_is_grasping,right_end_x,right_end_y,right_end_z,right_end_ax,right_end_ay,right_end_az,
8.120,14.184,0.977,-9.963,1.818,1.035,1.104,3.588,0.000,1.451,1.397,3.391,0.000,2.627,2.027,0.000,3.710,0.000,3.142,0.000,3.568,0.000,0.000,0.000,0.000,0.000,0.000,0.000,0.000,0.000,3.142,0.001,0.000,1.003,1.570,1.569,4.085,6.282,1.199,4.712,0.000,0.000,0.513,-9.473,0.990,4.961,4.694,4.729,5.282,4.712,4.712,2.198,6.283,5.083,1.570,0.000,0.000,1.150,-9.312,0.991,4.960,4.698,4.725,
8.212,14.276,0.944,-9.848,1.910,1.004,0.812,3.572,0.000,1.403,1.452,0.000,4.388,2.491,2.057,4.717,3.479,0.000,3.071,0.000,0.000,0.000,0.000,0.000,0.000,0.000,0.000,0.000,0.000,0.000,3.142,0.001,0.000,1.003,1.570,1.570,4.086,6.281,1.199,4.712,0.000,0.000,0.438,-9.401,0.990,5.051,4.697,4.726,5.281,4.712,4.712,2.198,6.282,5.083,1.570,0.000,0.000,1.057,-9.183,0.991,5.051,4.702,4.722,
8.320,14.384,0.916,-9.774,1.970,1.003,0.967,3.736,1.560,1.375,1.493,0.000,3.314,2.429,1.693,4.943,3.351,0.000,3.036,0.000,0.000,0.000,0.000,0.000,0.000,0.000,0.000,0.000,0.000,0.000,3.142,0.001,0.000,1.003,1.570,1.570,4.086,6.281,1.199,4.712,0.000,0.000,0.385,-9.358,0.990,5.111,4.700,4.723,5.282,4.712,4.713,2.198,6.282,5.083,1.570,0.000,0.000,0.990,-9.103,0.991,5.110,4.704,4.720,
8.417,14.482,0.866,-9.665,2.080,1.018,1.091,3.317,1.471,1.320,1.596,0.000,3.458,2.347,1.772,4.273,3.183,0.000,2.931,0.000,0.000,0.000,0.000,0.000,0.000,0.000,0.000,0.000,0.000,0.000,3.142,0.001,0.000,1.003,1.570,1.570,4.085,6.282,1.199,4.712,0.000,0.000,0.292,-9.311,0.990,5.222,4.703,4.720,5.282,4.712,4.712,2.198,6.282,5.083,1.570,0.000,0.000,0.865,-8.991,0.991,5.221,4.706,4.717,
8.520,14.584,0.826,-9.596,2.143,1.022,0.584,0.000,1.414,1.295,1.656,0.000,3.674,2.329,2.253,3.397,3.098,0.000,2.861,0.000,0.000,0.000,0.000,0.000,0.000,0.000,0.000,0.000,0.000,0.000,3.142,0.000,0.000,1.004,1.569,1.567,4.085,6.282,1.199,4.712,0.000,0.000,0.230,-9.279,0.990,5.287,4.704,4.718,5.282,4.711,4.710,2.198,6.283,5.083,1.570,0.000,0.000,0.782,-8.923,0.991,5.287,4.705,4.717,
8.617,14.681,0.760,-9.495,2.154,1.008,6.270,0.000,1.308,1.316,1.571,0.000,3.821,2.389,0.000,3.800,2.997,0.000,2.861,0.000,0.000,0.000,0.000,0.000,0.000,0.000,0.000,0.000,0.000,0.000,3.142,6.282,0.000,1.004,1.569,1.569,4.085,6.281,1.199,4.712,0.000,0.000,0.162,-9.185,0.990,5.296,4.704,4.719,5.281,4.711,4.711,2.197,6.282,5.083,1.570,0.000,0.000,0.709,-8.823,0.990,5.296,4.704,4.719,
8.720,14.784,0.717,-9.429,2.154,1.006,6.269,0.000,1.236,1.334,1.499,0.000,3.900,2.436,0.000,3.716,2.930,0.000,2.896,0.000,0.000,0.000,0.000,0.000,0.000,0.000,0.000,0.000,0.000,0.000,3.142,6.282,0.000,1.004,1.569,1.569,4.085,6.281,1.199,4.712,0.000,0.000,0.118,-9.119,0.990,5.296,4.704,4.718,5.281,4.711,4.711,2.198,6.282,5.083,1.570,0.000,0.000,0.665,-8.757,0.990,5.296,4.704,4.719,
8.803,14.867,0.651,-9.330,2.154,1.013,6.269,0.000,1.301,1.361,1.390,0.000,4.019,2.506,0.000,3.590,2.831,0.000,2.896,0.000,0.000,0.000,0.000,0.000,0.000,0.000,0.000,0.000,0.000,0.000,3.142,6.282,0.000,1.004,1.569,1.569,4.085,6.281,1.199,4.712,0.000,0.000,0.052,-9.019,0.990,5.296,4.704,4.718,5.281,4.711,4.711,2.198,6.282,5.083,1.570,0.000,0.000,0.599,-8.658,0.990,5.297,4.704,4.719,
8.920,14.984,0.620,-9.283,2.155,0.484,6.265,0.000,1.435,1.373,1.339,0.000,4.077,2.538,0.000,3.529,2.784,0.000,2.896,0.000,0.000,0.000,0.000,0.000,0.000,0.000,0.000,0.000,0.000,0.000,3.142,0.002,0.001,1.001,1.571,1.572,4.090,6.281,1.200,4.712,0.000,0.000,0.022,-8.970,0.989,5.293,4.699,4.723,5.281,4.712,4.713,2.198,6.282,5.083,1.570,0.000,0.000,0.570,-8.610,0.990,5.294,4.704,4.719,
9.006,15.070,0.603,-9.257,2.155,0.120,6.265,0.000,1.504,1.380,1.312,0.000,4.109,2.556,0.000,3.494,2.758,0.000,2.896,0.000,0.000,0.000,0.000,0.000,0.000,0.000,0.000,0.000,0.000,0.000,3.142,0.000,0.001,1.003,1.570,1.570,4.087,6.281,1.199,4.712,0.000,0.000,0.004,-8.946,0.990,5.296,4.702,4.720,5.281,4.712,4.712,2.198,6.282,5.083,1.570,0.000,0.000,0.551,-8.585,0.990,5.296,4.704,4.719,
9.120,15.184,0.601,-9.254,2.156,0.011,6.269,0.000,1.510,1.380,1.309,0.000,4.114,2.558,0.000,3.489,2.755,0.000,2.896,0.000,0.000,0.000,0.000,0.000,0.000,0.000,0.000,0.000,0.000,0.000,3.142,6.283,0.001,1.003,1.569,1.569,4.086,6.281,1.199,4.712,0.000,0.000,0.002,-8.944,0.990,5.297,4.703,4.720,5.281,4.711,4.712,2.198,6.282,5.083,1.570,0.000,0.000,0.549,-8.582,0.990,5.297,4.704,4.719,
9.201,15.265,0.601,-9.254,2.156,0.000,6.271,0.000,1.510,1.380,1.309,0.000,4.114,2.558,0.000,3.489,2.755,0.000,2.896,0.000,0.000,0.000,0.000,0.000,0.000,0.000,0.000,0.000,0.000,0.000,3.142,6.283,0.000,1.003,1.569,1.569,4.085,6.281,1.199,4.712,0.000,0.000,0.002,-8.944,0.990,5.297,4.703,4.719,5.281,4.711,4.711,2.198,6.282,5.083,1.570,0.000,0.000,0.549,-8.582,0.990,5.297,4.705,4.718,
9.320,15.384,0.601,-9.254,2.156,0.000,6.271,0.000,1.510,1.380,1.309,0.000,4.114,2.558,0.000,3.489,2.755,0.000,2.896,0.000,0.000,0.000,0.000,0.000,0.000,0.000,0.000,0.000,0.000,0.000,3.142,6.283,0.000,1.003,1.569,1.569,4.085,6.281,1.199,4.712,0.000,0.000,0.002,-8.944,0.990,5.297,4.703,4.719,5.281,4.711,4.711,2.198,6.282,5.083,1.570,0.000,0.000,0.549,-8.582,0.990,5.297,4.705,4.718,
9.420,15.484,0.601,-9.254,2.156,0.000,6.271,0.000,1.510,1.380,1.309,0.000,4.114,2.558,0.000,3.489,2.755,0.000,2.896,0.000,0.000,0.000,0.000,0.000,0.000,0.000,0.000,0.000,0.000,0.000,3.142,6.283,0.000,1.003,1.569,1.569,4.085,6.281,1.199,4.712,0.000,0.000,0.002,-8.944,0.990,5.297,4.703,4.719,5.281,4.711,4.711,2.198,6.282,5.083,1.570,0.000,0.000,0.549,-8.582,0.990,5.297,4.705,4.718,
9.520,15.584,0.601,-9.254,2.156,0.000,6.271,0.000,1.510,1.380,1.309,0.000,4.114,2.558,0.000,3.489,2.755,0.000,2.896,0.000,0.000,0.000,0.000,0.000,0.000,0.000,0.000,0.000,0.000,0.000,3.142,6.283,0.000,1.003,1.569,1.569,4.085,6.281,1.199,4.712,0.000,0.000,0.002,-8.944,0.990,5.297,4.703,4.719,5.281,4.711,4.711,2.198,6.282,5.083,1.570,0.000,0.000,0.549,-8.582,0.990,5.297,4.705,4.718,
9.620,15.684,0.601,-9.254,2.156,0.000,6.271,0.000,1.510,1.380,1.309,0.000,4.114,2.558,0.000,3.489,2.755,0.000,2.896,0.000,0.000,0.000,0.000,0.000,0.000,0.000,0.000,0.000,0.000,0.000,3.142,6.283,0.000,1.003,1.569,1.569,4.085,6.281,1.199,4.712,0.000,0.000,0.002,-8.944,0.990,5.297,4.703,4.719,5.281,4.711,4.711,2.198,6.282,5.083,1.570,0.000,0.000,0.549,-8.582,0.990,5.297,4.705,4.718,
9.720,15.784,0.601,-9.254,2.156,0.000,6.271,0.000,1.510,1.380,1.309,0.000,4.114,2.558,0.000,3.489,2.755,0.000,2.896,0.000,0.000,0.000,0.000,0.000,0.000,0.000,0.000,0.000,0.000,0.000,3.142,6.283,0.000,1.003,1.569,1.569,4.085,6.281,1.199,4.712,0.000,0.000,0.002,-8.944,0.990,5.297,4.703,4.719,5.281,4.711,4.711,2.198,6.282,5.083,1.570,0.000,0.000,0.549,-8.582,0.990,5.297,4.705,4.718,
9.820,15.884,0.601,-9.254,2.156,0.000,6.271,0.000,1.510,1.380,1.309,0.000,4.114,2.558,0.000,3.489,2.755,0.000,2.896,0.000,0.000,0.000,0.000,0.000,0.000,0.000,0.000,0.000,0.000,0.000,3.142,6.283,0.000,1.003,1.569,1.569,4.085,6.281,1.199,4.712,0.000,0.000,0.002,-8.944,0.990,5.297,4.703,4.719,5.281,4.711,4.711,2.198,6.282,5.083,1.570,0.000,0.000,0.549,-8.582,0.990,5.297,4.705,4.718,
9.920,15.984,0.601,-9.254,2.156,0.000,6.271,0.000,1.510,1.380,1.309,0.000,4.114,2.558,0.000,3.489,2.755,0.000,2.896,3.267,0.000,0.000,0.000,0.000,0.000,0.000,0.000,0.000,0.000,0.000,3.142,6.283,0.000,1.003,1.569,1.569,4.085,6.281,1.199,4.712,0.000,0.000,0.002,-8.944,0.990,5.297,4.703,4.719,5.281,4.711,4.711,2.198,6.282,5.083,1.570,0.000,0.000,0.549,-8.582,0.990,5.297,4.705,4.718,
10.020,16.084,0.601,-9.254,2.156,0.000,6.271,0.000,1.510,1.380,1.309,0.000,4.114,2.558,0.000,3.489,2.755,0.000,2.896,3.241,0.000,0.000,0.000,0.000,0.000,0.000,0.000,0.000,0.000,0.000,3.142,6.283,0.000,1.003,1.569,1.569,4.085,6.281,1.199,4.712,0.000,0.000,0.002,-8.944,0.990,5.297,4.703,4.719,5.281,4.711,4.711,2.198,6.282,5.083,1.570,0.000,0.000,0.549,-8.582,0.990,5.297,4.705,4.718,
10.117,16.181,0.601,-9.254,2.156,0.000,6.271,0.000,1.510,1.380,1.309,0.000,4.114,2.558,0.000,3.489,2.755,0.000,2.896,3.297,0.000,0.000,0.000,0.000,0.000,0.000,0.000,0.000,0.000,0.000,3.142,6.283,0.000,1.003,1.569,1.569,4.085,6.281,1.199,4.712,0.000,0.000,0.002,-8.944,0.990,5.297,4.703,4.719,5.281,4.711,4.711,2.198,6.282,5.083,1.570,0.000,0.000,0.549,-8.582,0.990,5.297,4.705,4.718,
10.220,16.284,0.601,-9.254,2.156,0.000,6.271,0.000,1.510,1.380,1.309,0.000,4.114,2.558,0.000,3.489,2.755,0.000,2.896,3.345,0.000,0.000,0.000,0.000,0.000,0.000,0.000,0.000,0.000,0.000,3.142,6.283,0.000,1.003,1.569,1.569,4.085,6.281,1.199,4.712,0.000,0.000,0.002,-8.944,0.990,5.297,4.703,4.719,5.281,4.711,4.711,2.198,6.282,5.083,1.570,0.000,0.000,0.549,-8.582,0.990,5.297,4.705,4.718,
10.315,16.379,0.601,-9.254,2.156,0.000,6.271,0.000,1.510,1.380,1.309,0.000,4.114,2.558,0.000,3.489,2.755,0.000,2.896,3.527,0.000,0.000,0.000,0.000,0.000,0.000,0.000,0.000,0.000,0.000,3.142,6.283,0.000,1.003,1.569,1.569,4.085,6.281,1.199,4.712,0.000,0.000,0.002,-8.944,0.990,5.297,4.703,4.719,5.281,4.711,4.711,2.198,6.282,5.083,1.570,0.000,0.000,0.549,-8.582,0.990,5.297,4.705,4.718,
10.420,16.484,0.601,-9.254,2.156,0.000,6.271,0.000,1.510,1.380,1.309,0.000,4.114,2.558,0.000,3.489,2.755,0.000,2.896,3.696,0.000,0.000,0.000,0.000,0.000,0.000,0.000,0.000,0.000,0.000,3.142,6.283,0.000,1.003,1.569,1.569,4.085,6.281,1.199,4.712,0.000,0.000,0.002,-8.944,0.990,5.297,4.703,4.719,5.281,4.711,4.711,2.198,6.282,5.083,1.570,0.000,0.000,0.549,-8.582,0.990,5.297,4.705,4.718,
10.517,16.582,0.601,-9.254,2.156,0.000,6.271,0.000,1.510,1.380,1.309,0.000,4.114,2.558,0.000,3.489,2.755,0.000,2.896,0.000,0.000,0.000,0.000,0.000,0.000,0.000,0.000,0.000,0.000,0.000,3.142,6.283,0.000,1.003,1.569,1.569,4.085,6.281,1.199,4.712,0.000,0.000,0.002,-8.944,0.990,5.297,4.703,4.719,5.281,4.711,4.711,2.198,6.282,5.083,1.570,0.000,0.000,0.549,-8.582,0.990,5.297,4.705,4.718,
10.620,16.684,0.601,-9.254,2.156,0.000,6.271,0.000,1.510,1.380,1.309,0.000,4.114,2.558,0.000,3.489,2.755,0.000,2.896,0.000,0.000,0.000,0.000,0.000,0.000,0.000,0.000,0.000,0.000,0.000,3.142,6.283,0.000,1.003,1.569,1.569,4.085,6.281,1.199,4.712,0.000,0.000,0.002,-8.944,0.990,5.297,4.703,4.719,5.281,4.711,4.711,2.198,6.282,5.083,1.570,0.000,0.000,0.549,-8.582,0.990,5.297,4.705,4.718,
10.708,16.773,0.601,-9.254,2.156,0.000,6.271,0.000,1.510,1.380,1.309,0.000,4.114,2.558,0.000,3.489,2.755,0.000,2.896,0.000,0.000,0.000,0.000,0.000,0.000,0.000,0.000,0.000,0.000,0.000,3.142,6.283,0.000,1.003,1.569,1.569,4.085,6.281,1.199,4.712,0.000,0.000,0.002,-8.944,0.990,5.297,4.703,4.719,5.281,4.711,4.711,2.198,6.282,5.083,1.570,0.000,0.000,0.549,-8.582,0.990,5.297,4.705,4.718,
10.820,16.884,0.601,-9.254,2.156,0.000,6.271,0.000,1.510,1.380,1.309,0.000,4.114,2.558,0.000,3.489,2.755,0.000,2.896,0.000,0.000,0.000,0.000,0.000,0.000,0.000,0.000,0.000,0.000,0.000,3.142,6.283,0.000,1.003,1.569,1.569,4.085,6.281,1.199,4.712,0.000,0.000,0.002,-8.944,0.990,5.297,4.703,4.719,5.281,4.711,4.711,2.198,6.282,5.083,1.570,0.000,0.000,0.549,-8.582,0.990,5.297,4.705,4.718,
10.913,16.977,0.601,-9.254,2.156,0.000,6.271,0.000,1.510,1.380,1.309,0.000,4.114,2.558,0.000,3.489,2.755,0.000,2.896,0.000,0.000,0.000,0.000,0.000,0.000,0.000,0.000,0.000,0.000,0.000,3.142,6.283,0.000,1.003,1.569,1.569,4.085,6.281,1.199,4.712,0.000,0.000,0.002,-8.944,0.990,5.297,4.703,4.719,5.281,4.711,4.711,2.198,6.282,5.083,1.570,0.000,0.000,0.549,-8.582,0.990,5.297,4.705,4.718,
11.020,17.084,0.601,-9.254,2.156,0.000,6.271,0.000,1.510,1.380,1.309,0.000,4.114,2.558,0.000,3.489,2.755,0.000,2.896,0.000,0.000,0.000,0.000,0.000,0.000,0.000,0.000,0.000,0.000,0.000,3.142,6.283,0.000,1.003,1.569,1.569,4.085,6.281,1.199,4.712,0.000,0.000,0.002,-8.944,0.990,5.297,4.703,4.719,5.281,4.711,4.711,2.198,6.282,5.083,1.570,0.000,0.000,0.549,-8.582,0.990,5.297,4.705,4.718,
11.104,17.169,0.594,-9.246,2.155,0.416,0.062,0.000,1.536,1.382,1.296,0.000,4.122,2.566,0.000,3.481,2.747,0.000,2.896,0.000,0.000,0.000,0.000,0.000,0.000,0.000,0.000,0.000,0.000,0.000,3.142,6.278,6.283,1.008,1.568,1.566,4.077,6.282,1.199,4.712,0.000,0.000,-0.005,-8.939,0.991,5.301,4.712,4.712,5.282,4.710,4.709,2.197,6.283,5.083,1.571,0.000,0.000,0.540,-8.574,0.991,5.301,4.705,4.718,
11.220,17.284,0.560,-9.194,2.157,1.078,0.120,0.000,1.662,1.394,1.244,0.000,4.190,2.599,0.000,3.410,2.696,0.000,2.931,0.000,0.000,0.000,0.000,0.000,0.000,0.000,0.000,0.000,0.000,0.000,3.142,6.278,6.283,1.008,1.568,1.566,4.077,6.282,1.199,4.712,0.000,0.000,-0.040,-8.889,0.991,5.303,4.712,4.712,5.282,4.710,4.709,2.197,6.282,5.083,1.571,0.000,0.000,0.505,-8.523,0.991,5.303,4.705,4.718,
11.307,17.371,0.473,-9.063,2.161,1.344,0.158,0.000,0.000,1.427,1.276,0.000,4.358,2.690,0.000,3.234,2.563,0.000,2.931,0.000,0.000,0.000,0.000,0.000,0.000,0.000,0.000,0.000,0.000,0.000,3.142,0.001,0.000,1.002,1.570,1.571,4.087,6.281,1.200,4.712,0.000,0.000,-0.128,-8.755,0.990,5.300,4.702,4.721,5.281,4.712,4.713,2.199,6.282,5.083,1.570,0.000,0.000,0.418,-8.390,0.990,5.301,4.705,4.718,
11.420,17.484,0.422,-8.987,2.197,0.967,0.958,0.000,0.000,1.131,1.301,0.000,4.402,2.710,0.000,3.056,2.487,0.000,2.896,0.000,0.000,0.000,0.000,0.000,0.000,0.000,0.000,0.000,0.000,0.000,3.142,0.004,0.001,1.001,1.572,1.574,4.090,6.280,1.200,4.712,0.000,0.000,-0.188,-8.698,0.989,5.332,4.700,4.722,5.281,4.714,4.716,2.199,6.281,5.083,1.571,0.000,0.000,0.345,-8.316,0.991,5.333,4.706,4.717,
11.511,17.575,0.361,-8.909,2.335,0.846,1.394,4.769,1.282,1.357,1.361,0.000,3.814,2.276,0.000,2.718,2.436,0.000,2.755,0.000,0.000,0.000,0.000,0.000,0.000,0.000,0.000,0.000,0.000,0.000,3.142,0.001,0.000,1.004,1.570,1.569,4.084,6.282,1.199,4.712,0.000,0.000,-0.284,-8.711,0.990,5.477,4.707,4.715,5.282,4.712,4.712,2.198,6.282,5.083,1.570,0.000,0.000,0.189,-8.256,0.991,5.476,4.708,4.715,
11.620,17.684,0.308,-8.856,2.421,1.049,1.024,4.336,1.095,1.325,1.407,0.000,3.583,2.703,4.558,2.553,2.423,0.000,2.685,0.000,0.000,0.000,0.000,0.000,0.000,0.000,0.000,0.000,0.000,0.000,3.142,6.283,0.000,1.005,1.569,1.568,4.083,6.282,1.199,4.712,0.000,0.000,-0.352,-8.715,0.990,5.565,4.708,4.714,5.282,4.711,4.710,2.198,6.283,5.083,1.570,0.000,0.000,0.080,-8.221,0.991,5.564,4.708,4.714,
11.705,17.769,0.207,-8.772,2.508,1.101,0.814,3.934,0.974,1.292,1.454,0.000,3.465,0.000,3.854,2.384,2.004,0.000,2.615,0.000,0.000,0.000,0.000,0.000,0.000,0.000,0.000,0.000,0.000,0.000,3.142,0.001,0.000,1.003,1.570,1.570,4.086,6.281,1.199,4.712,0.000,0.000,-0.463,-8.688,0.990,5.649,4.706,4.715,5.281,4.712,4.712,2.198,6.282,5.083,1.570,0.000,0.000,-0.074,-8.159,0.991,5.649,4.708,4.714,
11.820,17.884,0.140,-8.724,2.571,0.992,1.009,3.917,0.898,1.270,1.491,0.000,3.399,0.000,3.481,2.293,2.078,0.000,2.545,0.000,0.000,0.000,0.000,0.000,0.000,0.000,0.000,0.000,0.000,0.000,3.142,0.002,0.000,1.003,1.571,1.571,4.087,6.281,1.199,4.712,0.000,0.000,-0.534,-8.681,0.990,5.711,4.706,4.715,5.282,4.713,4.713,2.198,6.282,5.083,1.570,0.000,0.000,-0.179,-8.129,0.991,5.710,4.708,4.714,
11.920,17.984,0.042,-8.666,2.679,0.969,0.842,4.917,0.782,1.239,1.891,4.701,3.305,0.000,3.015,2.186,2.121,0.000,2.475,0.000,0.000,0.000,0.000,0.000,0.000,0.000,0.000,0.000,0.000,0.000,3.142,0.000,0.000,1.004,1.569,1.568,4.085,6.282,1.199,4.712,0.000,0.000,-0.632,-8.698,0.990,5.822,4.708,4.713,5.282,4.712,4.711,2.198,6.283,5.083,1.570,0.000,0.000,-0.340,-8.110,0.991,5.822,4.708,4.713,
12.012,18.076,-0.047,-8.623,2.705,1.036,6.247,0.000,0.749,0.746,1.565,4.823,3.362,0.000,2.884,2.136,4.633,0.000,2.650,0.000,0.000,0.000,0.000,0.000,0.000,0.000,0.000,0.000,0.000,0.000,3.142,6.282,0.000,1.004,1.568,1.567,4.084,6.281,1.199,4.712,0.000,0.000,-0.720,-8.673,0.990,5.849,4.707,4.713,5.281,4.711,4.710,2.198,6.282,5.083,1.570,0.000,0.000,-0.443,-8.078,0.990,5.849,4.707,4.714,
12.120,18.184,-0.121,-8.588,2.705,1.038,6.270,0.000,0.738,0.506,1.528,4.863,3.444,0.000,2.837,2.101,4.484,0.000,2.650,0.000,0.000,0.000,0.000,0.000,0.000,0.000,0.000,0.000,0.000,0.000,3.142,6.282,0.000,1.004,1.569,1.569,4.085,6.281,1.199,4.712,0.000,0.000,-0.794,-8.637,0.990,5.847,4.707,4.714,5.281,4.711,4.711,2.198,6.282,5.083,1.570,0.000,0.000,-0.517,-8.043,0.990,5.847,4.707,4.714,
12.207,18.271,-0.225,-8.540,2.705,0.704,6.268,0.000,0.723,0.496,1.478,4.919,3.558,0.000,2.171,2.053,4.275,0.000,2.685,0.000,0.000,0.000,0.000,0.000,0.000,0.000,0.000,0.000,0.000,0.000,3.142,0.002,0.001,1.001,1.571,1.571,4.091,6.281,1.200,4.712,0.000,0.000,-0.898,-8.587,0.989,5.844,4.704,4.715,5.281,4.712,4.713,2.198,6.282,5.083,1.570,0.000,0.000,-0.620,-7.993,0.990,5.845,4.707,4.714,
12.320,18.384,-0.259,-8.524,2.706,0.321,6.265,0.000,0.718,0.493,1.461,4.939,3.595,0.000,2.153,2.037,4.202,0.000,2.685,0.000,0.000,0.000,0.000,0.000,0.000,0.000,0.000,0.000,0.000,0.000,3.142,0.001,0.001,1.002,1.570,1.570,4.089,6.281,1.200,4.712,0.000,0.000,-0.933,-8.572,0.989,5.846,4.705,4.715,5.281,4.712,4.712,2.198,6.282,5.083,1.570,0.000,0.000,-0.655,-7.978,0.990,5.846,4.707,4.714,
12.402,18.466,-0.276,-8.516,2.706,0.057,6.267,0.000,0.715,0.491,1.454,4.950,3.613,0.000,2.168,2.029,4.170,0.000,2.685,0.000,0.000,0.000,0.000,0.000,0.000,0.000,0.000,0.000,0.000,0.000,3.142,6.283,0.001,1.003,1.570,1.570,4.086,6.281,1.199,4.712,0.000,0.000,-0.949,-8.566,0.990,5.848,4.706,4.714,5.281,4.711,4.712,2.198,6.282,5.083,1.570,0.000,0.000,-0.672,-7.971,0.990,5.848,4.707,4.714,
12.520,18.584,-0.277,-8.516,2.707,0.000,6.274,0.000,0.715,0.491,1.454,4.951,3.613,0.000,2.170,2.028,4.171,0.000,2.685,0.000,0.000,0.000,0.000,0.000,0.000,0.000,0.000,0.000,0.000,0.000,3.142,6.283,0.000,1.003,1.569,1.569,4.086,6.281,1.199,4.712,0.000,0.000,-0.950,-8.566,0.990,5.848,4.707,4.714,5.281,4.711,4.711,2.198,6.282,5.083,1.570,0.000,0.000,-0.673,-7.971,0.990,5.848,4.708,4.714,
12.620,18.684,-0.280,-8.514,2.706,0.234,0.013,0.000,0.715,0.490,1.452,4.952,3.618,0.000,2.174,2.027,4.168,0.000,2.720,0.000,0.000,0.000,0.000,0.000,0.000,0.000,0.000,0.000,0.000,0.000,3.142,6.279,6.283,1.007,1.568,1.567,4.079,6.281,1.199,4.712,0.000,0.000,-0.952,-8.566,0.990,5.851,4.710,4.712,5.282,4.710,4.709,2.197,6.282,5.083,1.570,0.000,0.000,-0.677,-7.970,0.990,5.851,4.707,4.714,
12.720,18.784,-0.339,-8.486,2.709,1.054,0.108,0.000,0.705,0.485,1.426,4.992,3.679,0.000,2.690,1.998,4.141,0.000,2.720,0.000,0.000,0.000,0.000,0.000,0.000,0.000,0.000,0.000,0.000,0.000,3.142,6.278,6.283,1.008,1.568,1.566,4.077,6.282,1.199,4.712,0.000,0.000,-1.010,-8.541,0.991,5.855,4.712,4.712,5.282,4.710,4.709,2.197,6.282,5.083,1.571,0.000,0.000,-0.738,-7.944,0.991,5.854,4.708,4.714,
12.820,18.884,-0.458,-8.432,2.710,1.414,6.267,0.000,2.630,0.472,0.511,0.000,3.807,0.000,2.613,1.943,4.081,0.000,2.755,0.000,0.000,0.000,0.000,0.000,0.000,0.000,0.000,0.000,0.000,0.000,3.142,6.282,0.000,1.004,1.569,1.569,4.085,6.281,1.199,4.712,0.000,0.000,-1.130,-8.484,0.990,5.852,4.707,4.714,5.281,4.711,4.711,2.198,6.282,5.083,1.570,0.000,0.000,-0.856,-7.888,0.990,5.852,4.707,4.714,
12.920,18.984,-0.567,-8.382,2.711,0.980,6.265,0.000,2.855,0.461,0.499,0.000,3.926,0.000,2.544,1.892,4.024,0.000,2.791,0.000,0.000,0.000,0.000,0.000,0.000,0.000,0.000,0.000,0.000,0.000,3.142,0.001,0.001,1.001,1.570,1.571,4.089,6.281,1.200,4.712,0.000,0.000,-1.240,-8.432,0.989,5.850,4.705,4.715,5.281,4.712,4.713,2.198,6.282,5.083,1.570,0.000,0.000,-0.965,-7.837,0.990,5.851,4.707,4.714,
13.020,19.084,-0.642,-8.347,2.711,0.806,6.267,0.000,3.008,0.453,0.490,0.000,4.008,0.000,2.496,1.417,3.986,0.000,2.791,0.000,0.000,0.000,0.000,0.000,0.000,0.000,0.000,0.000,0.000,0.000,3.142,6.282,0.000,1.004,1.569,1.569,4.085,6.281,1.199,4.712,0.000,0.000,-1.315,-8.400,0.990,5.853,4.707,4.714,5.281,4.711,4.711,2.198,6.282,5.083,1.570,0.000,0.000,-1.041,-7.804,0.990,5.853,4.707,4.714,
13.120,19.184,-0.724,-8.310,2.711,1.034,6.224,0.000,2.588,0.445,0.481,0.000,4.098,0.000,2.446,2.111,3.942,0.000,2.826,0.000,0.000,0.000,0.000,0.000,0.000,0.000,0.000,0.000,0.000,0.000,3.142,6.280,0.000,1.005,1.568,1.567,4.082,6.281,1.199,4.712,0.000,0.000,-1.396,-8.364,0.990,5.855,4.709,4.713,5.282,4.710,4.710,2.197,6.282,5.083,1.570,0.000,0.000,-1.123,-7.767,0.990,5.855,4.707,4.714,
13.220,19.284,-0.822,-8.264,2.670,1.117,5.323,3.909,2.467,1.233,0.462,0.000,4.290,0.000,2.478,1.482,3.803,0.000,2.896,0.000,0.000,0.000,0.000,0.000,0.000,0.000,0.000,0.000,0.000,0.000,3.142,6.280,0.001,1.005,1.567,1.565,4.084,6.282,1.199,4.711,0.000,0.000,-1.497,-8.292,0.990,5.817,4.707,4.713,5.281,4.710,4.708,2.197,6.282,5.083,1.570,0.000,0.000,-1.200,-7.707,0.990,5.816,4.707,4.714,
13.320,19.384,-0.914,-8.215,2.560,0.997,4.916,3.205,2.341,2.725,0.441,0.694,4.686,0.000,2.721,1.773,3.925,0.000,3.036,0.000,0.000,0.000,0.000,0.000,0.000,0.000,0.000,0.000,0.000,0.000,3.142,6.281,0.001,1.004,1.568,1.567,4.086,6.281,1.199,4.712,0.000,0.000,-1.588,-8.166,0.989,5.703,4.706,4.714,5.282,4.711,4.710,2.197,6.282,5.083,1.570,0.000,0.000,-1.227,-7.618,0.991,5.703,4.707,4.714,
13.420,19.484,-0.992,-8.161,2.451,0.960,5.219,2.664,0.000,2.418,0.571,0.623,0.000,0.000,3.062,1.347,0.000,0.000,3.142,0.000,0.000,0.000,0.000,0.000,0.000,0.000,0.000,0.000,0.000,0.000,3.142,6.280,0.001,1.004,1.569,1.568,4.085,6.281,1.199,4.712,0.000,0.000,-1.656,-8.039,0.990,5.594,4.706,4.715,5.282,4.711,4.711,2.197,6.281,5.083,1.570,0.000,0.000,-1.238,-7.533,0.991,5.593,4.707,4.715,
13.520,19.584,-1.066,-8.097,2.370,1.027,5.416,2.654,0.000,2.072,1.166,0.600,0.000,0.000,2.559,1.285,0.000,0.000,3.142,0.000,0.000,0.000,0.000,0.000,0.000,0.000,0.000,0.000,0.000,0.000,3.142,6.280,0.000,1.005,1.569,1.568,4.084,6.281,1.199,4.712,0.000,0.000,-1.718,-7.922,0.990,5.513,4.706,4.715,5.282,4.711,4.710,2.197,6.282,5.083,1.570,0.000,0.000,-1.261,-7.452,0.991,5.513,4.706,4.716,
13.608,19.672,-1.139,-8.024,2.291,1.040,5.319,2.768,0.000,2.340,1.297,0.596,0.000,4.492,3.799,1.256,4.630,0.000,3.142,0.000,0.000,0.000,0.000,0.000,0.000,0.000,0.000,0.000,0.000,0.000,3.142,6.281,0.001,1.004,1.568,1.567,4.085,6.281,1.199,4.712,0.000,0.000,-1.775,-7.799,0.990,5.435,4.705,4.716,5.282,4.711,4.710,2.197,6.282,5.083,1.570,0.000,0.000,-1.282,-7.366,0.990,5.434,4.706,4.716,
13.720,19.784,-1.191,-7.963,2.240,1.011,5.875,2.852,0.000,2.217,1.409,0.660,0.000,4.348,4.127,1.249,4.653,0.000,3.142,0.000,0.000,0.000,0.000,0.000,0.000,0.000,0.000,0.000,0.000,0.000,3.142,6.282,0.000,1.004,1.570,1.570,4.085,6.281,1.199,4.712,0.000,0.000,-1.814,-7.704,0.990,5.380,4.704,4.718,5.282,4.712,4.712,2.198,6.281,5.083,1.571,0.000,0.000,-1.300,-7.297,0.991,5.380,4.706,4.717,
13.801,19.866,-1.264,-7.870,2.235,0.995,6.262,2.756,0.000,2.134,3.244,0.862,0.000,4.431,2.659,1.640,4.536,0.000,3.142,0.000,0.000,0.000,0.000,0.000,0.000,0.000,0.000,0.000,0.000,0.000,3.142,6.282,0.000,1.004,1.569,1.569,4.085,6.281,1.199,4.712,0.000,0.000,-1.886,-7.609,0.990,5.377,4.705,4.717,5.281,4.711,4.711,2.198,6.282,5.083,1.570,0.000,0.000,-1.369,-7.204,0.990,5.377,4.705,4.717,
13.920,19.984,-1.304,-7.819,2.235,0.578,6.266,2.691,0.000,2.091,3.172,0.970,0.000,4.472,2.662,1.222,4.462,0.000,3.142,0.000,0.000,0.000,0.000,0.000,0.000,0.000,0.000,0.000,0.000,0.000,3.142,0.002,0.001,1.001,1.571,1.572,4.090,6.281,1.200,4.712,0.000,0.000,-1.926,-7.555,0.989,5.374,4.700,4.722,5.281,4.712,4.714,2.198,6.282,5.083,1.570,0.000,0.000,-1.408,-7.152,0.990,5.374,4.705,4.718,
14.014,20.079,-1.328,-7.789,2.236,0.156,6.265,2.651,0.000,2.066,3.131,1.032,0.000,4.495,3.680,1.185,4.418,0.000,3.142,0.000,0.000,0.000,0.000,0.000,0.000,0.000,0.000,0.000,0.000,0.000,3.142,0.000,0.001,1.003,1.570,1.570,4.087,6.281,1.200,4.712,0.000,0.000,-1.950,-7.527,0.990,5.377,4.703,4.719,5.281,4.712,4.712,2.198,6.282,5.083,1.570,0.000,0.000,-1.433,-7.123,0.990,5.377,4.705,4.718,
14.120,20.184,-1.331,-7.784,2.236,0.031,6.268,2.644,0.000,2.063,3.126,1.041,0.000,4.500,3.663,1.180,4.411,0.000,3.142,0.000,0.000,0.000,0.000,0.000,0.000,0.000,0.000,0.000,0.000,0.000,3.142,6.283,0.001,1.003,1.570,1.570,4.086,6.281,1.199,4.712,0.000,0.000,-1.954,-7.524,0.990,5.378,4.704,4.718,5.281,4.711,4.712,2.198,6.282,5.083,1.570,0.000,0.000,-1.437,-7.119,0.990,5.378,4.705,4.718,
14.216,20.280,-1.362,-7.745,2.237,0.874,0.011,2.593,4.929,2.030,3.071,1.124,0.000,4.658,3.543,1.132,4.353,0.000,3.142,0.000,0.000,0.000,0.000,0.000,0.000,0.000,0.000,0.000,0.000,0.000,3.142,6.278,6.283,1.008,1.567,1.566,4.077,6.281,1.199,4.712,0.000,0.000,-1.985,-7.489,0.991,5.383,4.712,4.712,5.282,4.709,4.708,2.197,6.282,5.083,1.570,0.000,0.000,-1.471,-7.080,0.991,5.382,4.705,4.717,
14.320,20.384,-1.419,-7.672,2.236,1.384,6.265,2.505,4.434,1.968,2.962,1.278,0.000,4.916,3.343,1.046,4.253,0.000,3.142,0.000,0.000,0.000,0.000,0.000,0.000,0.000,0.000,0.000,0.000,0.000,3.142,6.280,6.283,1.006,1.568,1.567,4.081,6.281,1.199,4.712,0.000,0.000,-2.042,-7.414,0.990,5.381,4.708,4.714,5.281,4.710,4.709,2.198,6.282,5.083,1.570,0.000,0.000,-1.527,-7.008,0.990,5.380,4.705,4.717,
14.420,20.484,-1.515,-7.550,2.237,1.086,6.264,2.351,4.226,1.865,2.784,1.611,0.000,0.000,2.990,0.946,4.104,0.000,3.142,0.000,0.000,0.000,0.000,0.000,0.000,0.000,0.000,0.000,0.000,0.000,3.142,0.001,0.001,1.002,1.570,1.571,4.089,6.281,1.200,4.712,0.000,0.000,-2.137,-7.288,0.989,5.376,4.701,4.720,5.281,4.712,4.713,2.198,6.282,5.083,1.570,0.000,0.000,-1.621,-6.884,0.990,5.377,4.705,4.718,
14.505,20.569,-1.569,-7.481,2.235,0.759,6.134,2.269,4.172,1.806,2.676,1.680,0.000,0.000,2.805,1.042,4.119,0.000,3.142,0.000,0.000,0.000,0.000,0.000,0.000,0.000,0.000,0.000,0.000,0.000,3.142,6.282,0.001,1.003,1.569,1.569,4.086,6.281,1.199,4.712,0.000,0.000,-2.192,-7.221,0.990,5.378,4.704,4.718,5.281,4.711,4.711,2.197,6.282,5.083,1.570,0.000,0.000,-1.676,-6.816,0.990,5.378,4.704,4.718,
14.620,20.684,-1.606,-7.434,2.199,0.809,5.332,2.317,4.783,2.006,2.466,1.724,1.849,0.000,2.963,1.051,3.995,0.000,1.106,0.000,0.000,0.000,0.000,0.000,0.000,0.000,0.000,0.000,0.000,0.000,3.142,6.280,0.001,1.005,1.567,1.565,4.083,6.282,1.199,4.711,0.000,0.000,-2.220,-7.153,0.990,5.346,4.706,4.716,5.282,4.710,4.707,2.197,6.283,5.083,1.570,0.000,0.000,-1.690,-6.766,0.990,5.345,4.704,4.718,
14.706,20.770,-1.667,-7.344,2.060,1.008,4.886,2.747,1.618,0.000,2.242,1.824,1.512,4.741,4.665,0.976,4.584,0.000,1.281,0.000,0.000,0.000,0.000,0.000,0.000,0.000,0.000,0.000,0.000,0.000,3.142,6.280,0.000,1.005,1.568,1.566,4.084,6.281,1.199,4.712,0.000,0.000,-2.235,-6.979,0.990,5.204,4.703,4.719,5.282,4.711,4.709,2.197,6.282,5.083,1.570,0.000,0.000,-1.656,-6.670,0.991,5.203,4.705,4.718,
14.820,20.884,-1.703,-7.273,1.970,0.975,5.169,2.596,1.551,0.000,2.098,3.810,1.453,0.000,0.000,0.943,3.659,0.000,1.351,0.000,0.000,0.000,0.000,0.000,0.000,0.000,0.000,0.000,0.000,0.000,3.142,6.281,0.001,1.004,1.569,1.568,4.086,6.281,1.199,4.712,0.000,0.000,-2.236,-6.859,0.990,5.113,4.699,4.724,5.282,4.711,4.711,2.198,6.281,5.083,1.570,0.000,0.000,-1.631,-6.603,0.991,5.112,4.703,4.720,
14.913,20.977,-1.743,-7.172,1.875,0.884,5.447,2.395,1.542,0.000,1.888,3.893,1.689,0.000,0.000,0.922,3.648,0.000,1.492,0.000,0.000,0.000,0.000,0.000,0.000,0.000,0.000,0.000,0.000,0.000,3.142,6.281,0.001,1.004,1.569,1.568,4.085,6.281,1.199,4.712,0.000,0.000,-2.234,-6.709,0.990,5.018,4.696,4.727,5.282,4.711,4.710,2.197,6.282,5.083,1.570,0.000,0.000,-1.607,-6.512,0.990,5.017,4.697,4.726,
15.020,21.084,-1.763,-7.105,1.812,0.901,5.313,2.295,1.591,4.442,1.806,3.551,1.871,0.000,0.000,0.908,3.464,0.000,2.755,0.000,0.000,0.000,0.000,0.000,0.000,0.000,0.000,0.000,0.000,0.000,3.142,6.280,0.001,1.004,1.568,1.567,4.084,6.281,1.199,4.712,0.000,0.000,-2.224,-6.612,0.990,4.956,4.693,4.729,5.282,4.711,4.710,2.197,6.282,5.083,1.570,0.000,0.000,-1.587,-6.455,0.990,4.955,4.694,4.729,
15.117,21.181,-1.786,-6.998,1.703,0.945,5.221,4.911,1.724,3.866,4.273,2.709,2.178,0.000,0.000,0.879,2.846,0.000,2.896,0.000,0.000,0.000,0.000,0.000,0.000,0.000,0.000,0.000,0.000,0.000,3.142,6.280,0.001,1.004,1.568,1.567,4.085,6.281,1.199,4.712,0.000,0.000,-2.191,-6.458,0.990,4.847,4.677,4.746,5.282,4.711,4.710,2.197,6.282,5.083,1.570,0.000,0.000,-1.540,-6.371,0.991,4.846,4.680,4.743,
15.220,21.284,-1.795,-6.925,1.630,0.938,5.265,4.154,1.851,1.346,4.844,2.416,2.236,0.000,0.000,0.861,0.000,0.000,2.966,0.000,0.000,0.000,0.000,0.000,0.000,0.000,0.000,0.000,0.000,0.000,3.142,6.281,0.001,1.004,1.569,1.568,4.085,6.281,1.199,4.712,0.000,0.000,-2.159,-6.356,0.990,4.774,4.632,4.791,5.282,4.711,4.710,2.197,6.282,5.083,1.570,0.000,0.000,-1.504,-6.317,0.991,4.773,4.642,4.782,
15.312,21.376,-1.798,-6.816,1.526,0.916,5.301,3.350,2.113,1.272,0.000,2.427,2.344,0.000,0.000,0.834,0.000,0.000,3.071,0.000,0.000,0.000,0.000,0.000,0.000,0.000,0.000,0.000,0.000,0.000,3.142,6.281,0.001,1.004,1.569,1.567,4.085,6.281,1.199,4.712,0.000,0.000,-2.102,-6.213,0.990,4.755,1.685,1.455,5.282,4.711,4.710,2.197,6.282,5.083,1.570,0.000,0.000,-1.446,-6.241,0.991,4.756,1.672,1.468,
15.420,21.484,-1.794,-6.744,1.458,0.919,5.285,3.432,2.360,1.310,0.000,2.233,0.000,2.492,0.000,0.816,0.000,0.000,3.142,0.000,0.000,0.000,0.000,0.000,0.000,0.000,0.000,0.000,0.000,0.000,3.142,6.281,0.001,1.004,1.569,1.567,4.085,6.281,1.199,4.712,0.000,0.000,-2.056,-6.121,0.990,4.824,1.614,1.527,5.282,4.711,4.710,2.197,6.282,5.083,1.570,0.000,0.000,-1.403,-6.195,0.991,4.824,1.610,1.531,
15.520,21.584,-1.779,-6.634,1.362,0.974,5.698,3.910,1.918,1.390,0.000,2.116,4.360,2.326,0.000,0.787,0.000,0.000,2.264,0.000,0.000,0.000,0.000,0.000,0.000,0.000,0.000,0.000,0.000,0.000,3.142,6.281,0.000,1.004,1.569,1.569,4.084,6.281,1.199,4.712,0.000,0.000,-1.978,-5.990,0.990,4.921,1.593,1.549,5.282,4.711,4.712,2.198,6.281,5.083,1.570,0.000,0.000,-1.336,-6.126,0.991,4.922,1.590,1.551,
15.604,21.669,-1.757,-6.536,1.349,1.052,6.273,3.820,1.798,1.425,4.475,2.288,4.473,2.446,0.000,0.764,0.000,0.000,2.440,0.000,0.000,0.000,0.000,0.000,0.000,0.000,0.000,0.000,0.000,0.000,3.142,6.282,0.000,1.004,1.569,1.569,4.085,6.281,1.199,4.712,0.000,0.000,-1.949,-5.889,0.990,4.934,1.592,1.549,5.281,4.711,4.711,2.198,6.282,5.083,1.570,0.000,0.000,-1.309,-6.033,0.990,4.934,1.591,1.551,
15.720,21.784,-1.739,-6.456,1.350,1.039,6.261,3.737,1.710,1.445,1.376,2.405,4.555,2.581,0.000,0.746,0.000,0.000,2.475,0.000,0.000,0.000,0.000,0.000,0.000,0.000,0.000,0.000,0.000,0.000,3.142,6.283,0.000,1.003,1.569,1.569,4.085,6.281,1.199,4.712,0.000,0.000,-1.931,-5.809,0.990,4.934,1.594,1.548,5.281,4.711,4.711,2.198,6.282,5.083,1.570,0.000,0.000,-1.291,-5.952,0.990,4.933,1.591,1.551,
15.820,21.884,-1.713,-6.339,1.351,0.990,6.262,3.618,1.583,1.474,1.297,2.573,4.674,2.776,0.829,0.720,0.000,0.000,2.475,0.000,0.000,0.000,0.000,0.000,0.000,0.000,0.000,0.000,0.000,0.000,3.142,6.283,0.000,1.003,1.569,1.569,4.085,6.281,1.199,4.712,0.000,0.000,-1.905,-5.692,0.990,4.933,1.593,1.548,5.281,4.711,4.711,2.198,6.282,5.083,1.570,0.000,0.000,-1.265,-5.836,0.990,4.932,1.591,1.550,
15.920,21.984,-1.692,-6.244,1.351,1.003,6.263,3.520,1.580,1.498,1.318,2.710,4.771,2.935,0.804,0.699,0.000,0.000,2.510,0.000,0.000,0.000,0.000,0.000,0.000,0.000,0.000,0.000,0.000,0.000,3.142,6.282,0.000,1.004,1.569,1.569,4.085,6.281,1.199,4.712,0.000,0.000,-1.884,-5.597,0.990,4.932,1.592,1.549,5.281,4.711,4.711,2.198,6.282,5.083,1.570,0.000,0.000,-1.244,-5.740,0.990,4.932,1.591,1.550,
16.020,22.084,-1.670,-6.146,1.354,1.022,0.200,3.418,1.621,1.520,1.340,2.843,4.867,0.000,0.777,1.177,0.000,0.000,2.510,0.000,0.000,0.000,0.000,0.000,0.000,0.000,0.000,0.000,0.000,0.000,3.142,0.000,0.000,1.003,1.570,1.570,4.086,6.281,1.199,4.712,0.000,0.000,-1.864,-5.500,0.990,4.930,1.594,1.547,5.281,4.712,4.712,2.199,6.282,5.083,1.570,0.000,0.000,-1.223,-5.642,0.991,4.930,1.589,1.553,
16.120,22.184,-1.649,-6.048,1.413,1.015,1.192,3.518,1.484,1.498,1.374,2.816,0.000,0.000,0.730,1.166,4.463,0.000,3.142,0.000,0.000,0.000,0.000,0.000,0.000,0.000,0.000,0.000,0.000,0.000,3.142,0.002,0.000,1.003,1.571,1.572,4.086,6.281,1.199,4.712,0.000,0.000,-1.879,-5.415,0.990,4.874,1.602,1.539,5.282,4.713,4.714,2.199,6.282,5.083,1.571,0.000,0.000,-1.232,-5.518,0.991,4.873,1.590,1.552,
16.220,22.284,-1.637,-5.949,1.514,1.010,0.741,2.584,1.277,1.449,1.421,2.708,3.213,0.000,0.684,1.127,1.880,0.000,3.071,0.000,0.000,0.000,0.000,0.000,0.000,0.000,0.000,0.000,0.000,0.000,3.142,0.000,0.000,1.004,1.569,1.567,4.085,6.282,1.199,4.712,0.000,0.000,-1.933,-5.343,0.990,4.766,1.653,1.488,5.282,4.712,4.710,2.198,6.283,5.083,1.570,0.000,0.000,-1.277,-5.379,0.991,4.767,1.640,1.500,
16.320,22.384,-1.632,-5.850,1.529,1.015,6.272,2.463,1.258,1.447,1.432,2.803,3.310,0.000,0.901,1.127,1.773,0.000,3.036,0.000,0.000,0.000,0.000,0.000,0.000,0.000,0.000,0.000,0.000,0.000,3.142,6.282,0.000,1.004,1.569,1.569,4.084,6.281,1.199,4.712,0.000,0.000,-1.936,-5.248,0.990,4.754,1.683,1.458,5.281,4.711,4.711,2.197,6.282,5.083,1.570,0.000,0.000,-1.281,-5.274,0.990,4.753,1.690,1.451,
16.403,22.468,-1.628,-5.750,1.529,1.011,6.273,2.365,1.266,1.452,1.437,2.927,3.410,1.134,1.200,4.466,1.766,0.000,3.036,0.000,0.000,0.000,0.000,0.000,0.000,0.000,0.000,0.000,0.000,0.000,3.142,6.282,0.000,1.004,1.569,1.569,4.084,6.281,1.199,4.712,0.000,0.000,-1.932,-5.148,0.990,4.754,1.682,1.458,5.281,4.711,4.711,2.197,6.282,5.083,1.570,0.000,0.000,-1.276,-5.175,0.990,4.754,1.687,1.454,
16.520,22.584,-1.624,-5.671,1.528,1.009,6.273,2.286,1.272,1.455,1.440,3.027,3.489,1.129,1.197,4.436,1.842,0.000,3.071,0.000,0.000,0.000,0.000,0.000,0.000,0.000,0.000,0.000,0.000,0.000,3.142,6.282,0.000,1.004,1.569,1.569,4.085,6.281,1.199,4.712,0.000,0.000,-1.928,-5.069,0.990,4.754,1.682,1.459,5.281,4.711,4.711,2.197,6.282,5.083,1.570,0.000,0.000,-1.273,-5.096,0.990,4.754,1.686,1.455,
16.617,22.681,-1.619,-5.552,1.528,1.012,6.271,2.168,1.281,1.461,1.445,3.175,3.609,1.120,1.191,4.390,1.833,0.000,3.071,0.000,0.000,0.000,0.000,0.000,0.000,0.000,0.000,0.000,0.000,0.000,3.142,6.282,0.000,1.004,1.569,1.569,4.085,6.281,1.199,4.712,0.000,0.000,-1.923,-4.949,0.990,4.754,1.681,1.459,5.281,4.711,4.711,2.197,6.282,5.083,1.570,0.000,0.000,-1.268,-4.977,0.990,4.754,1.684,1.457,
16.720,22.784,-1.616,-5.472,1.528,1.012,6.270,2.090,1.287,1.464,1.449,3.274,3.688,1.114,1.188,4.360,1.828,0.000,3.071,0.000,0.000,0.000,0.000,0.000,0.000,0.000,0.000,0.000,0.000,0.000,3.142,6.282,0.000,1.004,1.569,1.569,4.085,6.281,1.199,4.712,0.000,0.000,-1.920,-4.870,0.990,4.754,1.682,1.459,5.281,4.711,4.711,2.197,6.282,5.083,1.570,0.000,0.000,-1.264,-4.897,0.990,4.754,1.684,1.457,
16.820,22.884,-1.611,-5.353,1.528,1.011,6.270,1.971,1.296,1.469,1.454,3.423,3.808,1.105,1.182,4.903,1.819,0.000,3.071,0.000,0.000,0.000,0.000,0.000,0.000,0.000,0.000,0.000,0.000,0.000,3.142,6.282,0.000,1.004,1.569,1.569,4.085,6.281,1.199,4.712,0.000,0.000,-1.915,-4.750,0.990,4.755,1.682,1.458,5.281,4.711,4.711,2.198,6.282,5.083,1.570,0.000,0.000,-1.259,-4.778,0.990,4.754,1.683,1.458,
16.912,22.976,-1.607,-5.253,1.528,1.011,6.269,1.873,1.303,1.084,1.458,3.547,3.907,1.097,1.125,4.529,1.813,0.000,3.071,0.000,0.000,0.000,0.000,0.000,0.000,0.000,0.000,0.000,0.000,0.000,3.142,6.282,0.000,1.004,1.569,1.569,4.085,6.281,1.199,4.712,0.000,0.000,-1.910,-4.651,0.990,4.754,1.683,1.458,5.281,4.711,4.711,2.198,6.282,5.083,1.570,0.000,0.000,-1.255,-4.678,0.990,4.754,1.683,1.458,
17.020,23.084,-1.603,-5.174,1.529,1.012,6.269,1.794,2.448,0.841,1.462,0.000,3.987,1.184,1.121,4.242,1.808,0.000,3.071,0.000,0.000,0.000,0.000,0.000,0.000,0.000,0.000,0.000,0.000,0.000,3.142,6.282,0.000,1.004,1.569,1.569,4.085,6.281,1.199,4.712,0.000,0.000,-1.907,-4.572,0.990,4.754,1.683,1.458,5.281,4.711,4.711,2.198,6.282,5.083,1.570,0.000,0.000,-1.252,-4.599,0.990,4.754,1.682,1.459,
17.120,23.184,-1.598,-5.055,1.529,1.012,6.268,1.676,2.456,0.795,1.467,0.000,4.106,1.328,1.323,3.931,1.800,0.000,3.071,0.000,0.000,0.000,0.000,0.000,0.000,0.000,0.000,0.000,0.000,0.000,3.142,6.282,0.000,1.004,1.569,1.569,4.085,6.281,1.199,4.712,0.000,0.000,-1.902,-4.452,0.990,4.754,1.684,1.457,5.281,4.711,4.711,2.198,6.282,5.083,1.570,0.000,0.000,-1.247,-4.479,0.990,4.754,1.683,1.459,
17.210,23.275,-1.594,-4.959,1.530,0.859,0.137,1.579,2.457,0.799,1.472,0.000,4.202,1.444,4.232,3.929,1.314,0.000,3.071,0.000,0.000,0.000,0.000,0.000,0.000,0.000,0.000,0.000,0.000,0.000,3.142,0.001,0.001,1.002,1.570,1.571,4.088,6.281,1.200,4.712,0.000,0.000,-1.898,-4.356,0.990,4.755,1.722,1.419,5.280,4.712,4.713,2.199,6.282,5.083,1.570,0.000,0.000,-1.242,-4.384,0.990,4.755,1.667,1.474,
17.320,23.384,-1.592,-4.903,1.564,0.593,0.925,1.494,2.349,0.792,1.491,4.915,4.254,1.547,4.848,3.968,1.482,0.000,3.036,0.000,0.000,0.000,0.000,0.000,0.000,0.000,0.000,0.000,0.000,0.000,3.142,0.003,0.000,1.002,1.572,1.574,4.089,6.281,1.200,4.712,0.000,0.000,-1.914,-4.311,0.990,4.726,2.065,1.076,5.281,4.713,4.715,2.199,6.281,5.083,1.571,0.000,0.000,-1.258,-4.316,0.991,4.724,1.862,1.280,
17.420,23.484,-1.594,-4.839,1.650,0.583,0.411,1.397,2.110,0.773,1.541,3.751,4.022,1.676,0.000,1.136,1.326,0.000,2.931,0.000,0.000,0.000,0.000,0.000,0.000,0.000,0.000,0.000,0.000,0.000,3.142,6.283,0.000,1.004,1.568,1.566,4.084,6.282,1.199,4.711,0.000,0.000,-1.971,-4.279,0.990,4.796,4.661,4.762,5.281,4.711,4.709,2.198,6.283,5.083,1.570,0.000,0.000,-1.316,-4.226,0.991,4.795,4.664,4.759,
17.520,23.584,-1.600,-4.775,1.656,0.713,6.271,1.347,2.090,0.767,1.539,3.813,4.055,1.674,0.000,1.199,1.248,0.000,2.931,0.000,0.000,0.000,0.000,0.000,0.000,0.000,0.000,0.000,0.000,0.000,3.142,6.282,0.000,1.004,1.569,1.569,4.084,6.281,1.199,4.712,0.000,0.000,-1.977,-4.217,0.990,4.798,4.663,4.761,5.281,4.711,4.711,2.197,6.282,5.083,1.570,0.000,0.000,-1.324,-4.160,0.990,4.798,4.657,4.767,
17.620,23.684,-1.605,-4.706,1.656,0.696,6.269,1.274,2.081,0.760,1.532,3.893,4.125,1.683,0.000,1.205,1.205,0.000,2.931,0.000,0.000,0.000,0.000,0.000,0.000,0.000,0.000,0.000,0.000,0.000,3.142,6.282,0.000,1.004,1.569,1.569,4.085,6.281,1.199,4.712,0.000,0.000,-1.983,-4.147,0.990,4.798,4.654,4.770,5.281,4.711,4.711,2.198,6.282,5.083,1.570,0.000,0.000,-1.329,-4.091,0.990,4.798,4.657,4.767,
17.707,23.771,-1.611,-4.642,1.656,0.630,6.269,1.208,2.073,0.755,1.526,3.966,4.188,1.691,0.000,1.211,1.216,0.000,2.966,0.000,0.000,0.000,0.000,0.000,0.000,0.000,0.000,0.000,0.000,0.000,3.142,6.282,0.000,1.004,1.569,1.569,4.085,6.281,1.199,4.712,0.000,0.000,-1.989,-4.083,0.990,4.798,4.654,4.769,5.281,4.711,4.711,2.198,6.282,5.083,1.570,0.000,0.000,-1.335,-4.027,0.990,4.798,4.657,4.767,
17.820,23.884,-1.615,-4.593,1.656,0.633,6.268,1.158,2.066,0.751,1.522,4.022,4.236,1.697,0.000,1.216,1.225,0.000,2.966,0.000,0.000,0.000,0.000,0.000,0.000,0.000,0.000,0.000,0.000,0.000,3.142,6.282,0.000,1.004,1.569,1.569,4.085,6.281,1.199,4.712,0.000,0.000,-1.993,-4.034,0.990,4.798,4.658,4.765,5.281,4.711,4.711,2.198,6.282,5.083,1.570,0.000,0.000,-1.339,-3.978,0.990,4.798,4.658,4.766,
17.911,23.975,-1.622,-4.517,1.656,0.674,6.268,1.079,2.056,0.744,0.800,4.109,4.312,1.706,0.000,1.223,1.238,0.000,2.966,0.000,0.000,0.000,0.000,0.000,0.000,0.000,0.000,0.000,0.000,0.000,3.142,6.282,0.000,1.004,1.569,1.569,4.085,6.281,1.199,4.712,0.000,0.000,-2.000,-3.958,0.990,4.799,4.658,4.765,5.281,4.711,4.711,2.198,6.282,5.083,1.570,0.000,0.000,-1.346,-3.901,0.990,4.799,4.658,4.766,
18.020,24.084,-1.626,-4.467,1.654,0.560,6.090,1.021,2.055,0.740,0.795,4.171,4.376,1.717,0.000,1.226,1.242,0.000,2.966,0.000,0.000,0.000,0.000,0.000,0.000,0.000,0.000,0.000,0.000,0.000,3.142,6.282,0.001,1.003,1.569,1.568,4.086,6.281,1.199,4.712,0.000,0.000,-2.003,-3.907,0.990,4.797,4.646,4.777,5.281,4.711,4.710,2.197,6.282,5.083,1.570,0.000,0.000,-1.349,-3.852,0.990,4.797,4.650,4.774,
18.114,24.178,-1.629,-4.420,1.573,0.313,4.977,0.988,2.259,0.752,0.766,2.448,4.737,1.906,0.000,1.193,1.101,0.000,3.036,0.000,0.000,0.000,0.000,0.000,0.000,0.000,0.000,0.000,0.000,0.000,3.142,6.280,0.001,1.004,1.568,1.566,4.085,6.281,1.199,4.712,0.000,0.000,-1.962,-3.832,0.990,4.721,4.047,5.376,5.281,4.711,4.709,2.197,6.282,5.083,1.570,0.000,0.000,-1.305,-3.829,0.990,4.720,3.980,5.444,
18.220,24.284,-1.629,-4.395,1.481,0.358,5.280,1.019,2.584,0.776,0.745,2.162,0.000,2.189,0.000,1.161,0.976,0.000,3.142,0.000,0.000,0.000,0.000,0.000,0.000,0.000,0.000,0.000,0.000,0.000,3.142,6.281,0.000,1.004,1.569,1.570,4.085,6.281,1.199,4.712,0.000,0.000,-1.903,-3.779,0.990,4.803,1.621,1.520,5.282,4.712,4.712,2.198,6.281,5.083,1.571,0.000,0.000,-1.249,-3.837,0.991,4.803,1.609,1.533,
18.320,24.384,-1.624,-4.349,1.452,0.426,6.282,0.994,2.720,1.022,0.745,2.097,0.000,2.076,4.963,1.148,0.937,0.000,3.142,0.000,0.000,0.000,0.000,0.000,0.000,0.000,0.000,0.000,0.000,0.000,3.142,6.283,0.000,1.003,1.569,1.569,4.085,6.281,1.199,4.712,0.000,0.000,-1.880,-3.725,0.990,4.832,1.612,1.529,5.281,4.711,4.711,2.198,6.282,5.083,1.570,0.000,0.000,-1.229,-3.802,0.990,4.831,1.607,1.535,
18.405,24.470,-1.619,-4.309,1.453,0.389,6.261,0.954,2.723,1.504,0.750,2.108,0.000,2.275,0.000,1.144,0.931,0.000,3.142,0.000,0.000,0.000,0.000,0.000,0.000,0.000,0.000,0.000,0.000,0.000,3.142,6.283,0.000,1.003,1.570,1.570,4.086,6.281,1.199,4.712,0.000,0.000,-1.876,-3.686,0.990,4.830,1.615,1.526,5.281,4.711,4.712,2.198,6.282,5.083,1.570,0.000,0.000,-1.225,-3.763,0.990,4.830,1.608,1.534,
18.520,24.584,-1.616,-4.281,1.454,0.367,6.261,0.925,2.725,1.507,0.753,2.115,0.000,2.265,0.000,1.140,0.927,0.000,3.142,0.000,0.000,0.000,0.000,0.000,0.000,0.000,0.000,0.000,0.000,0.000,3.142,6.283,0.000,1.003,1.569,1.569,4.086,6.281,1.199,4.712,0.000,0.000,-1.874,-3.657,0.990,4.829,1.614,1.527,5.281,4.711,4.712,2.198,6.282,5.083,1.570,0.000,0.000,-1.222,-3.734,0.990,4.829,1.608,1.533,
18.620,24.684,-1.611,-4.238,1.455,0.386,6.260,0.882,2.730,1.511,0.759,2.126,0.000,2.250,0.000,1.136,0.921,0.000,3.142,0.000,0.000,0.000,0.000,0.000,0.000,0.000,0.000,0.000,0.000,0.000,3.142,6.283,0.000,1.004,1.569,1.569,4.085,6.281,1.199,4.712,0.000,0.000,-1.870,-3.615,0.990,4.828,1.613,1.528,5.281,4.711,4.711,2.198,6.282,5.083,1.570,0.000,0.000,-1.218,-3.691,0.990,4.828,1.609,1.532,
18.702,24.766,-1.607,-4.201,1.456,0.397,6.260,0.844,2.734,1.516,0.763,2.134,0.000,2.238,0.000,1.131,0.915,0.000,3.142,0.000,0.000,0.000,0.000,0.000,0.000,0.000,0.000,0.000,0.000,0.000,3.142,6.283,0.000,1.003,1.569,1.569,4.085,6.281,1.199,4.712,0.000,0.000,-1.866,-3.578,0.990,4.827,1.614,1.527,5.281,4.711,4.711,2.198,6.282,5.083,1.570,0.000,0.000,-1.214,-3.653,0.990,4.827,1.610,1.532,
18.820,24.884,-1.603,-4.171,1.457,0.389,6.261,0.814,2.738,1.519,0.767,2.141,0.000,2.229,0.000,1.128,0.911,0.000,3.142,0.000,0.000,0.000,0.000,0.000,0.000,0.000,0.000,0.000,0.000,0.000,3.142,6.283,0.000,1.003,1.569,1.569,4.085,6.281,1.199,4.712,0.000,0.000,-1.863,-3.548,0.990,4.827,1.614,1.526,5.281,4.711,4.711,2.198,6.282,5.083,1.570,0.000,0.000,-1.211,-3.623,0.990,4.826,1.610,1.531,
18.920,24.984,-1.598,-4.127,1.458,0.381,6.262,0.770,2.744,1.524,0.772,2.151,0.000,2.215,0.000,1.123,0.904,0.000,3.142,0.000,0.000,0.000,0.000,0.000,0.000,0.000,0.000,0.000,0.000,0.000,3.142,6.283,0.000,1.004,1.569,1.569,4.085,6.281,1.199,4.712,0.000,0.000,-1.858,-3.504,0.990,4.826,1.614,1.527,5.281,4.711,4.711,2.198,6.282,5.083,1.570,0.000,0.000,-1.206,-3.578,0.990,4.825,1.611,1.531,
19.020,25.084,-1.594,-4.090,1.458,0.387,6.263,0.733,2.749,1.528,0.776,2.159,0.000,2.204,0.000,0.826,0.899,0.000,3.142,0.000,0.000,0.000,0.000,0.000,0.000,0.000,0.000,0.000,0.000,0.000,3.142,6.282,0.000,1.004,1.569,1.569,4.085,6.281,1.199,4.712,0.000,0.000,-1.855,-3.468,0.990,4.825,1.614,1.527,5.281,4.711,4.711,2.198,6.282,5.083,1.570,0.000,0.000,-1.203,-3.542,0.990,4.825,1.611,1.530,
19.120,25.184,-1.590,-4.052,1.460,0.470,0.057,0.694,2.751,1.532,0.781,2.169,0.000,2.191,0.000,0.791,0.893,0.000,3.142,0.000,0.000,0.000,0.000,0.000,0.000,0.000,0.000,0.000,0.000,0.000,3.142,6.282,0.000,1.004,1.569,1.569,4.084,6.281,1.199,4.712,0.000,0.000,-1.851,-3.431,0.990,4.823,1.608,1.533,5.281,4.711,4.711,2.198,6.282,5.083,1.570,0.000,0.000,-1.199,-3.503,0.990,4.823,1.608,1.533,
19.214,25.279,-1.583,-3.990,1.502,0.787,1.025,0.615,2.584,1.513,0.796,2.294,0.000,1.936,1.111,1.120,0.929,0.000,3.142,0.000,0.000,0.000,0.000,0.000,0.000,0.000,0.000,0.000,0.000,0.000,3.142,0.000,6.283,1.004,1.570,1.571,4.084,6.281,1.199,4.712,0.000,0.000,-1.869,-3.381,0.990,4.784,1.626,1.516,5.282,4.712,4.713,2.199,6.282,5.083,1.571,0.000,0.000,-1.215,-3.425,0.991,4.784,1.612,1.529,
19.320,25.384,-1.580,-3.927,1.583,0.776,1.023,0.526,2.312,1.477,0.821,2.573,0.000,1.976,1.129,0.692,1.029,0.000,3.142,0.000,0.000,0.000,0.000,0.000,0.000,0.000,0.000,0.000,0.000,0.000,3.142,0.001,0.000,1.003,1.570,1.569,4.086,6.282,1.199,4.712,0.000,0.000,-1.916,-3.341,0.990,4.726,4.326,5.097,5.282,4.712,4.712,2.198,6.282,5.083,1.570,0.000,0.000,-1.260,-3.334,0.991,4.725,4.435,4.989,
19.420,25.484,-1.582,-3.853,1.618,0.499,6.274,0.444,2.209,1.460,0.830,2.715,0.000,2.249,1.120,0.628,1.254,0.000,3.142,0.000,0.000,0.000,0.000,0.000,0.000,0.000,0.000,0.000,0.000,0.000,3.142,6.283,0.001,1.003,1.569,1.569,4.086,6.281,1.199,4.712,0.000,0.000,-1.939,-3.280,0.990,4.761,4.596,4.828,5.281,4.711,4.711,2.197,6.282,5.083,1.570,0.000,0.000,-1.284,-3.249,0.990,4.761,4.611,4.813,
19.520,25.584,-1.585,-3.806,1.618,0.529,6.273,0.397,2.206,1.458,0.827,2.710,0.000,2.359,1.122,0.631,1.198,0.000,3.142,0.000,0.000,0.000,0.000,0.000,0.000,0.000,0.000,0.000,0.000,0.000,3.142,6.281,0.000,1.004,1.569,1.568,4.084,6.281,1.199,4.712,0.000,0.000,-1.941,-3.233,0.990,4.761,4.627,4.797,5.281,4.711,4.710,2.197,6.282,5.083,1.570,0.000,0.000,-1.286,-3.202,0.990,4.761,4.613,4.811,
19.618,25.682,-1.587,-3.748,1.618,0.616,6.217,0.342,2.200,1.455,0.925,2.708,0.000,2.498,1.125,0.634,1.129,0.000,3.142,0.000,0.000,0.000,0.000,0.000,0.000,0.000,0.000,0.000,0.000,0.000,3.142,6.283,0.000,1.004,1.569,1.569,4.085,6.281,1.199,4.712,0.000,0.000,-1.944,-3.175,0.990,4.761,4.610,4.814,5.281,4.711,4.711,2.198,6.282,5.083,1.570,0.000,0.000,-1.289,-3.144,0.990,4.761,4.620,4.804,
19.720,25.784,-1.590,-3.700,1.618,0.616,0.003,0.342,2.199,1.453,1.054,2.699,0.000,2.605,0.800,0.636,1.073,0.000,3.142,0.000,0.000,0.000,0.000,0.000,0.000,0.000,0.000,0.000,0.000,0.000,3.142,6.282,0.000,1.004,1.569,1.569,4.085,6.281,1.199,4.712,0.000,0.000,-1.946,-3.127,0.990,4.760,4.613,4.810,5.281,4.711,4.711,2.197,6.282,5.083,1.570,0.000,0.000,-1.291,-3.096,0.990,4.761,4.612,4.812,
19.820,25.884,-1.593,-3.631,1.617,0.584,6.281,0.342,2.195,1.450,1.237,1.449,0.000,2.765,1.131,0.639,0.991,0.000,3.142,0.000,0.000,0.000,0.000,0.000,0.000,0.000,0.000,0.000,0.000,0.000,3.142,6.282,0.000,1.004,1.569,1.569,4.085,6.281,1.199,4.712,0.000,0.000,-1.949,-3.058,0.990,4.760,4.613,4.811,5.281,4.711,4.711,2.197,6.282,5.083,1.570,0.000,0.000,-1.294,-3.027,0.990,4.760,4.612,4.812,
19.920,25.984,-1.595,-3.574,1.617,0.592,6.276,0.342,2.191,1.447,1.045,1.443,0.000,2.897,1.134,0.642,0.924,0.000,3.142,0.000,0.000,0.000,0.000,0.000,0.000,0.000,0.000,0.000,0.000,0.000,3.142,6.282,0.000,1.004,1.569,1.569,4.085,6.281,1.199,4.712,0.000,0.000,-1.951,-3.001,0.990,4.760,4.614,4.810,5.281,4.711,4.711,2.198,6.282,5.083,1.570,0.000,0.000,-1.296,-2.970,0.990,4.760,4.614,4.810,
20.002,26.067,-1.598,-3.517,1.617,0.603,6.270,0.342,1.610,1.444,1.090,1.438,0.000,3.032,0.622,0.645,0.861,0.000,3.142,0.000,0.000,0.000,0.000,0.000,0.000,0.000,0.000,0.000,0.000,0.000,3.142,6.282,0.000,1.004,1.569,1.569,4.085,6.281,1.199,4.712,0.000,0.000,-1.954,-2.944,0.990,4.760,4.611,4.812,5.281,4.711,4.711,2.198,6.282,5.083,1.570,0.000,0.000,-1.299,-2.913,0.990,4.760,4.615,4.809,
20.120,26.184,-1.600,-3.470,1.618,0.600,6.271,0.342,1.549,1.442,1.513,1.434,0.000,3.142,0.624,0.648,0.865,0.000,3.142,0.000,0.000,0.000,0.000,0.000,0.000,0.000,0.000,0.000,0.000,0.000,3.142,6.282,0.000,1.004,1.569,1.569,4.085,6.281,1.199,4.712,0.000,0.000,-1.956,-2.897,0.990,4.760,4.610,4.813,5.281,4.711,4.711,2.198,6.282,5.083,1.570,0.000,0.000,-1.301,-2.866,0.990,4.760,4.615,4.809,
20.209,26.274,-1.604,-3.401,1.618,0.592,6.271,0.342,1.489,1.439,1.509,1.429,0.000,3.305,0.628,0.651,0.871,0.000,3.142,0.000,0.000,0.000,0.000,0.000,0.000,0.000,0.000,0.000,0.000,0.000,3.142,6.282,0.000,1.004,1.569,1.569,4.085,6.281,1.199,4.712,0.000,0.000,-1.960,-2.828,0.990,4.760,4.611,4.813,5.281,4.711,4.711,2.198,6.282,5.083,1.570,0.000,0.000,-1.304,-2.797,0.990,4.760,4.616,4.808,
20.320,26.384,-1.606,-3.355,1.618,0.593,6.269,0.342,1.485,1.436,1.507,1.425,0.000,3.413,0.630,0.653,0.875,0.000,3.142,0.000,0.000,0.000,0.000,0.000,0.000,0.000,0.000,0.000,0.000,0.000,3.142,6.282,0.000,1.004,1.569,1.569,4.085,6.281,1.199,4.712,0.000,0.000,-1.962,-2.782,0.990,4.760,4.611,4.812,5.281,4.711,4.711,2.198,6.282,5.083,1.570,0.000,0.000,-1.307,-2.751,0.990,4.760,4.616,4.808,
20.414,26.478,-1.609,-3.286,1.618,0.598,6.274,0.342,1.492,1.433,1.504,1.419,0.000,4.001,0.633,1.190,0.856,0.000,3.142,0.000,0.000,0.000,0.000,0.000,0.000,0.000,0.000,0.000,0.000,0.000,3.142,6.282,0.000,1.004,1.569,1.569,4.085,6.281,1.199,4.712,0.000,0.000,-1.965,-2.713,0.990,4.760,4.613,4.811,5.281,4.711,4.711,2.198,6.282,5.083,1.570,0.000,0.000,-1.310,-2.682,0.990,4.760,4.616,4.808,
20.520,26.584,-1.611,-3.240,1.618,0.598,6.275,0.342,1.432,1.431,1.501,1.415,0.000,4.061,0.636,1.193,0.801,0.000,3.142,0.000,0.000,0.000,0.000,0.000,0.000,0.000,0.000,0.000,0.000,0.000,3.142,6.282,0.000,1.004,1.569,1.569,4.085,6.281,1.199,4.712,0.000,0.000,-1.967,-2.667,0.990,4.760,4.613,4.810,5.281,4.711,4.711,2.198,6.282,5.083,1.570,0.000,0.000,-1.312,-2.636,0.990,4.760,4.616,4.808,
20.616,26.680,-1.614,-3.171,1.618,0.596,6.274,0.342,1.342,1.427,1.498,1.409,0.000,4.150,0.639,1.196,0.742,0.000,3.142,0.000,0.000,0.000,0.000,0.000,0.000,0.000,0.000,0.000,0.000,0.000,3.142,6.282,0.000,1.004,1.569,1.569,4.085,6.281,1.199,4.712,0.000,0.000,-1.971,-2.598,0.990,4.761,4.613,4.811,5.281,4.711,4.711,2.198,6.282,5.083,1.570,0.000,0.000,-1.316,-2.567,0.990,4.761,4.617,4.807,
20.720,26.784,-1.617,-3.125,1.618,0.596,6.275,0.342,1.282,1.425,1.496,1.405,0.000,1.697,0.641,0.906,0.747,0.000,3.142,0.000,0.000,0.000,0.000,0.000,0.000,0.000,0.000,0.000,0.000,0.000,3.142,6.282,0.000,1.004,1.569,1.569,4.085,6.281,1.199,4.712,0.000,0.000,-1.973,-2.552,0.990,4.761,4.614,4.810,5.281,4.711,4.711,2.198,6.282,5.083,1.570,0.000,0.000,-1.318,-2.521,0.990,4.761,4.617,4.807,
20.820,26.884,-1.620,-3.056,1.619,0.597,6.274,0.342,1.192,1.421,1.492,1.399,0.000,1.702,0.645,0.716,0.753,0.000,3.142,0.000,0.000,0.000,0.000,0.000,0.000,0.000,0.000,0.000,0.000,0.000,3.142,6.282,0.000,1.004,1.569,1.569,4.085,6.281,1.199,4.712,0.000,0.000,-1.977,-2.483,0.990,4.761,4.614,4.810,5.281,4.711,4.711,2.198,6.282,5.083,1.570,0.000,0.000,-1.321,-2.452,0.990,4.761,4.618,4.806,
20.916,26.981,-1.623,-2.999,1.619,0.597,6.274,0.342,1.117,1.419,1.489,1.395,0.000,1.715,0.647,0.558,0.758,0.000,3.142,0.000,0.000,0.000,0.000,0.000,0.000,0.000,0.000,0.000,0.000,0.000,3.142,6.282,0.000,1.004,1.569,1.569,4.085,6.281,1.199,4.712,0.000,0.000,-1.979,-2.426,0.990,4.761,4.614,4.810,5.281,4.711,4.711,2.198,6.282,5.083,1.570,0.000,0.000,-1.324,-2.394,0.990,4.761,4.618,4.806,
21.020,27.084,-1.625,-2.952,1.619,0.596,6.274,0.342,1.057,1.416,1.487,1.391,0.000,1.774,0.650,0.526,0.763,0.000,3.142,0.000,0.000,0.000,0.000,0.000,0.000,0.000,0.000,0.000,0.000,0.000,3.142,6.282,0.000,1.004,1.569,1.569,4.085,6.281,1.199,4.712,0.000,0.000,-1.982,-2.380,0.990,4.761,4.614,4.809,5.281,4.711,4.711,2.198,6.282,5.083,1.570,0.000,0.000,-1.326,-2.348,0.990,4.761,4.619,4.806,
21.120,27.184,-1.628,-2.883,1.619,0.597,6.274,0.342,1.050,1.413,1.484,1.426,0.000,1.004,0.681,0.529,0.769,0.000,3.142,0.000,0.000,0.000,0.000,0.000,0.000,0.000,0.000,0.000,0.000,0.000,3.142,6.282,0.000,1.004,1.569,1.569,4.085,6.281,1.199,4.712,0.000,0.000,-1.985,-2.311,0.990,4.761,4.615,4.809,5.281,4.711,4.711,2.198,6.282,5.083,1.570,0.000,0.000,-1.330,-2.279,0.990,4.762,4.619,4.805,
21.203,27.268,-1.631,-2.826,1.619,0.595,6.273,0.341,1.046,1.410,1.481,1.493,0.000,1.008,0.907,0.532,0.775,0.000,3.142,0.000,0.000,0.000,0.000,0.000,0.000,0.000,0.000,0.000,0.000,0.000,3.142,6.282,0.000,1.004,1.569,1.569,4.085,6.281,1.199,4.712,0.000,0.000,-1.988,-2.254,0.990,4.762,4.615,4.809,5.281,4.711,4.711,2.198,6.282,5.083,1.570,0.000,0.000,-1.333,-2.221,0.990,4.762,4.620,4.804,
21.320,27.384,-1.633,-2.780,1.620,0.595,6.275,0.341,1.042,1.407,1.478,1.546,0.000,1.011,1.172,0.535,0.779,0.000,3.142,0.000,0.000,0.000,0.000,0.000,0.000,0.000,0.000,0.000,0.000,0.000,3.142,6.282,0.000,1.004,1.569,1.569,4.085,6.281,1.199,4.712,0.000,0.000,-1.990,-2.208,0.990,4.762,4.616,4.807,5.281,4.711,4.711,2.198,6.282,5.083,1.570,0.000,0.000,-1.335,-2.175,0.990,4.762,4.620,4.804,
21.411,27.475,-1.637,-2.711,1.620,0.597,6.276,0.341,1.036,1.404,1.475,1.627,0.000,1.016,1.176,0.452,0.786,0.000,3.142,0.000,0.000,0.000,0.000,0.000,0.000,0.000,0.000,0.000,0.000,0.000,3.142,6.282,0.000,1.004,1.569,1.569,4.085,6.281,1.199,4.712,0.000,0.000,-1.994,-2.139,0.990,4.762,4.617,4.807,5.281,4.711,4.711,2.198,6.282,5.083,1.570,0.000,0.000,-1.339,-2.106,0.990,4.762,4.620,4.804,
21.520,27.584,-1.639,-2.665,1.620,0.597,6.276,0.341,1.033,1.401,1.473,1.681,0.000,1.020,1.178,0.454,4.340,0.000,3.142,0.000,0.000,0.000,0.000,0.000,0.000,0.000,0.000,0.000,0.000,0.000,3.142,6.282,0.000,1.004,1.569,1.569,4.085,6.281,1.199,4.712,0.000,0.000,-1.996,-2.093,0.990,4.762,4.617,4.807,5.281,4.711,4.711,2.198,6.282,5.083,1.570,0.000,0.000,-1.341,-2.060,0.990,4.762,4.620,4.804,
21.616,27.680,-1.642,-2.596,1.620,0.596,6.276,0.340,1.027,1.398,1.469,1.761,0.000,1.025,0.524,0.458,4.257,0.000,3.142,0.000,0.000,0.000,0.000,0.000,0.000,0.000,0.000,0.000,0.000,0.000,3.142,6.282,0.000,1.004,1.569,1.569,4.085,6.281,1.199,4.712,0.000,0.000,-2.000,-2.024,0.990,4.763,4.618,4.806,5.281,4.711,4.711,2.198,6.282,5.083,1.570,0.000,0.000,-1.345,-1.991,0.990,4.763,4.621,4.803,
21.720,27.784,-1.645,-2.550,1.620,0.596,6.276,0.340,1.023,1.395,1.467,1.815,0.000,1.028,0.527,0.461,4.202,0.000,3.142,0.000,0.000,0.000,0.000,0.000,0.000,0.000,0.000,0.000,0.000,0.000,3.142,6.282,0.000,1.004,1.569,1.569,4.085,6.281,1.199,4.712,0.000,0.000,-2.002,-1.978,0.990,4.763,4.618,4.806,5.281,4.711,4.711,2.198,6.282,5.083,1.570,0.000,0.000,-1.347,-1.945,0.990,4.763,4.621,4.803,
21.820,27.884,-1.648,-2.481,1.621,0.596,6.276,0.340,1.018,0.937,1.463,1.758,0.000,1.033,0.530,0.464,4.120,0.000,3.142,0.000,0.000,0.000,0.000,0.000,0.000,0.000,0.000,0.000,0.000,0.000,3.142,6.282,0.000,1.004,1.569,1.569,4.085,6.281,1.199,4.712,0.000,0.000,-2.006,-1.909,0.990,4.763,4.618,4.805,5.281,4.711,4.711,2.198,6.282,5.083,1.570,0.000,0.000,-1.351,-1.876,0.990,4.763,4.621,4.803,
21.920,27.984,-1.651,-2.423,1.621,0.597,6.276,0.340,1.013,0.934,1.460,1.764,0.000,1.038,0.450,0.467,4.051,0.000,3.142,0.000,0.000,0.000,0.000,0.000,0.000,0.000,0.000,0.000,0.000,0.000,3.142,6.282,0.000,1.004,1.569,1.569,4.085,6.281,1.199,4.712,0.000,0.000,-2.009,-1.852,0.990,4.763,4.619,4.805,5.281,4.711,4.711,2.198,6.282,5.083,1.570,0.000,0.000,-1.354,-1.818,0.990,4.763,4.622,4.802,
22.020,28.084,-1.654,-2.370,1.621,0.388,6.275,0.340,1.009,0.962,1.457,1.826,0.000,1.042,0.453,0.470,3.988,0.000,3.142,0.000,0.000,0.000,0.000,0.000,0.000,0.000,0.000,0.000,0.000,0.000,3.142,0.001,0.001,1.002,1.570,1.571,4.089,6.281,1.200,4.712,0.000,0.000,-2.010,-1.797,0.989,4.761,4.570,4.854,5.281,4.712,4.713,2.198,6.282,5.083,1.570,0.000,0.000,-1.355,-1.765,0.990,4.762,4.616,4.808,
22.120,28.184,-1.654,-2.351,1.621,0.074,6.268,0.340,1.007,0.881,1.456,1.848,0.000,1.043,0.454,0.471,3.965,0.000,3.142,0.000,0.000,0.000,0.000,0.000,0.000,0.000,0.000,0.000,0.000,0.000,3.142,0.000,0.001,1.002,1.570,1.570,4.087,6.281,1.200,4.712,0.000,0.000,-2.012,-1.778,0.990,4.763,4.592,4.831,5.281,4.712,4.712,2.198,6.282,5.083,1.570,0.000,0.000,-1.357,-1.746,0.990,4.763,4.620,4.804,
22.220,28.284,-1.655,-2.350,1.622,0.002,6.268,0.339,1.007,0.879,1.457,1.849,0.000,1.043,0.454,0.472,3.963,0.000,3.142,0.000,0.000,0.000,0.000,0.000,0.000,0.000,0.000,0.000,0.000,0.000,3.142,6.283,0.000,1.003,1.570,1.570,4.086,6.281,1.199,4.712,0.000,0.000,-2.012,-1.778,0.990,4.763,4.613,4.811,5.281,4.711,4.712,2.198,6.282,5.083,1.570,0.000,0.000,-1.357,-1.745,0.990,4.763,4.630,4.794,
22.301,28.365,-1.655,-2.350,1.622,0.002,6.269,0.339,1.007,0.879,1.457,1.849,0.000,1.043,0.454,0.472,3.963,0.000,3.142,0.000,0.000,0.000,0.000,0.000,0.000,0.000,0.000,0.000,0.000,0.000,3.142,6.283,0.000,1.003,1.570,1.570,4.086,6.281,1.199,4.712,0.000,0.000,-2.012,-1.778,0.990,4.763,4.613,4.811,5.281,4.711,4.712,2.198,6.282,5.083,1.570,0.000,0.000,-1.357,-1.745,0.990,4.763,4.629,4.795,
22.420,28.484,-1.655,-2.350,1.622,0.001,6.269,0.340,1.007,0.879,1.457,1.849,0.000,1.043,0.454,0.472,3.963,0.000,3.142,0.000,0.000,0.000,0.000,0.000,0.000,0.000,0.000,0.000,0.000,0.000,3.142,6.283,0.000,1.003,1.570,1.570,4.086,6.281,1.199,4.712,0.000,0.000,-2.012,-1.778,0.990,4.763,4.613,4.811,5.281,4.711,4.712,2.198,6.282,5.083,1.570,0.000,0.000,-1.357,-1.745,0.990,4.763,4.629,4.795,
22.503,28.568,-1.655,-2.350,1.622,0.001,6.270,0.340,1.007,0.879,1.456,1.849,0.000,1.043,0.454,0.472,3.963,0.000,3.142,0.000,0.000,0.000,0.000,0.000,0.000,0.000,0.000,0.000,0.000,0.000,3.142,6.283,0.000,1.003,1.570,1.569,4.086,6.281,1.199,4.712,0.000,0.000,-2.012,-1.778,0.990,4.763,4.613,4.810,5.281,4.711,4.712,2.198,6.282,5.083,1.570,0.000,0.000,-1.357,-1.745,0.990,4.763,4.629,4.795,
22.620,28.684,-1.655,-2.350,1.622,0.001,6.270,0.340,1.007,0.879,1.456,1.849,0.000,1.043,0.454,0.472,3.963,0.000,3.142,0.000,0.000,0.000,0.000,0.000,0.000,0.000,0.000,0.000,0.000,0.000,3.142,6.283,0.000,1.003,1.570,1.569,4.086,6.281,1.199,4.712,0.000,0.000,-2.012,-1.778,0.990,4.763,4.613,4.811,5.281,4.711,4.712,2.198,6.282,5.083,1.570,0.000,0.000,-1.357,-1.745,0.990,4.763,4.628,4.796,
22.706,28.770,-1.655,-2.350,1.622,0.001,6.271,0.340,1.007,0.879,1.456,1.849,0.000,1.043,0.454,0.472,3.963,0.000,3.142,0.000,0.000,0.000,0.000,0.000,0.000,0.000,0.000,0.000,0.000,0.000,3.142,6.283,0.000,1.003,1.569,1.569,4.085,6.281,1.199,4.712,0.000,0.000,-2.012,-1.778,0.990,4.763,4.613,4.811,5.281,4.711,4.712,2.198,6.282,5.083,1.570,0.000,0.000,-1.357,-1.745,0.990,4.763,4.628,4.796,
22.820,28.884,-1.655,-2.350,1.622,0.001,6.271,0.340,1.007,0.879,1.456,1.849,0.000,1.043,0.454,0.472,3.963,0.000,3.142,0.000,0.000,0.000,0.000,0.000,0.000,0.000,0.000,0.000,0.000,0.000,3.142,6.283,0.000,1.003,1.569,1.569,4.085,6.281,1.199,4.712,0.000,0.000,-2.012,-1.778,0.990,4.763,4.613,4.810,5.281,4.711,4.712,2.198,6.282,5.083,1.570,0.000,0.000,-1.357,-1.745,0.990,4.763,4.628,4.796,
22.909,28.973,-1.655,-2.350,1.622,0.001,6.271,0.340,1.007,0.879,1.456,1.849,0.000,1.043,0.454,0.472,3.963,0.000,3.142,0.000,0.000,0.000,0.000,0.000,0.000,0.000,0.000,0.000,0.000,0.000,3.142,6.283,0.000,1.003,1.569,1.569,4.085,6.281,1.199,4.712,0.000,0.000,-2.012,-1.778,0.990,4.763,4.613,4.810,5.281,4.711,4.712,2.198,6.282,5.083,1.570,0.000,0.000,-1.357,-1.745,0.990,4.763,4.628,4.796,
23.020,29.084,-1.655,-2.350,1.622,0.001,6.272,0.340,1.007,0.879,1.456,1.849,0.000,1.043,0.454,0.472,3.963,0.000,3.142,0.000,0.000,0.000,0.000,0.000,0.000,0.000,0.000,0.000,0.000,0.000,3.142,6.283,0.000,1.003,1.569,1.569,4.085,6.281,1.199,4.712,0.000,0.000,-2.013,-1.778,0.990,4.763,4.613,4.810,5.281,4.711,4.712,2.198,6.282,5.083,1.570,0.000,0.000,-1.357,-1.745,0.990,4.763,4.628,4.796,
23.119,29.183,-1.655,-2.347,1.622,0.158,6.268,0.339,1.006,0.868,1.457,1.852,0.000,1.042,0.454,0.472,3.959,0.000,3.142,0.000,0.000,0.000,0.000,0.000,0.000,0.000,0.000,0.000,0.000,0.000,3.142,6.281,0.000,1.005,1.568,1.568,4.082,6.281,1.199,4.712,0.000,0.000,-2.014,-1.777,0.990,4.765,4.654,4.770,5.281,4.710,4.710,2.197,6.282,5.083,1.570,0.000,0.000,-1.359,-1.742,0.990,4.766,4.625,4.799,
23.220,29.284,-1.656,-2.319,1.622,0.577,6.280,0.339,1.004,0.749,1.455,2.083,0.000,1.045,0.455,0.473,3.925,0.000,3.142,0.000,0.000,0.000,0.000,0.000,0.000,0.000,0.000,0.000,0.000,0.000,3.142,6.280,6.283,1.006,1.568,1.567,4.080,6.281,1.199,4.712,0.000,0.000,-2.016,-1.749,0.990,4.767,4.671,4.752,5.282,4.710,4.709,2.197,6.282,5.083,1.570,0.000,0.000,-1.361,-1.714,0.990,4.767,4.628,4.796,
23.315,29.379,-1.660,-2.241,1.622,0.631,6.277,0.338,2.078,0.662,1.451,2.175,0.000,1.053,0.459,0.478,3.832,0.000,3.142,0.000,0.000,0.000,0.000,0.000,0.000,0.000,0.000,0.000,0.000,0.000,3.142,6.283,0.001,1.003,1.570,1.570,4.086,6.281,1.199,4.712,0.000,0.000,-2.018,-1.669,0.990,4.764,4.604,4.820,5.281,4.711,4.712,2.198,6.282,5.083,1.570,0.000,0.000,-1.363,-1.636,0.990,4.764,4.621,4.803,
23.420,29.484,-1.662,-2.201,1.622,0.410,6.273,0.338,2.075,0.660,1.449,2.221,0.000,1.105,0.461,1.577,3.785,0.000,3.142,0.000,0.000,0.000,0.000,0.000,0.000,0.000,0.000,0.000,0.000,0.000,3.142,0.000,0.001,1.003,1.570,1.570,4.087,6.281,1.200,4.712,0.000,0.000,-2.020,-1.629,0.990,4.763,4.595,4.828,5.281,4.712,4.712,2.198,6.282,5.083,1.570,0.000,0.000,-1.365,-1.596,0.990,4.764,4.620,4.804,
23.520,29.584,-1.664,-2.160,1.623,0.382,6.274,0.338,2.071,0.657,1.447,2.268,0.000,1.158,0.463,1.579,3.736,0.000,3.142,0.000,0.000,0.000,0.000,0.000,0.000,0.000,0.000,0.000,0.000,0.000,3.142,6.282,0.000,1.004,1.569,1.569,4.084,6.281,1.199,4.712,0.000,0.000,-2.023,-1.590,0.990,4.765,4.632,4.791,5.281,4.711,4.711,2.197,6.282,5.083,1.570,0.000,0.000,-1.368,-1.555,0.990,4.766,4.625,4.799,
23.620,29.684,-1.666,-2.117,1.623,0.516,6.275,0.337,2.067,0.655,1.444,2.574,0.000,0.841,0.466,1.582,3.684,0.000,3.142,0.000,0.000,0.000,0.000,0.000,0.000,0.000,0.000,0.000,0.000,0.000,3.142,6.282,0.000,1.004,1.569,1.568,4.084,6.281,1.199,4.712,0.000,0.000,-2.026,-1.546,0.990,4.766,4.635,4.788,5.281,4.711,4.711,2.197,6.282,5.083,1.570,0.000,0.000,-1.371,-1.511,0.990,4.766,4.625,4.799,
23.720,29.784,-1.669,-2.067,1.623,0.511,6.274,0.337,2.062,0.652,1.442,2.570,0.000,0.845,0.468,1.585,3.624,0.000,3.142,0.000,0.000,0.000,0.000,0.000,0.000,0.000,0.000,0.000,0.000,0.000,3.142,6.282,0.000,1.004,1.569,1.569,4.085,6.281,1.199,4.712,0.000,0.000,-2.028,-1.495,0.990,4.765,4.620,4.804,5.281,4.711,4.711,2.197,6.282,5.083,1.570,0.000,0.000,-1.373,-1.461,0.990,4.765,4.624,4.800,
23.820,29.884,-1.671,-2.021,1.623,0.441,6.273,0.337,2.058,0.650,1.439,2.566,0.000,0.848,0.471,1.588,3.570,0.000,3.142,0.000,0.000,0.000,0.000,0.000,0.000,0.000,0.000,0.000,0.000,0.000,3.142,6.282,0.000,1.004,1.569,1.569,4.085,6.281,1.199,4.712,0.000,0.000,-2.031,-1.450,0.990,4.766,4.619,4.804,5.281,4.711,4.711,2.197,6.282,5.083,1.570,0.000,0.000,-1.376,-1.415,0.990,4.766,4.624,4.800,
23.920,29.984,-1.674,-1.980,1.624,0.443,6.274,0.336,2.054,0.648,1.437,2.563,0.000,0.724,0.473,1.590,3.520,0.000,3.142,0.000,0.000,0.000,0.000,0.000,0.000,0.000,0.000,0.000,0.000,0.000,3.142,6.282,0.000,1.004,1.569,1.569,4.084,6.281,1.199,4.712,0.000,0.000,-2.033,-1.409,0.990,4.766,4.628,4.795,5.281,4.711,4.711,2.197,6.282,5.083,1.570,0.000,0.000,-1.378,-1.374,0.990,4.766,4.625,4.799,
24.020,30.084,-1.676,-1.936,1.624,0.479,6.275,0.336,2.049,0.645,1.435,2.560,0.000,0.727,0.475,0.000,3.467,0.000,3.142,0.000,0.000,0.000,0.000,0.000,0.000,0.000,0.000,0.000,0.000,0.000,3.142,6.282,0.000,1.004,1.569,1.569,4.084,6.281,1.199,4.712,0.000,0.000,-2.036,-1.365,0.990,4.767,4.630,4.794,5.281,4.711,4.711,2.197,6.282,5.083,1.570,0.000,0.000,-1.381,-1.330,0.990,4.767,4.625,4.799,
24.120,30.184,-1.678,-1.889,1.624,0.478,6.274,0.336,2.045,0.643,0.954,2.556,0.000,0.731,1.056,0.000,3.412,0.000,3.142,0.000,0.000,0.000,0.000,0.000,0.000,0.000,0.000,0.000,0.000,0.000,3.142,6.282,0.000,1.004,1.569,1.569,4.085,6.281,1.199,4.712,0.000,0.000,-2.038,-1.319,0.990,4.767,4.626,4.798,5.281,4.711,4.711,2.197,6.282,5.083,1.570,0.000,0.000,-1.383,-1.283,0.990,4.767,4.625,4.799,
24.205,30.270,-1.681,-1.845,1.624,0.458,6.274,0.335,2.041,0.640,0.675,2.553,0.000,0.734,1.059,0.000,3.359,0.000,3.142,0.000,0.000,0.000,0.000,0.000,0.000,0.000,0.000,0.000,0.000,0.000,3.142,6.282,0.000,1.004,1.569,1.569,4.085,6.281,1.199,4.712,0.000,0.000,-2.041,-1.274,0.990,4.767,4.627,4.797,5.281,4.711,4.711,2.197,6.282,5.083,1.570,0.000,0.000,-1.386,-1.239,0.990,4.767,4.625,4.799,
24.320,30.384,-1.682,-1.824,1.625,0.136,6.270,0.335,2.038,0.639,0.673,2.552,0.000,0.736,1.060,0.000,3.334,0.000,3.142,0.000,0.000,0.000,0.000,0.000,0.000,0.000,0.000,0.000,0.000,0.000,3.142,0.001,0.001,1.002,1.570,1.570,4.088,6.281,1.200,4.712,0.000,0.000,-2.041,-1.252,0.990,4.765,4.593,4.830,5.281,4.712,4.712,2.198,6.282,5.083,1.570,0.000,0.000,-1.386,-1.218,0.990,4.766,4.622,4.802,
24.418,30.483,-1.682,-1.821,1.625,0.003,6.267,0.335,2.037,0.639,0.673,2.553,0.000,0.736,1.060,0.000,3.330,0.000,3.142,0.000,0.000,0.000,0.000,0.000,0.000,0.000,0.000,0.000,0.000,0.000,3.142,6.283,0.000,1.003,1.570,1.570,4.086,6.281,1.199,4.712,0.000,0.000,-2.042,-1.251,0.990,4.767,4.620,4.804,5.281,4.712,4.712,2.198,6.282,5.083,1.570,0.000,0.000,-1.387,-1.215,0.990,4.767,4.636,4.788,
24.520,30.584,-1.682,-1.821,1.625,0.002,6.268,0.335,2.037,0.639,0.673,2.553,0.000,0.736,1.060,0.000,3.330,0.000,3.142,0.000,0.000,0.000,0.000,0.000,0.000,0.000,0.000,0.000,0.000,0.000,3.142,6.283,0.000,1.003,1.570,1.570,4.086,6.281,1.199,4.712,0.000,0.000,-2.042,-1.251,0.990,4.767,4.619,4.804,5.281,4.712,4.712,2.198,6.282,5.083,1.570,0.000,0.000,-1.387,-1.215,0.990,4.767,4.634,4.790,
24.620,30.684,-1.682,-1.825,1.625,-0.228,6.261,0.338,2.038,0.639,0.674,2.553,0.000,0.736,1.060,0.000,3.334,0.000,3.142,0.000,0.000,0.000,0.000,0.000,0.000,0.000,0.000,0.000,0.000,0.000,3.142,0.003,0.001,1.000,1.571,1.571,4.091,6.281,1.200,4.712,0.000,0.000,-2.040,-1.252,0.989,4.764,4.555,4.868,5.280,4.713,4.714,2.199,6.282,5.083,1.570,0.000,0.000,-1.385,-1.219,0.990,4.764,4.635,4.789,
24.709,30.774,-1.678,-1.890,1.617,-1.069,6.104,0.405,2.062,0.644,0.952,2.528,0.000,0.737,1.058,0.000,3.428,0.000,3.142,0.000,0.000,0.000,0.000,0.000,0.000,0.000,0.000,0.000,0.000,0.000,3.142,0.005,0.001,0.999,1.572,1.573,4.094,6.281,1.200,4.712,0.000,0.000,-2.031,-1.314,0.989,4.756,4.485,4.938,5.280,4.714,4.715,2.199,6.282,5.083,1.570,0.000,0.000,-1.376,-1.287,0.990,4.755,4.615,4.809,
24.820,30.884,-1.673,-1.993,1.614,-1.442,6.275,0.508,2.078,0.649,1.432,2.523,0.000,0.861,0.474,1.584,3.558,0.000,3.142,0.000,0.000,0.000,0.000,0.000,0.000,0.000,0.000,0.000,0.000,0.000,3.142,0.001,0.001,1.002,1.571,1.571,4.088,6.281,1.200,4.712,0.000,0.000,-2.025,-1.418,0.990,4.753,4.557,4.867,5.280,4.712,4.713,2.199,6.282,5.083,1.570,0.000,0.000,-1.370,-1.391,0.990,4.754,4.611,4.814,
24.914,30.978,-1.667,-2.142,1.614,-0.974,6.276,0.655,2.087,0.656,1.439,2.537,0.000,1.174,0.467,1.577,3.734,0.000,3.142,0.000,0.000,0.000,0.000,0.000,0.000,0.000,0.000,0.000,0.000,0.000,3.142,6.281,6.283,1.005,1.568,1.568,4.082,6.281,1.199,4.712,0.000,0.000,-2.022,-1.568,0.990,4.758,4.649,4.775,5.281,4.711,4.710,2.199,6.282,5.083,1.570,0.000,0.000,-1.366,-1.539,0.991,4.758,4.625,4.799,
25.020,31.084,-1.664,-2.208,1.614,-0.789,6.275,0.721,2.092,0.659,1.442,2.223,0.000,1.088,0.464,0.480,3.813,0.000,3.142,0.000,0.000,0.000,0.000,0.000,0.000,0.000,0.000,0.000,0.000,0.000,3.142,6.283,0.000,1.004,1.569,1.569,4.085,6.281,1.199,4.712,0.000,0.000,-2.018,-1.634,0.990,4.756,4.604,4.819,5.281,4.711,4.712,2.199,6.282,5.083,1.570,0.000,0.000,-1.362,-1.606,0.990,4.756,4.621,4.803,
25.118,31.182,-1.659,-2.313,1.615,-1.036,6.274,0.825,1.007,0.703,1.447,2.100,0.000,1.059,0.459,0.475,3.936,0.000,3.142,0.000,0.000,0.000,0.000,0.000,0.000,0.000,0.000,0.000,0.000,0.000,3.142,0.001,0.001,1.002,1.570,1.571,4.088,6.281,1.200,4.712,0.000,0.000,-2.012,-1.738,0.990,4.755,4.561,4.863,5.280,4.712,4.713,2.199,6.282,5.083,1.570,0.000,0.000,-1.357,-1.710,0.990,4.755,4.615,4.809,
25.220,31.284,-1.655,-2.399,1.615,-1.127,6.274,0.911,1.013,1.060,1.452,1.798,0.000,1.052,0.455,0.471,4.038,0.000,3.142,0.000,0.000,0.000,0.000,0.000,0.000,0.000,0.000,0.000,0.000,0.000,3.142,0.000,0.000,1.003,1.570,1.570,4.086,6.281,1.199,4.712,0.000,0.000,-2.009,-1.825,0.990,4.756,4.587,4.837,5.280,4.712,4.712,2.199,6.282,5.083,1.570,0.000,0.000,-1.354,-1.796,0.990,4.756,4.619,4.805,
25.320,31.384,-1.650,-2.526,1.616,-0.997,6.275,1.036,1.021,1.009,1.458,1.740,0.000,1.043,0.533,0.465,4.187,0.000,3.142,0.000,0.000,0.000,0.000,0.000,0.000,0.000,0.000,0.000,0.000,0.000,3.142,6.283,0.000,1.004,1.569,1.569,4.085,6.281,1.199,4.712,0.000,0.000,-2.005,-1.952,0.990,4.758,4.610,4.813,5.281,4.711,4.711,2.199,6.282,5.083,1.570,0.000,0.000,-1.349,-1.923,0.990,4.758,4.623,4.801,
25.420,31.484,-1.646,-2.620,1.616,-0.957,6.275,1.130,1.027,1.396,1.463,1.737,0.000,1.036,0.528,0.461,4.298,0.000,3.142,0.000,0.000,0.000,0.000,0.000,0.000,0.000,0.000,0.000,0.000,0.000,3.142,0.000,0.000,1.003,1.570,1.570,4.086,6.281,1.199,4.712,0.000,0.000,-2.000,-2.046,0.990,4.757,4.594,4.829,5.280,4.712,4.712,2.199,6.282,5.083,1.570,0.000,0.000,-1.345,-2.017,0.990,4.757,4.621,4.803,
25.520,31.584,-1.641,-2.717,1.616,-1.021,6.275,1.225,1.034,1.400,1.468,1.623,0.000,1.028,1.181,0.456,0.790,0.000,3.142,0.000,0.000,0.000,0.000,0.000,0.000,0.000,0.000,0.000,0.000,0.000,3.142,0.000,0.000,1.003,1.570,1.570,4.086,6.281,1.199,4.712,0.000,0.000,-1.996,-2.143,0.990,4.757,4.589,4.835,5.280,4.712,4.712,2.199,6.282,5.083,1.570,0.000,0.000,-1.340,-2.114,0.990,4.757,4.621,4.803,
25.620,31.684,-1.637,-2.819,1.617,-1.040,6.275,1.326,1.041,1.405,1.473,1.503,0.000,1.020,0.924,0.538,0.782,0.000,3.142,0.000,0.000,0.000,0.000,0.000,0.000,0.000,0.000,0.000,0.000,0.000,3.142,0.000,0.000,1.003,1.570,1.570,4.086,6.281,1.199,4.712,0.000,0.000,-1.992,-2.246,0.990,4.758,4.598,4.825,5.281,4.712,4.712,2.199,6.282,5.083,1.570,0.000,0.000,-1.336,-2.216,0.990,4.758,4.623,4.802,
25.720,31.784,-1.632,-2.920,1.617,-1.006,6.275,1.426,1.047,1.410,1.478,1.385,0.000,1.804,0.657,0.533,0.774,0.000,3.142,0.000,0.000,0.000,0.000,0.000,0.000,0.000,0.000,0.000,0.000,0.000,3.142,6.283,0.000,1.003,1.570,1.570,4.086,6.281,1.199,4.712,0.000,0.000,-1.987,-2.346,0.990,4.759,4.602,4.821,5.281,4.712,4.712,2.199,6.282,5.083,1.570,0.000,0.000,-1.332,-2.316,0.990,4.759,4.624,4.800,
25.805,31.869,-1.627,-3.018,1.617,-0.997,6.275,1.523,1.141,1.414,1.483,1.382,0.000,1.717,0.652,0.613,0.766,0.000,3.142,0.000,0.000,0.000,0.000,0.000,0.000,0.000,0.000,0.000,0.000,0.000,3.142,0.000,0.000,1.003,1.570,1.570,4.086,6.281,1.199,4.712,0.000,0.000,-1.983,-2.444,0.990,4.759,4.599,4.825,5.281,4.712,4.712,2.199,6.282,5.083,1.570,0.000,0.000,-1.327,-2.414,0.990,4.759,4.624,4.800,
25.920,31.984,-1.624,-3.097,1.618,-1.011,6.275,1.601,1.244,1.418,1.488,1.390,0.000,1.710,0.649,0.830,0.759,0.000,3.142,0.000,0.000,0.000,0.000,0.000,0.000,0.000,0.000,0.000,0.000,0.000,3.142,0.000,0.000,1.003,1.570,1.570,4.086,6.281,1.199,4.712,0.000,0.000,-1.979,-2.523,0.990,4.759,4.598,4.826,5.280,4.712,4.712,2.199,6.282,5.083,1.570,0.000,0.000,-1.324,-2.493,0.990,4.759,4.624,4.800,
26.018,32.082,-1.618,-3.217,1.618,-1.019,6.275,1.719,1.401,1.424,1.494,1.402,0.000,4.091,0.643,1.200,0.773,0.000,3.142,0.000,0.000,0.000,0.000,0.000,0.000,0.000,0.000,0.000,0.000,0.000,3.142,0.000,0.000,1.003,1.570,1.570,4.086,6.281,1.199,4.712,0.000,0.000,-1.974,-2.644,0.990,4.760,4.602,4.822,5.281,4.712,4.712,2.199,6.282,5.083,1.570,0.000,0.000,-1.319,-2.613,0.990,4.759,4.625,4.799,
26.120,32.184,-1.614,-3.297,1.618,-1.012,6.275,1.798,1.506,1.427,1.498,1.410,0.000,3.548,0.639,1.196,0.867,0.000,3.142,0.000,0.000,0.000,0.000,0.000,0.000,0.000,0.000,0.000,0.000,0.000,3.142,0.000,0.000,1.003,1.570,1.570,4.086,6.281,1.199,4.712,0.000,0.000,-1.970,-2.723,0.990,4.760,4.603,4.821,5.281,4.712,4.712,2.199,6.282,5.083,1.570,0.000,0.000,-1.315,-2.693,0.990,4.760,4.626,4.798,
26.220,32.284,-1.609,-3.415,1.619,-1.008,6.275,1.916,1.479,1.433,1.505,1.422,0.000,3.273,0.633,0.657,0.882,0.000,3.142,0.000,0.000,0.000,0.000,0.000,0.000,0.000,0.000,0.000,0.000,0.000,3.142,0.000,0.000,1.003,1.570,1.570,4.086,6.281,1.199,4.712,0.000,0.000,-1.965,-2.842,0.990,4.760,4.603,4.821,5.281,4.712,4.712,2.199,6.282,5.083,1.570,0.000,0.000,-1.310,-2.811,0.990,4.760,4.626,4.798,
26.301,32.365,-1.604,-3.515,1.619,-1.013,6.275,2.014,2.173,1.438,1.091,1.432,0.000,3.043,0.628,0.652,0.874,0.000,3.142,0.000,0.000,0.000,0.000,0.000,0.000,0.000,0.000,0.000,0.000,0.000,3.142,0.000,0.000,1.003,1.570,1.570,4.086,6.281,1.199,4.712,0.000,0.000,-1.960,-2.942,0.990,4.761,4.603,4.820,5.281,4.712,4.712,2.199,6.282,5.083,1.570,0.000,0.000,-1.305,-2.910,0.990,4.761,4.627,4.797,
26.420,32.484,-1.600,-3.594,1.620,-1.014,6.275,2.093,2.178,1.442,1.041,1.440,0.000,2.859,1.138,0.648,0.946,0.000,3.142,0.000,0.000,0.000,0.000,0.000,0.000,0.000,0.000,0.000,0.000,0.000,3.142,0.000,0.000,1.003,1.570,1.570,4.086,6.281,1.199,4.712,0.000,0.000,-1.956,-3.022,0.990,4.761,4.604,4.819,5.281,4.712,4.712,2.199,6.282,5.083,1.570,0.000,0.000,-1.301,-2.990,0.990,4.761,4.628,4.797,
26.509,32.573,-1.594,-3.714,1.620,-1.011,6.275,2.211,2.186,1.448,1.013,2.700,0.000,2.581,1.131,0.641,1.087,0.000,3.142,0.000,0.000,0.000,0.000,0.000,0.000,0.000,0.000,0.000,0.000,0.000,3.142,0.000,0.000,1.003,1.570,1.570,4.086,6.281,1.199,4.712,0.000,0.000,-1.951,-3.141,0.990,4.761,4.606,4.818,5.281,4.712,4.712,2.199,6.282,5.083,1.570,0.000,0.000,-1.296,-3.109,0.990,4.761,4.628,4.796,
26.620,32.684,-1.590,-3.793,1.620,-1.010,6.275,2.289,2.192,1.452,0.822,2.709,0.000,2.396,1.127,0.637,1.181,0.000,3.142,0.000,0.000,0.000,0.000,0.000,0.000,0.000,0.000,0.000,0.000,0.000,3.142,0.000,0.000,1.003,1.570,1.570,4.086,6.281,1.199,4.712,0.000,0.000,-1.947,-3.221,0.990,4.762,4.606,4.818,5.281,4.712,4.712,2.199,6.282,5.083,1.570,0.000,0.000,-1.292,-3.189,0.990,4.762,4.629,4.795,
26.719,32.783,-1.584,-3.912,1.621,-1.012,6.275,2.407,2.200,1.457,0.829,2.722,0.000,2.119,1.121,0.631,1.322,0.000,3.142,0.000,0.000,0.000,0.000,0.000,0.000,0.000,0.000,0.000,0.000,0.000,3.142,0.000,0.000,1.003,1.570,1.570,4.086,6.281,1.199,4.712,0.000,0.000,-1.941,-3.340,0.990,4.762,4.607,4.817,5.281,4.712,4.712,2.199,6.282,5.083,1.570,0.000,0.000,-1.286,-3.308,0.990,4.762,4.629,4.795,
26.820,32.884,-1.581,-3.978,1.621,-0.587,6.277,2.472,2.204,1.461,0.832,2.730,4.977,1.981,1.118,0.765,1.400,0.000,3.106,0.000,0.000,0.000,0.000,0.000,0.000,0.000,0.000,0.000,0.000,0.000,3.142,6.280,6.283,1.006,1.568,1.567,4.080,6.281,1.199,4.712,0.000,0.000,-1.940,-3.408,0.990,4.766,4.672,4.751,5.281,4.710,4.709,2.199,6.282,5.083,1.570,0.000,0.000,-1.285,-3.373,0.991,4.765,4.639,4.784,
26.920,32.984,-1.579,-4.017,1.621,-0.160,6.276,2.511,2.207,1.463,0.834,2.734,4.937,1.919,1.116,0.871,1.089,0.000,3.106,0.000,0.000,0.000,0.000,0.000,0.000,0.000,0.000,0.000,0.000,0.000,3.142,6.282,0.000,1.004,1.569,1.569,4.084,6.281,1.199,4.712,0.000,0.000,-1.937,-3.446,0.990,4.763,4.635,4.789,5.281,4.711,4.711,2.199,6.282,5.083,1.570,0.000,0.000,-1.282,-3.412,0.990,4.763,4.634,4.790,
27.020,33.084,-1.579,-4.023,1.621,-0.011,6.267,2.517,2.207,1.463,0.835,2.735,4.930,1.912,1.115,0.888,1.088,0.000,3.106,0.000,0.000,0.000,0.000,0.000,0.000,0.000,0.000,0.000,0.000,0.000,3.142,6.283,0.000,1.004,1.569,1.569,4.085,6.281,1.199,4.712,0.000,0.000,-1.936,-3.452,0.990,4.763,4.621,4.802,5.281,4.711,4.711,2.199,6.282,5.083,1.570,0.000,0.000,-1.281,-3.419,0.990,4.763,4.634,4.790,
27.120,33.184,-1.579,-4.023,1.621,-0.001,6.267,2.517,2.207,1.463,0.835,2.735,4.929,1.912,1.115,0.888,1.088,0.000,3.106,0.000,0.000,0.000,0.000,0.000,0.000,0.000,0.000,0.000,0.000,0.000,3.142,6.283,0.000,1.003,1.569,1.569,4.085,6.281,1.199,4.712,0.000,0.000,-1.936,-3.451,0.990,4.763,4.613,4.811,5.281,4.711,4.711,2.198,6.282,5.083,1.570,0.000,0.000,-1.281,-3.418,0.990,4.763,4.627,4.797,
27.208,33.272,-1.579,-4.023,1.621,-0.001,6.267,2.517,2.207,1.463,0.835,2.735,4.929,1.912,1.115,0.888,1.088,0.000,3.106,0.000,0.000,0.000,0.000,0.000,0.000,0.000,0.000,0.000,0.000,0.000,3.142,6.283,0.000,1.003,1.569,1.569,4.085,6.281,1.199,4.712,0.000,0.000,-1.936,-3.451,0.990,4.763,4.613,4.811,5.281,4.711,4.711,2.198,6.282,5.083,1.570,0.000,0.000,-1.281,-3.418,0.990,4.763,4.627,4.797,
27.320,33.384,-1.579,-4.023,1.621,-0.001,6.267,2.517,2.207,1.463,0.835,2.735,4.929,1.912,1.115,0.888,1.088,0.000,3.106,0.000,0.000,0.000,0.000,0.000,0.000,0.000,0.000,0.000,0.000,0.000,3.142,6.283,0.000,1.003,1.569,1.569,4.085,6.281,1.199,4.712,0.000,0.000,-1.936,-3.451,0.990,4.763,4.613,4.811,5.281,4.711,4.711,2.198,6.282,5.083,1.570,0.000,0.000,-1.281,-3.418,0.990,4.763,4.627,4.797,
27.420,33.484,-1.579,-4.023,1.621,-0.001,6.267,2.517,2.207,1.463,0.835,2.735,4.929,1.912,1.115,0.888,1.088,0.000,3.106,0.000,0.000,0.000,0.000,0.000,0.000,0.000,0.000,0.000,0.000,0.000,3.142,6.283,0.000,1.003,1.569,1.569,4.085,6.281,1.199,4.712,0.000,0.000,-1.936,-3.451,0.990,4.763,4.613,4.811,5.281,4.711,4.711,2.198,