deveshdatwani/Gopher/Assets/Data/07-21 07-05-45/Obstacle Handling_robot_value.csv
game_time,true_time,x,y,az,vx,vaz,dis_to_obs_0,dis_to_obs_36,dis_to_obs_72,dis_to_obs_108,dis_to_obs_144,dis_to_obs_180,dis_to_obs_-144,dis_to_obs_-108,dis_to_obs_-72,dis_to_obs_-36,dis_to_min_obs,direction_to_min_obs,dis_to_human_0,dis_to_human_36,dis_to_human_72,dis_to_human_108,dis_to_human_144,dis_to_human_180,dis_to_human_-144,dis_to_human_-108,dis_to_human_-72,dis_to_human_-36,dis_to_min_human,direction_to_min_human,main_cam_yaw,main_cam_pitch,left_joint_1,left_joint_2,left_joint_3,left_joint_4,left_joint_5,left_joint_6,left_joint_7,left_joint_gripper,left_is_grasping,left_end_x,left_end_y,left_end_z,left_end_ax,left_end_ay,left_end_az,right_joint_1,right_joint_2,right_joint_3,right_joint_4,right_joint_5,right_joint_6,right_joint_7,right_joint_gripper,right_is_grasping,right_end_x,right_end_y,right_end_z,right_end_ax,right_end_ay,right_end_az,
7.760,13.682,0.994,-9.882,1.653,1.001,1.289,3.399,0.000,1.924,1.294,2.396,0.000,3.062,2.057,1.751,3.924,0.000,3.142,0.000,0.000,0.000,0.000,0.000,0.000,0.000,0.000,0.000,0.000,0.000,3.142,0.002,0.000,1.003,1.571,1.572,4.086,6.281,1.199,4.712,0.000,0.000,0.620,-9.322,0.990,4.792,4.650,4.774,5.282,4.713,4.714,2.199,6.282,5.083,1.571,0.000,0.000,1.274,-9.268,0.991,4.792,4.675,4.749,
7.860,13.782,0.980,-9.765,1.799,1.006,1.227,3.366,0.000,1.697,1.383,3.229,0.000,2.667,2.027,0.000,3.525,0.000,3.142,0.000,3.275,0.000,0.000,0.000,0.000,0.000,0.000,0.000,0.000,0.000,3.142,0.001,0.000,1.003,1.570,1.569,4.085,6.282,1.199,4.712,0.000,0.000,0.526,-9.265,0.990,4.941,4.693,4.730,5.282,4.712,4.712,2.198,6.283,5.083,1.570,0.000,0.000,1.166,-9.117,0.991,4.940,4.698,4.726,
7.960,13.882,0.955,-9.668,1.851,1.027,0.002,3.313,0.000,1.678,1.402,3.659,0.000,2.587,2.046,0.000,3.353,0.000,3.142,0.000,3.223,0.000,0.000,0.000,0.000,0.000,0.000,0.000,0.000,0.000,3.142,6.282,0.000,1.004,1.568,1.566,4.085,6.282,1.199,4.711,0.000,0.000,0.474,-9.193,0.990,4.997,4.695,4.727,5.281,4.710,4.709,2.198,6.283,5.083,1.570,0.000,0.000,1.105,-9.011,0.990,4.996,4.697,4.726,
8.060,13.982,0.933,-9.590,1.850,1.017,6.275,3.232,0.000,1.735,1.374,3.582,0.000,2.616,1.670,0.000,3.272,0.000,3.142,0.000,3.144,0.000,0.000,0.000,0.000,0.000,0.000,0.000,0.000,0.000,3.142,6.282,0.000,1.004,1.569,1.569,4.085,6.281,1.199,4.712,0.000,0.000,0.454,-9.115,0.990,4.992,4.695,4.728,5.281,4.711,4.711,2.197,6.282,5.083,1.570,0.000,0.000,1.084,-8.933,0.990,4.993,4.695,4.729,
8.160,14.082,0.900,-9.476,1.850,1.003,6.272,3.112,0.000,1.817,1.334,3.474,0.000,2.658,1.703,4.518,3.151,0.000,3.142,0.000,3.054,0.000,0.000,0.000,0.000,0.000,0.000,0.000,0.000,0.000,3.142,6.282,0.000,1.004,1.569,1.569,4.085,6.281,1.199,4.712,0.000,0.000,0.421,-9.000,0.990,4.992,4.696,4.728,5.281,4.711,4.711,2.197,6.282,5.083,1.570,0.000,0.000,1.051,-8.819,0.990,4.993,4.695,4.728,
8.260,14.182,0.872,-9.381,1.850,1.010,6.271,3.012,0.000,1.521,1.338,3.385,0.000,2.693,1.730,0.000,3.050,0.000,3.142,0.000,2.994,0.000,0.000,0.000,0.000,0.000,0.000,0.000,0.000,0.000,3.142,6.282,0.000,1.004,1.569,1.569,4.084,6.281,1.199,4.712,0.000,0.000,0.394,-8.905,0.990,4.992,4.696,4.727,5.281,4.711,4.711,2.197,6.282,5.083,1.570,0.000,0.000,1.024,-8.724,0.990,4.993,4.695,4.728,
8.345,14.267,0.845,-9.285,1.850,1.016,6.270,2.912,0.000,1.439,1.387,3.297,0.000,2.728,1.758,4.905,2.949,0.000,3.142,0.000,2.930,0.000,0.000,0.000,0.000,0.000,0.000,0.000,0.000,0.000,3.142,6.282,0.000,1.004,1.569,1.569,4.085,6.281,1.199,4.712,0.000,0.000,0.366,-8.809,0.990,4.992,4.696,4.728,5.281,4.711,4.711,2.197,6.282,5.083,1.570,0.000,0.000,0.997,-8.628,0.990,4.992,4.695,4.728,
8.460,14.382,0.823,-9.208,1.850,1.013,6.269,2.832,0.000,1.373,1.426,3.227,0.000,2.755,1.780,4.769,2.868,0.000,3.142,0.000,2.882,0.000,0.000,0.000,0.000,0.000,0.000,0.000,0.000,0.000,3.142,6.282,0.000,1.004,1.569,1.569,4.085,6.281,1.199,4.712,0.000,0.000,0.344,-8.733,0.990,4.992,4.695,4.728,5.281,4.711,4.711,2.198,6.282,5.083,1.570,0.000,0.000,0.975,-8.551,0.990,4.992,4.695,4.728,
8.560,14.482,0.790,-9.094,1.867,1.008,0.639,2.727,0.000,1.287,1.481,3.291,0.000,2.761,2.210,4.459,2.731,0.000,3.142,0.000,2.836,0.000,0.000,0.000,0.000,0.000,0.000,0.000,0.000,0.000,3.142,0.001,0.000,1.003,1.571,1.572,4.086,6.281,1.199,4.712,0.000,0.000,0.305,-8.625,0.990,5.005,4.695,4.729,5.281,4.712,4.714,2.199,6.281,5.083,1.571,0.000,0.000,0.933,-8.434,0.991,5.006,4.701,4.724,
8.641,14.563,0.759,-8.999,1.963,1.010,1.425,2.725,4.622,1.279,1.511,4.646,4.075,2.623,0.000,3.804,2.109,0.000,3.071,0.000,0.000,0.000,0.000,0.000,0.000,0.000,0.000,0.000,0.000,0.000,3.142,0.002,0.000,1.003,1.571,1.571,4.086,6.282,1.199,4.712,0.000,0.000,0.231,-8.580,0.990,5.103,4.700,4.723,5.282,4.713,4.714,2.198,6.282,5.083,1.571,0.000,0.000,0.838,-8.329,0.991,5.102,4.705,4.719,
8.760,14.682,0.727,-8.926,2.062,1.017,1.272,2.717,0.000,1.299,1.541,0.000,4.263,2.522,0.000,3.331,2.444,0.000,2.966,0.000,0.000,0.000,0.000,0.000,0.000,0.000,0.000,0.000,0.000,0.000,3.142,0.001,0.000,1.003,1.570,1.569,4.085,6.282,1.199,4.712,0.000,0.000,0.159,-8.561,0.990,5.204,4.703,4.719,5.282,4.712,4.712,2.198,6.283,5.083,1.570,0.000,0.000,0.738,-8.251,0.991,5.203,4.705,4.718,
8.860,14.782,0.678,-8.838,2.117,1.023,0.011,2.413,0.000,1.245,1.574,0.000,4.472,2.083,0.000,3.057,2.343,0.000,2.896,0.000,0.000,0.000,0.000,0.000,0.000,0.000,0.000,0.000,0.000,0.000,3.142,6.283,0.000,1.004,1.568,1.566,4.085,6.282,1.199,4.711,0.000,0.000,0.089,-8.507,0.990,5.263,4.703,4.719,5.281,4.710,4.709,2.198,6.283,5.083,1.570,0.000,0.000,0.650,-8.165,0.990,5.262,4.704,4.718,
8.941,14.863,0.616,-8.736,2.116,1.006,6.274,2.291,0.000,1.097,1.603,0.000,4.597,2.151,0.000,2.925,2.241,0.000,2.931,0.000,0.000,0.000,0.000,0.000,0.000,0.000,0.000,0.000,0.000,0.000,3.142,6.282,0.000,1.004,1.569,1.569,4.085,6.281,1.199,4.712,0.000,0.000,0.029,-8.403,0.990,5.259,4.703,4.719,5.281,4.711,4.711,2.197,6.282,5.083,1.570,0.000,0.000,0.589,-8.062,0.990,5.259,4.703,4.720,
9.060,14.982,0.575,-8.668,2.116,1.005,6.272,2.211,0.000,1.103,1.622,0.000,4.678,2.195,0.000,2.837,2.173,0.000,2.931,0.000,0.000,0.000,0.000,0.000,0.000,0.000,0.000,0.000,0.000,0.000,3.142,6.282,0.000,1.004,1.569,1.569,4.084,6.281,1.199,4.712,0.000,0.000,-0.012,-8.335,0.990,5.258,4.704,4.719,5.281,4.711,4.711,2.197,6.282,5.083,1.570,0.000,0.000,0.548,-7.994,0.990,5.258,4.703,4.720,
9.160,15.082,0.515,-8.570,2.130,0.923,0.572,2.114,0.000,1.164,1.651,0.000,4.684,2.247,0.000,2.678,2.073,0.000,2.896,0.000,0.000,0.000,0.000,0.000,0.000,0.000,0.000,0.000,0.000,0.000,3.142,0.001,0.000,1.003,1.571,1.572,4.087,6.281,1.199,4.712,0.000,0.000,-0.074,-8.244,0.990,5.268,4.702,4.721,5.281,4.712,4.714,2.199,6.281,5.083,1.571,0.000,0.000,0.482,-7.896,0.991,5.269,4.706,4.718,
9.253,15.175,0.466,-8.496,2.222,0.903,1.399,2.163,0.000,1.124,1.695,0.000,4.182,2.232,0.000,2.410,1.997,0.000,2.826,0.000,0.000,0.000,0.000,0.000,0.000,0.000,0.000,0.000,0.000,0.000,3.142,0.002,0.000,1.003,1.571,1.571,4.086,6.281,1.199,4.712,0.000,0.000,-0.151,-8.225,0.990,5.361,4.705,4.718,5.282,4.713,4.714,2.198,6.282,5.083,1.571,0.000,0.000,0.371,-7.828,0.991,5.361,4.708,4.716,
9.360,15.282,0.421,-8.439,2.320,0.940,1.288,4.929,0.000,1.077,1.748,0.000,3.784,2.982,4.527,1.703,1.957,0.000,2.755,0.000,0.000,0.000,0.000,0.000,0.000,0.000,0.000,0.000,0.000,0.000,3.142,0.001,0.000,1.004,1.570,1.569,4.085,6.282,1.199,4.712,0.000,0.000,-0.221,-8.232,0.990,5.463,4.706,4.716,5.282,4.712,4.712,2.198,6.283,5.083,1.570,0.000,0.000,0.260,-7.784,0.991,5.462,4.708,4.715,
9.455,15.377,0.342,-8.359,2.427,0.958,0.833,0.000,3.599,1.044,1.820,0.000,3.520,0.000,3.563,2.010,1.915,0.000,2.826,2.203,0.000,0.000,0.000,0.000,0.000,0.000,0.000,0.000,0.000,0.000,3.142,0.001,0.000,1.003,1.570,1.569,4.085,6.282,1.199,4.712,0.000,0.000,-0.319,-8.221,0.990,5.569,4.706,4.716,5.282,4.712,4.712,2.198,6.282,5.083,1.570,0.000,0.000,0.111,-7.726,0.991,5.569,4.708,4.715,
9.560,15.482,0.270,-8.300,2.500,0.932,0.934,0.000,3.520,1.026,1.876,0.000,3.407,0.000,3.088,1.894,1.893,0.000,2.755,2.025,0.000,0.000,0.000,0.000,0.000,0.000,0.000,0.000,0.000,0.000,3.142,0.001,0.000,1.003,1.570,1.570,4.086,6.281,1.199,4.712,0.000,0.000,-0.398,-8.210,0.990,5.641,4.706,4.715,5.282,4.712,4.713,2.198,6.282,5.083,1.570,0.000,0.000,-0.005,-7.684,0.991,5.641,4.708,4.714,
9.660,15.582,0.196,-8.247,2.589,0.927,1.077,0.000,3.462,1.001,1.958,4.950,3.295,0.000,2.678,1.793,2.017,0.000,2.685,1.964,0.000,0.000,0.000,0.000,0.000,0.000,0.000,0.000,0.000,0.000,3.142,0.001,0.000,1.003,1.570,1.570,4.085,6.282,1.199,4.712,0.000,0.000,-0.478,-8.216,0.990,5.730,4.707,4.714,5.282,4.712,4.712,2.198,6.282,5.083,1.570,0.000,0.000,-0.133,-7.658,0.991,5.729,4.709,4.714,
9.760,15.682,0.117,-8.201,2.681,0.941,1.046,3.579,3.427,0.976,2.546,0.000,2.775,0.000,2.364,1.716,1.594,0.000,2.615,0.000,0.000,0.000,0.000,0.000,0.000,0.000,0.000,0.000,0.000,0.000,3.142,0.001,0.000,1.003,1.570,1.569,4.085,6.281,1.199,4.712,0.000,0.000,-0.557,-8.233,0.990,5.822,4.707,4.713,5.282,4.712,4.712,2.198,6.282,5.083,1.570,0.000,0.000,-0.266,-7.645,0.991,5.822,4.709,4.713,
9.860,15.782,0.050,-8.169,2.751,0.944,1.001,4.575,3.252,0.957,4.819,0.000,2.761,0.000,2.178,1.672,1.623,0.000,2.580,0.000,0.000,0.000,0.000,0.000,0.000,0.000,0.000,0.000,0.000,0.000,3.142,0.001,0.000,1.003,1.570,1.570,4.085,6.281,1.199,4.712,0.000,0.000,-0.620,-8.248,0.990,5.892,4.707,4.713,5.282,4.712,4.712,2.198,6.282,5.083,1.570,0.000,0.000,-0.370,-7.641,0.991,5.892,4.709,4.713,
9.960,15.882,-0.054,-8.130,2.854,0.937,1.010,0.000,3.149,0.928,0.000,4.821,3.186,4.833,1.968,1.631,4.116,0.000,2.510,0.000,0.000,0.000,0.000,0.000,0.000,0.000,0.000,0.000,0.000,0.000,3.142,0.001,0.000,1.003,1.570,1.570,4.086,6.281,1.199,4.712,0.000,0.000,-0.713,-8.277,0.990,5.995,4.707,4.713,5.282,4.712,4.712,2.198,6.282,5.083,1.570,0.000,0.000,-0.526,-7.648,0.991,5.995,4.709,4.713,
10.056,15.978,-0.143,-8.106,2.941,0.936,1.020,0.000,3.171,0.903,0.000,4.498,4.461,3.838,1.837,1.618,4.163,0.000,2.440,0.000,0.000,0.000,0.000,0.000,0.000,0.000,0.000,0.000,0.000,0.000,3.142,0.001,0.000,1.003,1.570,1.570,4.085,6.281,1.199,4.712,0.000,0.000,-0.786,-8.310,0.990,6.083,4.708,4.712,5.282,4.712,4.712,2.198,6.282,5.083,1.570,0.000,0.000,-0.656,-7.667,0.991,6.082,4.709,4.712,
10.160,16.082,-0.236,-8.089,3.009,0.996,0.395,0.000,1.009,0.875,0.000,4.338,0.000,3.317,1.756,1.173,3.765,0.000,3.142,0.000,0.000,0.000,0.000,0.000,0.000,0.000,0.000,0.000,0.000,0.000,3.142,6.283,0.000,1.004,1.568,1.567,4.084,6.282,1.199,4.712,0.000,0.000,-0.863,-8.339,0.990,6.154,4.708,4.711,5.281,4.711,4.709,2.198,6.283,5.083,1.570,0.000,0.000,-0.777,-7.688,0.991,6.154,4.708,4.712,
10.260,16.182,-0.337,-8.076,3.014,1.051,6.269,0.000,3.073,0.837,0.000,4.454,0.000,3.260,1.737,1.323,3.612,0.000,3.142,0.000,0.000,0.000,0.000,0.000,0.000,0.000,0.000,0.000,0.000,0.000,3.142,6.282,0.000,1.004,1.569,1.569,4.084,6.281,1.199,4.712,0.000,0.000,-0.962,-8.327,0.990,6.156,4.708,4.712,5.281,4.711,4.711,2.198,6.282,5.083,1.570,0.000,0.000,-0.880,-7.677,0.990,6.156,4.708,4.712,
10.360,16.282,-0.438,-8.063,3.014,1.018,6.269,0.000,2.956,0.797,0.000,4.589,0.000,3.233,1.723,1.290,3.474,0.000,3.142,0.000,0.000,0.000,0.000,0.000,0.000,0.000,0.000,0.000,0.000,0.000,3.142,6.282,0.000,1.004,1.569,1.569,4.085,6.281,1.199,4.712,0.000,0.000,-1.064,-8.314,0.990,6.156,4.707,4.712,5.281,4.711,4.711,2.198,6.282,5.083,1.570,0.000,0.000,-0.981,-7.664,0.990,6.156,4.708,4.712,
10.460,16.382,-0.516,-8.053,3.014,0.992,6.268,0.000,2.866,0.766,0.000,4.693,0.000,3.212,1.712,1.280,3.368,0.000,3.142,0.000,0.000,0.000,0.000,0.000,0.000,0.000,0.000,0.000,0.000,0.000,3.142,6.282,0.000,1.004,1.569,1.569,4.085,6.281,1.199,4.712,0.000,0.000,-1.142,-8.305,0.990,6.157,4.708,4.712,5.281,4.711,4.711,2.198,6.282,5.083,1.570,0.000,0.000,-1.059,-7.654,0.990,6.157,4.708,4.712,
10.560,16.482,-0.633,-8.038,2.983,1.009,5.444,0.000,2.684,0.719,0.943,4.990,0.000,3.374,1.721,1.257,3.306,0.000,3.142,0.000,0.000,0.000,0.000,0.000,0.000,0.000,0.000,0.000,0.000,0.000,3.142,6.280,0.001,1.005,1.567,1.565,4.084,6.282,1.199,4.711,0.000,0.000,-1.267,-8.272,0.990,6.130,4.708,4.711,5.281,4.710,4.708,2.197,6.282,5.083,1.570,0.000,0.000,-1.164,-7.624,0.990,6.129,4.707,4.712,
10.659,16.581,-0.732,-8.020,2.876,1.021,4.885,0.000,2.618,0.683,0.827,0.000,3.868,4.246,1.809,1.224,3.560,0.000,2.650,0.000,0.000,0.000,0.000,0.000,0.000,0.000,0.000,0.000,0.000,0.000,3.142,6.280,0.001,1.004,1.568,1.566,4.085,6.281,1.199,4.712,0.000,0.000,-1.387,-8.185,0.990,6.021,4.707,4.712,5.282,4.711,4.709,2.197,6.282,5.083,1.570,0.000,0.000,-1.215,-7.551,0.991,6.020,4.708,4.712,
10.760,16.682,-0.809,-7.998,2.781,1.011,5.064,0.000,2.547,1.456,0.758,0.000,3.645,3.940,1.907,1.201,3.902,0.000,2.791,0.000,0.000,0.000,0.000,0.000,0.000,0.000,0.000,0.000,0.000,0.000,3.142,6.280,0.001,1.004,1.569,1.568,4.085,6.281,1.199,4.712,0.000,0.000,-1.476,-8.099,0.990,5.924,4.707,4.713,5.282,4.711,4.710,2.198,6.282,5.083,1.570,0.000,0.000,-1.245,-7.484,0.991,5.924,4.708,4.713,
10.850,16.772,-0.919,-7.953,2.675,1.009,5.416,0.000,2.371,3.034,0.703,0.000,4.387,0.000,2.030,1.166,3.460,0.000,2.931,0.961,0.000,0.000,0.000,0.000,0.000,0.000,0.000,0.000,0.000,0.000,3.142,6.281,0.001,1.004,1.569,1.568,4.085,6.281,1.199,4.712,0.000,0.000,-1.593,-7.982,0.990,5.818,4.707,4.713,5.282,4.711,4.710,2.197,6.282,5.083,1.570,0.000,0.000,-1.299,-7.396,0.991,5.818,4.708,4.714,
10.960,16.882,-0.990,-7.916,2.615,1.017,5.375,0.000,2.277,2.758,0.682,1.140,4.616,0.000,2.108,1.141,3.317,0.000,3.001,0.834,0.000,0.000,0.000,0.000,0.000,0.000,0.000,0.000,0.000,0.000,3.142,6.281,0.001,1.004,1.569,1.567,4.085,6.281,1.199,4.712,0.000,0.000,-1.665,-7.905,0.990,5.758,4.707,4.714,5.282,4.711,4.710,2.197,6.282,5.083,1.570,0.000,0.000,-1.335,-7.337,0.990,5.758,4.707,4.714,
11.060,16.982,-1.092,-7.853,2.511,1.013,5.233,0.000,0.000,2.397,1.360,1.000,0.000,0.000,2.288,1.106,3.933,0.000,3.142,0.695,0.000,0.000,0.000,0.000,0.000,0.000,0.000,0.000,0.000,0.000,3.142,6.280,0.001,1.004,1.568,1.567,4.085,6.281,1.199,4.712,0.000,0.000,-1.762,-7.772,0.990,5.655,4.706,4.714,5.282,4.711,4.710,2.197,6.282,5.083,1.570,0.000,0.000,-1.376,-7.242,0.991,5.654,4.707,4.714,
11.160,17.082,-1.156,-7.805,2.437,1.010,5.242,0.000,0.000,2.200,1.446,0.936,0.000,0.000,2.460,1.084,0.000,0.000,3.142,0.616,0.000,0.000,0.000,0.000,0.000,0.000,0.000,0.000,0.000,0.000,3.142,6.280,0.001,1.004,1.569,1.567,4.085,6.281,1.199,4.712,0.000,0.000,-1.818,-7.675,0.990,5.581,4.706,4.715,5.282,4.711,4.710,2.197,6.282,5.083,1.570,0.000,0.000,-1.394,-7.175,0.991,5.580,4.707,4.715,
11.260,17.182,-1.245,-7.725,2.331,1.014,5.294,0.000,0.000,2.250,1.604,0.882,0.000,0.000,2.797,1.048,4.664,0.000,3.142,0.519,0.000,0.000,0.000,0.000,0.000,0.000,0.000,0.000,0.000,0.000,3.142,6.281,0.001,1.004,1.569,1.567,4.085,6.281,1.199,4.712,0.000,0.000,-1.890,-7.526,0.990,5.475,4.705,4.716,5.282,4.711,4.710,2.197,6.282,5.083,1.570,0.000,0.000,-1.415,-7.073,0.991,5.474,4.706,4.716,
11.348,17.271,-1.312,-7.652,2.245,1.015,5.297,0.000,4.507,2.091,3.208,1.116,0.000,0.000,3.206,1.015,4.273,0.000,3.142,0.453,0.000,0.000,0.000,0.000,0.000,0.000,0.000,0.000,0.000,0.000,3.142,6.281,0.001,1.004,1.568,1.567,4.085,6.281,1.199,4.712,0.000,0.000,-1.938,-7.398,0.990,5.389,4.705,4.717,5.282,4.711,4.710,2.197,6.282,5.083,1.570,0.000,0.000,-1.425,-6.987,0.991,5.388,4.705,4.717,
11.460,17.382,-1.360,-7.590,2.180,0.387,5.857,0.000,0.000,1.991,2.826,1.377,0.000,4.608,3.662,0.985,4.337,0.000,3.142,0.397,0.000,0.000,0.000,0.000,0.000,0.000,0.000,0.000,0.000,0.000,3.142,0.003,0.001,0.999,1.572,1.574,4.094,6.280,1.200,4.712,0.000,0.000,-1.966,-7.291,0.989,5.315,4.695,4.726,5.280,4.714,4.716,2.198,6.281,5.083,1.570,0.000,0.000,-1.426,-6.918,0.990,5.316,4.704,4.719,
11.550,17.473,-1.359,-7.592,2.171,-0.267,6.278,0.000,0.000,1.986,2.794,1.393,0.000,4.621,3.774,0.994,4.362,0.000,3.142,0.505,0.000,0.000,0.000,0.000,0.000,0.000,0.000,0.000,0.000,0.000,3.142,0.002,0.001,1.001,1.571,1.572,4.089,6.281,1.200,4.712,0.000,0.000,-1.962,-7.290,0.990,5.310,4.700,4.721,5.280,4.712,4.714,2.199,6.281,5.083,1.570,0.000,0.000,-1.420,-6.920,0.990,5.310,4.705,4.718,
11.660,17.582,-1.350,-7.606,2.172,-0.106,6.273,0.000,0.000,1.997,2.811,1.363,0.000,4.600,3.815,1.010,4.380,0.000,3.142,0.577,0.000,0.000,0.000,0.000,0.000,0.000,0.000,0.000,0.000,0.000,3.142,6.282,6.283,1.005,1.569,1.568,4.083,6.281,1.199,4.712,0.000,0.000,-1.954,-7.307,0.990,5.315,4.706,4.717,5.281,4.711,4.711,2.199,6.282,5.083,1.570,0.000,0.000,-1.413,-6.935,0.991,5.314,4.706,4.717,
11.760,17.682,-1.356,-7.597,2.173,0.237,6.262,0.000,0.000,1.991,2.804,1.380,0.000,4.615,3.777,0.999,4.366,0.000,3.142,0.780,0.000,0.000,0.000,0.000,0.000,0.000,0.000,0.000,0.000,0.000,3.142,6.282,0.000,1.004,1.569,1.568,4.084,6.281,1.199,4.712,0.000,0.000,-1.960,-7.298,0.990,5.315,4.705,4.717,5.281,4.711,4.711,2.198,6.282,5.083,1.570,0.000,0.000,-1.420,-6.926,0.990,5.315,4.705,4.718,
11.857,17.779,-1.366,-7.582,2.173,0.218,6.262,2.813,0.000,1.980,2.788,1.411,0.000,4.625,3.719,0.980,4.343,0.000,3.142,0.000,0.000,0.000,0.000,0.000,0.000,0.000,0.000,0.000,0.000,0.000,3.142,6.283,0.000,1.003,1.569,1.569,4.086,6.281,1.199,4.712,0.000,0.000,-1.970,-7.282,0.990,5.314,4.703,4.719,5.281,4.711,4.712,2.198,6.282,5.083,1.570,0.000,0.000,-1.430,-6.911,0.990,5.315,4.704,4.718,
11.960,17.882,-1.373,-7.572,2.174,0.073,6.265,2.798,0.000,1.973,2.779,1.432,0.000,4.632,3.675,0.966,4.327,0.000,3.142,0.000,0.000,0.000,0.000,0.000,0.000,0.000,0.000,0.000,0.000,0.000,3.142,6.283,0.001,1.003,1.570,1.570,4.086,6.281,1.199,4.712,0.000,0.000,-1.978,-7.272,0.990,5.315,4.703,4.719,5.281,4.711,4.712,2.198,6.282,5.083,1.570,0.000,0.000,-1.437,-6.900,0.990,5.315,4.704,4.718,
12.060,17.982,-1.376,-7.567,2.174,0.085,6.265,2.790,0.000,1.970,2.775,1.441,0.000,4.635,3.653,0.960,0.000,0.000,3.142,0.000,0.000,0.000,0.000,0.000,0.000,0.000,0.000,0.000,1.135,0.000,3.142,6.282,0.000,1.004,1.569,1.569,4.085,6.281,1.199,4.712,0.000,0.000,-1.981,-7.269,0.990,5.317,4.704,4.718,5.281,4.711,4.711,2.198,6.282,5.083,1.570,0.000,0.000,-1.441,-6.896,0.990,5.317,4.704,4.718,
12.160,18.082,-1.381,-7.560,2.175,0.149,6.263,2.780,0.000,1.965,2.769,1.455,0.000,4.639,3.624,0.951,0.000,0.000,3.142,0.000,0.000,0.000,0.000,0.000,0.000,0.000,0.000,0.000,1.122,0.000,3.142,6.282,0.000,1.004,1.569,1.569,4.084,6.281,1.199,4.712,0.000,0.000,-1.986,-7.262,0.990,5.317,4.704,4.718,5.281,4.711,4.711,2.198,6.282,5.083,1.570,0.000,0.000,-1.447,-6.889,0.990,5.317,4.704,4.718,
12.260,18.182,-1.390,-7.546,2.175,0.139,6.264,2.762,0.000,1.956,2.755,1.611,0.000,4.648,3.570,0.934,0.000,0.000,3.142,0.000,0.000,0.000,0.000,0.000,0.000,0.000,0.000,0.000,1.184,0.000,3.142,6.283,0.000,1.003,1.569,1.569,4.085,6.281,1.199,4.712,0.000,0.000,-1.996,-7.248,0.990,5.317,4.703,4.719,5.281,4.711,4.711,2.198,6.282,5.083,1.570,0.000,0.000,-1.456,-6.876,0.990,5.317,4.704,4.718,
12.360,18.282,-1.396,-7.538,2.176,0.102,6.263,2.750,0.000,1.950,2.747,1.619,0.000,4.653,3.536,0.923,0.000,0.000,3.142,0.000,0.000,0.000,0.000,0.000,0.000,0.000,0.000,0.000,1.277,0.000,3.142,6.283,0.000,1.003,1.569,1.569,4.085,6.281,1.199,4.712,0.000,0.000,-2.002,-7.241,0.990,5.318,4.704,4.719,5.281,4.711,4.711,2.198,6.282,5.083,1.570,0.000,0.000,-1.462,-6.867,0.990,5.318,4.704,4.718,
12.460,18.382,-1.401,-7.531,2.176,0.114,6.265,2.739,3.158,1.945,2.740,1.626,0.000,4.658,3.506,0.914,0.000,0.000,3.142,0.000,0.000,0.000,0.000,0.000,0.000,0.000,0.000,0.000,1.330,0.000,3.142,6.282,0.000,1.004,1.569,1.569,4.085,6.281,1.199,4.712,0.000,0.000,-2.007,-7.234,0.990,5.318,4.704,4.718,5.281,4.711,4.711,2.198,6.282,5.083,1.570,0.000,0.000,-1.468,-6.860,0.990,5.319,4.704,4.718,
12.557,18.479,-1.408,-7.522,2.177,0.134,6.263,2.727,3.133,1.939,2.731,1.635,0.000,4.664,3.470,0.902,0.000,0.000,3.142,0.000,0.000,0.000,0.000,0.000,0.000,0.000,0.000,0.000,1.498,0.000,3.142,6.282,0.000,1.004,1.569,1.569,4.085,6.281,1.199,4.712,0.000,0.000,-2.013,-7.225,0.990,5.319,4.704,4.718,5.281,4.711,4.711,2.198,6.282,5.083,1.570,0.000,0.000,-1.474,-6.851,0.990,5.319,4.704,4.718,
12.660,18.582,-1.413,-7.514,2.177,0.130,6.263,2.716,3.112,1.933,2.723,1.643,0.000,4.669,3.439,0.892,0.000,0.000,3.142,0.000,0.000,0.000,0.000,0.000,0.000,0.000,0.000,0.000,1.607,0.000,3.142,6.282,0.000,1.004,1.569,1.569,4.085,6.281,1.199,4.712,0.000,0.000,-2.019,-7.217,0.990,5.319,4.704,4.718,5.281,4.711,4.711,2.198,6.282,5.083,1.570,0.000,0.000,-1.480,-6.843,0.990,5.319,4.704,4.718,
12.760,18.682,-1.420,-7.504,2.178,0.116,6.263,2.702,3.083,1.926,2.713,1.654,0.000,4.676,3.398,0.879,4.221,0.000,3.142,0.000,0.000,0.000,0.000,0.000,0.000,0.000,0.000,0.000,0.000,0.000,3.142,6.282,0.000,1.004,1.569,1.569,4.085,6.281,1.199,4.712,0.000,0.000,-2.026,-7.207,0.990,5.320,4.704,4.718,5.281,4.711,4.711,2.198,6.282,5.083,1.570,0.000,0.000,-1.488,-6.833,0.990,5.320,4.704,4.718,
12.860,18.782,-1.426,-7.495,2.178,0.120,6.265,2.691,3.060,1.935,2.705,1.662,0.000,4.681,3.365,0.868,4.208,0.000,3.142,0.000,0.000,0.000,0.000,0.000,0.000,0.000,0.000,0.000,0.000,0.000,3.142,6.282,0.000,1.004,1.569,1.569,4.085,6.281,1.199,4.712,0.000,0.000,-2.032,-7.199,0.990,5.320,4.704,4.718,5.281,4.711,4.711,2.198,6.282,5.083,1.570,0.000,0.000,-1.494,-6.825,0.990,5.320,4.704,4.718,
12.960,18.882,-1.450,-7.460,2.178,0.805,0.117,2.651,2.940,2.052,2.660,1.697,0.000,4.722,3.252,0.825,4.160,0.000,3.142,0.000,0.000,0.000,0.000,0.000,0.000,0.000,0.000,0.000,0.000,0.000,3.142,6.278,6.283,1.008,1.567,1.565,4.077,6.282,1.199,4.712,0.000,0.000,-2.057,-7.167,0.991,5.325,4.712,4.712,5.282,4.709,4.708,2.197,6.282,5.083,1.570,0.000,0.000,-1.520,-6.790,0.990,5.324,4.704,4.718,
13.060,18.982,-1.513,-7.369,2.165,1.331,5.775,2.589,2.705,4.988,2.510,1.788,0.000,4.828,3.068,0.851,4.063,0.000,3.142,0.000,0.000,0.000,0.000,0.000,0.000,0.000,0.000,0.000,0.000,0.000,3.142,6.279,0.000,1.006,1.567,1.565,4.081,6.282,1.199,4.712,0.000,0.000,-2.117,-7.068,0.990,5.312,4.708,4.715,5.282,4.709,4.707,2.197,6.283,5.083,1.570,0.000,0.000,-1.574,-6.699,0.990,5.312,4.703,4.719,
13.160,19.082,-1.583,-7.263,2.078,1.131,5.113,2.830,1.663,0.000,2.313,1.901,1.775,4.607,3.842,0.870,4.494,0.000,1.281,0.000,0.000,0.000,0.000,0.000,0.000,0.000,0.000,0.000,0.000,0.000,3.142,6.282,0.001,1.003,1.569,1.568,4.088,6.281,1.199,4.712,0.000,0.000,-2.157,-6.908,0.989,5.221,4.699,4.723,5.281,4.711,4.711,2.198,6.282,5.083,1.570,0.000,0.000,-1.583,-6.589,0.990,5.220,4.703,4.719,
13.260,19.182,-1.627,-7.181,2.022,0.834,6.194,2.556,1.541,0.000,2.313,1.998,1.713,4.788,4.755,0.882,3.870,0.000,1.492,0.000,0.000,0.000,0.000,0.000,0.000,0.000,0.000,0.000,0.000,0.000,3.142,6.283,0.001,1.003,1.571,1.572,4.087,6.280,1.199,4.712,0.000,0.000,-2.178,-6.792,0.990,5.159,4.699,4.724,5.281,4.712,4.714,2.198,6.281,5.083,1.571,0.000,0.000,-1.587,-6.507,0.990,5.160,4.702,4.721,
13.360,19.282,-1.656,-7.121,2.022,0.898,6.266,2.490,1.507,0.000,2.274,2.058,1.782,4.819,4.311,0.924,4.070,0.000,1.351,0.000,0.000,0.000,0.000,0.000,0.000,0.000,0.000,0.000,0.000,0.000,3.142,6.282,0.000,1.004,1.569,1.568,4.084,6.281,1.199,4.712,0.000,0.000,-2.209,-6.735,0.990,5.165,4.703,4.720,5.281,4.711,4.711,2.198,6.282,5.083,1.570,0.000,0.000,-1.619,-6.448,0.990,5.165,4.703,4.721,
13.460,19.382,-1.708,-7.013,2.023,1.091,6.260,2.371,1.448,0.000,2.202,0.000,1.904,4.875,3.540,0.998,4.274,0.000,2.545,0.000,0.000,0.000,0.000,0.000,0.000,0.000,0.000,0.000,0.000,0.000,3.142,6.282,0.000,1.004,1.569,1.569,4.084,6.281,1.199,4.712,0.000,0.000,-2.261,-6.628,0.990,5.166,4.702,4.720,5.281,4.711,4.711,2.198,6.282,5.083,1.570,0.000,0.000,-1.672,-6.340,0.990,5.166,4.702,4.721,
13.560,19.482,-1.745,-6.937,2.024,1.054,6.261,2.286,1.406,0.000,2.150,0.000,1.991,4.916,0.952,1.051,4.196,0.000,2.545,0.000,0.000,0.000,0.000,0.000,0.000,0.000,0.000,0.000,0.000,0.000,3.142,6.283,0.000,1.003,1.570,1.570,4.086,6.281,1.199,4.712,0.000,0.000,-2.299,-6.551,0.990,5.165,4.700,4.722,5.281,4.711,4.712,2.198,6.282,5.083,1.570,0.000,0.000,-1.709,-6.264,0.990,5.166,4.702,4.721,
13.660,19.582,-1.797,-6.831,2.005,0.968,5.635,2.146,1.361,0.000,2.036,4.124,2.051,0.000,0.807,1.718,4.102,0.000,2.580,0.000,0.000,0.000,0.000,0.000,0.000,0.000,0.000,0.000,0.000,0.000,3.142,6.281,0.001,1.004,1.568,1.566,4.084,6.281,1.199,4.711,0.000,0.000,-2.345,-6.436,0.990,5.151,4.702,4.720,5.281,4.710,4.708,2.197,6.282,5.083,1.570,0.000,0.000,-1.750,-6.159,0.990,5.150,4.700,4.723,
13.760,19.682,-1.829,-6.761,1.932,0.991,4.958,2.003,1.382,4.382,2.070,4.257,1.969,0.000,0.833,1.717,3.325,0.000,2.685,0.000,0.000,0.000,0.000,0.000,0.000,0.000,0.000,0.000,0.000,0.000,3.142,6.280,0.001,1.005,1.568,1.565,4.084,6.281,1.199,4.711,0.000,0.000,-2.347,-6.327,0.990,5.078,4.700,4.722,5.282,4.710,4.708,2.197,6.282,5.083,1.570,0.000,0.000,-1.733,-6.094,0.991,5.077,4.700,4.723,
13.843,19.765,-1.867,-6.647,1.788,1.030,5.060,2.078,1.487,1.242,4.387,3.057,2.392,0.000,0.874,1.595,3.197,0.000,2.861,0.000,0.000,0.000,0.000,0.000,0.000,0.000,0.000,0.000,0.000,0.000,3.142,6.280,0.001,1.004,1.569,1.568,4.085,6.281,1.199,4.712,0.000,0.000,-2.316,-6.142,0.990,4.931,4.690,4.733,5.282,4.711,4.710,2.198,6.282,5.083,1.570,0.000,0.000,-1.675,-6.001,0.991,4.930,4.696,4.728,
13.960,19.882,-1.883,-6.568,1.713,1.019,5.345,4.341,1.569,1.129,4.964,2.707,2.616,0.000,0.899,1.549,3.042,0.000,2.931,0.000,0.000,0.000,0.000,0.000,0.000,0.000,0.000,0.000,0.000,0.000,3.142,6.281,0.001,1.004,1.569,1.568,4.085,6.281,1.199,4.712,0.000,0.000,-2.293,-6.031,0.990,4.856,4.678,4.745,5.282,4.711,4.711,2.198,6.282,5.083,1.570,0.000,0.000,-1.643,-5.938,0.991,4.855,4.683,4.740,
14.046,19.968,-1.897,-6.449,1.621,1.007,5.375,0.000,1.712,1.135,0.000,2.602,2.712,0.000,0.931,1.502,2.614,0.000,3.036,0.000,0.000,0.000,0.000,0.000,0.000,0.000,0.000,0.000,0.000,0.000,3.142,6.281,0.001,1.004,1.569,1.567,4.085,6.281,1.199,4.712,0.000,0.000,-2.256,-5.877,0.990,4.765,4.621,4.802,5.282,4.711,4.710,2.197,6.282,5.083,1.570,0.000,0.000,-1.601,-5.844,0.990,4.764,4.626,4.798,
14.160,20.082,-1.901,-6.369,1.554,1.009,5.265,3.221,1.859,1.153,0.000,2.344,2.788,0.000,0.953,1.470,2.344,0.000,3.106,0.000,0.000,0.000,0.000,0.000,0.000,0.000,0.000,0.000,0.000,0.000,3.142,6.280,0.001,1.004,1.568,1.567,4.085,6.281,1.199,4.712,0.000,0.000,-2.221,-5.775,0.990,4.727,1.895,1.245,5.282,4.711,4.710,2.197,6.282,5.083,1.570,0.000,0.000,-1.564,-5.785,0.991,4.728,1.863,1.278,
14.257,20.179,-1.895,-6.250,1.448,1.015,5.480,2.865,1.562,1.206,1.132,2.459,4.685,0.000,0.988,1.424,4.591,0.000,2.475,0.000,0.000,0.000,0.000,0.000,0.000,0.000,0.000,0.000,0.000,0.000,3.142,6.281,0.000,1.004,1.569,1.569,4.085,6.281,1.199,4.712,0.000,0.000,-2.150,-5.625,0.990,4.835,1.611,1.530,5.282,4.711,4.711,2.198,6.281,5.083,1.570,0.000,0.000,-1.498,-5.705,0.991,4.835,1.604,1.537,
14.360,20.282,-1.882,-6.151,1.423,1.014,0.005,2.820,1.427,1.235,1.140,2.651,4.802,0.000,0.985,1.404,4.564,0.000,2.510,0.000,0.000,0.000,0.000,0.000,0.000,0.000,0.000,0.000,0.000,0.000,3.142,6.283,0.000,1.003,1.570,1.570,4.085,6.281,1.199,4.712,0.000,0.000,-2.119,-5.520,0.990,4.861,1.604,1.538,5.281,4.711,4.712,2.198,6.282,5.083,1.570,0.000,0.000,-1.471,-5.616,0.990,4.861,1.600,1.542,
14.460,20.382,-1.870,-6.072,1.424,1.008,6.260,2.740,1.337,1.247,1.152,2.756,4.881,0.000,0.972,1.392,4.452,0.000,2.510,0.000,0.000,0.000,0.000,0.000,0.000,0.000,0.000,0.000,0.000,0.000,3.142,6.283,0.000,1.003,1.569,1.569,4.085,6.281,1.199,4.712,0.000,0.000,-2.109,-5.441,0.990,4.859,1.604,1.537,5.281,4.711,4.711,2.198,6.282,5.083,1.570,0.000,0.000,-1.460,-5.537,0.990,4.859,1.601,1.541,
14.560,20.482,-1.853,-5.954,1.425,1.011,6.262,2.620,1.204,1.266,1.170,0.000,4.999,0.000,0.952,1.374,2.040,0.000,3.106,0.000,0.000,0.000,0.000,0.000,0.000,0.000,0.000,0.000,0.000,0.000,3.142,6.283,0.000,1.004,1.569,1.569,4.085,6.281,1.199,4.712,0.000,0.000,-2.092,-5.324,0.990,4.859,1.604,1.537,5.281,4.711,4.711,2.198,6.282,5.083,1.570,0.000,0.000,-1.443,-5.419,0.990,4.858,1.601,1.540,
14.646,20.569,-1.838,-5.856,1.423,1.014,6.155,2.524,1.091,1.282,1.184,0.000,0.000,0.000,0.936,1.309,1.906,0.000,3.142,0.000,0.000,0.000,0.000,0.000,0.000,0.000,0.000,0.000,0.000,0.000,3.142,6.281,0.001,1.004,1.569,1.568,4.084,6.281,1.199,4.712,0.000,0.000,-2.078,-5.225,0.990,4.858,1.602,1.539,5.281,4.711,4.710,2.197,6.282,5.083,1.570,0.000,0.000,-1.429,-5.321,0.990,4.858,1.606,1.536,
14.760,20.682,-1.826,-5.777,1.390,1.013,5.400,2.511,1.159,1.317,1.189,0.000,0.000,0.000,0.939,1.290,1.857,0.000,3.142,0.000,0.000,0.000,0.000,0.000,0.000,0.000,0.000,0.000,0.000,0.000,3.142,6.280,0.001,1.005,1.567,1.565,4.084,6.282,1.199,4.711,0.000,0.000,-2.047,-5.138,0.990,4.888,1.596,1.544,5.281,4.710,4.708,2.197,6.282,5.083,1.570,0.000,0.000,-1.401,-5.255,0.990,4.889,1.601,1.540,
14.855,20.777,-1.802,-5.660,1.307,1.012,5.915,2.953,1.457,1.408,1.202,0.000,4.600,3.490,0.956,1.254,1.853,0.000,2.720,0.000,0.000,0.000,0.000,0.000,0.000,0.000,0.000,0.000,0.000,0.000,3.142,6.282,0.000,1.004,1.570,1.570,4.085,6.281,1.199,4.712,0.000,0.000,-1.965,-5.006,0.990,4.978,1.590,1.552,5.282,4.712,4.712,2.198,6.281,5.083,1.571,0.000,0.000,-1.331,-5.176,0.991,4.977,1.586,1.555,
14.960,20.882,-1.776,-5.564,1.303,1.009,6.263,2.858,1.543,1.255,1.228,0.000,4.625,3.624,1.092,0.000,1.711,0.000,2.720,0.000,0.000,0.000,0.000,0.000,0.000,0.000,0.000,0.000,0.000,0.000,3.142,6.283,0.000,1.003,1.569,1.569,4.085,6.281,1.199,4.712,0.000,0.000,-1.937,-4.909,0.990,4.980,1.589,1.552,5.281,4.711,4.711,2.198,6.282,5.083,1.570,0.000,0.000,-1.304,-5.082,0.990,4.980,1.587,1.554,
15.051,20.973,-1.749,-5.468,1.304,1.011,6.262,2.758,3.354,1.075,1.254,1.783,4.737,0.000,1.269,0.000,1.559,0.000,2.755,0.000,0.000,0.000,0.000,0.000,0.000,0.000,0.000,3.052,0.000,0.000,3.142,6.283,0.000,1.004,1.569,1.569,4.085,6.281,1.199,4.712,0.000,0.000,-1.911,-4.813,0.990,4.980,1.589,1.552,5.281,4.711,4.711,2.198,6.282,5.083,1.570,0.000,0.000,-1.278,-4.986,0.990,4.979,1.588,1.554,
15.160,21.082,-1.728,-5.391,1.304,1.013,6.262,2.679,3.405,0.931,1.275,1.673,4.826,0.000,1.463,0.000,1.528,0.000,2.755,0.000,0.000,0.000,0.000,0.000,0.000,0.000,0.000,3.032,0.000,0.000,3.142,6.282,0.000,1.004,1.569,1.569,4.085,6.281,1.199,4.712,0.000,0.000,-1.890,-4.737,0.990,4.979,1.589,1.552,5.281,4.711,4.711,2.198,6.282,5.083,1.570,0.000,0.000,-1.257,-4.909,0.990,4.979,1.588,1.554,
15.244,21.166,-1.697,-5.278,1.307,0.918,0.226,2.560,3.460,0.767,1.307,1.719,0.000,0.000,1.423,0.000,1.557,0.000,3.142,0.000,0.000,0.000,0.000,0.000,0.000,0.000,0.000,3.138,0.000,0.000,3.142,0.001,0.000,1.002,1.570,1.571,4.087,6.281,1.200,4.712,0.000,0.000,-1.860,-4.624,0.990,4.978,1.594,1.548,5.281,4.712,4.713,2.199,6.282,5.083,1.570,0.000,0.000,-1.227,-4.795,0.990,4.978,1.586,1.556,
15.360,21.282,-1.681,-5.215,1.349,0.753,1.038,2.696,3.178,0.767,1.329,1.807,0.000,1.714,1.367,4.457,1.592,0.000,3.142,0.000,0.000,0.000,0.000,0.000,0.000,0.000,0.000,0.000,0.000,0.000,3.142,0.002,0.000,1.002,1.571,1.573,4.088,6.281,1.199,4.712,0.000,0.000,-1.869,-4.568,0.990,4.938,1.597,1.545,5.281,4.713,4.715,2.199,6.281,5.083,1.571,0.000,0.000,-1.230,-4.713,0.991,4.938,1.585,1.557,
15.447,21.369,-1.665,-5.130,1.490,0.783,1.350,1.755,2.477,0.734,1.382,0.000,4.041,1.275,1.205,0.000,1.820,0.000,3.106,0.000,0.000,0.000,0.000,0.000,0.000,0.000,0.000,0.000,0.000,0.000,3.142,0.001,0.000,1.004,1.570,1.569,4.084,6.282,1.199,4.712,0.000,0.000,-1.946,-4.516,0.990,4.792,1.622,1.519,5.282,4.712,4.712,2.198,6.282,5.083,1.570,0.000,0.000,-1.291,-4.568,0.991,4.793,1.611,1.530,
15.560,21.482,-1.661,-5.066,1.563,0.827,0.574,1.617,1.151,0.720,1.417,4.722,4.092,1.346,4.304,4.039,1.449,0.000,3.036,0.000,0.000,0.000,0.000,0.000,0.000,0.000,0.000,0.000,0.000,0.000,3.142,0.000,0.000,1.004,1.569,1.566,4.085,6.282,1.199,4.712,0.000,0.000,-1.987,-4.474,0.990,4.719,2.382,0.758,5.282,4.711,4.709,2.198,6.283,5.083,1.570,0.000,0.000,-1.331,-4.479,0.991,4.719,2.229,0.912,
15.660,21.582,-1.661,-4.975,1.571,0.714,6.277,1.520,2.215,0.719,1.421,4.806,4.183,1.466,4.713,4.050,1.562,0.000,3.036,0.000,0.000,0.000,0.000,0.000,0.000,0.000,0.000,0.000,0.000,0.000,3.142,6.282,0.001,1.004,1.569,1.569,4.085,6.281,1.199,4.712,0.000,0.000,-1.990,-4.385,0.990,4.717,3.127,0.013,5.281,4.711,4.711,2.197,6.282,5.083,1.570,0.000,0.000,-1.334,-4.385,0.990,4.717,3.193,6.231,
15.760,21.682,-1.661,-4.907,1.570,0.698,6.274,1.453,2.215,0.719,1.421,0.000,4.251,1.550,4.934,1.350,1.479,0.000,3.036,0.000,0.000,0.000,0.000,0.000,0.000,0.000,0.000,0.000,0.000,0.000,3.142,6.282,0.000,1.004,1.569,1.569,4.084,6.281,1.199,4.712,0.000,0.000,-1.990,-4.318,0.990,4.717,3.276,6.148,5.281,4.711,4.711,2.197,6.282,5.083,1.570,0.000,0.000,-1.334,-4.317,0.990,4.717,3.286,6.138,
15.860,21.782,-1.661,-4.836,1.570,0.751,6.273,1.383,2.216,0.719,1.421,0.000,4.321,1.638,0.000,1.172,1.393,0.000,3.036,0.000,0.000,0.000,0.000,0.000,0.000,0.000,0.000,0.000,0.000,0.000,3.142,6.282,0.000,1.004,1.569,1.568,4.084,6.281,1.199,4.712,0.000,0.000,-1.990,-4.247,0.990,4.717,3.250,6.173,5.281,4.711,4.711,2.197,6.282,5.083,1.570,0.000,0.000,-1.334,-4.246,0.990,4.717,3.257,6.167,
15.960,21.882,-1.661,-4.772,1.570,0.431,6.266,1.320,2.215,0.719,1.421,0.000,4.385,1.717,0.000,1.172,1.314,0.000,3.036,0.000,0.000,0.000,0.000,0.000,0.000,0.000,0.000,0.000,0.000,0.000,3.142,0.001,0.001,1.001,1.571,1.571,4.089,6.281,1.200,4.712,0.000,0.000,-1.988,-4.182,0.989,4.720,2.759,0.382,5.281,4.712,4.713,2.198,6.282,5.083,1.570,0.000,0.000,-1.332,-4.183,0.990,4.718,2.691,0.450,
16.060,21.982,-1.661,-4.747,1.571,0.135,6.265,1.295,2.214,0.719,1.422,0.000,4.410,1.748,0.000,1.172,1.284,0.000,3.036,0.000,0.000,0.000,0.000,0.000,0.000,0.000,0.000,0.000,0.000,0.000,3.142,0.000,0.001,1.003,1.570,1.570,4.087,6.281,1.200,4.712,0.000,0.000,-1.989,-4.158,0.990,4.718,3.063,0.078,5.281,4.712,4.712,2.198,6.282,5.083,1.570,0.000,0.000,-1.333,-4.158,0.990,4.717,3.097,0.044,
16.160,22.082,-1.661,-4.743,1.572,0.000,6.270,1.290,2.212,0.719,1.422,0.000,4.414,1.755,0.000,1.173,1.277,0.000,3.036,0.000,0.000,0.000,0.000,0.000,0.000,0.000,0.000,0.000,0.000,0.000,3.142,6.283,0.001,1.003,1.569,1.569,4.086,6.281,1.199,4.712,0.000,0.000,-1.990,-4.154,0.990,4.718,3.246,6.177,5.281,4.711,4.712,2.198,6.282,5.083,1.570,0.000,0.000,-1.334,-4.153,0.990,4.717,3.302,6.123,
16.260,22.182,-1.661,-4.743,1.572,0.000,6.271,1.290,2.212,0.719,1.422,0.000,4.414,1.755,0.000,1.173,1.277,0.000,3.036,0.000,0.000,0.000,0.000,0.000,0.000,0.000,0.000,0.000,0.000,0.000,3.142,6.283,0.000,1.003,1.569,1.569,4.085,6.281,1.199,4.712,0.000,0.000,-1.990,-4.154,0.990,4.717,3.286,6.138,5.281,4.711,4.712,2.198,6.282,5.083,1.570,0.000,0.000,-1.334,-4.153,0.990,4.717,3.331,6.093,
16.343,22.266,-1.661,-4.743,1.572,0.000,6.271,1.290,2.212,0.719,1.422,0.000,4.414,1.755,0.000,1.173,1.277,0.000,3.036,0.000,0.000,0.000,0.000,0.000,0.000,0.000,0.000,0.000,0.000,0.000,3.142,6.283,0.000,1.003,1.569,1.569,4.085,6.281,1.199,4.712,0.000,0.000,-1.990,-4.154,0.990,4.717,3.286,6.138,5.281,4.711,4.712,2.198,6.282,5.083,1.570,0.000,0.000,-1.334,-4.153,0.990,4.717,3.332,6.092,
16.460,22.382,-1.661,-4.743,1.572,0.000,6.271,1.290,2.212,0.719,1.422,0.000,4.414,1.755,0.000,1.173,1.277,0.000,3.036,0.000,0.000,0.000,0.000,0.000,0.000,0.000,0.000,0.000,0.000,0.000,3.142,6.283,0.000,1.003,1.569,1.569,4.085,6.281,1.199,4.712,0.000,0.000,-1.990,-4.154,0.990,4.717,3.286,6.138,5.281,4.711,4.712,2.198,6.282,5.083,1.570,0.000,0.000,-1.334,-4.153,0.990,4.717,3.332,6.092,
16.550,22.472,-1.661,-4.743,1.572,0.000,6.271,1.290,2.212,0.719,1.422,0.000,4.414,1.755,0.000,1.173,1.277,0.000,3.036,0.000,0.000,0.000,0.000,0.000,0.000,0.000,0.000,0.000,0.000,0.000,3.142,6.283,0.000,1.003,1.569,1.569,4.085,6.281,1.199,4.712,0.000,0.000,-1.990,-4.154,0.990,4.717,3.286,6.138,5.281,4.711,4.712,2.198,6.282,5.083,1.570,0.000,0.000,-1.334,-4.153,0.990,4.717,3.332,6.092,
16.660,22.582,-1.661,-4.743,1.572,0.000,6.271,1.290,2.212,0.719,1.422,0.000,4.414,1.755,0.000,1.173,1.277,0.000,3.036,0.000,0.000,0.000,0.000,0.000,0.000,0.000,0.000,0.000,0.000,0.000,3.142,6.283,0.000,1.003,1.569,1.569,4.085,6.281,1.199,4.712,0.000,0.000,-1.990,-4.154,0.990,4.717,3.286,6.138,5.281,4.711,4.712,2.198,6.282,5.083,1.570,0.000,0.000,-1.334,-4.153,0.990,4.717,3.332,6.092,
16.752,22.674,-1.661,-4.743,1.572,0.000,6.271,1.290,2.212,0.719,1.422,0.000,4.414,1.755,0.000,1.173,1.277,0.000,3.036,0.000,0.000,0.000,0.000,0.000,0.000,0.000,0.000,0.000,0.000,0.000,3.142,6.283,0.000,1.003,1.569,1.569,4.085,6.281,1.199,4.712,0.000,0.000,-1.990,-4.154,0.990,4.717,3.286,6.138,5.281,4.711,4.712,2.198,6.282,5.083,1.570,0.000,0.000,-1.334,-4.153,0.990,4.717,3.332,6.092,
16.860,22.782,-1.661,-4.743,1.572,0.000,6.271,1.290,2.212,0.719,1.422,0.000,4.414,1.755,0.000,1.173,1.277,0.000,3.036,0.000,0.000,0.000,0.000,0.000,0.000,0.000,0.000,0.000,0.000,0.000,3.142,6.283,0.000,1.003,1.569,1.569,4.085,6.281,1.199,4.712,0.000,0.000,-1.990,-4.154,0.990,4.717,3.286,6.138,5.281,4.711,4.712,2.198,6.282,5.083,1.570,0.000,0.000,-1.334,-4.153,0.990,4.717,3.332,6.092,
16.955,22.878,-1.661,-4.743,1.572,0.000,6.271,1.290,2.212,0.719,1.422,0.000,4.414,1.755,0.000,1.173,1.277,0.000,3.036,0.000,0.000,0.000,0.000,0.000,0.000,0.000,0.000,0.000,0.000,0.000,3.142,6.283,0.000,1.003,1.569,1.569,4.085,6.281,1.199,4.712,0.000,0.000,-1.990,-4.154,0.990,4.717,3.286,6.138,5.281,4.711,4.712,2.198,6.282,5.083,1.570,0.000,0.000,-1.334,-4.153,0.990,4.717,3.332,6.092,
17.060,22.982,-1.661,-4.743,1.572,0.000,6.271,1.290,2.212,0.719,1.422,0.000,4.414,1.755,0.000,1.173,1.277,0.000,3.036,0.000,0.000,0.000,0.000,0.000,0.000,0.000,0.000,0.000,0.000,0.000,3.142,6.283,0.000,1.003,1.569,1.569,4.085,6.281,1.199,4.712,0.000,0.000,-1.990,-4.154,0.990,4.717,3.286,6.138,5.281,4.711,4.712,2.198,6.282,5.083,1.570,0.000,0.000,-1.334,-4.153,0.990,4.717,3.332,6.092,
17.159,23.081,-1.661,-4.743,1.572,0.000,6.271,1.290,2.212,0.719,1.422,0.000,4.414,1.755,0.000,1.173,1.277,0.000,3.036,0.000,0.000,0.000,0.000,0.000,0.000,0.000,0.000,0.000,0.000,0.000,3.142,6.283,0.000,1.003,1.569,1.569,4.085,6.281,1.199,4.712,0.000,0.000,-1.990,-4.154,0.990,4.717,3.286,6.138,5.281,4.711,4.712,2.198,6.282,5.083,1.570,0.000,0.000,-1.334,-4.153,0.990,4.717,3.332,6.092,
17.260,23.182,-1.661,-4.743,1.572,0.000,6.271,1.290,2.212,0.719,1.422,0.000,4.414,1.755,0.000,1.173,1.277,0.000,3.036,0.000,0.000,0.000,0.000,0.000,0.000,0.000,0.000,0.000,0.000,0.000,3.142,6.283,0.000,1.003,1.569,1.569,4.085,6.281,1.199,4.712,0.000,0.000,-1.990,-4.154,0.990,4.717,3.286,6.138,5.281,4.711,4.712,2.198,6.282,5.083,1.570,0.000,0.000,-1.334,-4.153,0.990,4.717,3.332,6.092,
17.360,23.282,-1.661,-4.743,1.572,0.000,6.271,1.290,2.212,0.719,1.422,0.000,4.414,1.755,0.000,1.173,1.277,0.000,3.036,0.000,0.000,0.000,0.000,0.000,0.000,0.000,0.000,0.000,0.000,0.000,3.142,6.283,0.000,1.003,1.569,1.569,4.085,6.281,1.199,4.712,0.000,0.000,-1.990,-4.154,0.990,4.717,3.286,6.138,5.281,4.711,4.712,2.198,6.282,5.083,1.570,0.000,0.000,-1.334,-4.153,0.990,4.717,3.332,6.093,
17.460,23.382,-1.661,-4.743,1.572,0.000,6.271,1.290,2.212,0.719,1.422,0.000,4.414,1.755,0.000,1.173,1.277,0.000,3.036,0.000,0.000,0.000,0.000,0.000,0.000,0.000,0.000,0.000,0.000,0.000,3.142,6.283,0.000,1.003,1.569,1.569,4.085,6.281,1.199,4.712,0.000,0.000,-1.990,-4.154,0.990,4.717,3.286,6.138,5.281,4.711,4.712,2.198,6.282,5.083,1.570,0.000,0.000,-1.334,-4.153,0.990,4.717,3.332,6.092,
17.560,23.482,-1.661,-4.743,1.572,0.000,6.271,1.290,2.212,0.719,1.422,0.000,4.414,1.755,0.000,1.173,1.277,0.000,3.036,0.000,0.000,0.000,0.000,0.000,0.000,0.000,0.000,0.000,0.000,0.000,3.142,6.283,0.000,1.003,1.569,1.569,4.085,6.281,1.199,4.712,0.000,0.000,-1.990,-4.154,0.990,4.717,3.286,6.138,5.281,4.711,4.712,2.198,6.282,5.083,1.570,0.000,0.000,-1.334,-4.153,0.990,4.717,3.332,6.092,
17.644,23.566,-1.661,-4.743,1.572,0.000,6.271,1.290,2.212,0.719,1.422,0.000,4.414,1.755,0.000,1.173,1.277,0.000,3.036,0.000,0.000,0.000,0.000,0.000,0.000,0.000,0.000,0.000,0.000,0.000,3.142,6.283,0.000,1.003,1.569,1.569,4.085,6.281,1.199,4.712,0.000,0.000,-1.990,-4.154,0.990,4.717,3.286,6.138,5.281,4.711,4.712,2.198,6.282,5.083,1.570,0.000,0.000,-1.334,-4.153,0.990,4.717,3.332,6.092,
17.760,23.682,-1.661,-4.743,1.572,0.000,6.271,1.290,2.212,0.719,1.422,0.000,4.414,1.755,0.000,1.173,1.277,0.000,3.036,0.000,0.000,0.000,0.000,0.000,0.000,0.000,0.000,0.000,0.000,0.000,3.142,6.283,0.000,1.003,1.569,1.569,4.085,6.281,1.199,4.712,0.000,0.000,-1.990,-4.154,0.990,4.717,3.286,6.138,5.281,4.711,4.712,2.198,6.282,5.083,1.570,0.000,0.000,-1.334,-4.153,0.990,4.717,3.332,6.092,
17.859,23.782,-1.661,-4.743,1.572,0.000,6.271,1.290,2.212,0.719,1.422,0.000,4.414,1.755,0.000,1.173,1.277,0.000,3.036,0.000,0.000,0.000,0.000,0.000,0.000,0.000,0.000,0.000,0.000,0.000,3.142,6.283,0.000,1.003,1.569,1.569,4.085,6.281,1.199,4.712,0.000,0.000,-1.990,-4.154,0.990,4.717,3.286,6.138,5.281,4.711,4.712,2.198,6.282,5.083,1.570,0.000,0.000,-1.334,-4.153,0.990,4.717,3.332,6.092,
17.960,23.882,-1.661,-4.743,1.572,0.000,6.271,1.290,2.212,0.719,1.422,0.000,4.414,1.755,0.000,1.173,1.277,0.000,3.036,0.000,0.000,0.000,0.000,0.000,0.000,0.000,0.000,0.000,0.000,0.000,3.142,6.283,0.000,1.003,1.569,1.569,4.085,6.281,1.199,4.712,0.000,0.000,-1.990,-4.154,0.990,4.717,3.286,6.138,5.281,4.711,4.712,2.198,6.282,5.083,1.570,0.000,0.000,-1.334,-4.153,0.990,4.717,3.332,6.092,
18.052,23.974,-1.661,-4.743,1.572,0.000,6.271,1.290,2.212,0.719,1.422,0.000,4.414,1.755,0.000,1.173,1.277,0.000,3.036,0.000,0.000,0.000,0.000,0.000,0.000,0.000,0.000,0.000,0.000,0.000,3.142,6.283,0.000,1.003,1.569,1.569,4.085,6.281,1.199,4.712,0.000,0.000,-1.990,-4.154,0.990,4.717,3.286,6.138,5.281,4.711,4.712,2.198,6.282,5.083,1.570,0.000,0.000,-1.334,-4.153,0.990,4.717,3.332,6.092,
18.160,24.082,-1.661,-4.743,1.572,0.000,6.271,1.290,2.212,0.719,1.422,0.000,4.414,1.755,0.000,1.173,1.277,0.000,3.036,0.000,0.000,0.000,0.000,0.000,0.000,0.000,0.000,0.000,0.000,0.000,3.142,6.283,0.000,1.003,1.569,1.569,4.085,6.281,1.199,4.712,0.000,0.000,-1.990,-4.154,0.990,4.717,3.286,6.138,5.281,4.711,4.712,2.198,6.282,5.083,1.570,0.000,0.000,-1.334,-4.153,0.990,4.717,3.332,6.092,
18.256,24.178,-1.661,-4.743,1.572,0.000,6.271,1.290,2.212,0.719,1.422,0.000,4.414,1.755,0.000,1.173,1.277,0.000,3.036,0.000,0.000,0.000,0.000,0.000,0.000,0.000,0.000,0.000,0.000,0.000,3.142,6.283,0.000,1.003,1.569,1.569,4.085,6.281,1.199,4.712,0.000,0.000,-1.990,-4.154,0.990,4.717,3.286,6.138,5.281,4.711,4.712,2.198,6.282,5.083,1.570,0.000,0.000,-1.334,-4.153,0.990,4.717,3.332,6.093,
18.360,24.282,-1.661,-4.743,1.572,0.000,6.271,1.290,2.212,0.719,1.422,0.000,4.414,1.755,0.000,1.173,1.277,0.000,3.036,0.000,0.000,0.000,0.000,0.000,0.000,0.000,0.000,0.000,0.000,0.000,3.142,6.283,0.000,1.003,1.569,1.569,4.085,6.281,1.199,4.712,0.000,0.000,-1.990,-4.154,0.990,4.717,3.286,6.138,5.281,4.711,4.712,2.198,6.282,5.083,1.570,0.000,0.000,-1.334,-4.153,0.990,4.717,3.332,6.092,
18.460,24.382,-1.661,-4.743,1.572,0.000,6.271,1.290,2.212,0.719,1.422,0.000,4.414,1.755,0.000,1.173,1.277,0.000,3.036,0.000,0.000,0.000,0.000,0.000,0.000,0.000,0.000,0.000,0.000,0.000,3.142,6.283,0.000,1.003,1.569,1.569,4.085,6.281,1.199,4.712,0.000,0.000,-1.990,-4.154,0.990,4.717,3.286,6.138,5.281,4.711,4.712,2.198,6.282,5.083,1.570,0.000,0.000,-1.334,-4.153,0.990,4.717,3.332,6.093,
18.560,24.482,-1.661,-4.743,1.572,0.000,6.271,1.290,2.212,0.719,1.422,0.000,4.414,1.755,0.000,1.173,1.277,0.000,3.036,0.000,0.000,0.000,0.000,0.000,0.000,0.000,0.000,0.000,0.000,0.000,3.142,6.283,0.000,1.003,1.569,1.569,4.085,6.281,1.199,4.712,0.000,0.000,-1.990,-4.154,0.990,4.717,3.286,6.138,5.281,4.711,4.712,2.198,6.282,5.083,1.570,0.000,0.000,-1.334,-4.153,0.990,4.717,3.332,6.092,
18.660,24.582,-1.661,-4.743,1.572,0.000,6.271,1.290,2.212,0.719,1.422,0.000,4.414,1.755,0.000,1.173,1.277,0.000,3.036,0.000,0.000,0.000,0.000,0.000,0.000,0.000,0.000,0.000,0.000,0.000,3.142,6.283,0.000,1.003,1.569,1.569,4.085,6.281,1.199,4.712,0.000,0.000,-1.990,-4.154,0.990,4.717,3.286,6.138,5.281,4.711,4.712,2.198,6.282,5.083,1.570,0.000,0.000,-1.334,-4.153,0.990,4.717,3.332,6.093,
18.760,24.682,-1.661,-4.743,1.572,0.000,6.271,1.290,2.212,0.719,1.422,0.000,4.414,1.755,0.000,1.173,1.277,0.000,3.036,0.000,0.000,0.000,0.000,0.000,0.000,0.000,0.000,0.000,0.000,0.000,3.142,6.283,0.000,1.003,1.569,1.569,4.085,6.281,1.199,4.712,0.000,0.000,-1.990,-4.154,0.990,4.717,3.286,6.138,5.281,4.711,4.712,2.198,6.282,5.083,1.570,0.000,0.000,-1.334,-4.153,0.990,4.717,3.332,6.093,
18.860,24.782,-1.661,-4.743,1.572,0.000,6.271,1.290,2.212,0.719,1.422,0.000,4.414,1.755,0.000,1.173,1.277,0.000,3.036,0.000,0.000,0.000,0.000,0.000,0.000,0.000,0.000,0.000,0.000,0.000,3.142,6.283,0.000,1.003,1.569,1.569,4.085,6.281,1.199,4.712,0.000,0.000,-1.990,-4.154,0.990,4.717,3.286,6.138,5.281,4.711,4.712,2.198,6.282,5.083,1.570,0.000,0.000,-1.334,-4.153,0.990,4.717,3.332,6.092,
18.948,24.870,-1.661,-4.743,1.572,0.000,6.271,1.290,2.212,0.719,1.422,0.000,4.414,1.755,0.000,1.173,1.277,0.000,3.036,0.000,0.000,0.000,0.000,0.000,0.000,0.000,0.000,0.000,0.000,0.000,3.142,6.283,0.000,1.003,1.569,1.569,4.085,6.281,1.199,4.712,0.000,0.000,-1.990,-4.154,0.990,4.717,3.286,6.138,5.281,4.711,4.712,2.198,6.282,5.083,1.570,0.000,0.000,-1.334,-4.153,0.990,4.717,3.332,6.092,
19.060,24.982,-1.661,-4.743,1.572,0.000,6.271,1.290,2.212,0.719,1.422,0.000,4.414,1.755,0.000,1.173,1.277,0.000,3.036,0.000,0.000,0.000,0.000,0.000,0.000,0.000,0.000,0.000,0.000,0.000,3.142,6.283,0.000,1.003,1.569,1.569,4.085,6.281,1.199,4.712,0.000,0.000,-1.990,-4.154,0.990,4.717,3.286,6.138,5.281,4.711,4.712,2.198,6.282,5.083,1.570,0.000,0.000,-1.334,-4.153,0.990,4.717,3.332,6.092,
19.150,25.072,-1.661,-4.743,1.572,0.000,6.271,1.290,2.212,0.719,1.422,0.000,4.414,1.755,0.000,1.173,1.277,0.000,3.036,0.000,0.000,0.000,0.000,0.000,0.000,0.000,0.000,0.000,0.000,0.000,3.142,6.283,0.000,1.003,1.569,1.569,4.085,6.281,1.199,4.712,0.000,0.000,-1.990,-4.154,0.990,4.717,3.286,6.138,5.281,4.711,4.712,2.198,6.282,5.083,1.570,0.000,0.000,-1.334,-4.153,0.990,4.717,3.332,6.093,
19.260,25.182,-1.661,-4.743,1.572,0.000,6.271,1.290,2.212,0.719,1.422,0.000,4.414,1.755,0.000,1.173,1.277,0.000,3.036,0.000,0.000,0.000,0.000,0.000,0.000,0.000,0.000,0.000,0.000,0.000,3.142,6.283,0.000,1.003,1.569,1.569,4.085,6.281,1.199,4.712,0.000,0.000,-1.990,-4.154,0.990,4.717,3.286,6.138,5.281,4.711,4.712,2.198,6.282,5.083,1.570,0.000,0.000,-1.334,-4.153,0.990,4.717,3.332,6.092,
19.358,25.280,-1.661,-4.743,1.572,0.000,6.271,1.290,2.212,0.719,1.422,0.000,4.414,1.755,0.000,1.173,1.277,0.000,3.036,0.000,0.000,0.000,0.000,0.000,0.000,0.000,0.000,0.000,0.000,0.000,3.142,6.283,0.000,1.003,1.569,1.569,4.085,6.281,1.199,4.712,0.000,0.000,-1.990,-4.154,0.990,4.717,3.286,6.138,5.281,4.711,4.712,2.198,6.282,5.083,1.570,0.000,0.000,-1.334,-4.153,0.990,4.717,3.332,6.092,
19.460,25.382,-1.661,-4.743,1.572,0.000,6.271,1.290,2.212,0.719,1.422,0.000,4.414,1.755,0.000,1.173,1.277,0.000,3.036,0.000,0.000,0.000,0.000,0.000,0.000,0.000,0.000,0.000,0.000,0.000,3.142,6.283,0.000,1.003,1.569,1.569,4.085,6.281,1.199,4.712,0.000,0.000,-1.990,-4.154,0.990,4.717,3.286,6.138,5.281,4.711,4.712,2.198,6.282,5.083,1.570,0.000,0.000,-1.334,-4.153,0.990,4.717,3.332,6.092,
19.555,25.477,-1.661,-4.743,1.572,0.000,6.271,1.290,2.212,0.719,1.422,0.000,4.414,1.755,0.000,1.173,1.277,0.000,3.036,0.000,0.000,0.000,0.000,0.000,0.000,0.000,0.000,0.000,0.000,0.000,3.142,6.283,0.000,1.003,1.569,1.569,4.085,6.281,1.199,4.712,0.000,0.000,-1.990,-4.154,0.990,4.717,3.286,6.138,5.281,4.711,4.712,2.198,6.282,5.083,1.570,0.000,0.000,-1.334,-4.153,0.990,4.717,3.332,6.092,
19.660,25.582,-1.661,-4.743,1.572,0.000,6.271,1.290,2.212,0.719,1.422,0.000,4.414,1.755,0.000,1.173,1.277,0.000,3.036,0.000,0.000,0.000,0.000,0.000,0.000,0.000,0.000,0.000,0.000,0.000,3.142,6.283,0.000,1.003,1.569,1.569,4.085,6.281,1.199,4.712,0.000,0.000,-1.990,-4.154,0.990,4.717,3.286,6.138,5.281,4.711,4.712,2.198,6.282,5.083,1.570,0.000,0.000,-1.334,-4.153,0.990,4.717,3.332,6.092,
19.760,25.682,-1.661,-4.743,1.572,0.000,6.271,1.290,2.212,0.719,1.422,0.000,4.414,1.755,0.000,1.173,1.277,0.000,3.036,0.000,0.000,0.000,0.000,0.000,0.000,0.000,0.000,0.000,0.000,0.000,3.142,6.283,0.000,1.003,1.569,1.569,4.085,6.281,1.199,4.712,0.000,0.000,-1.990,-4.154,0.990,4.717,3.286,6.138,5.281,4.711,4.712,2.198,6.282,5.083,1.570,0.000,0.000,-1.334,-4.153,0.990,4.717,3.332,6.092,
19.845,25.767,-1.661,-4.743,1.572,0.000,6.271,1.290,2.212,0.719,1.422,0.000,4.414,1.755,0.000,1.173,1.277,0.000,3.036,0.000,0.000,0.000,0.000,0.000,0.000,0.000,0.000,0.000,0.000,0.000,3.142,6.283,0.000,1.003,1.569,1.569,4.085,6.281,1.199,4.712,0.000,0.000,-1.990,-4.154,0.990,4.717,3.286,6.138,5.281,4.711,4.712,2.198,6.282,5.083,1.570,0.000,0.000,-1.334,-4.153,0.990,4.717,3.332,6.092,
19.960,25.882,-1.661,-4.743,1.572,0.000,6.271,1.290,2.212,0.719,1.422,0.000,4.414,1.755,0.000,1.173,1.277,0.000,3.036,0.000,0.000,0.000,0.000,0.000,0.000,0.000,0.000,0.000,0.000,0.000,3.142,6.283,0.000,1.003,1.569,1.569,4.085,6.281,1.199,4.712,0.000,0.000,-1.990,-4.154,0.990,4.717,3.286,6.138,5.281,4.711,4.712,2.198,6.282,5.083,1.570,0.000,0.000,-1.334,-4.153,0.990,4.717,3.332,6.092,
20.047,25.969,-1.661,-4.743,1.572,0.000,6.271,1.290,2.212,0.719,1.422,0.000,4.414,1.755,0.000,1.173,1.277,0.000,3.036,0.000,0.000,0.000,0.000,0.000,0.000,0.000,0.000,0.000,0.000,0.000,3.142,6.283,0.000,1.003,1.569,1.569,4.085,6.281,1.199,4.712,0.000,0.000,-1.990,-4.154,0.990,4.717,3.286,6.138,5.281,4.711,4.712,2.198,6.282,5.083,1.570,0.000,0.000,-1.334,-4.153,0.990,4.717,3.332,6.092,
20.160,26.082,-1.661,-4.743,1.572,0.000,6.271,1.290,2.212,0.719,1.422,0.000,4.414,1.755,0.000,1.173,1.277,0.000,3.036,0.000,0.000,0.000,0.000,0.000,0.000,0.000,0.000,0.000,0.000,0.000,3.142,6.283,0.000,1.003,1.569,1.569,4.085,6.281,1.199,4.712,0.000,0.000,-1.990,-4.154,0.990,4.717,3.286,6.138,5.281,4.711,4.712,2.198,6.282,5.083,1.570,0.000,0.000,-1.334,-4.153,0.990,4.717,3.332,6.093,
20.260,26.182,-1.661,-4.743,1.572,0.000,6.271,1.290,2.212,0.719,1.422,0.000,4.414,1.755,0.000,1.173,1.277,0.000,3.036,0.000,0.000,0.000,0.000,0.000,0.000,0.000,0.000,0.000,0.000,0.000,3.142,6.283,0.000,1.003,1.569,1.569,4.085,6.281,1.199,4.712,0.000,0.000,-1.990,-4.154,0.990,4.717,3.286,6.138,5.281,4.711,4.712,2.198,6.282,5.083,1.570,0.000,0.000,-1.334,-4.153,0.990,4.717,3.332,6.092,
20.360,26.282,-1.661,-4.743,1.572,0.000,6.271,1.290,2.212,0.719,1.422,0.000,4.414,1.755,0.000,1.173,1.277,0.000,3.036,0.000,0.000,0.000,0.000,0.000,0.000,0.000,0.000,0.000,0.000,0.000,3.142,6.283,0.000,1.003,1.569,1.569,4.085,6.281,1.199,4.712,0.000,0.000,-1.990,-4.154,0.990,4.717,3.286,6.138,5.281,4.711,4.712,2.198,6.282,5.083,1.570,0.000,0.000,-1.334,-4.153,0.990,4.717,3.332,6.092,
20.460,26.382,-1.661,-4.743,1.572,0.000,6.271,1.290,2.212,0.719,1.422,0.000,4.414,1.755,0.000,1.173,1.277,0.000,3.036,0.000,0.000,0.000,0.000,0.000,0.000,0.000,0.000,0.000,0.000,0.000,3.142,6.283,0.000,1.003,1.569,1.569,4.085,6.281,1.199,4.712,0.000,0.000,-1.990,-4.154,0.990,4.717,3.286,6.138,5.281,4.711,4.712,2.198,6.282,5.083,1.570,0.000,0.000,-1.334,-4.153,0.990,4.717,3.332,6.092,
20.560,26.482,-1.661,-4.743,1.572,0.000,6.271,1.290,2.212,0.719,1.422,0.000,4.414,1.755,0.000,1.173,1.277,0.000,3.036,0.000,0.000,0.000,0.000,0.000,0.000,0.000,0.000,0.000,0.000,0.000,3.142,6.283,0.000,1.003,1.569,1.569,4.085,6.281,1.199,4.712,0.000,0.000,-1.990,-4.154,0.990,4.717,3.286,6.138,5.281,4.711,4.712,2.198,6.282,5.083,1.570,0.000,0.000,-1.334,-4.153,0.990,4.717,3.332,6.092,
20.660,26.582,-1.661,-4.743,1.572,0.000,6.271,1.290,2.212,0.719,1.422,0.000,4.414,1.755,0.000,1.173,1.277,0.000,3.036,0.000,0.000,0.000,0.000,0.000,0.000,0.000,0.000,0.000,0.000,0.000,3.142,6.283,0.000,1.003,1.569,1.569,4.085,6.281,1.199,4.712,0.000,0.000,-1.990,-4.154,0.990,4.717,3.286,6.138,5.281,4.711,4.712,2.198,6.282,5.083,1.570,0.000,0.000,-1.334,-4.153,0.990,4.717,3.332,6.092,
20.760,26.682,-1.661,-4.743,1.572,0.000,6.271,1.290,2.212,0.719,1.422,0.000,4.414,1.755,0.000,1.173,1.277,0.000,3.036,0.000,0.000,0.000,0.000,0.000,0.000,0.000,0.000,0.000,0.000,0.000,3.142,6.283,0.000,1.003,1.569,1.569,4.085,6.281,1.199,4.712,0.000,0.000,-1.990,-4.154,0.990,4.717,3.286,6.138,5.281,4.711,4.712,2.198,6.282,5.083,1.570,0.000,0.000,-1.334,-4.153,0.990,4.717,3.332,6.092,
20.860,26.782,-1.661,-4.743,1.572,0.000,6.271,1.290,2.212,0.719,1.422,0.000,4.414,1.755,0.000,1.173,1.277,0.000,3.036,0.000,0.000,0.000,0.000,0.000,0.000,0.000,0.000,0.000,0.000,0.000,3.142,6.283,0.000,1.003,1.569,1.569,4.085,6.281,1.199,4.712,0.000,0.000,-1.990,-4.154,0.990,4.717,3.286,6.138,5.281,4.711,4.712,2.198,6.282,5.083,1.570,0.000,0.000,-1.334,-4.153,0.990,4.717,3.332,6.092,
20.943,26.865,-1.661,-4.743,1.572,0.000,6.271,1.290,2.212,0.719,1.422,0.000,4.414,1.755,0.000,1.173,1.277,0.000,3.036,0.000,0.000,0.000,0.000,0.000,0.000,0.000,0.000,0.000,0.000,0.000,3.142,6.283,0.000,1.003,1.569,1.569,4.085,6.281,1.199,4.712,0.000,0.000,-1.990,-4.154,0.990,4.717,3.286,6.138,5.281,4.711,4.712,2.198,6.282,5.083,1.570,0.000,0.000,-1.334,-4.153,0.990,4.717,3.332,6.092,
21.060,26.982,-1.661,-4.743,1.572,0.000,6.271,1.290,2.212,0.719,1.422,0.000,4.414,1.755,0.000,1.173,1.277,0.000,3.036,0.000,0.000,0.000,0.000,0.000,0.000,0.000,0.000,0.000,0.000,0.000,3.142,6.283,0.000,1.003,1.569,1.569,4.085,6.281,1.199,4.712,0.000,0.000,-1.990,-4.154,0.990,4.717,3.286,6.138,5.281,4.711,4.712,2.198,6.282,5.083,1.570,0.000,0.000,-1.334,-4.153,0.990,4.717,3.332,6.093,
21.141,27.063,-1.661,-4.743,1.572,0.000,6.271,1.290,2.212,0.719,1.422,0.000,4.414,1.755,0.000,1.173,1.277,0.000,3.036,0.000,0.000,0.000,0.000,0.000,0.000,0.000,0.000,0.000,0.000,0.000,3.142,6.283,0.000,1.003,1.569,1.569,4.085,6.281,1.199,4.712,0.000,0.000,-1.990,-4.154,0.990,4.717,3.286,6.138,5.281,4.711,4.712,2.198,6.282,5.083,1.570,0.000,0.000,-1.334,-4.153,0.990,4.717,3.332,6.092,
21.260,27.182,-1.661,-4.743,1.572,0.000,6.271,1.290,2.212,0.719,1.422,0.000,4.414,1.755,0.000,1.173,1.277,0.000,3.036,0.000,0.000,0.000,0.000,0.000,0.000,0.000,0.000,0.000,0.000,0.000,3.142,6.283,0.000,1.003,1.569,1.569,4.085,6.281,1.199,4.712,0.000,0.000,-1.990,-4.154,0.990,4.717,3.286,6.138,5.281,4.711,4.712,2.198,6.282,5.083,1.570,0.000,0.000,-1.334,-4.153,0.990,4.717,3.332,6.092,
21.345,27.267,-1.661,-4.743,1.572,0.000,6.271,1.290,2.212,0.719,1.422,0.000,4.414,1.755,0.000,1.173,1.277,0.000,3.036,0.000,0.000,0.000,0.000,0.000,0.000,0.000,0.000,0.000,0.000,0.000,3.142,6.283,0.000,1.003,1.569,1.569,4.085,6.281,1.199,4.712,0.000,0.000,-1.990,-4.154,0.990,4.717,3.286,6.138,5.281,4.711,4.712,2.198,6.282,5.083,1.570,0.000,0.000,-1.334,-4.153,0.990,4.717,3.332,6.092,
21.460,27.382,-1.661,-4.743,1.572,0.000,6.271,1.290,2.212,0.719,1.422,0.000,4.414,1.755,0.000,1.173,1.277,0.000,3.036,0.000,0.000,0.000,0.000,0.000,0.000,0.000,0.000,0.000,0.000,0.000,3.142,6.283,0.000,1.003,1.569,1.569,4.085,6.281,1.199,4.712,0.000,0.000,-1.990,-4.154,0.990,4.717,3.286,6.138,5.281,4.711,4.712,2.198,6.282,5.083,1.570,0.000,0.000,-1.334,-4.153,0.990,4.717,3.332,6.093,
21.552,27.474,-1.661,-4.743,1.572,0.000,6.271,1.290,2.212,0.719,1.422,0.000,4.414,1.755,0.000,1.173,1.277,0.000,3.036,0.000,0.000,0.000,0.000,0.000,0.000,0.000,0.000,0.000,0.000,0.000,3.142,6.283,0.000,1.003,1.569,1.569,4.085,6.281,1.199,4.712,0.000,0.000,-1.990,-4.154,0.990,4.717,3.286,6.138,5.281,4.711,4.712,2.198,6.282,5.083,1.570,0.000,0.000,-1.334,-4.153,0.990,4.717,3.332,6.092,
21.660,27.582,-1.661,-4.743,1.572,0.000,6.271,1.290,2.212,0.719,1.422,0.000,4.414,1.755,0.000,1.173,1.277,0.000,3.036,0.000,0.000,0.000,0.000,0.000,0.000,0.000,0.000,0.000,0.000,0.000,3.142,6.283,0.000,1.003,1.569,1.569,4.085,6.281,1.199,4.712,0.000,0.000,-1.990,-4.154,0.990,4.717,3.286,6.138,5.281,4.711,4.712,2.198,6.282,5.083,1.570,0.000,0.000,-1.334,-4.153,0.990,4.717,3.332,6.092,
21.760,27.682,-1.661,-4.743,1.572,0.000,6.271,1.290,2.212,0.719,1.422,0.000,4.414,1.755,0.000,1.173,1.277,0.000,3.036,0.000,0.000,0.000,0.000,0.000,0.000,0.000,0.000,0.000,0.000,0.000,3.142,6.283,0.000,1.003,1.569,1.569,4.085,6.281,1.199,4.712,0.000,0.000,-1.990,-4.154,0.990,4.717,3.286,6.138,5.281,4.711,4.712,2.198,6.282,5.083,1.570,0.000,0.000,-1.334,-4.153,0.990,4.717,3.332,6.093,
21.860,27.782,-1.661,-4.743,1.572,0.000,6.271,1.290,2.212,0.719,1.422,0.000,4.414,1.755,0.000,1.173,1.277,0.000,3.036,0.000,0.000,0.000,0.000,0.000,0.000,0.000,0.000,0.000,0.000,0.000,3.142,6.283,0.000,1.003,1.569,1.569,4.085,6.281,1.199,4.712,0.000,0.000,-1.990,-4.154,0.990,4.717,3.286,6.138,5.281,4.711,4.712,2.198,6.282,5.083,1.570,0.000,0.000,-1.334,-4.153,0.990,4.717,3.332,6.092,
21.960,27.882,-1.661,-4.743,1.572,0.000,6.271,1.290,2.212,0.719,1.422,0.000,4.414,1.755,0.000,1.173,1.277,0.000,3.036,0.000,0.000,0.000,0.000,0.000,0.000,0.000,0.000,0.000,0.000,0.000,3.142,6.283,0.000,1.003,1.569,1.569,4.085,6.281,1.199,4.712,0.000,0.000,-1.990,-4.154,0.990,4.717,3.286,6.138,5.281,4.711,4.712,2.198,6.282,5.083,1.570,0.000,0.000,-1.334,-4.153,0.990,4.717,3.332,6.092,
22.060,27.982,-1.661,-4.743,1.572,0.000,6.271,1.290,2.212,0.719,1.422,0.000,4.414,1.755,0.000,1.173,1.277,0.000,3.036,0.000,0.000,0.000,0.000,0.000,0.000,0.000,0.000,0.000,0.000,0.000,3.142,6.283,0.000,1.003,1.569,1.569,4.085,6.281,1.199,4.712,0.000,0.000,-1.990,-4.154,0.990,4.717,3.286,6.138,5.281,4.711,4.712,2.198,6.282,5.083,1.570,0.000,0.000,-1.334,-4.153,0.990,4.717,3.332,6.092,
22.160,28.082,-1.661,-4.743,1.572,0.000,6.271,1.290,2.212,0.719,1.422,0.000,4.414,1.755,0.000,1.173,1.277,0.000,3.036,0.000,0.000,0.000,0.000,0.000,0.000,0.000,0.000,0.000,0.000,0.000,3.142,6.283,0.000,1.003,1.569,1.569,4.085,6.281,1.199,4.712,0.000,0.000,-1.990,-4.154,0.990,4.717,3.286,6.138,5.281,4.711,4.712,2.198,6.282,5.083,1.570,0.000,0.000,-1.334,-4.153,0.990,4.717,3.332,6.092,
22.260,28.182,-1.661,-4.743,1.572,0.000,6.271,1.290,2.212,0.719,1.422,0.000,4.414,1.755,0.000,1.173,1.277,0.000,3.036,0.000,0.000,0.000,0.000,0.000,0.000,0.000,0.000,0.000,0.000,0.000,3.142,6.283,0.000,1.003,1.569,1.569,4.085,6.281,1.199,4.712,0.000,0.000,-1.990,-4.154,0.990,4.717,3.286,6.138,5.281,4.711,4.712,2.198,6.282,5.083,1.570,0.000,0.000,-1.334,-4.153,0.990,4.717,3.332,6.092,
22.360,28.282,-1.661,-4.743,1.572,0.000,6.271,1.290,2.212,0.719,1.422,0.000,4.414,1.755,0.000,1.173,1.277,0.000,3.036,0.000,0.000,0.000,0.000,0.000,0.000,0.000,0.000,0.000,0.000,0.000,3.142,6.283,0.000,1.003,1.569,1.569,4.085,6.281,1.199,4.712,0.000,0.000,-1.990,-4.154,0.990,4.717,3.286,6.138,5.281,4.711,4.712,2.198,6.282,5.083,1.570,0.000,0.000,-1.334,-4.153,0.990,4.717,3.332,6.092,
22.450,28.372,-1.661,-4.743,1.572,0.000,6.271,1.290,2.212,0.719,1.422,0.000,4.414,1.755,0.000,1.173,1.277,0.000,3.036,0.000,0.000,0.000,0.000,0.000,0.000,0.000,0.000,0.000,0.000,0.000,3.142,6.283,0.000,1.003,1.569,1.569,4.085,6.281,1.199,4.712,0.000,0.000,-1.990,-4.154,0.990,4.717,3.286,6.138,5.281,4.711,4.712,2.198,6.282,5.083,1.570,0.000,0.000,-1.334,-4.153,0.990,4.717,3.332,6.093,
22.560,28.482,-1.661,-4.743,1.572,0.000,6.271,1.290,2.212,0.719,1.422,0.000,4.414,1.755,0.000,1.173,1.277,0.000,3.036,0.000,0.000,0.000,0.000,0.000,0.000,0.000,0.000,0.000,0.000,0.000,3.142,6.283,0.000,1.003,1.569,1.569,4.085,6.281,1.199,4.712,0.000,0.000,-1.990,-4.154,0.990,4.717,3.291,6.132,5.292,4.711,4.712,2.167,6.282,5.104,1.570,0.000,0.000,-1.334,-4.143,0.990,4.717,3.340,6.084,
22.653,28.575,-1.661,-4.743,1.572,0.000,6.271,1.290,2.212,0.719,1.422,0.000,4.414,1.755,0.000,1.173,1.277,0.000,3.036,0.000,0.000,0.000,0.000,0.000,0.000,0.000,0.000,0.000,0.000,0.000,3.142,6.283,0.000,1.003,1.569,1.569,4.085,6.281,1.199,4.712,0.000,0.000,-1.990,-4.154,0.990,4.717,3.286,6.138,5.319,4.711,4.712,2.090,6.282,5.153,1.570,0.000,0.000,-1.334,-4.119,0.990,4.717,3.337,6.088,
22.760,28.682,-1.661,-4.743,1.572,0.000,6.271,1.290,2.212,0.719,1.422,0.000,4.414,1.755,0.000,1.173,1.277,0.000,3.036,0.000,0.000,0.000,0.000,0.000,0.000,0.000,0.000,0.000,0.000,0.000,3.142,6.283,0.000,1.003,1.569,1.569,4.085,6.281,1.199,4.712,0.000,0.000,-1.990,-4.154,0.990,4.717,3.286,6.138,5.338,4.711,4.712,2.038,6.282,5.186,1.569,0.000,0.000,-1.334,-4.103,0.990,4.717,3.331,6.093,
22.858,28.780,-1.661,-4.743,1.572,0.000,6.271,1.290,2.212,0.719,1.422,0.000,4.414,1.755,0.000,1.173,1.277,0.000,3.036,0.000,0.000,0.000,0.000,0.000,0.000,0.000,0.000,0.000,0.000,0.000,3.142,6.283,0.000,1.003,1.569,1.569,4.085,6.281,1.199,4.712,0.000,0.000,-1.990,-4.154,0.990,4.717,3.285,6.138,5.368,4.710,4.713,1.959,6.282,5.235,1.569,0.000,0.000,-1.334,-4.079,0.990,4.717,3.323,6.101,
22.960,28.882,-1.661,-4.743,1.572,0.000,6.272,1.290,2.212,0.719,1.422,0.000,4.414,1.755,0.000,1.173,1.277,0.000,3.036,0.000,0.000,0.000,0.000,0.000,0.000,0.000,0.000,0.000,0.000,0.000,3.142,6.283,0.000,1.003,1.569,1.569,4.085,6.281,1.199,4.712,0.000,0.000,-1.990,-4.154,0.990,4.718,3.283,6.141,5.376,4.711,4.713,1.938,6.282,5.247,1.569,0.000,0.000,-1.334,-4.074,0.990,4.717,3.296,6.128,
23.060,28.982,-1.661,-4.743,1.572,0.000,6.271,1.290,2.212,0.719,1.422,0.000,4.414,1.755,0.000,1.173,1.277,0.000,3.036,0.000,0.000,0.000,0.000,0.000,0.000,0.000,0.000,0.000,0.000,0.000,3.142,6.283,0.000,1.003,1.569,1.569,4.085,6.281,1.199,4.712,0.000,0.000,-1.990,-4.154,0.990,4.717,3.285,6.138,5.376,4.711,4.713,1.938,6.282,5.247,1.569,0.000,0.000,-1.334,-4.073,0.990,4.717,3.294,6.131,
23.160,29.082,-1.661,-4.743,1.572,0.000,6.271,1.290,2.212,0.719,1.422,0.000,4.414,1.755,0.000,1.173,1.277,0.000,3.036,0.000,0.000,0.000,0.000,0.000,0.000,0.000,0.000,0.000,0.000,0.000,3.142,6.283,0.000,1.003,1.569,1.569,4.085,6.281,1.199,4.712,0.000,0.000,-1.990,-4.154,0.990,4.717,3.285,6.139,5.376,4.711,4.713,1.938,6.282,5.247,1.569,0.000,0.000,-1.334,-4.073,0.990,4.717,3.293,6.131,
23.260,29.182,-1.661,-4.743,1.572,0.000,6.271,1.290,2.212,0.719,1.422,0.000,4.414,1.755,0.000,1.173,1.277,0.000,3.036,0.000,0.000,0.000,0.000,0.000,0.000,0.000,0.000,0.000,0.000,0.000,3.142,6.283,0.000,1.003,1.569,1.569,4.085,6.281,1.199,4.712,0.000,0.000,-1.990,-4.154,0.990,4.717,3.285,6.139,5.376,4.711,4.713,1.938,6.282,5.247,1.569,0.000,0.000,-1.334,-4.073,0.990,4.717,3.293,6.131,
23.360,29.282,-1.661,-4.743,1.572,0.000,6.271,1.290,2.212,0.719,1.422,0.000,4.414,1.755,0.000,1.173,1.277,0.000,3.036,0.000,0.000,0.000,0.000,0.000,0.000,0.000,0.000,0.000,0.000,0.000,3.142,6.283,0.000,1.003,1.569,1.569,4.085,6.281,1.199,4.712,0.000,0.000,-1.990,-4.154,0.990,4.717,3.285,6.139,5.376,4.711,4.713,1.938,6.282,5.247,1.569,0.000,0.000,-1.334,-4.073,0.990,4.717,3.293,6.131,
23.460,29.382,-1.661,-4.743,1.572,0.000,6.271,1.290,2.212,0.719,1.422,0.000,4.414,1.755,0.000,1.173,1.277,0.000,3.036,0.000,0.000,0.000,0.000,0.000,0.000,0.000,0.000,0.000,0.000,0.000,3.142,6.283,0.000,1.003,1.569,1.569,4.085,6.281,1.199,4.712,0.000,0.000,-1.990,-4.154,0.990,4.717,3.285,6.139,5.376,4.711,4.713,1.938,6.282,5.247,1.569,0.000,0.000,-1.334,-4.073,0.990,4.717,3.293,6.131,
23.560,29.482,-1.661,-4.743,1.572,0.000,6.271,1.290,2.212,0.719,1.422,0.000,4.414,1.755,0.000,1.173,1.277,0.000,3.036,0.000,0.000,0.000,0.000,0.000,0.000,0.000,0.000,0.000,0.000,0.000,3.142,6.283,0.000,1.003,1.569,1.569,4.085,6.281,1.199,4.712,0.000,0.000,-1.990,-4.154,0.990,4.717,3.285,6.139,5.376,4.711,4.713,1.938,6.282,5.247,1.569,0.000,0.000,-1.334,-4.073,0.990,4.717,3.293,6.131,
23.660,29.582,-1.661,-4.743,1.572,0.000,6.271,1.290,2.212,0.719,1.422,0.000,4.414,1.755,0.000,1.173,1.277,0.000,3.036,0.000,0.000,0.000,0.000,0.000,0.000,0.000,0.000,0.000,0.000,0.000,3.142,6.283,0.000,1.003,1.569,1.569,4.085,6.281,1.199,4.712,0.000,0.000,-1.990,-4.154,0.990,4.717,3.285,6.139,5.376,4.711,4.713,1.938,6.282,5.247,1.569,0.000,0.000,-1.334,-4.073,0.990,4.717,3.293,6.131,
23.744,29.666,-1.661,-4.743,1.572,0.000,6.271,1.290,2.212,0.719,1.422,0.000,4.414,1.755,0.000,1.173,1.277,0.000,3.036,0.000,0.000,0.000,0.000,0.000,0.000,0.000,0.000,0.000,0.000,0.000,3.142,6.283,0.000,1.003,1.569,1.569,4.085,6.281,1.199,4.712,0.000,0.000,-1.990,-4.154,0.990,4.717,3.285,6.139,5.376,4.711,4.713,1.938,6.282,5.247,1.569,0.000,0.000,-1.334,-4.073,0.990,4.717,3.293,6.131,
23.860,29.782,-1.661,-4.743,1.572,0.000,6.271,1.290,2.212,0.719,1.422,0.000,4.414,1.755,0.000,1.173,1.277,0.000,3.036,0.000,0.000,0.000,0.000,0.000,0.000,0.000,0.000,0.000,0.000,0.000,3.142,6.283,0.000,1.003,1.569,1.569,4.085,6.281,1.199,4.712,0.000,0.000,-1.990,-4.154,0.990,4.717,3.285,6.139,5.376,4.711,4.713,1.938,6.282,5.247,1.569,0.000,0.000,-1.334,-4.073,0.990,4.717,3.293,6.131,
23.949,29.871,-1.661,-4.743,1.572,0.000,6.271,1.290,2.212,0.719,1.422,0.000,4.414,1.755,0.000,1.173,1.277,0.000,3.036,0.000,0.000,0.000,0.000,0.000,0.000,0.000,0.000,0.000,0.000,0.000,3.142,6.283,0.000,1.003,1.569,1.569,4.085,6.281,1.199,4.712,0.000,0.000,-1.990,-4.154,0.990,4.717,3.285,6.139,5.376,4.711,4.713,1.938,6.282,5.247,1.569,0.000,0.000,-1.334,-4.073,0.990,4.717,3.293,6.131,
24.060,29.982,-1.661,-4.743,1.572,0.000,6.271,1.290,2.212,0.719,1.422,0.000,4.414,1.755,0.000,1.173,1.277,0.000,3.036,0.000,0.000,0.000,0.000,0.000,0.000,0.000,0.000,0.000,0.000,0.000,3.142,6.283,0.000,1.003,1.569,1.569,4.085,6.281,1.199,4.712,0.000,0.000,-1.990,-4.154,0.990,4.717,3.285,6.139,5.376,4.711,4.713,1.938,6.282,5.247,1.569,0.000,0.000,-1.334,-4.073,0.990,4.717,3.293,6.131,
24.154,30.076,-1.661,-4.743,1.572,0.000,6.271,1.290,2.212,0.719,1.422,0.000,4.414,1.755,0.000,1.173,1.277,0.000,3.036,0.000,0.000,0.000,0.000,0.000,0.000,0.000,0.000,0.000,0.000,0.000,3.142,6.283,0.000,1.003,1.569,1.569,4.085,6.281,1.199,4.712,0.000,0.000,-1.990,-4.154,0.990,4.717,3.285,6.139,5.376,4.711,4.713,1.938,6.282,5.247,1.569,0.000,0.000,-1.334,-4.073,0.990,4.717,3.293,6.131,
24.260,30.182,-1.661,-4.743,1.572,0.000,6.271,1.290,2.212,0.719,1.422,0.000,4.414,1.755,0.000,1.173,1.277,0.000,3.036,0.000,0.000,0.000,0.000,0.000,0.000,0.000,0.000,0.000,0.000,0.000,3.142,6.283,0.000,1.003,1.569,1.569,4.085,6.281,1.199,4.712,0.000,0.000,-1.990,-4.154,0.990,4.717,3.285,6.139,5.376,4.711,4.713,1.938,6.282,5.247,1.569,0.000,0.000,-1.334,-4.073,0.990,4.717,3.293,6.131,
24.360,30.282,-1.661,-4.743,1.572,0.000,6.271,1.290,2.212,0.719,1.422,0.000,4.414,1.755,0.000,1.173,1.277,0.000,3.036,0.000,0.000,0.000,0.000,0.000,0.000,0.000,0.000,0.000,0.000,0.000,3.142,6.283,0.000,1.003,1.569,1.569,4.085,6.281,1.199,4.712,0.000,0.000,-1.990,-4.154,0.990,4.717,3.285,6.139,5.376,4.711,4.713,1.938,6.282,5.247,1.569,0.000,0.000,-1.334,-4.073,0.990,4.717,3.293,6.131,
24.445,30.367,-1.661,-4.743,1.572,0.000,6.271,1.290,2.212,0.719,1.422,0.000,4.414,1.755,0.000,1.173,1.277,0.000,3.036,0.000,0.000,0.000,0.000,0.000,0.000,0.000,0.000,0.000,0.000,0.000,3.142,6.283,0.000,1.003,1.569,1.569,4.085,6.281,1.199,4.712,0.000,0.000,-1.990,-4.154,0.990,4.717,3.285,6.139,5.376,4.711,4.713,1.938,6.282,5.247,1.569,0.000,0.000,-1.334,-4.073,0.990,4.717,3.293,6.131,
24.560,30.482,-1.661,-4.743,1.572,0.000,6.271,1.290,2.212,0.719,1.422,0.000,4.414,1.755,0.000,1.173,1.277,0.000,3.036,0.000,0.000,0.000,0.000,0.000,0.000,0.000,0.000,0.000,0.000,0.000,3.142,6.283,0.000,1.003,1.569,1.569,4.085,6.281,1.199,4.712,0.000,0.000,-1.990,-4.154,0.990,4.717,3.285,6.139,5.376,4.711,4.713,1.938,6.282,5.247,1.569,0.000,0.000,-1.334,-4.073,0.990,4.717,3.293,6.131,
24.660,30.582,-1.661,-4.743,1.572,0.000,6.271,1.290,2.212,0.719,1.422,0.000,4.414,1.755,0.000,1.173,1.277,0.000,3.036,0.000,0.000,0.000,0.000,0.000,0.000,0.000,0.000,0.000,0.000,0.000,3.142,6.283,0.000,1.003,1.569,1.569,4.085,6.281,1.199,4.712,0.000,0.000,-1.990,-4.154,0.990,4.717,3.287,6.137,5.337,4.711,4.712,1.977,6.282,5.208,1.570,0.000,0.000,-1.334,-4.087,0.969,4.757,3.162,6.262,
24.760,30.682,-1.661,-4.743,1.572,0.000,6.271,1.290,2.212,0.719,1.422,0.000,4.414,1.755,0.000,1.173,1.277,0.000,3.036,0.000,0.000,0.000,0.000,0.000,0.000,0.000,0.000,0.000,0.000,0.000,3.142,6.283,0.000,1.003,1.569,1.569,4.085,6.281,1.199,4.712,0.000,0.000,-1.990,-4.154,0.990,4.717,3.287,6.137,5.316,4.711,4.712,1.998,6.282,5.187,1.570,0.000,0.000,-1.334,-4.095,0.958,4.778,3.154,6.270,
24.848,30.770,-1.661,-4.743,1.572,0.000,6.268,1.290,2.212,0.719,1.422,0.000,4.414,1.755,0.000,1.173,1.277,0.000,3.036,0.000,0.000,0.000,0.000,0.000,0.000,0.000,0.000,0.000,0.000,0.000,3.142,6.283,0.000,1.003,1.569,1.569,4.085,6.281,1.199,4.712,0.000,0.000,-1.990,-4.154,0.990,4.717,3.293,6.131,5.283,4.711,4.712,2.036,6.282,5.149,1.570,0.000,0.000,-1.334,-4.109,0.942,4.811,3.150,6.274,
24.960,30.882,-1.661,-4.743,1.572,0.000,6.272,1.290,2.212,0.719,1.422,0.000,4.414,1.755,0.000,1.173,1.277,0.000,3.036,0.000,0.000,0.000,0.000,0.000,0.000,0.000,0.000,0.000,0.000,0.000,3.142,6.283,0.000,1.003,1.569,1.569,4.085,6.281,1.199,4.712,0.000,0.000,-1.990,-4.154,0.990,4.717,3.290,6.134,5.281,4.711,4.712,2.059,6.282,5.127,1.570,0.000,0.000,-1.334,-4.115,0.944,4.812,3.149,6.275,
25.058,30.980,-1.661,-4.743,1.572,0.000,6.269,1.290,2.212,0.719,1.422,0.000,4.414,1.755,0.000,1.173,1.277,0.000,3.036,0.000,0.000,0.000,0.000,0.000,0.000,0.000,0.000,0.000,0.000,0.000,3.142,6.283,0.000,1.003,1.569,1.569,4.085,6.281,1.199,4.712,0.000,0.000,-1.990,-4.154,0.990,4.717,3.289,6.135,5.281,4.711,4.712,2.096,6.282,5.089,1.570,0.000,0.000,-1.334,-4.125,0.950,4.812,3.149,6.275,
25.160,31.082,-1.661,-4.743,1.572,0.000,6.271,1.290,2.212,0.719,1.422,0.000,4.414,1.755,0.000,1.173,1.277,0.000,3.036,0.000,0.000,0.000,0.000,0.000,0.000,0.000,0.000,0.000,0.000,0.000,3.142,6.283,0.000,1.003,1.569,1.569,4.085,6.281,1.199,4.712,0.000,0.000,-1.990,-4.154,0.990,4.717,3.289,6.135,5.281,4.711,4.712,2.119,6.282,5.083,1.570,0.000,0.000,-1.334,-4.131,0.958,4.796,3.151,6.273,
25.260,31.182,-1.661,-4.743,1.572,0.000,6.268,1.290,2.212,0.719,1.422,0.000,4.414,1.755,0.000,1.173,1.277,0.000,3.036,0.000,0.000,0.000,0.000,0.000,0.000,0.000,0.000,0.000,0.000,0.000,3.142,6.283,0.000,1.003,1.569,1.569,4.085,6.281,1.199,4.712,0.000,0.000,-1.990,-4.154,0.990,4.717,3.289,6.135,5.281,4.711,4.712,2.156,6.282,5.083,1.570,0.000,0.000,-1.334,-4.141,0.973,4.758,3.160,6.264,
25.343,31.265,-1.661,-4.743,1.572,0.000,6.270,1.290,2.212,0.719,1.422,0.000,4.414,1.755,0.000,1.173,1.277,0.000,3.036,0.000,0.000,0.000,0.000,0.000,0.000,0.000,0.000,0.000,0.000,0.000,3.142,6.283,0.000,1.003,1.569,1.569,4.085,6.281,1.199,4.712,0.000,0.000,-1.990,-4.154,0.990,4.717,3.287,6.136,5.281,4.711,4.711,2.178,6.282,5.083,1.570,0.000,0.000,-1.334,-4.147,0.982,4.736,3.177,6.247,
25.460,31.382,-1.661,-4.743,1.572,0.000,6.270,1.290,2.212,0.719,1.422,0.000,4.414,1.755,0.000,1.173,1.277,0.000,3.036,0.000,0.000,0.000,0.000,0.000,0.000,0.000,0.000,0.000,0.000,0.000,3.142,6.283,0.000,1.003,1.569,1.569,4.085,6.281,1.199,4.712,0.000,0.000,-1.990,-4.154,0.990,4.717,3.288,6.136,5.281,4.711,4.711,2.198,6.282,5.083,1.570,0.000,0.000,-1.334,-4.153,0.990,4.717,3.342,6.082,
25.549,31.471,-1.661,-4.743,1.572,0.000,6.271,1.290,2.212,0.719,1.422,0.000,4.414,1.755,0.000,1.173,1.277,0.000,3.036,0.000,0.000,0.000,0.000,0.000,0.000,0.000,0.000,0.000,0.000,0.000,3.142,6.283,0.000,1.003,1.569,1.569,4.085,6.281,1.199,4.712,0.000,0.000,-1.990,-4.154,0.990,4.717,3.286,6.138,5.281,4.711,4.712,2.198,6.282,5.083,1.570,0.000,0.000,-1.334,-4.153,0.990,4.717,3.331,6.094,
25.660,31.582,-1.661,-4.743,1.572,0.000,6.271,1.290,2.212,0.719,1.422,0.000,4.414,1.755,0.000,1.173,1.277,0.000,3.036,0.000,0.000,0.000,0.000,0.000,0.000,0.000,0.000,0.000,0.000,0.000,3.142,6.283,0.000,1.003,1.569,1.569,4.085,6.281,1.199,4.712,0.000,0.000,-1.990,-4.154,0.990,4.717,3.286,6.138,5.281,4.711,4.712,2.198,6.282,5.083,1.570,0.000,0.000,-1.334,-4.153,0.990,4.717,3.332,6.092,
25.753,31.675,-1.661,-4.743,1.572,0.000,6.271,1.290,2.212,0.719,1.422,0.000,4.414,1.755,0.000,1.173,1.277,0.000,3.036,0.000,0.000,0.000,0.000,0.000,0.000,0.000,2.483,0.000,0.000,0.000,3.142,6.283,0.000,1.003,1.569,1.569,4.085,6.281,1.199,4.712,0.000,0.000,-1.990,-4.154,0.990,4.717,3.286,6.138,5.281,4.711,4.712,2.198,6.282,5.083,1.570,0.000,0.000,-1.334,-4.153,0.990,4.717,3.332,6.092,
25.860,31.782,-1.661,-4.743,1.572,0.000,6.271,1.290,2.212,0.719,1.422,0.000,4.414,1.755,0.000,1.173,1.277,0.000,3.036,0.000,0.000,0.000,0.000,0.000,0.000,0.000,2.339,0.000,0.000,0.000,3.142,6.283,0.000,1.003,1.569,1.569,4.085,6.281,1.199,4.712,0.000,0.000,-1.990,-4.154,0.990,4.717,3.286,6.138,5.281,4.711,4.712,2.198,6.282,5.083,1.570,0.000,0.000,-1.334,-4.153,0.990,4.717,3.332,6.092,
25.960,31.882,-1.661,-4.743,1.572,0.000,6.271,1.290,2.212,0.719,1.422,0.000,4.414,1.755,0.000,1.173,1.277,0.000,3.036,0.000,0.000,0.000,0.000,0.000,0.000,0.000,2.114,0.000,0.000,0.000,3.142,6.283,0.000,1.003,1.569,1.569,4.085,6.281,1.199,4.712,0.000,0.000,-1.990,-4.154,0.990,4.717,3.286,6.138,5.281,4.711,4.712,2.198,6.282,5.083,1.570,0.000,0.000,-1.334,-4.153,0.990,4.717,3.332,6.092,
26.060,31.982,-1.661,-4.743,1.572,0.000,6.271,1.290,2.212,0.719,1.422,0.000,4.414,1.755,0.000,1.173,1.277,0.000,3.036,0.000,0.000,0.000,0.000,0.000,0.000,0.000,1.999,0.000,0.000,0.000,3.142,6.283,0.000,1.003,1.569,1.569,4.085,6.281,1.199,4.712,0.000,0.000,-1.990,-4.154,0.990,4.717,3.286,6.138,5.281,4.711,4.712,2.198,6.282,5.083,1.570,0.000,0.000,-1.334,-4.153,0.990,4.717,3.332,6.092,
26.160,32.082,-1.661,-4.743,1.572,0.000,6.271,1.290,2.212,0.719,1.422,0.000,4.414,1.755,0.000,1.173,1.277,0.000,3.036,0.000,0.000,0.000,0.000,0.000,0.000,0.000,1.809,0.000,0.000,0.000,3.142,6.283,0.000,1.003,1.569,1.569,4.085,6.281,1.199,4.712,0.000,0.000,-1.990,-4.154,0.990,4.717,3.286,6.138,5.281,4.711,4.712,2.198,6.282,5.083,1.570,0.000,0.000,-1.334,-4.153,0.990,4.717,3.332,6.092,
26.243,32.166,-1.661,-4.743,1.572,0.000,6.271,1.290,2.212,0.719,1.422,0.000,4.414,1.755,0.000,1.173,1.277,0.000,3.036,0.000,0.000,0.000,0.000,0.000,0.000,0.000,1.705,0.000,0.000,0.000,3.142,6.283,0.000,1.003,1.569,1.569,4.085,6.281,1.199,4.712,0.000,0.000,-1.990,-4.154,0.990,4.717,3.286,6.138,5.281,4.711,4.712,2.198,6.282,5.083,1.570,0.000,0.000,-1.334,-4.153,0.990,4.717,3.332,6.092,
26.360,32.282,-1.661,-4.743,1.572,0.001,6.279,1.290,2.212,0.719,1.422,0.000,4.414,1.755,0.000,1.173,1.277,0.000,3.036,0.000,0.000,0.000,0.000,0.000,0.000,0.000,1.526,0.000,0.000,0.000,3.142,6.283,0.000,1.003,1.569,1.569,4.086,6.281,1.199,4.712,0.000,0.000,-1.990,-4.154,0.990,4.718,3.287,6.136,5.318,4.711,4.711,2.161,6.282,5.121,1.570,0.000,0.000,-1.334,-4.140,1.009,4.746,6.254,3.171,
26.460,32.382,-1.661,-4.743,1.572,0.000,6.272,1.290,2.212,0.719,1.422,0.000,4.414,1.755,0.000,1.173,1.277,0.000,3.036,0.000,0.000,0.000,0.000,0.000,0.000,0.000,1.434,0.000,0.000,0.000,3.142,6.283,0.000,1.003,1.569,1.569,4.086,6.281,1.199,4.712,0.000,0.000,-1.990,-4.154,0.990,4.718,3.289,6.134,5.340,4.711,4.711,2.139,6.282,5.142,1.570,0.000,0.000,-1.334,-4.133,1.021,4.768,6.266,3.159,
26.560,32.482,-1.661,-4.743,1.572,0.000,6.271,1.290,2.212,0.719,1.422,0.000,4.414,1.755,0.000,1.173,1.277,0.000,3.036,0.000,0.000,0.000,0.000,0.000,0.000,0.000,1.351,0.000,0.000,0.000,3.142,6.283,0.000,1.003,1.569,1.569,4.085,6.281,1.199,4.712,0.000,0.000,-1.990,-4.154,0.990,4.718,3.287,6.136,5.361,4.711,4.712,2.119,6.282,5.163,1.570,0.000,0.000,-1.334,-4.126,1.032,4.788,6.270,3.154,
26.652,32.575,-1.661,-4.743,1.572,0.000,6.271,1.290,2.212,0.719,1.422,0.000,4.414,1.755,0.000,1.173,1.277,0.000,3.036,0.000,0.000,0.000,0.000,0.000,0.000,0.000,1.180,0.000,0.000,0.000,3.142,6.283,0.000,1.003,1.569,1.569,4.086,6.281,1.199,4.712,0.000,0.000,-1.990,-4.154,0.990,4.718,3.289,6.135,5.400,4.711,4.712,2.079,6.282,5.202,1.570,0.000,0.000,-1.334,-4.114,1.053,4.828,6.274,3.150,
26.760,32.682,-1.661,-4.743,1.572,0.000,6.271,1.290,2.212,0.719,1.422,0.000,4.414,1.755,0.000,1.173,1.277,0.000,3.036,0.000,0.000,0.000,0.000,0.000,0.000,0.000,1.094,0.000,0.000,0.000,3.142,6.283,0.000,1.003,1.569,1.569,4.086,6.281,1.199,4.712,0.000,0.000,-1.990,-4.154,0.990,4.718,3.288,6.135,5.420,4.711,4.712,2.059,6.282,5.222,1.570,0.000,0.000,-1.334,-4.108,1.064,4.848,6.276,3.148,
26.857,32.779,-1.661,-4.743,1.572,0.001,6.277,1.290,2.212,0.719,1.422,0.000,4.414,1.755,0.000,1.173,1.277,0.000,3.036,0.000,0.000,0.000,0.000,0.000,0.000,0.000,0.958,0.000,0.000,0.000,3.142,6.283,0.000,1.003,1.569,1.569,4.086,6.281,1.199,4.712,0.000,0.000,-1.990,-4.154,0.990,4.718,3.278,6.146,5.458,4.711,4.712,2.020,6.282,5.261,1.570,0.000,0.000,-1.334,-4.097,1.085,4.885,6.278,3.146,
26.960,32.882,-1.661,-4.743,1.572,0.000,6.270,1.290,2.212,0.719,1.422,0.000,4.414,1.755,0.000,1.173,1.277,0.000,3.036,0.000,0.000,0.000,0.000,0.000,0.000,0.000,0.899,0.000,0.000,0.000,3.142,6.283,0.000,1.003,1.569,1.569,4.085,6.281,1.199,4.712,0.000,0.000,-1.990,-4.154,0.990,4.718,3.286,6.137,5.481,4.711,4.712,1.999,6.282,5.283,1.570,0.000,0.000,-1.334,-4.091,1.098,4.908,6.278,3.146,
27.060,32.982,-1.661,-4.743,1.572,0.000,6.270,1.290,2.212,0.719,1.422,0.000,4.414,1.755,0.000,1.173,1.277,0.000,3.036,0.000,0.000,0.000,0.000,0.000,0.000,0.000,0.852,0.000,0.000,0.000,3.142,6.283,0.000,1.003,1.569,1.569,4.086,6.281,1.199,4.712,0.000,0.000,-1.990,-4.154,0.990,4.717,3.287,6.137,5.501,4.711,4.712,1.978,6.282,5.283,1.570,0.000,0.000,-1.334,-4.085,1.103,4.908,6.278,3.146,
27.148,33.070,-1.661,-4.743,1.572,0.000,6.270,1.290,2.212,0.719,1.422,0.000,4.414,1.755,0.000,1.173,1.277,0.000,3.036,0.000,0.000,0.000,0.000,0.000,0.000,0.000,0.000,0.000,0.000,0.000,3.142,6.283,0.000,1.003,1.569,1.569,4.086,6.281,1.199,4.712,0.000,0.000,-1.990,-4.154,0.990,4.718,3.287,6.137,5.540,4.711,4.712,1.939,6.282,5.283,1.570,0.000,0.000,-1.334,-4.073,1.115,4.908,6.278,3.146,
27.260,33.182,-1.661,-4.743,1.572,0.000,6.270,1.290,2.212,0.719,1.422,0.000,4.414,0.000,0.000,1.173,1.277,0.000,3.036,0.000,0.000,0.000,0.000,0.000,0.000,0.626,0.000,0.000,0.000,0.000,3.142,6.283,0.000,1.003,1.569,1.569,4.086,6.281,1.199,4.712,0.000,0.000,-1.990,-4.154,0.990,4.718,3.286,6.137,5.560,4.711,4.712,1.918,6.282,5.283,1.570,0.000,0.000,-1.334,-4.067,1.121,4.908,6.278,3.146,
27.349,33.272,-1.661,-4.743,1.572,0.001,6.276,1.290,2.212,0.719,1.422,0.000,4.414,0.000,0.000,1.173,1.277,0.000,3.036,0.000,0.000,0.000,0.000,0.000,0.000,0.498,0.000,0.000,0.000,0.000,3.142,6.283,0.000,1.003,1.569,1.569,4.086,6.281,1.199,4.712,0.000,0.000,-1.990,-4.154,0.990,4.718,3.279,6.145,5.598,4.711,4.712,1.881,6.282,5.283,1.570,0.000,0.000,-1.334,-4.057,1.133,4.907,6.279,3.146,
27.460,33.382,-1.661,-4.743,1.572,0.000,6.270,1.290,2.212,0.719,1.422,0.000,4.414,0.000,0.000,1.173,1.277,0.000,3.036,0.000,0.000,0.000,0.000,0.000,0.000,0.468,0.000,0.000,0.000,0.000,3.142,6.283,0.000,1.003,1.569,1.569,4.086,6.281,1.199,4.712,0.000,0.000,-1.990,-4.154,0.990,4.718,3.285,6.139,5.620,4.711,4.712,1.859,6.282,5.283,1.570,0.000,0.000,-1.334,-4.051,1.140,4.908,6.278,3.146,
27.560,33.482,-1.661,-4.743,1.572,0.001,6.276,1.290,2.212,0.719,1.422,0.000,4.414,0.000,0.000,1.173,1.277,0.000,3.036,0.000,0.000,0.000,0.000,0.000,0.000,0.440,0.000,0.000,0.000,0.000,3.142,6.283,0.000,1.003,1.569,1.569,4.086,6.281,1.199,4.712,0.000,0.000,-1.990,-4.154,0.990,4.718,3.276,6.148,5.657,4.711,4.712,1.820,6.282,5.283,1.570,0.000,0.000,-1.334,-4.041,1.152,4.907,6.279,3.145,
27.660,33.582,-1.661,-4.743,1.572,0.000,6.270,1.290,2.212,0.719,1.422,0.000,4.414,0.000,0.000,1.173,1.277,0.000,3.036,0.000,0.000,0.000,0.000,0.000,0.000,0.446,0.000,0.000,0.000,0.000,3.142,6.283,0.000,1.003,1.569,1.569,4.086,6.281,1.199,4.712,0.000,0.000,-1.990,-4.154,0.990,4.718,3.284,6.140,5.680,4.711,4.712,1.799,6.282,5.283,1.570,0.000,0.000,-1.334,-4.035,1.160,4.908,6.279,3.146,
27.760,33.682,-1.661,-4.743,1.572,0.000,6.270,1.290,2.212,0.719,1.422,0.000,4.414,0.000,0.000,1.173,1.277,0.000,3.036,0.000,0.000,0.000,0.000,0.000,0.000,0.461,0.000,0.000,0.000,0.000,3.142,6.283,0.000,1.003,1.569,1.569,4.086,6.281,1.199,4.712,0.000,0.000,-1.990,-4.154,0.990,4.718,3.285,6.139,5.700,4.711,4.712,1.779,6.282,5.283,1.570,0.000,0.000,-1.334,-4.030,1.167,4.908,6.279,3.146,
27.852,33.774,-1.661,-4.743,1.572,0.000,6.270,1.290,2.212,0.719,1.422,0.000,0.000,0.000,0.000,1.173,1.277,0.000,3.142,0.000,0.000,0.000,0.000,0.000,0.494,0.513,0.000,0.000,0.000,0.000,3.036,6.283,0.000,1.003,1.569,1.569,4.086,6.281,1.199,4.712,0.000,0.000,-1.990,-4.154,0.990,4.718,3.284,6.140,5.740,4.711,4.712,1.739,6.282,5.283,1.570,0.000,0.000,-1.334,-4.021,1.181,4.908,6.279,3.146,
27.960,33.882,-1.661,-4.743,1.572,0.000,6.270,1.290,2.212,0.719,1.422,0.000,0.000,0.000,0.000,1.173,1.277,0.000,3.142,0.000,0.000,0.000,0.000,0.000,0.479,0.550,0.000,0.000,0.000,0.000,3.036,6.283,0.000,1.003,1.569,1.569,4.086,6.281,1.199,4.712,0.000,0.000,-1.990,-4.154,0.990,4.718,3.283,6.141,5.760,4.711,4.712,1.719,6.282,5.283,1.570,0.000,0.000,-1.334,-4.017,1.188,4.908,6.279,3.146,
28.057,33.979,-1.661,-4.743,1.572,0.000,6.270,1.290,2.212,0.719,1.422,0.000,0.000,0.000,0.000,1.173,1.277,0.000,3.142,0.000,0.000,0.000,0.000,0.000,0.473,0.593,0.000,0.000,0.000,0.000,3.001,6.283,0.000,1.003,1.569,1.569,4.086,6.281,1.199,4.712,0.000,0.000,-1.990,-4.154,0.990,4.718,3.283,6.141,5.800,4.711,4.712,1.679,6.282,5.283,1.570,0.000,0.000,-1.334,-4.008,1.202,4.908,6.279,3.146,
28.160,34.082,-1.661,-4.743,1.572,0.000,6.270,1.290,2.212,0.719,1.422,0.000,0.000,0.000,0.000,1.173,1.277,0.000,3.142,0.000,0.000,0.000,0.000,0.000,0.474,0.586,0.000,0.000,0.000,0.000,3.001,6.283,0.000,1.003,1.569,1.569,4.085,6.281,1.199,4.712,0.000,0.000,-1.990,-4.154,0.990,4.718,3.284,6.140,5.820,4.711,4.712,1.659,6.282,5.283,1.570,0.000,0.000,-1.334,-4.004,1.210,4.908,6.279,3.145,
28.260,34.182,-1.661,-4.743,1.572,0.001,6.275,1.290,2.212,0.719,1.422,0.000,0.000,0.000,0.000,1.173,1.277,0.000,3.142,0.000,0.000,0.000,0.000,0.000,0.494,0.532,0.000,0.000,0.000,0.000,3.036,6.283,0.000,1.003,1.569,1.569,4.086,6.281,1.199,4.712,0.000,0.000,-1.990,-4.154,0.990,4.718,3.276,6.148,5.857,4.711,4.712,1.621,6.282,5.283,1.570,0.000,0.000,-1.334,-3.997,1.224,4.907,6.279,3.145,
28.360,34.282,-1.661,-4.743,1.572,0.000,6.270,1.290,2.212,0.719,1.422,0.000,0.000,0.000,0.000,1.173,1.277,0.000,3.142,0.000,0.000,0.000,0.000,0.000,0.524,0.506,0.000,0.000,0.000,0.000,3.071,6.283,0.000,1.003,1.569,1.569,4.086,6.281,1.199,4.712,0.000,0.000,-1.990,-4.154,0.990,4.718,3.281,6.143,5.880,4.711,4.712,1.599,6.282,5.283,1.570,0.000,0.000,-1.334,-3.993,1.232,4.908,6.279,3.145,
28.460,34.382,-1.661,-4.743,1.572,0.000,6.269,1.290,2.212,0.719,1.422,0.000,4.414,0.000,0.000,1.173,1.277,0.000,3.036,0.000,0.000,0.000,0.000,0.000,0.000,0.476,0.000,0.000,0.000,0.000,3.142,6.283,0.000,1.003,1.569,1.569,4.085,6.281,1.199,4.712,0.000,0.000,-1.990,-4.154,0.990,4.718,3.279,6.145,5.880,4.711,4.712,1.598,6.282,5.283,1.608,0.000,0.000,-1.334,-3.993,1.232,4.907,6.280,3.182,
28.560,34.482,-1.661,-4.743,1.572,0.000,6.269,1.290,2.212,0.719,1.422,0.000,4.414,0.000,0.000,1.173,1.277,0.000,3.036,0.000,0.000,0.000,0.000,0.000,0.000,0.469,0.000,0.000,0.000,0.000,3.142,6.283,0.000,1.003,1.569,1.569,4.085,6.281,1.199,4.712,0.000,0.000,-1.990,-4.154,0.990,4.717,3.280,6.144,5.880,4.711,4.712,1.598,6.282,5.283,1.630,0.000,0.000,-1.334,-3.993,1.232,4.908,6.280,3.204,
28.660,34.582,-1.661,-4.743,1.572,0.000,6.269,1.290,2.212,0.719,1.422,0.000,4.414,0.000,0.000,1.173,1.277,0.000,3.036,0.000,0.000,0.000,0.000,0.000,0.000,0.471,0.000,0.000,0.000,0.000,3.142,6.283,0.000,1.003,1.569,1.569,4.085,6.281,1.199,4.712,0.000,0.000,-1.990,-4.154,0.990,4.717,3.280,6.144,5.880,4.711,4.712,1.598,6.282,5.283,1.650,0.000,0.000,-1.334,-3.993,1.232,4.907,6.279,3.225,
28.749,34.671,-1.661,-4.743,1.572,0.000,6.269,1.290,2.212,0.719,1.422,0.000,4.414,0.000,0.000,1.173,1.277,0.000,3.036,0.000,0.000,0.000,0.000,0.000,0.000,0.505,0.000,0.000,0.000,0.000,3.142,6.283,0.000,1.003,1.569,1.569,4.085,6.281,1.199,4.712,0.000,0.000,-1.990,-4.154,0.990,4.717,3.280,6.144,5.880,4.711,4.712,1.598,6.282,5.283,1.690,0.000,0.000,-1.334,-3.993,1.232,4.907,6.279,3.264,
28.860,34.782,-1.661,-4.743,1.572,0.000,6.269,1.290,2.212,0.719,1.422,0.000,4.414,0.000,0.000,1.173,1.277,0.000,3.036,0.000,0.000,0.000,0.000,0.000,0.000,0.551,0.000,0.000,0.000,0.000,3.142,6.283,0.000,1.003,1.569,1.569,4.085,6.281,1.199,4.712,0.000,0.000,-1.990,-4.154,0.990,4.717,3.280,6.144,5.880,4.711,4.712,1.598,6.282,5.283,1.710,0.000,0.000,-1.334,-3.993,1.232,4.907,6.279,3.285,
28.948,34.870,-1.661,-4.743,1.572,0.000,6.269,1.290,2.212,0.719,1.422,0.000,4.414,0.000,0.000,1.173,1.277,0.000,3.036,0.000,0.000,0.000,0.000,0.000,0.000,0.732,0.000,0.000,0.000,0.000,3.142,6.283,0.000,1.003,1.569,1.569,4.085,6.281,1.199,4.712,0.000,0.000,-1.990,-4.154,0.990,4.717,3.280,6.144,5.880,4.711,4.712,1.598,6.282,5.283,1.748,0.000,0.000,-1.334,-3.993,1.232,4.907,6.280,3.323,
29.060,34.982,-1.661,-4.743,1.572,0.000,6.269,1.290,2.212,0.719,1.422,0.000,4.414,1.755,0.000,1.173,1.277,0.000,3.036,0.000,0.000,0.000,0.000,0.000,0.000,0.000,0.000,0.000,0.000,0.000,3.142,6.283,0.000,1.003,1.569,1.569,4.085,6.281,1.199,4.712,0.000,0.000,-1.990,-4.154,0.990,4.717,3.280,6.144,5.880,4.711,4.712,1.598,6.282,5.283,1.770,0.000,0.000,-1.334,-3.993,1.232,4.907,6.279,3.345,
29.159,35.081,-1.661,-4.743,1.572,0.000,6.269,1.290,2.212,0.719,1.422,0.000,4.414,1.755,0.000,1.173,1.277,0.000,3.036,0.000,0.000,0.000,0.000,0.000,0.000,0.000,0.885,0.000,0.000,0.000,3.142,6.283,0.000,1.003,1.569,1.569,4.085,6.281,1.199,4.712,0.000,0.000,-1.990,-4.154,0.990,4.717,3.280,6.144,5.880,4.711,4.712,1.598,6.282,5.283,1.808,0.000,0.000,-1.334,-3.993,1.232,4.907,6.280,3.383,
29.260,35.182,-1.661,-4.743,1.572,0.000,6.269,1.290,2.212,0.719,1.422,0.000,4.414,1.755,0.000,1.173,1.277,0.000,3.036,0.000,0.000,0.000,0.000,0.000,0.000,0.000,0.919,0.000,0.000,0.000,3.142,6.283,0.000,1.003,1.569,1.569,4.085,6.281,1.199,4.712,0.000,0.000,-1.990,-4.154,0.990,4.717,3.280,6.144,5.880,4.711,4.712,1.598,6.282,5.283,1.830,0.000,0.000,-1.334,-3.993,1.232,4.907,6.279,3.405,
29.360,35.282,-1.661,-4.743,1.572,0.000,6.269,1.290,2.212,0.719,1.422,0.000,4.414,1.755,0.000,1.173,1.277,0.000,3.036,0.000,0.000,0.000,0.000,0.000,0.000,0.000,1.039,0.000,0.000,0.000,3.142,6.283,0.000,1.003,1.569,1.569,4.085,6.281,1.199,4.712,0.000,0.000,-1.990,-4.154,0.990,4.717,3.280,6.144,5.880,4.711,4.712,1.598,6.282,5.283,1.868,0.000,0.000,-1.334,-3.993,1.232,4.907,6.279,3.443,
29.440,35.362,-1.661,-4.743,1.572,0.000,6.269,1.290,2.212,0.719,1.422,0.000,4.414,1.755,0.000,1.173,1.277,0.000,3.036,0.000,0.000,0.000,0.000,0.000,0.000,0.000,1.118,0.000,0.000,0.000,3.142,6.283,0.000,1.003,1.569,1.569,4.085,6.281,1.199,4.712,0.000,0.000,-1.990,-4.154,0.990,4.717,3.280,6.144,5.880,4.711,4.712,1.598,6.282,5.283,1.890,0.000,0.000,-1.334,-3.993,1.232,4.907,6.279,3.465,
29.560,35.482,-1.661,-4.743,1.572,0.000,6.269,1.290,2.212,0.719,1.422,0.000,4.414,1.755,0.000,1.173,1.277,0.000,3.036,0.000,0.000,0.000,0.000,0.000,0.000,0.000,1.202,0.000,0.000,0.000,3.142,6.283,0.000,1.003,1.569,1.569,4.085,6.281,1.199,4.712,0.000,0.000,-1.990,-4.154,0.990,4.717,3.280,6.144,5.880,4.711,4.712,1.598,6.282,5.283,1.910,0.000,0.000,-1.334,-3.993,1.232,4.907,6.279,3.485,
29.655,35.577,-1.661,-4.743,1.572,0.000,6.269,1.290,2.212,0.719,1.422,0.000,4.414,1.755,0.000,1.173,1.277,0.000,3.036,0.000,0.000,0.000,0.000,0.000,0.000,0.000,1.358,0.000,0.000,0.000,3.142,6.283,0.000,1.003,1.569,1.569,4.085,6.281,1.199,4.712,0.000,0.000,-1.990,-4.154,0.990,4.717,3.280,6.144,5.880,4.711,4.712,1.598,6.282,5.283,1.950,0.000,0.000,-1.334,-3.993,1.232,4.907,6.279,3.525,
29.740,35.662,-1.661,-4.743,1.572,0.000,6.269,1.290,2.212,0.719,1.422,0.000,4.414,1.755,0.000,1.173,1.277,0.000,3.036,0.000,0.000,0.000,0.000,0.000,0.000,0.000,1.480,0.000,0.000,0.000,3.142,6.283,0.000,1.003,1.569,1.569,4.085,6.281,1.199,4.712,0.000,0.000,-1.990,-4.154,0.990,4.717,3.280,6.144,5.880,4.711,4.712,1.598,6.282,5.283,1.970,0.000,0.000,-1.334,-3.993,1.232,4.907,6.279,3.546,
29.860,35.782,-1.661,-4.743,1.572,0.000,6.269,1.290,2.212,0.719,1.422,0.000,4.414,1.755,0.000,1.173,1.277,0.000,3.036,0.000,0.000,0.000,0.000,0.000,0.000,0.000,1.597,0.000,0.000,0.000,3.142,6.283,0.000,1.003,1.569,1.569,4.085,6.281,1.199,4.712,0.000,0.000,-1.990,-4.154,0.990,4.717,3.280,6.144,5.880,4.711,4.712,1.598,6.282,5.283,1.990,0.000,0.000,-1.334,-3.993,1.232,4.907,6.279,3.565,
29.960,35.882,-1.661,-4.743,1.572,0.000,6.269,1.290,2.212,0.719,1.422,0.000,4.414,1.755,0.000,1.173,1.277,0.000,3.036,0.000,0.000,0.000,0.000,0.000,0.000,0.000,1.791,0.000,0.000,0.000,3.142,6.283,0.000,1.003,1.569,1.569,4.085,6.281,1.199,4.712,0.000,0.000,-1.990,-4.154,0.990,4.717,3.280,6.144,5.880,4.711,4.712,1.598,6.282,5.283,2.030,0.000,0.000,-1.334,-3.993,1.232,4.907,6.279,3.605,
30.060,35.982,-1.661,-4.743,1.572,0.000,6.269,1.290,2.212,0.719,1.422,0.000,4.414,1.755,0.000,1.173,1.277,0.000,3.036,0.000,0.000,0.000,0.000,0.000,0.000,0.000,1.968,0.000,0.000,0.000,3.142,6.283,0.000,1.003,1.569,1.569,4.085,6.281,1.199,4.712,0.000,0.000,-1.990,-4.154,0.990,4.717,3.280,6.144,5.880,4.711,4.712,1.598,6.282,5.283,2.068,0.000,0.000,-1.334,-3.993,1.232,4.907,6.279,3.643,
30.160,36.082,-1.661,-4.743,1.572,0.000,6.269,1.290,2.212,0.719,1.422,0.000,4.414,1.755,0.000,1.173,1.277,0.000,3.036,0.000,0.000,0.000,0.000,0.000,0.000,0.000,2.088,0.000,0.000,0.000,3.142,6.283,0.000,1.003,1.569,1.569,4.085,6.281,1.199,4.712,0.000,0.000,-1.990,-4.154,0.990,4.717,3.280,6.144,5.880,4.711,4.712,1.598,6.282,5.283,2.090,0.000,0.000,-1.334,-3.993,1.232,4.907,6.279,3.665,
30.260,36.182,-1.661,-4.743,1.572,0.000,6.269,1.290,2.212,0.719,1.422,0.000,4.414,1.755,0.000,1.173,1.277,0.000,3.036,0.000,0.000,0.000,0.000,0.000,0.000,0.000,2.347,0.000,0.000,0.000,3.142,6.283,0.000,1.003,1.569,1.569,4.085,6.281,1.199,4.712,0.000,0.000,-1.990,-4.154,0.990,4.717,3.280,6.144,5.880,4.711,4.712,1.598,6.282,5.283,2.128,0.000,0.000,-1.334,-3.993,1.232,4.907,6.279,3.703,
30.360,36.282,-1.661,-4.743,1.572,0.000,6.269,1.290,2.212,0.719,1.422,0.000,4.414,1.755,0.000,1.173,1.277,0.000,3.036,0.000,0.000,0.000,0.000,0.000,0.000,0.000,0.000,0.000,0.000,0.000,3.142,6.283,0.000,1.003,1.569,1.569,4.085,6.281,1.199,4.712,0.000,0.000,-1.990,-4.154,0.990,4.717,3.280,6.144,5.880,4.711,4.712,1.598,6.282,5.283,2.150,0.000,0.000,-1.334,-3.993,1.232,4.907,6.279,3.725,
30.460,36.382,-1.661,-4.743,1.572,0.000,6.269,1.290,2.212,0.719,1.422,0.000,4.414,1.755,0.000,1.173,1.277,0.000,3.036,0.000,0.000,0.000,0.000,0.000,0.000,0.000,0.000,0.000,0.000,0.000,3.142,6.283,0.000,1.003,1.569,1.569,4.085,6.281,1.199,4.712,0.000,0.000,-1.990,-4.154,0.990,4.717,3.280,6.144,5.880,4.711,4.712,1.598,6.282,5.283,2.170,0.000,0.000,-1.334,-3.993,1.232,4.907,6.279,3.746,
30.542,36.464,-1.661,-4.743,1.572,0.000,6.269,1.290,2.212,0.719,1.422,0.000,4.414,1.755,0.000,1.173,1.277,0.000,3.036,0.000,0.000,0.000,0.000,0.000,0.000,0.000,0.000,0.000,0.000,0.000,3.142,6.283,0.000,1.003,1.569,1.569,4.085,6.281,1.199,4.712,0.000,0.000,-1.990,-4.154,0.990,4.717,3.280,6.144,5.880,4.711,4.712,1.598,6.282,5.283,2.210,0.000,0.000,-1.334,-3.993,1.232,4.907,6.279,3.785,
30.660,36.582,-1.661,-4.743,1.572,0.000,6.269,1.290,2.212,0.719,1.422,0.000,4.414,1.755,0.000,1.173,1.277,0.000,3.036,0.000,0.000,0.000,0.000,0.000,0.000,0.000,0.000,0.000,0.000,0.000,3.142,6.283,0.000,1.003,1.569,1.569,4.085,6.281,1.199,4.712,0.000,0.000,-1.990,-4.154,0.990,4.717,3.280,6.144,5.880,4.711,4.712,1.598,6.282,5.283,2.230,0.000,0.000,-1.334,-3.993,1.232,4.907,6.279,3.805,
30.748,36.670,-1.661,-4.743,1.572,0.000,6.270,1.290,2.212,0.719,1.422,0.000,4.414,1.755,0.000,1.173,1.277,0.000,3.036,0.000,0.000,0.000,0.000,0.000,0.000,0.000,0.000,0.000,0.000,0.000,3.142,6.283,0.000,1.003,1.569,1.569,4.086,6.281,1.199,4.712,0.000,0.000,-1.990,-4.154,0.990,4.718,3.283,6.141,5.920,4.711,4.712,1.559,6.282,5.283,2.191,0.000,0.000,-1.334,-3.986,1.248,4.908,6.278,3.767,
30.860,36.782,-1.661,-4.743,1.572,0.000,6.270,1.290,2.212,0.719,1.422,0.000,0.000,1.755,0.000,1.173,1.277,0.000,3.142,0.000,0.000,0.000,0.000,0.000,2.717,0.000,0.000,0.000,0.000,0.000,3.106,6.283,0.000,1.003,1.569,1.569,4.086,6.281,1.199,4.712,0.000,0.000,-1.990,-4.154,0.990,4.718,3.280,6.143,5.940,4.711,4.712,1.539,6.282,5.283,2.171,0.000,0.000,-1.334,-3.983,1.256,4.908,6.278,3.747,
30.942,36.864,-1.661,-4.743,1.572,0.000,6.270,1.290,2.212,0.719,1.422,0.000,0.000,1.755,0.000,1.173,1.277,0.000,3.142,0.000,0.000,0.000,0.000,0.000,2.549,0.000,0.000,0.000,0.000,0.000,3.071,6.283,0.000,1.003,1.569,1.569,4.086,6.281,1.199,4.712,0.000,0.000,-1.990,-4.154,0.990,4.717,3.281,6.143,5.980,4.711,4.712,1.499,6.282,5.283,2.131,0.000,0.000,-1.334,-3.977,1.271,4.908,6.278,3.707,
31.060,36.982,-1.661,-4.743,1.572,0.000,6.270,1.290,2.212,0.719,1.422,0.000,0.000,1.755,0.000,1.173,1.277,0.000,3.142,0.000,0.000,0.000,0.000,0.000,2.531,0.000,0.000,0.000,0.000,0.000,3.036,6.283,0.000,1.003,1.569,1.569,4.086,6.281,1.199,4.712,0.000,0.000,-1.990,-4.154,0.990,4.717,3.280,6.144,5.999,4.711,4.712,1.479,6.282,5.283,2.111,0.000,0.000,-1.334,-3.975,1.279,4.908,6.279,3.687,
31.145,37.067,-1.661,-4.743,1.572,0.000,6.270,1.290,2.212,0.719,1.422,0.000,0.000,1.755,0.000,1.173,1.277,0.000,3.142,0.000,0.000,0.000,0.000,0.000,2.531,0.000,0.000,0.000,0.000,0.000,3.036,6.283,0.000,1.003,1.569,1.569,4.086,6.281,1.199,4.712,0.000,0.000,-1.990,-4.154,0.990,4.718,3.281,6.143,6.040,4.711,4.713,1.440,6.282,5.283,2.071,0.000,0.000,-1.334,-3.970,1.296,4.908,6.279,3.647,
31.260,37.182,-1.661,-4.743,1.572,0.000,6.270,1.290,2.212,0.719,1.422,0.000,0.000,1.755,0.000,1.173,1.277,0.000,3.142,0.000,0.000,0.000,0.000,0.000,2.525,0.000,0.000,0.000,0.000,0.000,3.036,6.283,0.000,1.003,1.569,1.569,4.086,6.281,1.199,4.712,0.000,0.000,-1.990,-4.154,0.990,4.718,3.279,6.145,6.059,4.711,4.713,1.419,6.282,5.283,2.051,0.000,0.000,-1.334,-3.968,1.304,4.908,6.279,3.627,
31.347,37.270,-1.661,-4.743,1.572,0.000,6.270,1.290,2.212,0.719,1.422,0.000,0.000,1.755,0.000,1.173,1.277,0.000,3.142,0.000,0.000,0.000,0.000,0.000,2.496,0.000,0.000,0.000,0.000,0.000,3.036,6.283,0.000,1.003,1.569,1.569,4.085,6.281,1.199,4.712,0.000,0.000,-1.990,-4.154,0.990,4.718,3.280,6.144,6.100,4.711,4.713,1.380,6.282,5.283,2.011,0.000,0.000,-1.334,-3.964,1.320,4.908,6.279,3.587,
31.460,37.382,-1.661,-4.743,1.572,0.000,6.270,1.290,2.212,0.719,1.422,0.000,0.000,1.755,0.000,1.173,1.277,0.000,3.142,0.000,0.000,0.000,0.000,0.000,2.471,0.000,0.000,0.000,0.000,0.000,3.036,6.283,0.000,1.003,1.569,1.569,4.085,6.281,1.199,4.712,0.000,0.000,-1.990,-4.154,0.990,4.718,3.278,6.146,6.119,4.711,4.713,1.359,6.282,5.283,1.991,0.000,0.000,-1.334,-3.962,1.328,4.908,6.279,3.566,
31.551,37.473,-1.661,-4.743,1.572,0.000,6.272,1.290,2.212,0.719,1.422,0.000,0.000,1.755,0.000,1.173,1.277,0.000,3.142,0.000,0.000,0.000,0.000,0.000,2.409,0.000,0.000,0.000,0.000,0.000,3.036,6.283,0.000,1.003,1.569,1.569,4.086,6.281,1.199,4.712,0.000,0.000,-1.990,-4.154,0.990,4.718,3.270,6.153,6.157,4.711,4.713,1.321,6.282,5.283,1.953,0.000,0.000,-1.334,-3.959,1.343,4.907,6.279,3.528,
31.660,37.582,-1.661,-4.743,1.572,0.000,6.269,1.290,2.212,0.719,1.422,0.000,0.000,1.755,0.000,1.173,1.277,0.000,3.142,0.000,0.000,0.000,0.000,0.000,2.367,0.000,0.000,0.000,0.000,0.000,3.036,6.283,0.000,1.003,1.569,1.569,4.085,6.281,1.199,4.712,0.000,0.000,-1.990,-4.154,0.990,4.717,3.281,6.143,6.180,4.711,4.713,1.300,6.282,5.283,1.931,0.000,0.000,-1.334,-3.958,1.353,4.908,6.279,3.506,
31.754,37.676,-1.661,-4.743,1.572,0.000,6.271,1.290,2.212,0.719,1.422,0.000,0.000,1.755,0.000,1.173,1.277,0.000,3.142,0.000,0.000,0.000,0.000,0.000,2.273,0.000,0.000,0.000,0.000,0.000,3.036,6.283,0.000,1.003,1.569,1.569,4.086,6.281,1.199,4.712,0.000,0.000,-1.990,-4.154,0.990,4.718,3.270,6.153,6.217,4.711,4.713,1.261,6.282,5.283,1.893,0.000,0.000,-1.334,-3.956,1.368,4.907,6.280,3.468,
31.860,37.782,-1.661,-4.743,1.572,0.000,6.269,1.290,2.212,0.719,1.422,0.000,0.000,1.755,0.000,1.173,1.277,0.000,3.142,0.000,0.000,0.000,0.000,0.000,2.217,0.000,0.000,0.000,0.000,0.000,3.036,6.283,0.000,1.003,1.569,1.569,4.085,6.281,1.199,4.712,0.000,0.000,-1.990,-4.154,0.990,4.717,3.280,6.143,6.240,4.711,4.713,1.240,6.282,5.283,1.871,0.000,0.000,-1.334,-3.956,1.378,4.909,6.279,3.446,
31.959,37.881,-1.661,-4.743,1.572,0.000,6.271,1.290,2.212,0.719,1.422,0.000,0.000,1.755,0.000,1.173,1.277,0.000,3.142,0.000,0.000,0.000,0.000,0.000,2.093,0.000,0.000,0.000,0.000,0.000,3.071,6.283,0.000,1.003,1.569,1.569,4.086,6.281,1.199,4.712,0.000,0.000,-1.990,-4.154,0.990,4.718,3.270,6.153,6.277,4.711,4.713,1.201,6.282,5.283,1.833,0.000,0.000,-1.334,-3.954,1.393,4.907,6.280,3.407,
32.060,37.982,-1.661,-4.743,1.572,0.000,6.269,1.290,2.212,0.719,1.422,0.000,0.000,1.755,0.000,1.173,1.277,0.000,3.142,0.000,0.000,0.000,0.000,0.000,2.024,0.000,0.000,0.000,0.000,0.000,3.071,6.283,0.000,1.003,1.569,1.569,4.085,6.281,1.199,4.712,0.000,0.000,-1.990,-4.154,0.990,4.717,3.284,6.140,0.017,4.711,4.713,1.179,6.282,5.283,1.811,0.000,0.000,-1.334,-3.955,1.404,4.909,6.279,3.386,
32.160,38.082,-1.661,-4.743,1.572,0.000,6.270,1.290,2.212,0.719,1.422,0.000,0.000,1.755,0.000,1.173,1.277,0.000,3.142,0.000,0.000,0.000,0.000,0.000,1.886,0.000,0.000,0.000,0.000,0.000,3.071,6.283,0.000,1.003,1.569,1.569,4.086,6.281,1.199,4.712,0.000,0.000,-1.990,-4.154,0.990,4.718,3.273,6.151,0.054,4.711,4.713,1.141,6.282,5.283,1.773,0.000,0.000,-1.334,-3.954,1.419,4.907,6.280,3.347,
32.260,38.182,-1.661,-4.743,1.572,0.000,6.269,1.290,2.212,0.719,1.422,0.000,0.000,1.755,0.000,1.173,1.277,0.000,3.142,0.000,0.000,0.000,0.000,0.000,1.814,0.000,0.000,0.000,0.000,0.000,3.071,6.283,0.000,1.003,1.569,1.569,4.085,6.281,1.199,4.712,0.000,0.000,-1.990,-4.154,0.990,4.717,3.276,6.148,0.076,4.711,4.713,1.120,6.281,5.283,1.751,0.000,0.000,-1.334,-3.955,1.429,4.908,6.280,3.325,
32.360,38.282,-1.661,-4.743,1.572,0.000,6.270,1.290,2.212,0.719,1.422,0.000,0.000,1.755,0.000,1.173,1.277,0.000,3.142,0.000,0.000,0.000,0.000,0.000,1.695,0.000,0.000,0.000,0.000,0.000,3.106,6.283,0.000,1.003,1.569,1.569,4.086,6.281,1.199,4.712,0.000,0.000,-1.990,-4.154,0.990,4.718,3.273,6.150,0.114,4.711,4.713,1.081,6.281,5.283,1.713,0.000,0.000,-1.334,-3.956,1.444,4.907,6.280,3.287,
32.460,38.382,-1.661,-4.743,1.572,0.000,6.269,1.290,2.212,0.719,1.422,0.000,0.000,1.755,0.000,1.173,1.277,0.000,3.142,0.000,0.000,0.000,0.000,0.000,1.648,0.000,0.000,0.000,0.000,0.000,3.106,6.283,0.000,1.003,1.569,1.569,4.085,6.281,1.199,4.712,0.000,0.000,-1.990,-4.154,0.990,4.717,3.276,6.148,0.136,4.711,4.713,1.060,6.281,5.283,1.691,0.000,0.000,-1.334,-3.957,1.454,4.908,6.280,3.265,
32.560,38.482,-1.661,-4.743,1.572,0.000,6.269,1.290,2.212,0.719,1.422,0.000,4.414,1.755,0.000,1.173,1.277,0.000,3.036,0.000,0.000,0.000,0.000,0.000,0.000,0.000,0.000,0.000,0.000,0.000,3.142,6.283,0.000,1.003,1.569,1.569,4.085,6.281,1.199,4.712,0.000,0.000,-1.990,-4.154,0.990,4.717,3.275,6.149,0.156,4.711,4.713,1.040,6.281,5.283,1.671,0.000,0.000,-1.334,-3.958,1.462,4.908,6.280,3.245,
32.660,38.582,-1.661,-4.743,1.572,0.000,6.269,1.290,2.212,0.719,1.422,0.000,4.414,1.755,0.000,1.173,1.277,0.000,3.036,0.000,0.000,0.000,0.000,0.000,0.000,0.000,0.000,0.000,0.000,0.000,3.142,6.283,0.000,1.003,1.569,1.569,4.085,6.281,1.199,4.712,0.000,0.000,-1.990,-4.154,0.990,4.717,3.275,6.149,0.176,4.711,4.713,1.020,6.281,5.283,1.651,0.000,0.000,-1.334,-3.959,1.471,4.908,6.280,3.225,
32.760,38.682,-1.661,-4.743,1.572,0.000,6.269,1.290,2.212,0.719,1.422,0.000,4.414,1.755,0.000,1.173,1.277,0.000,3.036,0.000,0.000,0.000,0.000,0.000,0.000,0.000,0.000,0.000,0.000,0.000,3.142,6.283,0.000,1.003,1.569,1.569,4.086,6.281,1.199,4.712,0.000,0.000,-1.990,-4.154,0.990,4.718,3.274,6.150,0.214,4.711,4.714,0.981,6.281,5.284,1.613,0.000,0.000,-1.334,-3.961,1.486,4.907,6.280,3.187,
32.860,38.782,-1.661,-4.743,1.572,0.000,6.269,1.290,2.212,0.719,1.422,0.000,4.414,1.755,0.000,1.173,1.277,0.000,3.036,0.000,0.000,0.000,0.000,0.000,0.000,0.000,0.000,0.000,0.000,0.000,3.142,6.283,0.000,1.003,1.569,1.569,4.086,6.281,1.199,4.712,0.000,0.000,-1.990,-4.154,0.990,4.718,3.276,6.148,0.254,4.711,4.714,0.941,6.281,5.283,1.573,0.000,0.000,-1.334,-3.965,1.502,4.907,6.280,3.147,
32.960,38.882,-1.661,-4.743,1.572,0.000,6.269,1.290,2.212,0.719,1.422,0.000,4.414,1.755,0.000,1.173,1.277,0.000,3.036,0.000,0.000,0.000,0.000,0.000,0.000,0.000,0.000,0.000,0.000,0.000,3.142,6.283,0.000,1.003,1.569,1.569,4.085,6.281,1.199,4.712,0.000,0.000,-1.990,-4.154,0.990,4.717,3.276,6.147,0.276,4.711,4.714,0.920,6.281,5.283,1.570,0.000,0.000,-1.334,-3.967,1.512,4.908,6.281,3.144,
33.060,38.982,-1.661,-4.743,1.572,0.000,6.269,1.290,2.212,0.719,1.422,0.000,4.414,0.000,0.000,1.173,1.277,0.000,3.036,0.000,0.000,0.000,0.000,0.000,0.000,0.886,0.000,0.000,0.000,0.000,3.142,6.283,0.000,1.003,1.569,1.569,4.086,6.281,1.199,4.712,0.000,0.000,-1.990,-4.154,0.990,4.718,3.275,6.149,0.313,4.711,4.714,0.881,6.281,5.283,1.570,0.000,0.000,-1.334,-3.971,1.527,4.907,6.280,3.144,
33.152,39.074,-1.661,-4.743,1.572,0.000,6.268,1.290,2.212,0.719,1.422,0.000,4.414,0.000,0.000,1.173,1.277,0.000,3.036,0.000,0.000,0.000,0.000,0.000,0.000,0.751,0.000,0.000,0.000,0.000,3.142,6.283,0.000,1.003,1.569,1.569,4.086,6.281,1.199,4.712,0.000,0.000,-1.990,-4.154,0.990,4.718,3.269,6.155,0.333,4.711,4.714,0.861,6.281,5.284,1.571,0.000,0.000,-1.334,-3.973,1.534,4.906,6.282,3.143,
33.260,39.182,-1.661,-4.743,1.572,0.000,6.269,1.290,2.212,0.719,1.422,0.000,4.414,0.000,0.000,1.173,1.277,0.000,3.036,0.000,0.000,0.000,0.000,0.000,0.000,0.696,0.000,0.000,0.000,0.000,3.142,6.283,0.000,1.003,1.569,1.569,4.085,6.281,1.199,4.712,0.000,0.000,-1.990,-4.154,0.990,4.717,3.283,6.141,0.356,4.711,4.714,0.840,6.281,5.283,1.570,0.000,0.000,-1.334,-3.977,1.544,4.909,6.280,3.145,
