deveshdatwani/Gopher/Assets/Data/07-15 15-03-34/Obstacle Handling_robot_value.csv
game_time,true_time,x,y,az,vx,vaz,dis_to_obs_0,dis_to_obs_36,dis_to_obs_72,dis_to_obs_108,dis_to_obs_144,dis_to_obs_180,dis_to_obs_-144,dis_to_obs_-108,dis_to_obs_-72,dis_to_obs_-36,dis_to_min_obs,direction_to_min_obs,dis_to_human_0,dis_to_human_36,dis_to_human_72,dis_to_human_108,dis_to_human_144,dis_to_human_180,dis_to_human_-144,dis_to_human_-108,dis_to_human_-72,dis_to_human_-36,dis_to_min_human,direction_to_min_human,main_cam_yaw,main_cam_pitch,left_joint_1,left_joint_2,left_joint_3,left_joint_4,left_joint_5,left_joint_6,left_joint_7,left_joint_gripper,left_is_grasping,left_end_x,left_end_y,left_end_z,left_end_ax,left_end_ay,left_end_az,right_joint_1,right_joint_2,right_joint_3,right_joint_4,right_joint_5,right_joint_6,right_joint_7,right_joint_gripper,right_is_grasping,right_end_x,right_end_y,right_end_z,right_end_ax,right_end_ay,right_end_az,
11.280,16.367,1.179,-10.003,1.853,0.186,0.130,3.667,0.000,1.562,1.681,0.000,4.395,2.299,1.822,0.000,3.705,0.000,3.106,0.000,0.000,0.000,0.000,0.000,0.000,0.000,0.000,0.000,0.000,0.000,3.142,0.001,0.001,1.002,1.569,1.568,4.088,6.281,1.199,4.711,0.000,0.000,0.698,-9.528,0.990,4.997,4.691,4.732,5.281,4.711,4.710,2.198,6.282,5.083,1.570,0.000,0.000,1.328,-9.346,0.990,4.996,4.697,4.726,
11.380,16.467,1.178,-10.000,1.838,-0.051,5.684,3.647,0.000,1.589,1.662,0.000,4.639,2.328,1.824,0.000,3.721,0.000,3.106,0.000,0.000,0.000,0.000,0.000,0.000,0.000,0.000,0.000,0.000,0.000,3.142,6.282,0.001,1.003,1.568,1.567,4.086,6.281,1.199,4.712,0.000,0.000,0.704,-9.518,0.990,4.982,4.693,4.730,5.281,4.711,4.710,2.198,6.282,5.083,1.570,0.000,0.000,1.337,-9.345,0.990,4.982,4.694,4.730,
11.480,16.567,1.179,-10.006,1.770,-0.090,4.965,3.589,0.000,1.710,1.591,3.520,4.993,2.466,1.832,1.643,3.831,0.000,2.720,0.000,0.000,0.000,0.000,0.000,0.000,0.000,0.000,0.000,0.000,0.000,3.142,6.280,0.001,1.004,1.568,1.566,4.085,6.281,1.199,4.712,0.000,0.000,0.739,-9.494,0.990,4.915,4.690,4.732,5.281,4.711,4.709,2.197,6.282,5.083,1.570,0.000,0.000,1.382,-9.363,0.990,4.914,4.688,4.735,
11.580,16.667,1.173,-9.965,1.658,0.798,5.814,3.484,0.000,2.034,1.493,2.782,4.966,2.775,1.872,1.559,3.499,0.000,2.896,0.000,0.000,0.000,0.000,0.000,0.000,0.000,0.000,0.000,0.000,0.000,3.142,6.277,6.283,1.008,1.568,1.568,4.077,6.281,1.199,4.712,0.000,0.000,0.794,-9.409,0.990,4.801,4.704,4.721,5.283,4.711,4.711,2.197,6.282,5.083,1.571,0.000,0.000,1.447,-9.349,0.991,4.801,4.675,4.750,
11.669,16.757,1.165,-9.878,1.646,1.348,6.261,3.393,0.000,2.174,1.477,2.711,0.000,2.824,1.885,1.559,3.422,0.000,3.142,0.000,0.000,0.000,0.000,0.000,0.000,0.000,0.000,0.000,0.000,0.000,3.142,6.279,6.283,1.006,1.568,1.567,4.080,6.281,1.199,4.712,0.000,0.000,0.792,-9.317,0.990,4.790,4.688,4.736,5.282,4.710,4.710,2.197,6.282,5.083,1.570,0.000,0.000,1.446,-9.266,0.991,4.790,4.656,4.768,
11.780,16.867,1.154,-9.721,1.647,1.136,6.263,3.235,0.000,1.826,1.464,2.690,0.000,2.840,1.897,0.000,3.751,0.000,3.142,0.000,0.000,0.000,0.000,0.000,0.000,0.000,0.000,0.000,0.000,0.000,3.142,0.001,0.001,1.002,1.570,1.571,4.089,6.281,1.200,4.712,0.000,0.000,0.782,-9.157,0.989,4.787,4.619,4.805,5.281,4.712,4.713,2.198,6.282,5.083,1.570,0.000,0.000,1.436,-9.108,0.990,4.787,4.651,4.773,
11.880,16.967,1.147,-9.634,1.647,0.554,0.066,3.148,0.000,1.774,1.457,2.678,0.000,2.849,1.904,0.000,3.649,0.000,3.142,0.000,0.000,0.000,0.000,0.000,0.000,0.000,0.000,0.000,0.000,0.000,3.142,0.003,0.001,1.000,1.571,1.571,4.092,6.281,1.200,4.712,0.000,0.000,0.776,-9.069,0.989,4.787,4.595,4.828,5.281,4.712,4.713,2.198,6.282,5.083,1.570,0.000,0.000,1.430,-9.021,0.990,4.787,4.644,4.780,
11.971,17.059,1.146,-9.620,1.646,-0.104,6.254,3.133,0.000,1.765,1.453,2.670,0.000,2.855,1.905,0.000,3.635,0.000,3.142,0.000,0.000,0.000,0.000,0.000,0.000,0.000,0.000,0.000,0.000,0.000,3.142,0.002,0.001,1.000,1.570,1.571,4.091,6.281,1.200,4.712,0.000,0.000,0.775,-9.055,0.989,4.786,4.602,4.821,5.281,4.712,4.713,2.198,6.282,5.083,1.570,0.000,0.000,1.429,-9.008,0.990,4.786,4.644,4.780,
12.080,17.167,1.147,-9.650,1.568,-0.255,4.888,3.150,0.000,1.744,1.467,2.360,0.000,3.149,1.945,1.533,3.863,0.000,3.142,0.000,0.000,0.000,0.000,0.000,0.000,0.000,0.000,0.000,0.000,0.000,3.142,6.280,0.000,1.004,1.568,1.565,4.084,6.282,1.199,4.711,0.000,0.000,0.818,-9.061,0.990,4.716,3.627,5.796,5.281,4.710,4.709,2.198,6.282,5.083,1.570,0.000,0.000,1.474,-9.062,0.990,4.717,3.309,6.114,
12.162,17.249,1.146,-9.670,1.455,-0.429,4.784,3.185,3.172,1.719,1.544,2.036,0.000,3.466,2.033,1.488,4.254,0.000,3.142,0.000,0.000,0.000,0.000,0.000,0.000,0.000,0.000,0.000,0.000,0.000,3.142,0.001,0.001,1.001,1.571,1.571,4.091,6.281,1.199,4.712,0.000,0.000,0.889,-9.045,0.989,4.830,1.638,1.503,5.281,4.713,4.714,2.199,6.282,5.083,1.570,0.000,0.000,1.541,-9.123,0.991,4.831,1.600,1.541,
12.280,17.367,1.131,-9.776,1.369,-1.317,6.110,3.332,3.635,0.000,1.530,1.837,0.000,3.200,2.140,1.482,4.780,0.000,3.142,0.000,0.000,0.000,0.000,0.000,0.000,0.000,0.000,0.000,0.000,0.000,3.142,0.003,0.001,0.999,1.572,1.575,4.091,6.280,1.200,4.712,0.000,0.000,0.931,-9.132,0.990,4.921,1.606,1.536,5.280,4.713,4.716,2.199,6.281,5.083,1.571,0.000,0.000,1.573,-9.265,0.990,4.920,1.592,1.551,
12.380,17.467,1.104,-9.907,1.370,-1.250,6.279,3.465,3.924,1.790,1.390,1.800,0.000,3.145,2.170,1.910,4.970,0.000,3.142,0.000,0.000,0.000,0.000,0.000,0.000,0.000,0.000,0.000,0.000,0.000,3.142,6.282,6.283,1.004,1.569,1.569,4.084,6.281,1.199,4.712,0.000,0.000,0.899,-9.265,0.990,4.913,1.591,1.550,5.280,4.711,4.711,2.199,6.282,5.083,1.570,0.000,0.000,1.542,-9.395,0.991,4.913,1.589,1.552,
12.474,17.562,1.087,-9.990,1.370,-0.904,6.275,3.549,3.880,1.817,1.302,1.778,0.000,3.055,2.189,1.927,0.000,0.000,3.142,0.000,0.000,0.000,0.000,0.000,0.000,0.000,0.000,0.000,0.000,0.000,3.142,6.282,6.283,1.005,1.569,1.569,4.083,6.281,1.199,4.712,0.000,0.000,0.882,-9.348,0.990,4.912,1.589,1.552,5.281,4.711,4.711,2.199,6.282,5.083,1.570,0.000,0.000,1.525,-9.478,0.991,4.912,1.589,1.552,
12.580,17.667,1.068,-10.087,1.371,-0.892,6.269,3.647,3.496,1.849,1.265,1.752,4.923,2.949,2.210,1.947,0.000,0.000,3.036,0.000,0.000,0.000,0.000,0.000,0.000,0.000,0.000,0.000,0.000,0.000,3.142,0.001,0.000,1.002,1.570,1.571,4.088,6.281,1.200,4.712,0.000,0.000,0.864,-9.443,0.990,4.914,1.602,1.540,5.280,4.712,4.713,2.199,6.282,5.083,1.570,0.000,0.000,1.506,-9.575,0.990,4.914,1.590,1.551,
12.680,17.767,1.048,-10.184,1.373,-1.098,0.098,3.744,3.770,1.880,1.246,1.727,4.822,2.845,2.230,1.968,0.000,0.000,3.001,0.000,0.000,0.000,0.000,0.000,0.000,0.000,0.000,0.000,0.000,0.000,3.142,0.002,0.000,1.002,1.570,1.571,4.088,6.281,1.200,4.712,0.000,0.000,0.844,-9.541,0.990,4.913,1.602,1.539,5.280,4.712,4.713,2.200,6.282,5.083,1.570,0.000,0.000,1.486,-9.671,0.990,4.913,1.589,1.553,
12.774,17.861,1.031,-10.269,1.403,-1.092,0.883,3.812,3.916,2.495,1.235,1.756,4.709,2.790,2.214,1.993,0.000,0.000,1.000,0.000,0.000,0.000,0.000,0.000,0.000,0.000,0.000,0.000,0.000,0.000,3.142,0.002,6.283,1.003,1.571,1.573,4.087,6.281,1.199,4.712,0.000,0.000,0.808,-9.633,0.990,4.885,1.602,1.540,5.281,4.713,4.715,2.200,6.281,5.083,1.571,0.000,0.000,1.455,-9.744,0.991,4.884,1.586,1.556,
12.880,17.967,1.016,-10.377,1.538,-0.519,1.287,3.878,0.000,1.604,1.260,2.039,4.537,2.794,2.105,2.072,4.859,0.000,0.825,0.000,0.000,0.000,0.000,0.000,0.000,0.000,0.000,0.000,0.000,0.000,3.142,6.281,6.283,1.007,1.566,1.565,4.077,6.281,1.199,4.711,0.000,0.000,0.703,-9.780,0.991,4.739,1.556,1.584,5.283,4.709,4.708,2.199,6.282,5.083,1.570,0.000,0.000,1.359,-9.799,0.992,4.741,1.642,1.499,
12.980,18.067,1.015,-10.378,1.630,0.356,0.905,3.889,0.000,1.358,1.303,2.341,4.541,2.992,2.048,1.894,4.565,0.000,1.000,0.000,0.000,0.000,0.000,0.000,0.000,0.000,0.000,0.000,0.000,0.000,3.142,6.281,6.283,1.007,1.567,1.566,4.080,6.281,1.199,4.711,0.000,0.000,0.649,-9.811,0.990,4.776,4.680,4.744,5.282,4.709,4.708,2.198,6.282,5.083,1.570,0.000,0.000,1.305,-9.771,0.991,4.775,4.661,4.763,
13.080,18.167,1.009,-10.307,1.679,1.096,0.212,3.837,0.000,1.340,1.326,2.543,4.632,2.953,2.031,1.755,3.879,0.000,0.684,0.000,0.000,0.000,0.000,0.000,0.000,0.000,0.000,0.000,0.000,0.000,3.142,6.279,6.283,1.008,1.567,1.564,4.078,6.282,1.199,4.711,0.000,0.000,0.615,-9.760,0.990,4.827,4.700,4.723,5.282,4.710,4.707,2.198,6.283,5.083,1.570,0.000,0.000,1.268,-9.686,0.991,4.826,4.682,4.741,
13.180,18.267,0.995,-10.179,1.682,1.349,6.261,3.710,0.000,1.475,1.312,2.529,4.762,2.963,2.044,1.773,4.199,0.000,0.755,0.000,0.000,0.000,0.000,0.000,0.000,0.000,0.000,0.000,0.000,0.000,3.142,6.283,0.000,1.003,1.569,1.569,4.085,6.281,1.199,4.712,0.000,0.000,0.603,-9.630,0.990,4.824,4.667,4.756,5.281,4.711,4.711,2.198,6.282,5.083,1.570,0.000,0.000,1.255,-9.557,0.990,4.824,4.673,4.751,
13.262,18.350,0.982,-10.065,1.683,0.959,6.263,3.595,0.000,1.599,1.298,2.505,4.877,2.980,2.057,1.788,4.067,0.000,2.755,0.000,0.000,0.000,0.000,0.000,0.000,0.000,0.000,0.000,0.000,0.000,3.142,0.001,0.001,1.002,1.570,1.571,4.089,6.281,1.200,4.712,0.000,0.000,0.590,-9.515,0.989,4.823,4.651,4.772,5.281,4.712,4.713,2.198,6.282,5.083,1.570,0.000,0.000,1.242,-9.443,0.990,4.823,4.671,4.753,
13.380,18.467,0.972,-9.982,1.684,0.840,6.264,3.511,0.000,1.689,1.288,2.488,4.962,2.991,2.066,1.799,3.970,0.000,2.861,0.000,0.000,0.000,0.000,0.000,0.000,0.000,0.000,0.000,0.000,0.000,3.142,6.282,0.000,1.004,1.569,1.569,4.085,6.281,1.199,4.712,0.000,0.000,0.579,-9.433,0.990,4.826,4.671,4.752,5.281,4.711,4.711,2.198,6.282,5.083,1.570,0.000,0.000,1.231,-9.359,0.990,4.826,4.673,4.751,
13.480,18.567,0.962,-9.890,1.684,1.043,6.264,3.419,0.000,1.787,1.277,2.468,0.000,3.005,2.077,0.000,3.865,0.000,3.142,0.000,0.000,0.000,0.000,0.000,0.000,0.000,0.000,0.000,0.000,0.000,3.142,6.281,0.000,1.005,1.569,1.568,4.083,6.281,1.199,4.712,0.000,0.000,0.568,-9.343,0.990,4.827,4.679,4.744,5.281,4.711,4.710,2.198,6.282,5.083,1.570,0.000,0.000,1.220,-9.268,0.990,4.827,4.674,4.750,
13.574,18.662,0.952,-9.805,1.683,1.108,6.128,3.333,0.000,1.885,1.265,2.439,0.000,3.025,2.087,0.000,3.771,0.000,3.142,0.000,0.000,0.000,0.000,0.000,0.000,0.000,0.000,0.000,0.000,0.000,3.142,6.281,0.001,1.004,1.568,1.568,4.084,6.281,1.199,4.712,0.000,0.000,0.559,-9.257,0.990,4.826,4.674,4.749,5.281,4.710,4.710,2.197,6.282,5.083,1.570,0.000,0.000,1.211,-9.183,0.990,4.827,4.668,4.756,
13.680,18.767,0.944,-9.732,1.663,0.081,0.064,3.252,0.000,1.650,1.244,2.335,0.000,3.104,2.104,0.000,3.729,0.000,3.142,0.000,0.000,0.000,0.000,0.000,0.000,0.000,0.000,0.000,0.000,0.000,3.142,0.003,0.001,0.999,1.571,1.573,4.093,6.280,1.200,4.712,0.000,0.000,0.565,-9.173,0.989,4.800,4.607,4.817,5.281,4.713,4.715,2.197,6.281,5.083,1.570,0.000,0.000,1.218,-9.115,0.990,4.801,4.650,4.774,
13.762,18.850,0.945,-9.745,1.641,-0.346,5.567,3.258,0.000,1.646,1.233,2.249,0.000,3.181,2.114,0.000,3.792,0.000,3.142,0.000,0.000,0.000,0.000,0.000,0.000,0.000,0.000,0.000,0.000,0.000,3.142,0.000,0.001,1.002,1.569,1.567,4.088,6.281,1.199,4.711,0.000,0.000,0.574,-9.180,0.990,4.786,4.625,4.797,5.280,4.711,4.710,2.198,6.282,5.083,1.570,0.000,0.000,1.229,-9.135,0.990,4.785,4.643,4.780,
13.880,18.967,0.946,-9.776,1.505,-0.078,4.772,3.280,0.000,1.610,1.250,1.838,0.000,3.445,2.206,1.713,4.213,0.000,3.142,0.000,0.000,0.000,0.000,0.000,0.000,0.000,0.000,0.000,0.000,0.000,3.142,6.279,0.000,1.005,1.568,1.566,4.082,6.281,1.199,4.712,0.000,0.000,0.654,-9.168,0.990,4.774,1.617,1.524,5.282,4.711,4.709,2.198,6.282,5.083,1.570,0.000,0.000,1.310,-9.210,0.991,4.776,1.622,1.519,
13.980,19.067,0.943,-9.805,1.388,-0.662,5.397,3.351,3.211,1.601,1.319,1.604,0.000,3.285,2.331,1.676,4.729,0.000,3.142,0.000,0.000,0.000,0.000,0.000,0.000,0.000,0.000,0.000,0.000,0.000,3.142,0.003,0.001,0.998,1.573,1.575,4.095,6.280,1.200,4.712,0.000,0.000,0.732,-9.164,0.989,4.903,1.621,1.521,5.280,4.715,4.717,2.200,6.281,5.083,1.571,0.000,0.000,1.376,-9.287,0.991,4.903,1.589,1.552,
14.080,19.167,0.929,-9.882,1.352,-1.281,6.054,3.451,3.253,1.625,1.274,1.530,0.000,3.176,2.394,2.002,0.000,0.000,3.142,0.000,0.000,0.000,0.000,0.000,0.000,0.000,0.000,0.000,0.000,0.000,3.142,0.003,0.001,0.999,1.572,1.575,4.092,6.280,1.200,4.712,0.000,0.000,0.740,-9.234,0.990,4.938,1.607,1.535,5.280,4.714,4.716,2.199,6.281,5.083,1.571,0.000,0.000,1.379,-9.379,0.990,4.937,1.591,1.551,
14.180,19.267,0.894,-10.040,1.351,-1.225,6.273,3.613,3.576,1.674,1.102,1.480,4.980,3.273,2.437,2.118,0.000,0.000,3.106,0.000,0.000,0.000,0.000,0.000,0.000,0.000,0.000,0.000,0.000,0.000,3.142,6.282,6.283,1.005,1.569,1.568,4.083,6.281,1.199,4.712,0.000,0.000,0.700,-9.394,0.990,4.931,1.587,1.554,5.281,4.711,4.711,2.199,6.282,5.083,1.570,0.000,0.000,1.341,-9.536,0.991,4.931,1.588,1.553,
14.273,19.360,0.876,-10.119,1.355,-0.867,0.276,3.691,3.660,1.698,1.069,1.461,4.894,3.285,2.451,2.137,0.000,0.000,1.035,0.000,0.000,0.000,0.000,0.000,0.000,0.000,0.000,0.000,0.000,0.000,3.142,6.283,6.283,1.004,1.570,1.570,4.083,6.281,1.199,4.712,0.000,0.000,0.681,-9.474,0.990,4.929,1.588,1.553,5.281,4.712,4.712,2.199,6.282,5.083,1.570,0.000,0.000,1.322,-9.614,0.991,4.929,1.586,1.555,
14.380,19.467,0.857,-10.215,1.432,-0.907,0.892,3.298,0.000,2.056,1.064,1.553,4.742,2.895,2.375,2.181,0.000,0.000,0.930,0.000,0.000,0.000,0.000,0.000,0.000,0.000,0.000,0.000,0.000,0.000,3.142,0.003,0.000,1.002,1.570,1.570,4.088,6.281,1.199,4.712,0.000,0.000,0.614,-9.585,0.989,4.852,1.617,1.524,5.281,4.712,4.712,2.200,6.282,5.083,1.570,0.000,0.000,1.263,-9.677,0.991,4.852,1.592,1.548,
14.470,19.558,0.845,-10.315,1.468,-1.118,0.009,3.829,0.000,1.667,1.060,1.599,4.621,2.838,2.350,2.210,0.000,0.000,0.860,0.000,0.000,0.000,0.000,0.000,0.000,0.000,0.000,0.000,0.000,0.000,3.142,0.001,0.000,1.002,1.569,1.568,4.087,6.281,1.199,4.711,0.000,0.000,0.577,-9.695,0.990,4.813,1.631,1.509,5.280,4.711,4.710,2.199,6.282,5.083,1.570,0.000,0.000,1.230,-9.763,0.990,4.813,1.610,1.531,
14.580,19.667,0.833,-10.424,1.469,-1.063,6.278,3.938,0.000,1.446,1.048,1.582,4.511,2.714,2.362,2.221,0.000,0.000,1.106,0.000,0.000,0.000,0.000,0.000,0.000,0.000,0.000,0.000,0.000,0.000,3.142,6.283,0.000,1.004,1.569,1.569,4.085,6.281,1.199,4.712,0.000,0.000,0.567,-9.804,0.990,4.815,1.616,1.525,5.281,4.711,4.711,2.199,6.282,5.083,1.570,0.000,0.000,1.219,-9.871,0.990,4.815,1.612,1.530,
14.676,19.763,0.823,-10.522,1.469,-0.956,6.277,4.036,0.000,1.247,1.038,1.567,4.413,2.734,2.373,2.232,0.000,0.000,0.755,0.000,0.000,0.000,0.000,0.000,0.000,0.000,0.000,0.000,0.000,0.000,3.142,6.283,0.000,1.004,1.569,1.569,4.085,6.281,1.199,4.712,0.000,0.000,0.557,-9.902,0.990,4.815,1.618,1.523,5.281,4.711,4.712,2.199,6.282,5.083,1.570,0.000,0.000,1.209,-9.969,0.990,4.815,1.611,1.530,
14.780,19.867,0.815,-10.602,1.469,-0.551,6.277,4.117,0.000,1.083,1.029,1.554,4.332,2.749,2.381,2.240,0.000,0.000,0.755,0.000,0.000,0.000,0.000,0.000,0.000,0.000,0.000,0.000,0.000,0.000,3.142,6.281,6.283,1.006,1.568,1.567,4.081,6.281,1.199,4.712,0.000,0.000,0.546,-9.984,0.990,4.811,1.594,1.547,5.281,4.710,4.710,2.199,6.282,5.083,1.570,0.000,0.000,1.199,-10.049,0.991,4.812,1.610,1.531,
14.880,19.967,0.812,-10.631,1.469,-0.241,6.277,4.146,0.000,1.078,1.026,1.550,4.303,2.755,2.385,2.243,0.000,0.000,0.720,0.000,0.000,0.000,0.000,0.000,0.000,0.000,0.000,0.000,0.000,0.000,3.142,6.282,0.000,1.005,1.569,1.569,4.083,6.281,1.199,4.712,0.000,0.000,0.545,-10.012,0.990,4.813,1.607,1.534,5.281,4.711,4.711,2.199,6.282,5.083,1.570,0.000,0.000,1.197,-10.078,0.990,4.814,1.610,1.531,
14.980,20.067,0.811,-10.643,1.469,-0.025,6.269,4.158,0.000,1.077,1.025,1.548,4.291,2.756,2.386,2.245,0.000,0.000,1.035,0.000,0.000,0.000,0.000,0.000,0.000,0.000,0.000,0.000,0.000,0.000,3.142,6.283,0.000,1.004,1.569,1.569,4.085,6.281,1.199,4.712,0.000,0.000,0.544,-10.024,0.990,4.814,1.615,1.525,5.281,4.711,4.711,2.199,6.282,5.083,1.570,0.000,0.000,1.196,-10.091,0.990,4.814,1.610,1.531,
15.080,20.167,0.811,-10.643,1.469,-0.001,6.266,4.158,0.000,1.077,1.025,1.548,4.290,2.756,2.386,2.245,0.000,0.000,1.035,0.000,0.000,0.000,0.000,0.000,0.000,0.000,0.000,0.000,0.000,0.000,3.142,6.283,0.000,1.003,1.569,1.569,4.085,6.281,1.199,4.712,0.000,0.000,0.544,-10.024,0.990,4.814,1.620,1.521,5.281,4.711,4.711,2.198,6.282,5.083,1.570,0.000,0.000,1.196,-10.091,0.990,4.814,1.613,1.528,
15.170,20.257,0.811,-10.643,1.469,-0.001,6.266,4.158,0.000,1.077,1.025,1.548,4.290,2.756,2.386,2.245,0.000,0.000,1.035,0.000,0.000,0.000,0.000,0.000,0.000,0.000,0.000,0.000,0.000,0.000,3.142,6.283,0.000,1.003,1.569,1.569,4.085,6.281,1.199,4.712,0.000,0.000,0.544,-10.024,0.990,4.814,1.620,1.521,5.281,4.711,4.712,2.198,6.282,5.083,1.570,0.000,0.000,1.197,-10.091,0.990,4.814,1.613,1.528,
15.280,20.367,0.811,-10.643,1.469,-0.001,6.266,4.158,0.000,1.077,1.025,1.548,4.290,2.756,2.386,2.245,0.000,0.000,1.035,0.000,0.000,0.000,0.000,0.000,0.000,0.000,0.000,0.000,0.000,0.000,3.142,6.283,0.000,1.003,1.569,1.569,4.085,6.281,1.199,4.712,0.000,0.000,0.544,-10.024,0.990,4.814,1.620,1.521,5.281,4.711,4.711,2.198,6.282,5.083,1.570,0.000,0.000,1.197,-10.091,0.990,4.814,1.613,1.528,
15.380,20.467,0.811,-10.643,1.469,-0.001,6.266,4.158,0.000,1.077,1.025,1.548,4.290,2.756,2.386,2.245,0.000,0.000,1.035,0.000,0.000,0.000,0.000,0.000,0.000,0.000,0.000,0.000,0.000,0.000,3.142,6.283,0.000,1.003,1.569,1.569,4.085,6.281,1.199,4.712,0.000,0.000,0.544,-10.024,0.990,4.814,1.620,1.521,5.281,4.711,4.711,2.198,6.282,5.083,1.570,0.000,0.000,1.197,-10.091,0.990,4.814,1.613,1.528,
15.461,20.549,0.811,-10.643,1.469,-0.001,6.266,4.158,0.000,1.077,1.025,1.548,4.290,2.756,2.386,2.245,0.000,0.000,1.035,0.000,0.000,0.000,0.000,0.000,0.000,0.000,0.000,0.000,0.000,0.000,3.142,6.283,0.000,1.003,1.569,1.569,4.085,6.281,1.199,4.712,0.000,0.000,0.544,-10.024,0.990,4.814,1.620,1.521,5.281,4.711,4.711,2.198,6.282,5.083,1.570,0.000,0.000,1.197,-10.091,0.990,4.814,1.613,1.528,
15.580,20.667,0.811,-10.643,1.469,-0.001,6.266,4.158,0.000,1.077,1.025,1.548,4.290,2.756,2.386,2.245,0.000,0.000,1.035,0.000,0.000,0.000,0.000,0.000,0.000,0.000,0.000,0.000,0.000,0.000,3.142,6.283,0.000,1.003,1.569,1.569,4.085,6.281,1.199,4.712,0.000,0.000,0.544,-10.024,0.990,4.814,1.620,1.521,5.281,4.711,4.711,2.198,6.282,5.083,1.570,0.000,0.000,1.197,-10.091,0.990,4.814,1.613,1.528,
15.678,20.765,0.811,-10.643,1.469,-0.001,6.266,4.158,0.000,1.077,1.025,1.548,4.290,2.756,2.386,2.245,0.000,0.000,1.035,0.000,0.000,0.000,0.000,0.000,0.000,0.000,0.000,0.000,0.000,0.000,3.142,6.283,0.000,1.003,1.569,1.569,4.085,6.281,1.199,4.712,0.000,0.000,0.544,-10.024,0.990,4.814,1.620,1.521,5.281,4.711,4.711,2.198,6.282,5.083,1.570,0.000,0.000,1.197,-10.091,0.990,4.814,1.613,1.528,
15.780,20.867,0.811,-10.643,1.469,-0.001,6.266,4.158,0.000,1.077,1.025,1.548,4.290,2.756,2.386,2.245,0.000,0.000,1.035,0.000,0.000,0.000,0.000,0.000,0.000,0.000,0.000,0.000,0.000,0.000,3.142,6.283,0.000,1.003,1.569,1.569,4.085,6.281,1.199,4.712,0.000,0.000,0.544,-10.024,0.990,4.814,1.620,1.521,5.281,4.711,4.711,2.198,6.282,5.083,1.570,0.000,0.000,1.197,-10.091,0.990,4.814,1.613,1.528,
15.880,20.967,0.811,-10.643,1.469,-0.001,6.266,4.158,0.000,1.077,1.025,1.548,4.290,2.756,2.386,2.245,0.000,0.000,1.035,0.000,0.000,0.000,0.000,0.000,0.000,0.000,0.000,0.000,0.000,0.000,3.142,6.283,0.000,1.003,1.569,1.569,4.085,6.281,1.199,4.712,0.000,0.000,0.544,-10.024,0.990,4.814,1.620,1.521,5.281,4.711,4.711,2.198,6.282,5.083,1.570,0.000,0.000,1.197,-10.091,0.990,4.814,1.613,1.528,
15.980,21.067,0.811,-10.643,1.469,-0.001,6.266,4.158,0.000,1.077,1.025,1.548,4.290,2.756,2.386,2.245,0.000,0.000,1.035,0.000,0.000,0.000,0.000,0.000,0.000,0.000,0.000,0.000,0.000,0.000,3.142,6.283,0.000,1.003,1.569,1.569,4.085,6.281,1.199,4.712,0.000,0.000,0.544,-10.024,0.990,4.814,1.620,1.521,5.281,4.711,4.711,2.198,6.282,5.083,1.570,0.000,0.000,1.197,-10.091,0.990,4.814,1.613,1.528,
16.080,21.167,0.811,-10.643,1.469,-0.001,6.266,4.158,0.000,1.077,1.025,1.548,4.290,2.756,2.386,2.245,0.000,0.000,1.035,0.000,0.000,0.000,0.000,0.000,0.000,0.000,0.000,0.000,0.000,0.000,3.142,6.283,0.000,1.003,1.569,1.569,4.085,6.281,1.199,4.712,0.000,0.000,0.544,-10.024,0.990,4.814,1.620,1.521,5.281,4.711,4.711,2.198,6.282,5.083,1.570,0.000,0.000,1.197,-10.091,0.990,4.814,1.613,1.528,
16.170,21.257,0.811,-10.643,1.469,-0.001,6.266,4.158,0.000,1.077,1.025,1.548,4.290,2.756,2.386,2.245,0.000,0.000,1.035,0.000,0.000,0.000,0.000,0.000,0.000,0.000,0.000,0.000,0.000,0.000,3.142,6.283,0.000,1.003,1.569,1.569,4.085,6.281,1.199,4.712,0.000,0.000,0.544,-10.024,0.990,4.814,1.620,1.521,5.281,4.711,4.711,2.198,6.282,5.083,1.570,0.000,0.000,1.197,-10.091,0.990,4.814,1.613,1.528,
16.280,21.367,0.811,-10.643,1.469,-0.001,6.266,4.158,0.000,1.077,1.025,1.548,4.290,2.756,2.386,2.245,0.000,0.000,1.035,0.000,0.000,0.000,0.000,0.000,0.000,0.000,0.000,0.000,0.000,0.000,3.142,6.283,0.000,1.003,1.569,1.569,4.085,6.281,1.199,4.712,0.000,0.000,0.544,-10.024,0.990,4.814,1.620,1.521,5.281,4.711,4.711,2.198,6.282,5.083,1.570,0.000,0.000,1.197,-10.091,0.990,4.814,1.613,1.528,
16.380,21.467,0.811,-10.643,1.469,-0.001,6.266,4.158,0.000,1.077,1.025,1.548,4.290,2.756,2.386,2.245,0.000,0.000,1.035,0.000,0.000,0.000,0.000,0.000,0.000,0.000,0.000,0.000,0.000,0.000,3.142,6.283,0.000,1.003,1.569,1.569,4.085,6.281,1.199,4.712,0.000,0.000,0.544,-10.024,0.990,4.814,1.620,1.521,5.281,4.711,4.711,2.198,6.282,5.083,1.570,0.000,0.000,1.197,-10.091,0.990,4.814,1.613,1.528,
16.480,21.567,0.811,-10.643,1.469,-0.001,6.266,4.158,0.000,1.077,1.025,1.548,4.290,2.756,2.386,2.245,0.000,0.000,1.035,0.000,0.000,0.000,0.000,0.000,0.000,0.000,0.000,0.000,0.000,0.000,3.142,6.283,0.000,1.003,1.569,1.569,4.085,6.281,1.199,4.712,0.000,0.000,0.544,-10.024,0.990,4.814,1.620,1.521,5.281,4.711,4.711,2.198,6.282,5.083,1.570,0.000,0.000,1.197,-10.091,0.990,4.814,1.613,1.528,
16.580,21.667,0.811,-10.643,1.469,-0.001,6.266,4.158,0.000,1.077,1.025,1.548,4.290,2.756,2.386,2.245,0.000,0.000,1.035,0.000,0.000,0.000,0.000,0.000,0.000,0.000,0.000,0.000,0.000,0.000,3.142,6.283,0.000,1.003,1.569,1.569,4.085,6.281,1.199,4.712,0.000,0.000,0.544,-10.024,0.990,4.814,1.620,1.521,5.281,4.711,4.711,2.198,6.282,5.083,1.570,0.000,0.000,1.197,-10.091,0.990,4.814,1.613,1.528,
16.671,21.759,0.811,-10.643,1.469,-0.001,6.266,4.158,0.000,1.077,1.025,1.548,4.290,2.756,2.386,2.245,0.000,0.000,1.035,0.000,0.000,0.000,0.000,0.000,0.000,0.000,0.000,0.000,0.000,0.000,3.142,6.283,0.000,1.003,1.569,1.569,4.085,6.281,1.199,4.712,0.000,0.000,0.544,-10.024,0.990,4.814,1.620,1.521,5.281,4.711,4.711,2.198,6.282,5.083,1.570,0.000,0.000,1.197,-10.091,0.990,4.814,1.613,1.528,
16.780,21.867,0.811,-10.643,1.469,-0.001,6.266,4.158,0.000,1.077,1.025,1.548,4.290,2.756,2.386,2.245,0.000,0.000,1.035,0.000,0.000,0.000,0.000,0.000,0.000,0.000,0.000,0.000,0.000,0.000,3.142,6.283,0.000,1.003,1.569,1.569,4.085,6.281,1.199,4.712,0.000,0.000,0.544,-10.024,0.990,4.814,1.620,1.521,5.281,4.711,4.711,2.198,6.282,5.083,1.570,0.000,0.000,1.197,-10.091,0.990,4.814,1.613,1.528,
16.880,21.967,0.811,-10.643,1.469,-0.001,6.266,4.158,0.000,1.077,1.025,1.548,4.290,2.756,2.386,2.245,0.000,0.000,1.035,0.000,0.000,0.000,0.000,0.000,0.000,0.000,0.000,0.000,0.000,0.000,3.142,6.283,0.000,1.003,1.569,1.569,4.085,6.281,1.199,4.712,0.000,0.000,0.544,-10.024,0.990,4.814,1.620,1.521,5.281,4.711,4.711,2.198,6.282,5.083,1.570,0.000,0.000,1.197,-10.091,0.990,4.814,1.613,1.528,
16.980,22.067,0.811,-10.643,1.469,-0.001,6.266,4.158,0.000,1.077,1.025,1.548,4.290,2.756,2.386,2.245,0.000,0.000,1.035,0.000,0.000,0.000,0.000,0.000,0.000,0.000,0.000,0.000,0.000,0.000,3.142,6.283,0.000,1.003,1.569,1.569,4.085,6.281,1.199,4.712,0.000,0.000,0.544,-10.024,0.990,4.814,1.620,1.521,5.281,4.711,4.711,2.198,6.282,5.083,1.570,0.000,0.000,1.197,-10.091,0.990,4.814,1.613,1.528,
17.080,22.167,0.811,-10.643,1.469,-0.001,6.266,4.158,0.000,1.077,1.025,1.548,4.290,2.756,2.386,2.245,0.000,0.000,1.035,0.000,0.000,0.000,0.000,0.000,0.000,0.000,0.000,0.000,0.000,0.000,3.142,6.283,0.000,1.003,1.569,1.569,4.085,6.281,1.199,4.712,0.000,0.000,0.544,-10.024,0.990,4.814,1.620,1.521,5.281,4.711,4.711,2.198,6.282,5.083,1.570,0.000,0.000,1.197,-10.091,0.990,4.814,1.613,1.528,
17.166,22.254,0.811,-10.643,1.469,-0.001,6.266,4.158,0.000,1.077,1.025,1.548,4.290,2.756,2.386,2.245,0.000,0.000,1.035,0.000,0.000,0.000,0.000,0.000,0.000,0.000,0.000,0.000,0.000,0.000,3.142,6.283,0.000,1.003,1.569,1.569,4.085,6.281,1.199,4.712,0.000,0.000,0.544,-10.024,0.990,4.814,1.620,1.521,5.281,4.711,4.711,2.198,6.282,5.083,1.570,0.000,0.000,1.197,-10.091,0.990,4.814,1.613,1.528,
17.280,22.367,0.811,-10.643,1.469,-0.001,6.266,4.158,0.000,1.077,1.025,1.548,4.290,2.756,2.386,2.245,0.000,0.000,1.035,0.000,0.000,0.000,0.000,0.000,0.000,0.000,0.000,0.000,0.000,0.000,3.142,6.283,0.000,1.003,1.569,1.569,4.085,6.281,1.199,4.712,0.000,0.000,0.544,-10.024,0.990,4.814,1.620,1.521,5.281,4.711,4.711,2.198,6.282,5.083,1.570,0.000,0.000,1.197,-10.091,0.990,4.814,1.613,1.528,
17.380,22.467,0.811,-10.643,1.469,-0.001,6.266,4.158,0.000,1.077,1.025,1.548,4.290,2.756,2.386,2.245,0.000,0.000,1.035,0.000,0.000,0.000,0.000,0.000,0.000,0.000,0.000,0.000,0.000,0.000,3.142,6.283,0.000,1.003,1.569,1.569,4.085,6.281,1.199,4.712,0.000,0.000,0.544,-10.024,0.990,4.814,1.620,1.521,5.281,4.711,4.711,2.198,6.282,5.083,1.570,0.000,0.000,1.197,-10.091,0.990,4.814,1.613,1.528,
17.480,22.567,0.811,-10.643,1.469,-0.001,6.266,4.158,0.000,1.077,1.025,1.548,4.290,2.756,2.386,2.245,0.000,0.000,1.035,0.000,0.000,0.000,0.000,0.000,0.000,0.000,0.000,0.000,0.000,0.000,3.142,6.283,0.000,1.003,1.569,1.569,4.085,6.281,1.199,4.712,0.000,0.000,0.544,-10.024,0.990,4.814,1.620,1.521,5.281,4.711,4.711,2.198,6.282,5.083,1.570,0.000,0.000,1.197,-10.091,0.990,4.814,1.613,1.528,
17.580,22.667,0.811,-10.643,1.469,-0.001,6.266,4.158,0.000,1.077,1.025,1.548,4.290,2.756,2.386,2.245,0.000,0.000,1.035,0.000,0.000,0.000,0.000,0.000,0.000,0.000,0.000,0.000,0.000,0.000,3.142,6.283,0.000,1.003,1.569,1.569,4.085,6.281,1.199,4.712,0.000,0.000,0.544,-10.024,0.990,4.814,1.620,1.521,5.281,4.711,4.711,2.198,6.282,5.083,1.570,0.000,0.000,1.197,-10.091,0.990,4.814,1.613,1.528,
17.672,22.760,0.811,-10.643,1.469,-0.001,6.266,4.158,0.000,1.077,1.025,1.548,4.290,2.756,2.386,2.245,0.000,0.000,1.035,0.000,0.000,0.000,0.000,0.000,0.000,0.000,0.000,0.000,0.000,0.000,3.142,6.283,0.000,1.003,1.569,1.569,4.085,6.281,1.199,4.712,0.000,0.000,0.544,-10.024,0.990,4.814,1.620,1.521,5.281,4.711,4.711,2.198,6.282,5.083,1.570,0.000,0.000,1.197,-10.091,0.990,4.814,1.613,1.528,
17.780,22.867,0.811,-10.643,1.469,-0.001,6.266,4.158,0.000,1.077,1.025,1.548,4.290,2.756,2.386,2.245,0.000,0.000,1.035,0.000,0.000,0.000,0.000,0.000,0.000,0.000,0.000,0.000,0.000,0.000,3.142,6.283,0.000,1.003,1.569,1.569,4.085,6.281,1.199,4.712,0.000,0.000,0.544,-10.024,0.990,4.814,1.620,1.521,5.281,4.711,4.711,2.198,6.282,5.083,1.570,0.000,0.000,1.197,-10.091,0.990,4.814,1.613,1.528,
17.880,22.967,0.811,-10.643,1.469,-0.001,6.266,4.158,0.000,1.077,1.025,1.548,4.290,2.756,2.386,2.245,0.000,0.000,1.035,0.000,0.000,0.000,0.000,0.000,0.000,0.000,0.000,0.000,0.000,0.000,3.142,6.283,0.000,1.003,1.569,1.569,4.085,6.281,1.199,4.712,0.000,0.000,0.544,-10.024,0.990,4.814,1.620,1.521,5.281,4.711,4.711,2.198,6.282,5.083,1.570,0.000,0.000,1.197,-10.091,0.990,4.814,1.613,1.528,
17.980,23.067,0.811,-10.643,1.469,-0.001,6.266,4.158,0.000,1.077,1.025,1.548,4.290,2.756,2.386,2.245,0.000,0.000,1.035,0.000,0.000,0.000,0.000,0.000,0.000,0.000,0.000,0.000,0.000,0.000,3.142,6.283,0.000,1.003,1.569,1.569,4.085,6.281,1.199,4.712,0.000,0.000,0.544,-10.024,0.990,4.814,1.620,1.521,5.281,4.711,4.711,2.198,6.282,5.083,1.570,0.000,0.000,1.197,-10.091,0.990,4.814,1.613,1.528,
18.080,23.167,0.811,-10.643,1.469,-0.001,6.266,4.158,0.000,1.077,1.025,1.548,4.290,2.756,2.386,2.245,0.000,0.000,1.035,0.000,0.000,0.000,0.000,0.000,0.000,0.000,0.000,0.000,0.000,0.000,3.142,6.283,0.000,1.003,1.569,1.569,4.085,6.281,1.199,4.712,0.000,0.000,0.544,-10.024,0.990,4.814,1.620,1.521,5.281,4.711,4.711,2.198,6.282,5.083,1.570,0.000,0.000,1.197,-10.091,0.990,4.814,1.613,1.528,
18.167,23.255,0.811,-10.643,1.469,-0.001,6.266,4.158,0.000,1.077,1.025,1.548,4.290,2.756,2.386,2.245,0.000,0.000,1.035,0.000,0.000,0.000,0.000,0.000,0.000,0.000,0.000,0.000,0.000,0.000,3.142,6.283,0.000,1.003,1.569,1.569,4.085,6.281,1.199,4.712,0.000,0.000,0.544,-10.024,0.990,4.814,1.620,1.521,5.281,4.711,4.711,2.198,6.282,5.083,1.570,0.000,0.000,1.197,-10.091,0.990,4.814,1.613,1.528,
18.280,23.367,0.811,-10.643,1.469,-0.001,6.266,4.158,0.000,1.077,1.025,1.548,4.290,2.756,2.386,2.245,0.000,0.000,1.035,0.000,0.000,0.000,0.000,0.000,0.000,0.000,0.000,0.000,0.000,0.000,3.142,6.283,0.000,1.003,1.569,1.569,4.085,6.281,1.199,4.712,0.000,0.000,0.544,-10.024,0.990,4.814,1.620,1.521,5.281,4.711,4.711,2.198,6.282,5.083,1.570,0.000,0.000,1.197,-10.091,0.990,4.814,1.613,1.528,
18.380,23.467,0.811,-10.643,1.469,-0.001,6.266,4.158,0.000,1.077,1.025,1.548,4.290,2.756,2.386,2.245,0.000,0.000,1.035,0.000,0.000,0.000,0.000,0.000,0.000,0.000,0.000,0.000,0.000,0.000,3.142,6.283,0.000,1.003,1.569,1.569,4.085,6.281,1.199,4.712,0.000,0.000,0.544,-10.024,0.990,4.814,1.620,1.521,5.281,4.711,4.711,2.198,6.282,5.083,1.570,0.000,0.000,1.197,-10.091,0.990,4.814,1.613,1.528,
18.480,23.567,0.811,-10.643,1.469,-0.001,6.266,4.158,0.000,1.077,1.025,1.548,4.290,2.756,2.386,2.245,0.000,0.000,1.035,0.000,0.000,0.000,0.000,0.000,0.000,0.000,0.000,0.000,0.000,0.000,3.142,6.283,0.000,1.003,1.569,1.569,4.085,6.281,1.199,4.712,0.000,0.000,0.544,-10.024,0.990,4.814,1.620,1.521,5.281,4.711,4.711,2.198,6.282,5.083,1.570,0.000,0.000,1.197,-10.091,0.990,4.814,1.613,1.528,
18.580,23.667,0.811,-10.643,1.469,-0.001,6.266,4.158,0.000,1.077,1.025,1.548,4.290,2.756,2.386,2.245,0.000,0.000,1.035,0.000,0.000,0.000,0.000,0.000,0.000,0.000,0.000,0.000,0.000,0.000,3.142,6.283,0.000,1.003,1.569,1.569,4.085,6.281,1.199,4.712,0.000,0.000,0.544,-10.024,0.990,4.814,1.620,1.521,5.281,4.711,4.711,2.198,6.282,5.083,1.570,0.000,0.000,1.197,-10.091,0.990,4.814,1.613,1.528,
18.672,23.759,0.811,-10.643,1.469,-0.001,6.266,4.158,0.000,1.077,1.025,1.548,4.290,2.756,2.386,2.245,0.000,0.000,1.035,0.000,0.000,0.000,0.000,0.000,0.000,0.000,0.000,0.000,0.000,0.000,3.142,6.283,0.000,1.003,1.569,1.569,4.085,6.281,1.199,4.712,0.000,0.000,0.544,-10.024,0.990,4.814,1.620,1.521,5.281,4.711,4.711,2.198,6.282,5.083,1.570,0.000,0.000,1.197,-10.091,0.990,4.814,1.613,1.528,
18.780,23.867,0.811,-10.643,1.469,-0.001,6.266,4.158,0.000,1.077,1.025,1.548,4.290,2.756,2.386,2.245,0.000,0.000,1.035,0.000,0.000,0.000,0.000,0.000,0.000,0.000,0.000,0.000,0.000,0.000,3.142,6.283,0.000,1.003,1.569,1.569,4.085,6.281,1.199,4.712,0.000,0.000,0.544,-10.024,0.990,4.814,1.620,1.521,5.281,4.711,4.711,2.198,6.282,5.083,1.570,0.000,0.000,1.197,-10.091,0.990,4.814,1.613,1.528,
18.880,23.967,0.811,-10.643,1.469,-0.001,6.266,4.158,0.000,1.077,1.025,1.548,4.290,2.756,2.386,2.245,0.000,0.000,1.035,0.000,0.000,0.000,0.000,0.000,0.000,0.000,0.000,0.000,0.000,0.000,3.142,6.283,0.000,1.003,1.569,1.569,4.085,6.281,1.199,4.712,0.000,0.000,0.544,-10.024,0.990,4.814,1.620,1.521,5.281,4.711,4.711,2.198,6.282,5.083,1.570,0.000,0.000,1.197,-10.091,0.990,4.814,1.613,1.528,
18.980,24.067,0.811,-10.643,1.469,-0.001,6.266,4.158,0.000,1.077,1.025,1.548,4.290,2.756,2.386,2.245,0.000,0.000,1.035,0.000,0.000,0.000,0.000,0.000,0.000,0.000,0.000,0.000,0.000,0.000,3.142,6.283,0.000,1.003,1.569,1.569,4.085,6.281,1.199,4.712,0.000,0.000,0.544,-10.024,0.990,4.814,1.620,1.521,5.281,4.711,4.711,2.198,6.282,5.083,1.570,0.000,0.000,1.197,-10.091,0.990,4.814,1.613,1.528,
19.080,24.167,0.811,-10.643,1.469,-0.001,6.266,4.158,0.000,1.077,1.025,1.548,4.290,2.756,2.386,2.245,0.000,0.000,1.035,0.000,0.000,0.000,0.000,0.000,0.000,0.000,0.000,0.000,0.000,0.000,3.142,6.283,0.000,1.003,1.569,1.569,4.085,6.281,1.199,4.712,0.000,0.000,0.544,-10.024,0.990,4.814,1.620,1.521,5.281,4.711,4.711,2.198,6.282,5.083,1.570,0.000,0.000,1.197,-10.091,0.990,4.814,1.613,1.528,
19.178,24.266,0.811,-10.643,1.469,-0.001,6.266,4.158,0.000,1.077,1.025,1.548,4.290,2.756,2.386,2.245,0.000,0.000,1.035,0.000,0.000,0.000,0.000,0.000,0.000,0.000,0.000,0.000,0.000,0.000,3.142,6.283,0.000,1.003,1.569,1.569,4.085,6.281,1.199,4.712,0.000,0.000,0.544,-10.024,0.990,4.814,1.620,1.521,5.281,4.711,4.711,2.198,6.282,5.083,1.570,0.000,0.000,1.197,-10.091,0.990,4.814,1.613,1.528,
19.280,24.367,0.811,-10.643,1.469,-0.001,6.266,4.158,0.000,1.077,1.025,1.548,4.290,2.756,2.386,2.245,0.000,0.000,1.035,0.000,0.000,0.000,0.000,0.000,0.000,0.000,0.000,0.000,0.000,0.000,3.142,6.283,0.000,1.003,1.569,1.569,4.085,6.281,1.199,4.712,0.000,0.000,0.544,-10.024,0.990,4.814,1.620,1.521,5.281,4.711,4.711,2.198,6.282,5.083,1.570,0.000,0.000,1.197,-10.091,0.990,4.814,1.613,1.528,
19.380,24.467,0.811,-10.643,1.469,-0.001,6.266,4.158,0.000,1.077,1.025,1.548,4.290,2.756,2.386,2.245,0.000,0.000,1.035,0.000,0.000,0.000,0.000,0.000,0.000,0.000,0.000,0.000,0.000,0.000,3.142,6.283,0.000,1.003,1.569,1.569,4.085,6.281,1.199,4.712,0.000,0.000,0.544,-10.024,0.990,4.814,1.620,1.521,5.281,4.711,4.711,2.198,6.282,5.083,1.570,0.000,0.000,1.197,-10.091,0.990,4.814,1.613,1.528,
19.467,24.555,0.811,-10.643,1.469,-0.001,6.266,4.158,0.000,1.077,1.025,1.548,4.290,2.756,2.386,2.245,0.000,0.000,1.035,0.000,0.000,0.000,0.000,0.000,0.000,0.000,0.000,0.000,0.000,0.000,3.142,6.283,0.000,1.003,1.569,1.569,4.085,6.281,1.199,4.712,0.000,0.000,0.544,-10.024,0.990,4.814,1.620,1.521,5.281,4.711,4.711,2.198,6.282,5.083,1.570,0.000,0.000,1.197,-10.091,0.990,4.814,1.613,1.528,
19.580,24.667,0.811,-10.643,1.469,-0.001,6.266,4.158,0.000,1.077,1.025,1.548,4.290,2.756,2.386,2.245,0.000,0.000,1.035,0.000,0.000,0.000,0.000,0.000,0.000,0.000,0.000,0.000,0.000,0.000,3.142,6.283,0.000,1.003,1.569,1.569,4.085,6.281,1.199,4.712,0.000,0.000,0.544,-10.024,0.990,4.814,1.620,1.521,5.281,4.711,4.711,2.198,6.282,5.083,1.570,0.000,0.000,1.197,-10.091,0.990,4.814,1.613,1.528,
19.677,24.764,0.811,-10.643,1.469,-0.001,6.266,4.158,0.000,1.077,1.025,1.548,4.290,2.756,2.386,2.245,0.000,0.000,1.035,0.000,0.000,0.000,0.000,0.000,0.000,0.000,0.000,0.000,0.000,0.000,3.142,6.283,0.000,1.003,1.569,1.569,4.085,6.281,1.199,4.712,0.000,0.000,0.544,-10.024,0.990,4.814,1.620,1.521,5.281,4.711,4.711,2.198,6.282,5.083,1.570,0.000,0.000,1.197,-10.091,0.990,4.814,1.613,1.528,
19.780,24.867,0.811,-10.643,1.469,-0.001,6.266,4.158,0.000,1.077,1.025,1.548,4.290,2.756,2.386,2.245,0.000,0.000,1.035,0.000,0.000,0.000,0.000,0.000,0.000,0.000,0.000,0.000,0.000,0.000,3.142,6.283,0.000,1.003,1.569,1.569,4.085,6.281,1.199,4.712,0.000,0.000,0.544,-10.024,0.990,4.814,1.620,1.521,5.281,4.711,4.711,2.198,6.282,5.083,1.570,0.000,0.000,1.197,-10.091,0.990,4.814,1.613,1.528,
19.880,24.967,0.811,-10.643,1.469,-0.001,6.266,4.158,0.000,1.077,1.025,1.548,4.290,2.756,2.386,2.245,0.000,0.000,1.035,0.000,0.000,0.000,0.000,0.000,0.000,0.000,0.000,0.000,0.000,0.000,3.142,6.283,0.000,1.003,1.569,1.569,4.085,6.281,1.199,4.712,0.000,0.000,0.544,-10.024,0.990,4.814,1.620,1.521,5.281,4.711,4.711,2.198,6.282,5.083,1.570,0.000,0.000,1.197,-10.091,0.990,4.814,1.613,1.528,
19.980,25.067,0.811,-10.643,1.469,-0.001,6.266,4.158,0.000,1.077,1.025,1.548,4.290,2.756,2.386,2.245,0.000,0.000,1.035,0.000,0.000,0.000,0.000,0.000,0.000,0.000,0.000,0.000,0.000,0.000,3.142,6.283,0.000,1.003,1.569,1.569,4.085,6.281,1.199,4.712,0.000,0.000,0.544,-10.024,0.990,4.814,1.620,1.521,5.281,4.711,4.711,2.198,6.282,5.083,1.570,0.000,0.000,1.197,-10.091,0.990,4.814,1.613,1.528,
20.080,25.167,0.811,-10.643,1.469,-0.001,6.266,4.158,0.000,1.077,1.025,1.548,4.290,2.756,2.386,2.245,0.000,0.000,1.035,0.000,0.000,0.000,0.000,0.000,0.000,0.000,0.000,0.000,0.000,0.000,3.142,6.283,0.000,1.003,1.569,1.569,4.085,6.281,1.199,4.712,0.000,0.000,0.544,-10.024,0.990,4.814,1.620,1.521,5.281,4.711,4.711,2.198,6.282,5.083,1.570,0.000,0.000,1.197,-10.091,0.990,4.814,1.613,1.528,
20.180,25.267,0.811,-10.643,1.469,-0.001,6.266,4.158,0.000,1.077,1.025,1.548,4.290,2.756,2.386,2.245,0.000,0.000,1.035,0.000,0.000,0.000,0.000,0.000,0.000,0.000,0.000,0.000,0.000,0.000,3.142,6.283,0.000,1.003,1.569,1.569,4.085,6.281,1.199,4.712,0.000,0.000,0.544,-10.024,0.990,4.814,1.620,1.521,5.281,4.711,4.711,2.198,6.282,5.083,1.570,0.000,0.000,1.197,-10.091,0.990,4.814,1.613,1.528,
20.280,25.367,0.811,-10.643,1.469,-0.001,6.266,4.158,0.000,1.077,1.025,1.548,4.290,2.756,2.386,2.245,0.000,0.000,1.035,0.000,0.000,0.000,0.000,0.000,0.000,0.000,0.000,0.000,0.000,0.000,3.142,6.283,0.000,1.003,1.569,1.569,4.085,6.281,1.199,4.712,0.000,0.000,0.544,-10.024,0.990,4.814,1.620,1.521,5.281,4.711,4.711,2.198,6.282,5.083,1.570,0.000,0.000,1.197,-10.091,0.990,4.814,1.613,1.528,
20.380,25.467,0.811,-10.643,1.469,-0.001,6.266,4.158,0.000,1.077,1.025,1.548,4.290,2.756,2.386,2.245,0.000,0.000,1.035,0.000,0.000,0.000,0.000,0.000,0.000,0.000,0.000,0.000,0.000,0.000,3.142,6.283,0.000,1.003,1.569,1.569,4.085,6.281,1.199,4.712,0.000,0.000,0.544,-10.024,0.990,4.814,1.620,1.521,5.281,4.711,4.711,2.198,6.282,5.083,1.570,0.000,0.000,1.197,-10.091,0.990,4.814,1.613,1.528,
20.466,25.553,0.811,-10.643,1.469,-0.001,6.266,4.158,0.000,1.077,1.025,1.548,4.290,2.756,2.386,2.245,0.000,0.000,1.035,0.000,0.000,0.000,0.000,0.000,0.000,0.000,0.000,0.000,0.000,0.000,3.142,6.283,0.000,1.003,1.569,1.569,4.085,6.281,1.199,4.712,0.000,0.000,0.544,-10.024,0.990,4.814,1.620,1.521,5.281,4.711,4.711,2.198,6.282,5.083,1.570,0.000,0.000,1.197,-10.091,0.990,4.814,1.613,1.528,
20.580,25.667,0.811,-10.643,1.469,-0.001,6.266,4.158,0.000,1.077,1.025,1.548,4.290,2.756,2.386,2.245,0.000,0.000,1.035,0.000,0.000,0.000,0.000,0.000,0.000,0.000,0.000,0.000,0.000,0.000,3.142,6.283,0.000,1.003,1.569,1.569,4.085,6.281,1.199,4.712,0.000,0.000,0.544,-10.024,0.990,4.814,1.620,1.521,5.281,4.711,4.711,2.198,6.282,5.083,1.570,0.000,0.000,1.197,-10.091,0.990,4.814,1.613,1.528,
20.680,25.767,0.811,-10.643,1.469,-0.001,6.266,4.158,0.000,1.077,1.025,1.548,4.290,2.756,2.386,2.245,0.000,0.000,1.035,0.000,0.000,0.000,0.000,0.000,0.000,0.000,0.000,0.000,0.000,0.000,3.142,6.283,0.000,1.003,1.569,1.569,4.085,6.281,1.199,4.712,0.000,0.000,0.544,-10.024,0.990,4.814,1.620,1.521,5.281,4.711,4.711,2.198,6.282,5.083,1.570,0.000,0.000,1.197,-10.091,0.990,4.814,1.613,1.528,
20.780,25.867,0.811,-10.643,1.469,-0.001,6.266,4.158,0.000,1.077,1.025,1.548,4.290,2.756,2.386,2.245,0.000,0.000,1.035,0.000,0.000,0.000,0.000,0.000,0.000,0.000,0.000,0.000,0.000,0.000,3.142,6.283,0.000,1.003,1.569,1.569,4.085,6.281,1.199,4.712,0.000,0.000,0.544,-10.024,0.990,4.814,1.620,1.521,5.281,4.711,4.711,2.198,6.282,5.083,1.570,0.000,0.000,1.197,-10.091,0.990,4.814,1.613,1.528,
20.880,25.967,0.811,-10.643,1.469,-0.001,6.266,4.158,0.000,1.077,1.025,1.548,4.290,2.756,2.386,2.245,0.000,0.000,1.035,0.000,0.000,0.000,0.000,0.000,0.000,0.000,0.000,0.000,0.000,0.000,3.142,6.283,0.000,1.003,1.569,1.569,4.085,6.281,1.199,4.712,0.000,0.000,0.544,-10.024,0.990,4.814,1.620,1.521,5.281,4.711,4.711,2.198,6.282,5.083,1.570,0.000,0.000,1.197,-10.091,0.990,4.814,1.613,1.528,
20.963,26.050,0.811,-10.643,1.469,-0.001,6.266,4.158,0.000,1.077,1.025,1.548,4.290,2.756,2.386,2.245,0.000,0.000,1.035,0.000,0.000,0.000,0.000,0.000,0.000,0.000,0.000,0.000,0.000,0.000,3.142,6.283,0.000,1.003,1.569,1.569,4.085,6.281,1.199,4.712,0.000,0.000,0.544,-10.024,0.990,4.814,1.620,1.521,5.281,4.711,4.711,2.198,6.282,5.083,1.570,0.000,0.000,1.197,-10.091,0.990,4.814,1.613,1.528,
21.080,26.167,0.811,-10.643,1.469,-0.001,6.266,4.158,0.000,1.077,1.025,1.548,4.290,2.756,2.386,2.245,0.000,0.000,1.035,0.000,0.000,0.000,0.000,0.000,0.000,0.000,0.000,0.000,0.000,0.000,3.142,6.283,0.000,1.003,1.569,1.569,4.085,6.281,1.199,4.712,0.000,0.000,0.544,-10.024,0.990,4.814,1.620,1.521,5.281,4.711,4.711,2.198,6.282,5.083,1.570,0.000,0.000,1.197,-10.091,0.990,4.814,1.613,1.528,
21.177,26.264,0.811,-10.643,1.469,-0.001,6.266,4.158,0.000,1.077,1.025,1.548,4.290,2.756,2.386,2.245,0.000,0.000,1.035,0.000,0.000,0.000,0.000,0.000,0.000,0.000,0.000,0.000,0.000,0.000,3.142,6.283,0.000,1.003,1.569,1.569,4.085,6.281,1.199,4.712,0.000,0.000,0.544,-10.024,0.990,4.814,1.620,1.521,5.281,4.711,4.711,2.198,6.282,5.083,1.570,0.000,0.000,1.197,-10.091,0.990,4.814,1.613,1.528,
21.280,26.367,0.811,-10.643,1.469,-0.001,6.266,4.158,0.000,1.077,1.025,1.548,4.290,2.756,2.386,2.245,0.000,0.000,1.035,0.000,0.000,0.000,0.000,0.000,0.000,0.000,0.000,0.000,0.000,0.000,3.142,6.283,0.000,1.003,1.569,1.569,4.085,6.281,1.199,4.712,0.000,0.000,0.544,-10.024,0.990,4.814,1.620,1.521,5.281,4.711,4.711,2.198,6.282,5.083,1.570,0.000,0.000,1.197,-10.091,0.990,4.814,1.613,1.528,
21.380,26.467,0.811,-10.643,1.469,-0.001,6.266,4.158,0.000,1.077,1.025,1.548,4.290,2.756,2.386,2.245,0.000,0.000,1.035,0.000,0.000,0.000,0.000,0.000,0.000,0.000,0.000,0.000,0.000,0.000,3.142,6.283,0.000,1.003,1.569,1.569,4.085,6.281,1.199,4.712,0.000,0.000,0.544,-10.024,0.990,4.814,1.620,1.521,5.281,4.711,4.711,2.198,6.282,5.083,1.570,0.000,0.000,1.197,-10.091,0.990,4.814,1.613,1.528,
21.473,26.560,0.811,-10.643,1.469,-0.001,6.266,4.158,0.000,1.077,1.025,1.548,4.290,2.756,2.386,2.245,0.000,0.000,1.035,0.000,0.000,0.000,0.000,0.000,0.000,0.000,0.000,0.000,0.000,0.000,3.142,6.283,0.000,1.003,1.569,1.569,4.085,6.281,1.199,4.712,0.000,0.000,0.544,-10.024,0.990,4.814,1.620,1.521,5.281,4.711,4.711,2.198,6.282,5.083,1.570,0.000,0.000,1.197,-10.091,0.990,4.814,1.613,1.528,
21.580,26.667,0.811,-10.643,1.469,-0.001,6.266,4.158,0.000,1.077,1.025,1.548,4.290,2.756,2.386,2.245,0.000,0.000,1.035,0.000,0.000,0.000,0.000,0.000,0.000,0.000,0.000,0.000,0.000,0.000,3.142,6.283,0.000,1.003,1.569,1.569,4.085,6.281,1.199,4.712,0.000,0.000,0.544,-10.024,0.990,4.814,1.620,1.521,5.281,4.711,4.711,2.198,6.282,5.083,1.570,0.000,0.000,1.197,-10.091,0.990,4.814,1.613,1.528,
21.680,26.767,0.811,-10.643,1.469,-0.001,6.266,4.158,0.000,1.077,1.025,1.548,4.290,2.756,2.386,2.245,0.000,0.000,1.035,0.000,0.000,0.000,0.000,0.000,0.000,0.000,0.000,0.000,0.000,0.000,3.142,6.283,0.000,1.003,1.569,1.569,4.085,6.281,1.199,4.712,0.000,0.000,0.544,-10.024,0.990,4.814,1.620,1.521,5.281,4.711,4.711,2.198,6.282,5.083,1.570,0.000,0.000,1.197,-10.091,0.990,4.814,1.613,1.528,
21.780,26.867,0.811,-10.643,1.469,-0.001,6.266,4.158,0.000,1.077,1.025,1.548,4.290,2.756,2.386,2.245,0.000,0.000,1.035,0.000,0.000,0.000,0.000,0.000,0.000,0.000,0.000,0.000,0.000,0.000,3.142,6.283,0.000,1.003,1.569,1.569,4.085,6.281,1.199,4.712,0.000,0.000,0.544,-10.024,0.990,4.814,1.620,1.521,5.281,4.711,4.711,2.198,6.282,5.083,1.570,0.000,0.000,1.197,-10.091,0.990,4.814,1.613,1.528,
21.880,26.967,0.811,-10.643,1.469,-0.001,6.266,4.158,0.000,1.077,1.025,1.548,4.290,2.756,2.386,2.245,0.000,0.000,1.035,0.000,0.000,0.000,0.000,0.000,0.000,0.000,0.000,0.000,0.000,0.000,3.142,6.283,0.000,1.003,1.569,1.569,4.085,6.281,1.199,4.712,0.000,0.000,0.544,-10.024,0.990,4.814,1.620,1.521,5.281,4.711,4.711,2.198,6.282,5.083,1.570,0.000,0.000,1.197,-10.091,0.990,4.814,1.613,1.528,
21.968,27.056,0.811,-10.643,1.469,-0.001,6.266,4.158,0.000,1.077,1.025,1.548,4.290,2.756,2.386,2.245,0.000,0.000,1.035,0.000,0.000,0.000,0.000,0.000,0.000,0.000,0.000,0.000,0.000,0.000,3.142,6.283,0.000,1.003,1.569,1.569,4.085,6.281,1.199,4.712,0.000,0.000,0.544,-10.024,0.990,4.814,1.620,1.521,5.281,4.711,4.711,2.198,6.282,5.083,1.570,0.000,0.000,1.197,-10.091,0.990,4.814,1.613,1.528,
22.080,27.167,0.811,-10.643,1.469,-0.001,6.266,4.158,0.000,1.077,1.025,1.548,4.290,2.756,2.386,2.245,0.000,0.000,1.035,0.000,0.000,0.000,0.000,0.000,0.000,0.000,0.000,0.000,0.000,0.000,3.142,6.283,0.000,1.003,1.569,1.569,4.085,6.281,1.199,4.712,0.000,0.000,0.544,-10.024,0.990,4.814,1.620,1.521,5.281,4.711,4.711,2.198,6.282,5.083,1.570,0.000,0.000,1.197,-10.091,0.990,4.814,1.613,1.528,
22.180,27.267,0.811,-10.643,1.469,-0.001,6.266,4.158,0.000,1.077,1.025,1.548,4.290,2.756,2.386,2.245,0.000,0.000,1.035,0.000,0.000,0.000,0.000,0.000,0.000,0.000,0.000,0.000,0.000,0.000,3.142,6.283,0.000,1.003,1.569,1.569,4.085,6.281,1.199,4.712,0.000,0.000,0.544,-10.024,0.990,4.814,1.620,1.521,5.281,4.711,4.711,2.198,6.282,5.083,1.570,0.000,0.000,1.197,-10.091,0.990,4.814,1.613,1.528,
22.261,27.348,0.811,-10.643,1.469,-0.001,6.266,4.158,0.000,1.077,1.025,1.548,4.290,2.756,2.386,2.245,0.000,0.000,1.035,0.000,0.000,0.000,0.000,0.000,0.000,0.000,0.000,0.000,0.000,0.000,3.142,6.283,0.000,1.003,1.569,1.569,4.085,6.281,1.199,4.712,0.000,0.000,0.544,-10.024,0.990,4.814,1.620,1.521,5.281,4.711,4.711,2.198,6.282,5.083,1.570,0.000,0.000,1.197,-10.091,0.990,4.814,1.613,1.528,
22.380,27.467,0.811,-10.643,1.469,-0.001,6.266,4.158,0.000,1.077,1.025,1.548,4.290,2.756,2.386,2.245,0.000,0.000,1.035,0.000,0.000,0.000,0.000,0.000,0.000,0.000,0.000,0.000,0.000,0.000,3.142,6.283,0.000,1.003,1.569,1.569,4.085,6.281,1.199,4.712,0.000,0.000,0.544,-10.024,0.990,4.814,1.620,1.521,5.281,4.711,4.711,2.198,6.282,5.083,1.570,0.000,0.000,1.197,-10.091,0.990,4.814,1.613,1.528,
22.477,27.564,0.811,-10.643,1.469,-0.001,6.266,4.158,0.000,1.077,1.025,1.548,4.290,2.756,2.386,2.245,0.000,0.000,1.035,0.000,0.000,0.000,0.000,0.000,0.000,0.000,0.000,0.000,0.000,0.000,3.142,6.283,0.000,1.003,1.569,1.569,4.085,6.281,1.199,4.712,0.000,0.000,0.544,-10.024,0.990,4.814,1.620,1.521,5.281,4.711,4.711,2.198,6.282,5.083,1.570,0.000,0.000,1.197,-10.091,0.990,4.814,1.613,1.528,
22.580,27.667,0.811,-10.643,1.469,-0.001,6.266,4.158,0.000,1.077,1.025,1.548,4.290,2.756,2.386,2.245,0.000,0.000,1.035,0.000,0.000,0.000,0.000,0.000,0.000,0.000,0.000,0.000,0.000,0.000,3.142,6.283,0.000,1.003,1.569,1.569,4.085,6.281,1.199,4.712,0.000,0.000,0.544,-10.024,0.990,4.814,1.620,1.521,5.281,4.711,4.711,2.198,6.282,5.083,1.570,0.000,0.000,1.197,-10.091,0.990,4.814,1.613,1.528,
22.680,27.767,0.811,-10.643,1.469,-0.001,6.266,4.158,0.000,1.077,1.025,1.548,4.290,2.756,2.386,2.245,0.000,0.000,1.035,0.000,0.000,0.000,0.000,0.000,0.000,0.000,0.000,0.000,0.000,0.000,3.142,6.283,0.000,1.003,1.569,1.569,4.085,6.281,1.199,4.712,0.000,0.000,0.544,-10.024,0.990,4.814,1.620,1.521,5.281,4.711,4.711,2.198,6.282,5.083,1.570,0.000,0.000,1.197,-10.091,0.990,4.814,1.613,1.528,
22.780,27.867,0.811,-10.643,1.469,-0.001,6.266,4.158,0.000,1.077,1.025,1.548,4.290,2.756,2.386,2.245,0.000,0.000,1.035,0.000,0.000,0.000,0.000,0.000,0.000,0.000,0.000,0.000,0.000,0.000,3.142,6.283,0.000,1.003,1.569,1.569,4.085,6.281,1.199,4.712,0.000,0.000,0.544,-10.024,0.990,4.814,1.620,1.521,5.281,4.711,4.711,2.198,6.282,5.083,1.570,0.000,0.000,1.197,-10.091,0.990,4.814,1.613,1.528,
22.880,27.967,0.811,-10.643,1.469,-0.001,6.266,4.158,0.000,1.077,1.025,1.548,4.290,2.756,2.386,2.245,0.000,0.000,1.035,0.000,0.000,0.000,0.000,0.000,0.000,0.000,0.000,0.000,0.000,0.000,3.142,6.283,0.000,1.003,1.569,1.569,4.085,6.281,1.199,4.712,0.000,0.000,0.544,-10.024,0.990,4.814,1.620,1.521,5.281,4.711,4.711,2.198,6.282,5.083,1.570,0.000,0.000,1.197,-10.091,0.990,4.814,1.613,1.528,
22.980,28.067,0.811,-10.643,1.469,-0.001,6.266,4.158,0.000,1.077,1.025,1.548,4.290,2.756,2.386,2.245,0.000,0.000,1.035,0.000,0.000,0.000,0.000,0.000,0.000,0.000,0.000,0.000,0.000,0.000,3.142,6.283,0.000,1.003,1.569,1.569,4.085,6.281,1.199,4.712,0.000,0.000,0.544,-10.024,0.990,4.814,1.620,1.521,5.281,4.711,4.711,2.198,6.282,5.083,1.570,0.000,0.000,1.197,-10.091,0.990,4.814,1.613,1.528,
23.080,28.167,0.811,-10.643,1.469,-0.001,6.266,4.158,0.000,1.077,1.025,1.548,4.290,2.756,2.386,2.245,0.000,0.000,1.035,0.000,0.000,0.000,0.000,0.000,0.000,0.000,0.000,0.000,0.000,0.000,3.142,6.283,0.000,1.003,1.569,1.569,4.085,6.281,1.199,4.712,0.000,0.000,0.544,-10.024,0.990,4.814,1.620,1.521,5.281,4.711,4.711,2.198,6.282,5.083,1.570,0.000,0.000,1.197,-10.091,0.990,4.814,1.613,1.528,
23.180,28.267,0.811,-10.643,1.469,-0.001,6.266,4.158,0.000,1.077,1.025,1.548,4.290,2.756,2.386,2.245,0.000,0.000,1.035,0.000,0.000,0.000,0.000,0.000,0.000,0.000,0.000,0.000,0.000,0.000,3.142,6.283,0.000,1.003,1.569,1.569,4.085,6.281,1.199,4.712,0.000,0.000,0.544,-10.024,0.990,4.814,1.620,1.521,5.281,4.711,4.711,2.198,6.282,5.083,1.570,0.000,0.000,1.197,-10.091,0.990,4.814,1.613,1.528,
23.278,28.366,0.811,-10.643,1.469,-0.001,6.266,4.158,0.000,1.077,1.025,1.548,4.290,2.756,2.386,2.245,0.000,0.000,1.035,0.000,0.000,0.000,0.000,0.000,0.000,0.000,0.000,0.000,0.000,0.000,3.142,6.283,0.000,1.003,1.569,1.569,4.085,6.281,1.199,4.712,0.000,0.000,0.544,-10.024,0.990,4.814,1.620,1.521,5.281,4.711,4.711,2.198,6.282,5.083,1.570,0.000,0.000,1.197,-10.091,0.990,4.814,1.613,1.528,
23.380,28.467,0.811,-10.643,1.469,-0.001,6.266,4.158,0.000,1.077,1.025,1.548,4.290,2.756,2.386,2.245,0.000,0.000,1.035,0.000,0.000,0.000,0.000,0.000,0.000,0.000,0.000,0.000,0.000,0.000,3.142,6.283,0.000,1.003,1.569,1.569,4.085,6.281,1.199,4.712,0.000,0.000,0.544,-10.024,0.990,4.814,1.620,1.521,5.281,4.711,4.711,2.198,6.282,5.083,1.570,0.000,0.000,1.197,-10.091,0.990,4.814,1.613,1.528,
23.480,28.567,0.811,-10.643,1.469,-0.001,6.266,4.158,0.000,1.077,1.025,1.548,4.290,2.756,2.386,2.245,0.000,0.000,1.035,0.000,0.000,0.000,0.000,0.000,0.000,0.000,0.000,0.000,0.000,0.000,3.142,6.283,0.000,1.003,1.569,1.569,4.085,6.281,1.199,4.712,0.000,0.000,0.544,-10.024,0.990,4.814,1.620,1.521,5.281,4.711,4.711,2.198,6.282,5.083,1.570,0.000,0.000,1.197,-10.091,0.990,4.814,1.613,1.528,
23.560,28.647,0.811,-10.643,1.469,-0.001,6.266,4.158,0.000,1.077,1.025,1.548,4.290,2.756,2.386,2.245,0.000,0.000,1.035,0.000,0.000,0.000,0.000,0.000,0.000,0.000,0.000,0.000,0.000,0.000,3.142,6.283,0.000,1.003,1.569,1.569,4.085,6.281,1.199,4.712,0.000,0.000,0.544,-10.024,0.990,4.814,1.620,1.521,5.281,4.711,4.711,2.198,6.282,5.083,1.570,0.000,0.000,1.197,-10.091,0.990,4.814,1.613,1.528,
23.680,28.767,0.811,-10.643,1.469,-0.001,6.266,4.158,0.000,1.077,1.025,1.548,4.290,2.756,2.386,2.245,0.000,0.000,1.035,0.000,0.000,0.000,0.000,0.000,0.000,0.000,0.000,0.000,0.000,0.000,3.142,6.283,0.000,1.003,1.569,1.569,4.085,6.281,1.199,4.712,0.000,0.000,0.544,-10.024,0.990,4.814,1.620,1.521,5.281,4.711,4.711,2.198,6.282,5.083,1.570,0.000,0.000,1.197,-10.091,0.990,4.814,1.613,1.528,
23.774,28.862,0.811,-10.643,1.469,-0.001,6.266,4.158,0.000,1.077,1.025,1.548,4.290,2.756,2.386,2.245,0.000,0.000,1.035,0.000,0.000,0.000,0.000,0.000,0.000,0.000,0.000,0.000,0.000,0.000,3.142,6.283,0.000,1.003,1.569,1.569,4.085,6.281,1.199,4.712,0.000,0.000,0.544,-10.024,0.990,4.814,1.620,1.521,5.281,4.711,4.711,2.198,6.282,5.083,1.570,0.000,0.000,1.197,-10.091,0.990,4.814,1.613,1.528,
23.880,28.967,0.811,-10.643,1.469,-0.001,6.266,4.158,0.000,1.077,1.025,1.548,4.290,2.756,2.386,2.245,0.000,0.000,1.035,0.000,0.000,0.000,0.000,0.000,0.000,0.000,0.000,0.000,0.000,0.000,3.142,6.283,0.000,1.003,1.569,1.569,4.085,6.281,1.199,4.712,0.000,0.000,0.544,-10.024,0.990,4.814,1.620,1.521,5.281,4.711,4.711,2.198,6.282,5.083,1.570,0.000,0.000,1.197,-10.091,0.990,4.814,1.613,1.528,
23.980,29.067,0.811,-10.643,1.469,-0.001,6.266,4.158,0.000,1.077,1.025,1.548,4.290,2.756,2.386,2.245,0.000,0.000,1.035,0.000,0.000,0.000,0.000,0.000,0.000,0.000,0.000,0.000,0.000,0.000,3.142,6.283,0.000,1.003,1.569,1.569,4.085,6.281,1.199,4.712,0.000,0.000,0.544,-10.024,0.990,4.814,1.620,1.521,5.281,4.711,4.711,2.198,6.282,5.083,1.570,0.000,0.000,1.197,-10.091,0.990,4.814,1.613,1.528,
24.067,29.155,0.811,-10.643,1.469,-0.001,6.266,4.158,0.000,1.077,1.025,1.548,4.290,2.756,2.386,2.245,0.000,0.000,1.035,0.000,0.000,0.000,0.000,0.000,0.000,0.000,0.000,0.000,0.000,0.000,3.142,6.283,0.000,1.003,1.569,1.569,4.085,6.281,1.199,4.712,0.000,0.000,0.544,-10.024,0.990,4.814,1.620,1.521,5.281,4.711,4.711,2.198,6.282,5.083,1.570,0.000,0.000,1.197,-10.091,0.990,4.814,1.613,1.528,
24.180,29.267,0.811,-10.643,1.469,-0.001,6.266,4.158,0.000,1.077,1.025,1.548,4.290,2.756,2.386,2.245,0.000,0.000,1.035,0.000,0.000,0.000,0.000,0.000,0.000,0.000,0.000,0.000,0.000,0.000,3.142,6.283,0.000,1.003,1.569,1.569,4.085,6.281,1.199,4.712,0.000,0.000,0.544,-10.024,0.990,4.814,1.620,1.521,5.281,4.711,4.711,2.198,6.282,5.083,1.570,0.000,0.000,1.197,-10.091,0.990,4.814,1.613,1.528,
24.280,29.367,0.811,-10.643,1.469,-0.001,6.266,4.158,0.000,1.077,1.025,1.548,4.290,2.756,2.386,2.245,0.000,0.000,1.035,0.000,0.000,0.000,0.000,0.000,0.000,0.000,0.000,0.000,0.000,0.000,3.142,6.283,0.000,1.003,1.569,1.569,4.085,6.281,1.199,4.712,0.000,0.000,0.544,-10.024,0.990,4.814,1.620,1.521,5.281,4.711,4.711,2.198,6.282,5.083,1.570,0.000,0.000,1.197,-10.091,0.990,4.814,1.613,1.528,
24.380,29.467,0.811,-10.643,1.469,-0.001,6.266,4.158,0.000,1.077,1.025,1.548,4.290,2.756,2.386,2.245,0.000,0.000,1.035,0.000,0.000,0.000,0.000,0.000,0.000,0.000,0.000,0.000,0.000,0.000,3.142,6.283,0.000,1.003,1.569,1.569,4.085,6.281,1.199,4.712,0.000,0.000,0.544,-10.024,0.990,4.814,1.620,1.521,5.281,4.711,4.711,2.198,6.282,5.083,1.570,0.000,0.000,1.197,-10.091,0.990,4.814,1.613,1.528,
24.480,29.567,0.811,-10.643,1.469,-0.001,6.266,4.158,0.000,1.077,1.025,1.548,4.290,2.756,2.386,2.245,0.000,0.000,1.035,0.000,0.000,0.000,0.000,0.000,0.000,0.000,0.000,0.000,0.000,0.000,3.142,6.283,0.000,1.003,1.569,1.569,4.085,6.281,1.199,4.712,0.000,0.000,0.544,-10.024,0.990,4.814,1.620,1.521,5.281,4.711,4.711,2.198,6.282,5.083,1.570,0.000,0.000,1.197,-10.091,0.990,4.814,1.613,1.528,
24.564,29.652,0.811,-10.643,1.469,-0.001,6.266,4.158,0.000,1.077,1.025,1.548,4.290,2.756,2.386,2.245,0.000,0.000,1.035,0.000,0.000,0.000,0.000,0.000,0.000,0.000,0.000,0.000,0.000,0.000,3.142,6.283,0.000,1.003,1.569,1.569,4.085,6.281,1.199,4.712,0.000,0.000,0.544,-10.024,0.990,4.814,1.620,1.521,5.281,4.711,4.711,2.198,6.282,5.083,1.570,0.000,0.000,1.197,-10.091,0.990,4.814,1.613,1.528,
24.680,29.767,0.811,-10.643,1.469,-0.001,6.266,4.158,0.000,1.077,1.025,1.548,4.290,2.756,2.386,2.245,0.000,0.000,1.035,0.000,0.000,0.000,0.000,0.000,0.000,0.000,0.000,0.000,0.000,0.000,3.142,6.283,0.000,1.003,1.569,1.569,4.085,6.281,1.199,4.712,0.000,0.000,0.544,-10.024,0.990,4.814,1.620,1.521,5.281,4.711,4.711,2.198,6.282,5.083,1.570,0.000,0.000,1.197,-10.091,0.990,4.814,1.613,1.528,
24.780,29.867,0.811,-10.643,1.469,-0.001,6.266,4.158,0.000,1.077,1.025,1.548,4.290,2.756,2.386,2.245,0.000,0.000,1.035,0.000,0.000,0.000,0.000,0.000,0.000,0.000,0.000,0.000,0.000,0.000,3.142,6.283,0.000,1.003,1.569,1.569,4.085,6.281,1.199,4.712,0.000,0.000,0.544,-10.024,0.990,4.814,1.620,1.521,5.281,4.711,4.711,2.198,6.282,5.083,1.570,0.000,0.000,1.197,-10.091,0.990,4.814,1.613,1.528,
24.880,29.967,0.811,-10.643,1.469,-0.001,6.266,4.158,0.000,1.077,1.025,1.548,4.290,2.756,2.386,2.245,0.000,0.000,1.035,0.000,0.000,0.000,0.000,0.000,0.000,0.000,0.000,0.000,0.000,0.000,3.142,6.283,0.000,1.003,1.569,1.569,4.085,6.281,1.199,4.712,0.000,0.000,0.544,-10.024,0.990,4.814,1.620,1.521,5.281,4.711,4.711,2.198,6.282,5.083,1.570,0.000,0.000,1.197,-10.091,0.990,4.814,1.613,1.528,
24.980,30.067,0.811,-10.643,1.469,-0.001,6.266,4.158,0.000,1.077,1.025,1.548,4.290,2.756,2.386,2.245,0.000,0.000,1.035,0.000,0.000,0.000,0.000,0.000,0.000,0.000,0.000,0.000,0.000,0.000,3.142,6.283,0.000,1.003,1.569,1.569,4.085,6.281,1.199,4.712,0.000,0.000,0.544,-10.024,0.990,4.814,1.620,1.521,5.281,4.711,4.711,2.198,6.282,5.083,1.570,0.000,0.000,1.197,-10.091,0.990,4.814,1.613,1.528,
25.072,30.159,0.811,-10.643,1.469,-0.001,6.266,4.158,0.000,1.077,1.025,1.548,4.290,2.756,2.386,2.245,0.000,0.000,1.035,0.000,0.000,0.000,0.000,0.000,0.000,0.000,0.000,0.000,0.000,0.000,3.142,6.283,0.000,1.003,1.569,1.569,4.085,6.281,1.199,4.712,0.000,0.000,0.544,-10.024,0.990,4.814,1.620,1.521,5.281,4.711,4.711,2.198,6.282,5.083,1.570,0.000,0.000,1.197,-10.091,0.990,4.814,1.613,1.528,
25.180,30.267,0.811,-10.643,1.469,-0.001,6.266,4.158,0.000,1.077,1.025,1.548,4.290,2.756,2.386,2.245,0.000,0.000,1.035,0.000,0.000,0.000,0.000,0.000,0.000,0.000,0.000,0.000,0.000,0.000,3.142,6.283,0.000,1.003,1.569,1.569,4.085,6.281,1.199,4.712,0.000,0.000,0.544,-10.024,0.990,4.814,1.620,1.521,5.281,4.711,4.711,2.198,6.282,5.083,1.570,0.000,0.000,1.197,-10.091,0.990,4.814,1.613,1.528,
25.280,30.367,0.811,-10.643,1.469,-0.001,6.266,4.158,0.000,1.077,1.025,1.548,4.290,2.756,2.386,2.245,0.000,0.000,1.035,0.000,0.000,0.000,0.000,0.000,0.000,0.000,0.000,0.000,0.000,0.000,3.142,6.283,0.000,1.003,1.569,1.569,4.085,6.281,1.199,4.712,0.000,0.000,0.544,-10.024,0.990,4.814,1.620,1.521,5.281,4.711,4.711,2.198,6.282,5.083,1.570,0.000,0.000,1.197,-10.091,0.990,4.814,1.613,1.528,
25.380,30.467,0.811,-10.643,1.469,-0.001,6.266,4.158,0.000,1.077,1.025,1.548,4.290,2.756,2.386,2.245,0.000,0.000,1.035,0.000,0.000,0.000,0.000,0.000,0.000,0.000,0.000,0.000,0.000,0.000,3.142,6.283,0.000,1.003,1.569,1.569,4.085,6.281,1.199,4.712,0.000,0.000,0.544,-10.024,0.990,4.814,1.620,1.521,5.281,4.711,4.711,2.198,6.282,5.083,1.570,0.000,0.000,1.197,-10.091,0.990,4.814,1.613,1.528,
25.480,30.567,0.811,-10.643,1.469,-0.001,6.266,4.158,0.000,1.077,1.025,1.548,4.290,2.756,2.386,2.245,0.000,0.000,1.035,0.000,0.000,0.000,0.000,0.000,0.000,0.000,0.000,0.000,0.000,0.000,3.142,6.283,0.000,1.003,1.569,1.569,4.085,6.281,1.199,4.712,0.000,0.000,0.544,-10.024,0.990,4.814,1.620,1.521,5.281,4.711,4.711,2.198,6.282,5.083,1.570,0.000,0.000,1.197,-10.091,0.990,4.814,1.613,1.528,
25.568,30.655,0.811,-10.643,1.469,-0.001,6.266,4.158,0.000,1.077,1.025,1.548,4.290,2.756,2.386,2.245,0.000,0.000,1.035,0.000,0.000,0.000,0.000,0.000,0.000,0.000,0.000,0.000,0.000,0.000,3.142,6.283,0.000,1.003,1.569,1.569,4.085,6.281,1.199,4.712,0.000,0.000,0.544,-10.024,0.990,4.814,1.620,1.521,5.281,4.711,4.711,2.198,6.282,5.083,1.570,0.000,0.000,1.197,-10.091,0.990,4.814,1.613,1.528,
25.680,30.767,0.811,-10.643,1.469,-0.001,6.266,4.158,0.000,1.077,1.025,1.548,4.290,2.756,2.386,2.245,0.000,0.000,1.035,0.000,0.000,0.000,0.000,0.000,0.000,0.000,0.000,0.000,0.000,0.000,3.142,6.283,0.000,1.003,1.569,1.569,4.085,6.281,1.199,4.712,0.000,0.000,0.544,-10.024,0.990,4.814,1.620,1.521,5.281,4.711,4.711,2.198,6.282,5.083,1.570,0.000,0.000,1.197,-10.091,0.990,4.814,1.613,1.528,
25.780,30.867,0.811,-10.643,1.469,-0.001,6.266,4.158,0.000,1.077,1.025,1.548,4.290,2.756,2.386,2.245,0.000,0.000,1.035,0.000,0.000,0.000,0.000,0.000,0.000,0.000,0.000,0.000,0.000,0.000,3.142,6.283,0.000,1.003,1.569,1.569,4.085,6.281,1.199,4.712,0.000,0.000,0.544,-10.024,0.990,4.814,1.620,1.521,5.281,4.711,4.711,2.198,6.282,5.083,1.570,0.000,0.000,1.197,-10.091,0.990,4.814,1.613,1.528,
25.862,30.949,0.811,-10.643,1.469,-0.001,6.266,4.158,0.000,1.077,1.025,1.548,4.290,2.756,2.386,2.245,0.000,0.000,1.035,0.000,0.000,0.000,0.000,0.000,0.000,0.000,0.000,0.000,0.000,0.000,3.142,6.283,0.000,1.003,1.569,1.569,4.085,6.281,1.199,4.712,0.000,0.000,0.544,-10.024,0.990,4.814,1.620,1.521,5.281,4.711,4.711,2.198,6.282,5.083,1.570,0.000,0.000,1.197,-10.091,0.990,4.814,1.613,1.528,
25.980,31.067,0.811,-10.643,1.469,-0.001,6.266,4.158,0.000,1.077,1.025,1.548,4.290,2.756,2.386,2.245,0.000,0.000,1.035,0.000,0.000,0.000,0.000,0.000,0.000,0.000,0.000,0.000,0.000,0.000,3.142,6.283,0.000,1.003,1.569,1.569,4.085,6.281,1.199,4.712,0.000,0.000,0.544,-10.024,0.990,4.814,1.620,1.521,5.281,4.711,4.711,2.198,6.282,5.083,1.570,0.000,0.000,1.197,-10.091,0.990,4.814,1.613,1.528,
26.080,31.167,0.811,-10.643,1.469,-0.001,6.266,4.158,0.000,1.077,1.025,1.548,4.290,2.756,2.386,2.245,0.000,0.000,1.035,0.000,0.000,0.000,0.000,0.000,0.000,0.000,0.000,0.000,0.000,0.000,3.142,6.283,0.000,1.003,1.569,1.569,4.085,6.281,1.199,4.712,0.000,0.000,0.544,-10.024,0.990,4.814,1.620,1.521,5.281,4.711,4.711,2.198,6.282,5.083,1.570,0.000,0.000,1.197,-10.091,0.990,4.814,1.613,1.528,
26.180,31.267,0.811,-10.643,1.469,-0.001,6.266,4.158,0.000,1.077,1.025,1.548,4.290,2.756,2.386,2.245,0.000,0.000,1.035,0.000,0.000,0.000,0.000,0.000,0.000,0.000,0.000,0.000,0.000,0.000,3.142,6.283,0.000,1.003,1.569,1.569,4.085,6.281,1.199,4.712,0.000,0.000,0.544,-10.024,0.990,4.814,1.620,1.521,5.281,4.711,4.711,2.198,6.282,5.083,1.570,0.000,0.000,1.197,-10.091,0.990,4.814,1.613,1.528,
26.280,31.367,0.811,-10.643,1.469,-0.001,6.266,4.158,0.000,1.077,1.025,1.548,4.290,2.756,2.386,2.245,0.000,0.000,1.035,0.000,0.000,0.000,0.000,0.000,0.000,0.000,0.000,0.000,0.000,0.000,3.142,6.283,0.000,1.003,1.569,1.569,4.085,6.281,1.199,4.712,0.000,0.000,0.544,-10.024,0.990,4.814,1.620,1.521,5.281,4.711,4.711,2.198,6.282,5.083,1.570,0.000,0.000,1.197,-10.091,0.990,4.814,1.613,1.528,
26.380,31.467,0.811,-10.643,1.469,-0.001,6.266,4.158,0.000,1.077,1.025,1.548,4.290,2.756,2.386,2.245,0.000,0.000,1.035,0.000,0.000,0.000,0.000,0.000,0.000,0.000,0.000,0.000,0.000,0.000,3.142,6.283,0.000,1.003,1.569,1.569,4.085,6.281,1.199,4.712,0.000,0.000,0.544,-10.024,0.990,4.814,1.620,1.521,5.281,4.711,4.711,2.198,6.282,5.083,1.570,0.000,0.000,1.197,-10.091,0.990,4.814,1.613,1.528,
26.480,31.567,0.811,-10.643,1.469,-0.001,6.266,4.158,0.000,1.077,1.025,1.548,4.290,2.756,2.386,2.245,0.000,0.000,1.035,0.000,0.000,0.000,0.000,0.000,0.000,0.000,0.000,0.000,0.000,0.000,3.142,6.283,0.000,1.003,1.569,1.569,4.085,6.281,1.199,4.712,0.000,0.000,0.544,-10.024,0.990,4.814,1.620,1.521,5.281,4.711,4.711,2.198,6.282,5.083,1.570,0.000,0.000,1.197,-10.091,0.990,4.814,1.613,1.528,
26.572,31.660,0.811,-10.643,1.469,-0.001,6.266,4.158,0.000,1.077,1.025,1.548,4.290,2.756,2.386,2.245,0.000,0.000,1.035,0.000,0.000,0.000,0.000,0.000,0.000,0.000,0.000,0.000,0.000,0.000,3.142,6.283,0.000,1.003,1.569,1.569,4.085,6.281,1.199,4.712,0.000,0.000,0.544,-10.024,0.990,4.814,1.620,1.521,5.281,4.711,4.711,2.198,6.282,5.083,1.570,0.000,0.000,1.197,-10.091,0.990,4.814,1.613,1.528,
26.680,31.767,0.811,-10.643,1.469,-0.001,6.266,4.158,0.000,1.077,1.025,1.548,4.290,2.756,2.386,2.245,0.000,0.000,1.035,0.000,0.000,0.000,0.000,0.000,0.000,0.000,0.000,0.000,0.000,0.000,3.142,6.283,0.000,1.003,1.569,1.569,4.085,6.281,1.199,4.712,0.000,0.000,0.544,-10.024,0.990,4.814,1.620,1.521,5.281,4.711,4.711,2.198,6.282,5.083,1.570,0.000,0.000,1.197,-10.091,0.990,4.814,1.613,1.528,
26.780,31.867,0.811,-10.643,1.469,-0.001,6.266,4.158,0.000,1.077,1.025,1.548,4.290,2.756,2.386,2.245,0.000,0.000,1.035,0.000,0.000,0.000,0.000,0.000,0.000,0.000,0.000,0.000,0.000,0.000,3.142,6.283,0.000,1.003,1.569,1.569,4.085,6.281,1.199,4.712,0.000,0.000,0.544,-10.024,0.990,4.814,1.620,1.521,5.281,4.711,4.711,2.198,6.282,5.083,1.570,0.000,0.000,1.197,-10.091,0.990,4.814,1.613,1.528,
26.863,31.950,0.811,-10.643,1.469,-0.001,6.266,4.158,0.000,1.077,1.025,1.548,4.290,2.756,2.386,2.245,0.000,0.000,1.035,0.000,0.000,0.000,0.000,0.000,0.000,0.000,0.000,0.000,0.000,0.000,3.142,6.283,0.000,1.003,1.569,1.569,4.085,6.281,1.199,4.712,0.000,0.000,0.544,-10.024,0.990,4.814,1.620,1.521,5.281,4.711,4.711,2.198,6.282,5.083,1.570,0.000,0.000,1.197,-10.091,0.990,4.814,1.613,1.528,
26.980,32.067,0.811,-10.643,1.469,-0.001,6.266,4.158,0.000,1.077,1.025,1.548,4.290,2.756,2.386,2.245,0.000,0.000,1.035,0.000,0.000,0.000,0.000,0.000,0.000,0.000,0.000,0.000,0.000,0.000,3.142,6.283,0.000,1.003,1.569,1.569,4.085,6.281,1.199,4.712,0.000,0.000,0.544,-10.024,0.990,4.814,1.620,1.521,5.281,4.711,4.711,2.198,6.282,5.083,1.570,0.000,0.000,1.197,-10.091,0.990,4.814,1.613,1.528,
27.076,32.164,0.811,-10.643,1.469,-0.001,6.266,4.158,0.000,1.077,1.025,1.548,4.290,2.756,2.386,2.245,0.000,0.000,1.035,0.000,0.000,0.000,0.000,0.000,0.000,0.000,0.000,0.000,0.000,0.000,3.142,6.283,0.000,1.003,1.569,1.569,4.085,6.281,1.199,4.712,0.000,0.000,0.544,-10.024,0.990,4.814,1.620,1.521,5.281,4.711,4.711,2.198,6.282,5.083,1.570,0.000,0.000,1.197,-10.091,0.990,4.814,1.613,1.528,
27.180,32.267,0.811,-10.643,1.469,-0.001,6.266,4.158,0.000,1.077,1.025,1.548,4.290,2.756,2.386,2.245,0.000,0.000,1.035,0.000,0.000,0.000,0.000,0.000,0.000,0.000,0.000,0.000,0.000,0.000,3.142,6.283,0.000,1.003,1.569,1.569,4.085,6.281,1.199,4.712,0.000,0.000,0.544,-10.024,0.990,4.814,1.620,1.521,5.281,4.711,4.711,2.198,6.282,5.083,1.570,0.000,0.000,1.197,-10.091,0.990,4.814,1.613,1.528,
27.280,32.367,0.811,-10.643,1.469,-0.001,6.266,4.158,0.000,1.077,1.025,1.548,4.290,2.756,2.386,2.245,0.000,0.000,1.035,0.000,0.000,0.000,0.000,0.000,0.000,0.000,0.000,0.000,0.000,0.000,3.142,6.283,0.000,1.003,1.569,1.569,4.085,6.281,1.199,4.712,0.000,0.000,0.544,-10.024,0.990,4.814,1.620,1.521,5.281,4.711,4.711,2.198,6.282,5.083,1.570,0.000,0.000,1.197,-10.091,0.990,4.814,1.613,1.528,
27.380,32.467,0.811,-10.643,1.469,-0.001,6.266,4.158,0.000,1.077,1.025,1.548,4.290,2.756,2.386,2.245,0.000,0.000,1.035,0.000,0.000,0.000,0.000,0.000,0.000,0.000,0.000,0.000,0.000,0.000,3.142,6.283,0.000,1.003,1.569,1.569,4.085,6.281,1.199,4.712,0.000,0.000,0.544,-10.024,0.990,4.814,1.620,1.521,5.281,4.711,4.711,2.198,6.282,5.083,1.570,0.000,0.000,1.197,-10.091,0.990,4.814,1.613,1.528,
27.480,32.567,0.811,-10.643,1.469,-0.001,6.266,4.158,0.000,1.077,1.025,1.548,4.290,2.756,2.386,2.245,0.000,0.000,1.035,0.000,0.000,0.000,0.000,0.000,0.000,0.000,0.000,0.000,0.000,0.000,3.142,6.283,0.000,1.003,1.569,1.569,4.085,6.281,1.199,4.712,0.000,0.000,0.544,-10.024,0.990,4.814,1.620,1.521,5.281,4.711,4.711,2.198,6.282,5.083,1.570,0.000,0.000,1.197,-10.091,0.990,4.814,1.613,1.528,
27.580,32.667,0.811,-10.643,1.469,-0.001,6.266,4.158,0.000,1.077,1.025,1.548,4.290,2.756,2.386,2.245,0.000,0.000,1.035,0.000,0.000,0.000,0.000,0.000,0.000,0.000,0.000,0.000,0.000,0.000,3.142,6.283,0.000,1.003,1.569,1.569,4.085,6.281,1.199,4.712,0.000,0.000,0.544,-10.024,0.990,4.814,1.620,1.521,5.281,4.711,4.711,2.198,6.282,5.083,1.570,0.000,0.000,1.197,-10.091,0.990,4.814,1.613,1.528,
27.680,32.767,0.811,-10.643,1.469,-0.001,6.266,4.158,0.000,1.077,1.025,1.548,4.290,2.756,2.386,2.245,0.000,0.000,1.035,0.000,0.000,0.000,0.000,0.000,0.000,0.000,0.000,0.000,0.000,0.000,3.142,6.283,0.000,1.003,1.569,1.569,4.085,6.281,1.199,4.712,0.000,0.000,0.544,-10.024,0.990,4.814,1.620,1.521,5.281,4.711,4.711,2.198,6.282,5.083,1.570,0.000,0.000,1.197,-10.091,0.990,4.814,1.613,1.528,
27.775,32.862,0.811,-10.643,1.469,-0.001,6.266,4.158,0.000,1.077,1.025,1.548,4.290,2.756,2.386,2.245,0.000,0.000,1.035,0.000,0.000,0.000,0.000,0.000,0.000,0.000,0.000,0.000,0.000,0.000,3.142,6.283,0.000,1.003,1.569,1.569,4.085,6.281,1.199,4.712,0.000,0.000,0.544,-10.024,0.990,4.814,1.620,1.521,5.281,4.711,4.711,2.198,6.282,5.083,1.570,0.000,0.000,1.197,-10.091,0.990,4.814,1.613,1.528,
27.880,32.967,0.811,-10.643,1.469,-0.001,6.266,4.158,0.000,1.077,1.025,1.548,4.290,2.756,2.386,2.245,0.000,0.000,1.035,0.000,0.000,0.000,0.000,0.000,0.000,0.000,0.000,0.000,0.000,0.000,3.142,6.283,0.000,1.003,1.569,1.569,4.085,6.281,1.199,4.712,0.000,0.000,0.544,-10.024,0.990,4.814,1.620,1.521,5.281,4.711,4.711,2.198,6.282,5.083,1.570,0.000,0.000,1.197,-10.091,0.990,4.814,1.613,1.528,
27.980,33.067,0.811,-10.643,1.469,-0.001,6.266,4.158,0.000,1.077,1.025,1.548,4.290,2.756,2.386,2.245,0.000,0.000,1.035,0.000,0.000,0.000,0.000,0.000,0.000,0.000,0.000,0.000,0.000,0.000,3.142,6.283,0.000,1.003,1.569,1.569,4.085,6.281,1.199,4.712,0.000,0.000,0.544,-10.024,0.990,4.814,1.620,1.521,5.281,4.711,4.711,2.198,6.282,5.083,1.570,0.000,0.000,1.197,-10.091,0.990,4.814,1.613,1.528,
28.067,33.155,0.811,-10.643,1.469,-0.001,6.266,4.158,0.000,1.077,1.025,1.548,4.290,2.756,2.386,2.245,0.000,0.000,1.035,0.000,0.000,0.000,0.000,0.000,0.000,0.000,0.000,0.000,0.000,0.000,3.142,6.283,0.000,1.003,1.569,1.569,4.085,6.281,1.199,4.712,0.000,0.000,0.544,-10.024,0.990,4.814,1.620,1.521,5.281,4.711,4.711,2.198,6.282,5.083,1.570,0.000,0.000,1.197,-10.091,0.990,4.814,1.613,1.528,
28.180,33.267,0.811,-10.643,1.469,-0.001,6.266,4.158,0.000,1.077,1.025,1.548,4.290,2.756,2.386,2.245,0.000,0.000,1.035,0.000,0.000,0.000,0.000,0.000,0.000,0.000,0.000,0.000,0.000,0.000,3.142,6.283,0.000,1.003,1.569,1.569,4.085,6.281,1.199,4.712,0.000,0.000,0.544,-10.024,0.990,4.814,1.620,1.521,5.281,4.711,4.711,2.198,6.282,5.083,1.570,0.000,0.000,1.197,-10.091,0.990,4.814,1.613,1.528,
28.280,33.367,0.811,-10.643,1.469,-0.001,6.266,4.158,0.000,1.077,1.025,1.548,4.290,2.756,2.386,2.245,0.000,0.000,1.035,0.000,0.000,0.000,0.000,0.000,0.000,0.000,0.000,0.000,0.000,0.000,3.142,6.283,0.000,1.003,1.569,1.569,4.085,6.281,1.199,4.712,0.000,0.000,0.544,-10.024,0.990,4.814,1.620,1.521,5.281,4.711,4.711,2.198,6.282,5.083,1.570,0.000,0.000,1.197,-10.091,0.990,4.814,1.613,1.528,
28.380,33.467,0.811,-10.643,1.469,-0.001,6.266,4.158,0.000,1.077,1.025,1.548,4.290,2.756,2.386,2.245,0.000,0.000,1.035,0.000,0.000,0.000,0.000,0.000,0.000,0.000,0.000,0.000,0.000,0.000,3.142,6.283,0.000,1.003,1.569,1.569,4.085,6.281,1.199,4.712,0.000,0.000,0.544,-10.024,0.990,4.814,1.620,1.521,5.281,4.711,4.711,2.198,6.282,5.083,1.570,0.000,0.000,1.197,-10.091,0.990,4.814,1.613,1.528,
28.480,33.567,0.811,-10.643,1.469,-0.001,6.266,4.158,0.000,1.077,1.025,1.548,4.290,2.756,2.386,2.245,0.000,0.000,1.035,0.000,0.000,0.000,0.000,0.000,0.000,0.000,0.000,0.000,0.000,0.000,3.142,6.283,0.000,1.003,1.569,1.569,4.085,6.281,1.199,4.712,0.000,0.000,0.544,-10.024,0.990,4.814,1.620,1.521,5.281,4.711,4.711,2.198,6.282,5.083,1.570,0.000,0.000,1.197,-10.091,0.990,4.814,1.613,1.528,
28.561,33.648,0.811,-10.643,1.469,-0.001,6.266,4.158,0.000,1.077,1.025,1.548,4.290,2.756,2.386,2.245,0.000,0.000,1.035,0.000,0.000,0.000,0.000,0.000,0.000,0.000,0.000,0.000,0.000,0.000,3.142,6.283,0.000,1.003,1.569,1.569,4.085,6.281,1.199,4.712,0.000,0.000,0.544,-10.024,0.990,4.814,1.620,1.521,5.281,4.711,4.711,2.198,6.282,5.083,1.570,0.000,0.000,1.197,-10.091,0.990,4.814,1.613,1.528,
28.680,33.767,0.811,-10.643,1.469,-0.001,6.266,4.158,0.000,1.077,1.025,1.548,4.290,2.756,2.386,2.245,0.000,0.000,1.035,0.000,0.000,0.000,0.000,0.000,0.000,0.000,0.000,0.000,0.000,0.000,3.142,6.283,0.000,1.003,1.569,1.569,4.085,6.281,1.199,4.712,0.000,0.000,0.544,-10.024,0.990,4.814,1.620,1.521,5.281,4.711,4.711,2.198,6.282,5.083,1.570,0.000,0.000,1.197,-10.091,0.990,4.814,1.613,1.528,
28.778,33.865,0.811,-10.643,1.469,-0.001,6.266,4.158,0.000,1.077,1.025,1.548,4.290,2.756,2.386,2.245,0.000,0.000,1.035,0.000,0.000,0.000,0.000,0.000,0.000,0.000,0.000,0.000,0.000,0.000,3.142,6.283,0.000,1.003,1.569,1.569,4.085,6.281,1.199,4.712,0.000,0.000,0.544,-10.024,0.990,4.814,1.620,1.521,5.281,4.711,4.711,2.198,6.282,5.083,1.570,0.000,0.000,1.197,-10.091,0.990,4.814,1.613,1.528,
28.880,34.812,0.811,-10.643,1.469,-0.001,6.266,4.158,0.000,1.077,1.025,1.548,4.290,2.756,2.386,2.245,0.000,0.000,1.035,0.000,0.000,0.000,0.000,0.000,0.000,0.000,0.000,0.000,0.000,0.000,3.142,6.283,0.000,1.003,1.569,1.569,4.085,6.281,1.199,4.712,0.000,0.000,0.544,-10.024,0.990,4.814,1.620,1.521,5.281,4.711,4.711,2.198,6.282,5.083,1.570,0.000,0.000,1.197,-10.091,0.990,4.814,1.613,1.528,
28.980,34.912,0.811,-10.643,1.469,-0.001,6.266,4.158,0.000,1.077,1.025,1.548,4.290,2.756,2.386,2.245,0.000,0.000,1.035,0.000,0.000,0.000,0.000,0.000,0.000,0.000,0.000,0.000,0.000,0.000,3.142,6.283,0.000,1.003,1.569,1.569,4.085,6.281,1.199,4.712,0.000,0.000,0.544,-10.024,0.990,4.814,1.620,1.521,5.281,4.711,4.711,2.198,6.282,5.083,1.570,0.000,0.000,1.197,-10.091,0.990,4.814,1.613,1.528,
29.080,35.012,0.811,-10.643,1.469,-0.001,6.266,4.158,0.000,1.077,1.025,1.548,4.290,2.756,2.386,2.245,0.000,0.000,1.035,0.000,0.000,0.000,0.000,0.000,0.000,0.000,0.000,0.000,0.000,0.000,3.142,6.283,0.000,1.003,1.569,1.569,4.085,6.281,1.199,4.712,0.000,0.000,0.544,-10.024,0.990,4.814,1.620,1.521,5.281,4.711,4.711,2.198,6.282,5.083,1.570,0.000,0.000,1.197,-10.091,0.990,4.814,1.613,1.528,
29.180,35.112,0.811,-10.643,1.469,-0.001,6.266,4.158,0.000,1.077,1.025,1.548,4.290,2.756,2.386,2.245,0.000,0.000,1.035,0.000,0.000,0.000,0.000,0.000,0.000,0.000,0.000,0.000,0.000,0.000,3.142,6.283,0.000,1.003,1.569,1.569,4.085,6.281,1.199,4.712,0.000,0.000,0.544,-10.024,0.990,4.814,1.620,1.521,5.281,4.711,4.711,2.198,6.282,5.083,1.570,0.000,0.000,1.197,-10.091,0.990,4.814,1.613,1.528,
29.280,35.212,0.811,-10.643,1.469,-0.001,6.266,4.158,0.000,1.077,1.025,1.548,4.290,2.756,2.386,2.245,0.000,0.000,1.035,0.000,0.000,0.000,0.000,0.000,0.000,0.000,0.000,0.000,0.000,0.000,3.142,6.283,0.000,1.003,1.569,1.569,4.085,6.281,1.199,4.712,0.000,0.000,0.544,-10.024,0.990,4.814,1.620,1.521,5.281,4.711,4.711,2.198,6.282,5.083,1.570,0.000,0.000,1.197,-10.091,0.990,4.814,1.613,1.528,
29.380,35.312,0.811,-10.643,1.469,-0.001,6.266,4.158,0.000,1.077,1.025,1.548,4.290,2.756,2.386,2.245,0.000,0.000,1.035,0.000,0.000,0.000,0.000,0.000,0.000,0.000,0.000,0.000,0.000,0.000,3.142,6.283,0.000,1.003,1.569,1.569,4.085,6.281,1.199,4.712,0.000,0.000,0.544,-10.024,0.990,4.814,1.620,1.521,5.281,4.711,4.711,2.198,6.282,5.083,1.570,0.000,0.000,1.197,-10.091,0.990,4.814,1.613,1.528,
29.480,35.412,0.811,-10.643,1.469,-0.001,6.266,4.158,0.000,1.077,1.025,1.548,4.290,2.756,2.386,2.245,0.000,0.000,1.035,0.000,0.000,0.000,0.000,0.000,0.000,0.000,0.000,0.000,0.000,0.000,3.142,6.283,0.000,1.003,1.569,1.569,4.085,6.281,1.199,4.712,0.000,0.000,0.544,-10.024,0.990,4.814,1.620,1.521,5.281,4.711,4.711,2.198,6.282,5.083,1.570,0.000,0.000,1.197,-10.091,0.990,4.814,1.613,1.528,
29.580,35.512,0.811,-10.643,1.469,-0.001,6.266,4.158,0.000,1.077,1.025,1.548,4.290,2.756,2.386,2.245,0.000,0.000,1.035,0.000,0.000,0.000,0.000,0.000,0.000,0.000,0.000,0.000,0.000,0.000,3.142,6.283,0.000,1.003,1.569,1.569,4.085,6.281,1.199,4.712,0.000,0.000,0.544,-10.024,0.990,4.814,1.620,1.521,5.281,4.711,4.711,2.198,6.282,5.083,1.570,0.000,0.000,1.197,-10.091,0.990,4.814,1.613,1.528,
29.680,35.612,0.811,-10.643,1.469,-0.001,6.266,4.158,0.000,1.077,1.025,1.548,4.290,2.756,2.386,2.245,0.000,0.000,1.035,0.000,0.000,0.000,0.000,0.000,0.000,0.000,0.000,0.000,0.000,0.000,3.142,6.283,0.000,1.003,1.569,1.569,4.085,6.281,1.199,4.712,0.000,0.000,0.544,-10.024,0.990,4.814,1.620,1.521,5.281,4.711,4.711,2.198,6.282,5.083,1.570,0.000,0.000,1.197,-10.091,0.990,4.814,1.613,1.528,
29.780,35.712,0.811,-10.643,1.469,-0.001,6.266,4.158,0.000,1.077,1.025,1.548,4.290,2.756,2.386,2.245,0.000,0.000,1.035,0.000,0.000,0.000,0.000,0.000,0.000,0.000,0.000,0.000,0.000,0.000,3.142,6.283,0.000,1.003,1.569,1.569,4.085,6.281,1.199,4.712,0.000,0.000,0.544,-10.024,0.990,4.814,1.620,1.521,5.281,4.711,4.711,2.198,6.282,5.083,1.570,0.000,0.000,1.197,-10.091,0.990,4.814,1.613,1.528,
29.865,35.797,0.811,-10.643,1.469,-0.001,6.266,4.158,0.000,1.077,1.025,1.548,4.290,2.756,2.386,2.245,0.000,0.000,1.035,0.000,0.000,0.000,0.000,0.000,0.000,0.000,0.000,0.000,0.000,0.000,3.142,6.283,0.000,1.003,1.569,1.569,4.085,6.281,1.199,4.712,0.000,0.000,0.544,-10.024,0.990,4.814,1.620,1.521,5.281,4.711,4.711,2.198,6.282,5.083,1.570,0.000,0.000,1.197,-10.091,0.990,4.814,1.613,1.528,
29.980,35.912,0.811,-10.643,1.469,-0.001,6.266,4.158,0.000,1.077,1.025,1.548,4.290,2.756,2.386,2.245,0.000,0.000,1.035,0.000,0.000,0.000,0.000,0.000,0.000,0.000,0.000,0.000,0.000,0.000,3.142,6.283,0.000,1.003,1.569,1.569,4.085,6.281,1.199,4.712,0.000,0.000,0.544,-10.024,0.990,4.814,1.620,1.521,5.281,4.711,4.711,2.198,6.282,5.083,1.570,0.000,0.000,1.197,-10.091,0.990,4.814,1.613,1.528,
30.080,36.012,0.811,-10.643,1.469,-0.001,6.266,4.158,0.000,1.077,1.025,1.548,4.290,2.756,2.386,2.245,0.000,0.000,1.035,0.000,0.000,0.000,0.000,0.000,0.000,0.000,0.000,0.000,0.000,0.000,3.142,6.283,0.000,1.003,1.569,1.569,4.085,6.281,1.199,4.712,0.000,0.000,0.544,-10.024,0.990,4.814,1.620,1.521,5.281,4.711,4.711,2.198,6.282,5.083,1.570,0.000,0.000,1.197,-10.091,0.990,4.814,1.613,1.528,
30.180,36.112,0.811,-10.643,1.469,-0.001,6.266,4.158,0.000,1.077,1.025,1.548,4.290,2.756,2.386,2.245,0.000,0.000,1.035,0.000,0.000,0.000,0.000,0.000,0.000,0.000,0.000,0.000,0.000,0.000,3.142,6.283,0.000,1.003,1.569,1.569,4.085,6.281,1.199,4.712,0.000,0.000,0.544,-10.024,0.990,4.814,1.620,1.521,5.281,4.711,4.711,2.198,6.282,5.083,1.570,0.000,0.000,1.197,-10.091,0.990,4.814,1.613,1.528,
30.280,36.212,0.811,-10.643,1.469,-0.001,6.266,4.158,0.000,1.077,1.025,1.548,4.290,2.756,2.386,2.245,0.000,0.000,1.035,0.000,0.000,0.000,0.000,0.000,0.000,0.000,0.000,0.000,0.000,0.000,3.142,6.283,0.000,1.003,1.569,1.569,4.085,6.281,1.199,4.712,0.000,0.000,0.544,-10.024,0.990,4.814,1.620,1.521,5.281,4.711,4.711,2.198,6.282,5.083,1.570,0.000,0.000,1.197,-10.091,0.990,4.814,1.613,1.528,
30.380,36.312,0.811,-10.643,1.469,-0.001,6.266,4.158,0.000,1.077,1.025,1.548,4.290,2.756,2.386,2.245,0.000,0.000,1.035,0.000,0.000,0.000,0.000,0.000,0.000,0.000,0.000,0.000,3.796,0.000,3.142,6.283,0.000,1.003,1.569,1.569,4.085,6.281,1.199,4.712,0.000,0.000,0.544,-10.024,0.990,4.814,1.620,1.521,5.281,4.711,4.711,2.198,6.282,5.083,1.570,0.000,0.000,1.197,-10.091,0.990,4.814,1.613,1.528,
30.460,36.392,0.811,-10.643,1.469,-0.001,6.266,4.158,0.000,1.077,1.025,1.548,4.290,2.756,2.386,2.245,0.000,0.000,1.035,0.000,0.000,0.000,0.000,0.000,0.000,0.000,0.000,0.000,3.588,0.000,3.142,6.283,0.000,1.003,1.569,1.569,4.085,6.281,1.199,4.712,0.000,0.000,0.544,-10.024,0.990,4.814,1.620,1.521,5.281,4.711,4.711,2.198,6.282,5.083,1.570,0.000,0.000,1.197,-10.091,0.990,4.814,1.613,1.528,
30.580,36.512,0.811,-10.643,1.469,-0.001,6.266,4.158,0.000,1.077,1.025,1.548,4.290,2.756,2.386,2.245,0.000,0.000,1.035,0.000,0.000,0.000,0.000,0.000,0.000,0.000,0.000,0.000,3.533,0.000,3.142,6.283,0.000,1.003,1.569,1.569,4.085,6.281,1.199,4.712,0.000,0.000,0.544,-10.024,0.990,4.814,1.620,1.521,5.281,4.711,4.711,2.198,6.282,5.083,1.570,0.000,0.000,1.197,-10.091,0.990,4.814,1.613,1.528,
30.673,36.605,0.811,-10.643,1.469,-0.001,6.266,4.158,0.000,1.077,1.025,1.548,4.290,2.756,2.386,2.245,0.000,0.000,1.035,0.000,0.000,0.000,0.000,0.000,0.000,0.000,0.000,0.000,3.470,0.000,3.142,6.283,0.000,1.003,1.569,1.569,4.085,6.281,1.199,4.712,0.000,0.000,0.544,-10.024,0.990,4.814,1.620,1.521,5.281,4.711,4.711,2.198,6.282,5.083,1.570,0.000,0.000,1.197,-10.091,0.990,4.814,1.613,1.528,
30.780,36.712,0.811,-10.643,1.469,-0.001,6.266,4.158,0.000,1.077,1.025,1.548,4.290,2.756,2.386,2.245,0.000,0.000,1.035,0.000,0.000,0.000,0.000,0.000,0.000,0.000,0.000,0.000,3.498,0.000,3.142,6.283,0.000,1.003,1.569,1.569,4.085,6.281,1.199,4.712,0.000,0.000,0.544,-10.024,0.990,4.814,1.620,1.521,5.281,4.711,4.711,2.198,6.282,5.083,1.570,0.000,0.000,1.197,-10.091,0.990,4.814,1.613,1.528,
30.880,36.812,0.811,-10.643,1.469,-0.001,6.266,4.158,0.000,1.077,1.025,1.548,4.290,2.756,2.386,2.245,0.000,0.000,1.035,0.000,0.000,0.000,0.000,0.000,0.000,0.000,0.000,0.000,0.000,0.000,3.142,6.283,0.000,1.003,1.569,1.569,4.085,6.281,1.199,4.712,0.000,0.000,0.544,-10.024,0.990,4.814,1.620,1.521,5.281,4.711,4.711,2.198,6.282,5.083,1.570,0.000,0.000,1.197,-10.091,0.990,4.814,1.613,1.528,
30.980,36.912,0.811,-10.643,1.469,-0.001,6.266,4.158,0.000,1.077,1.025,1.548,4.290,2.756,2.386,2.245,0.000,0.000,1.035,0.000,0.000,0.000,0.000,0.000,0.000,0.000,0.000,0.000,0.000,0.000,3.142,6.283,0.000,1.003,1.569,1.569,4.085,6.281,1.199,4.712,0.000,0.000,0.544,-10.024,0.990,4.814,1.620,1.521,5.281,4.711,4.711,2.198,6.282,5.083,1.570,0.000,0.000,1.197,-10.091,0.990,4.814,1.613,1.528,
31.080,37.012,0.811,-10.643,1.469,-0.001,6.266,4.158,0.000,1.077,1.025,1.548,4.290,2.756,2.386,2.245,0.000,0.000,1.035,0.000,0.000,0.000,0.000,0.000,0.000,0.000,0.000,0.000,0.000,0.000,3.142,6.283,0.000,1.003,1.569,1.569,4.085,6.281,1.199,4.712,0.000,0.000,0.544,-10.024,0.990,4.814,1.620,1.521,5.281,4.711,4.711,2.198,6.282,5.083,1.570,0.000,0.000,1.197,-10.091,0.990,4.814,1.613,1.528,
31.169,37.101,0.811,-10.643,1.469,-0.001,6.266,4.158,0.000,1.077,1.025,1.548,4.290,2.756,2.386,2.245,0.000,0.000,1.035,0.000,0.000,0.000,0.000,0.000,0.000,0.000,0.000,0.000,0.000,0.000,3.142,6.283,0.000,1.003,1.569,1.569,4.085,6.281,1.199,4.712,0.000,0.000,0.544,-10.024,0.990,4.814,1.620,1.521,5.281,4.711,4.711,2.198,6.282,5.083,1.570,0.000,0.000,1.197,-10.091,0.990,4.814,1.613,1.528,
31.280,37.212,0.811,-10.643,1.469,-0.001,6.266,4.158,0.000,1.077,1.025,1.548,4.290,2.756,2.386,2.245,0.000,0.000,1.035,0.000,0.000,0.000,0.000,0.000,0.000,0.000,0.000,0.000,0.000,0.000,3.142,6.283,0.000,1.003,1.569,1.569,4.085,6.281,1.199,4.712,0.000,0.000,0.544,-10.024,0.990,4.814,1.620,1.521,5.281,4.711,4.711,2.198,6.282,5.083,1.570,0.000,0.000,1.197,-10.091,0.990,4.814,1.613,1.528,
31.380,37.312,0.811,-10.643,1.469,-0.001,6.266,4.158,0.000,1.077,1.025,1.548,4.290,2.756,2.386,2.245,0.000,0.000,1.035,0.000,0.000,0.000,0.000,0.000,0.000,0.000,0.000,0.000,0.000,0.000,3.142,6.283,0.000,1.003,1.569,1.569,4.085,6.281,1.199,4.712,0.000,0.000,0.544,-10.024,0.990,4.814,1.620,1.521,5.281,4.711,4.711,2.198,6.282,5.083,1.570,0.000,0.000,1.197,-10.091,0.990,4.814,1.613,1.528,
31.480,37.412,0.811,-10.643,1.469,-0.001,6.266,4.158,0.000,1.077,1.025,1.548,4.290,2.756,2.386,2.245,0.000,0.000,1.035,0.000,0.000,0.000,0.000,0.000,0.000,0.000,0.000,0.000,0.000,0.000,3.142,6.283,0.000,1.003,1.569,1.569,4.085,6.281,1.199,4.712,0.000,0.000,0.544,-10.024,0.990,4.814,1.620,1.521,5.281,4.711,4.711,2.198,6.282,5.083,1.570,0.000,0.000,1.197,-10.091,0.990,4.814,1.613,1.528,
31.565,37.497,0.811,-10.643,1.469,-0.001,6.266,4.158,0.000,1.077,1.025,1.548,4.290,2.756,2.386,2.245,0.000,0.000,1.035,0.000,0.000,0.000,0.000,0.000,0.000,0.000,0.000,0.000,0.000,0.000,3.142,6.283,0.000,1.003,1.569,1.569,4.085,6.281,1.199,4.712,0.000,0.000,0.544,-10.024,0.990,4.814,1.620,1.521,5.281,4.711,4.711,2.198,6.282,5.083,1.570,0.000,0.000,1.197,-10.091,0.990,4.814,1.613,1.528,
31.680,37.612,0.811,-10.643,1.469,-0.001,6.266,4.158,0.000,1.077,1.025,1.548,4.290,2.756,2.386,2.245,0.000,0.000,1.035,0.000,0.000,0.000,0.000,0.000,0.000,0.000,0.000,0.000,0.000,0.000,3.142,6.283,0.000,1.003,1.569,1.569,4.085,6.281,1.199,4.712,0.000,0.000,0.544,-10.024,0.990,4.814,1.620,1.521,5.281,4.711,4.711,2.198,6.282,5.083,1.570,0.000,0.000,1.197,-10.091,0.990,4.814,1.613,1.528,
31.780,37.712,0.811,-10.643,1.469,-0.001,6.266,4.158,0.000,1.077,1.025,1.548,4.290,2.756,2.386,2.245,0.000,0.000,1.035,0.000,0.000,0.000,0.000,0.000,0.000,0.000,0.000,0.000,0.000,0.000,3.142,6.283,0.000,1.003,1.569,1.569,4.085,6.281,1.199,4.712,0.000,0.000,0.544,-10.024,0.990,4.814,1.620,1.521,5.281,4.711,4.711,2.198,6.282,5.083,1.570,0.000,0.000,1.197,-10.091,0.990,4.814,1.613,1.528,
31.869,37.801,0.811,-10.643,1.469,-0.001,6.266,4.158,0.000,1.077,1.025,1.548,4.290,2.756,2.386,2.245,0.000,0.000,1.035,0.000,0.000,0.000,0.000,0.000,0.000,0.000,0.000,0.000,0.000,0.000,3.142,6.283,0.000,1.003,1.569,1.569,4.085,6.281,1.199,4.712,0.000,0.000,0.544,-10.024,0.990,4.814,1.620,1.521,5.281,4.711,4.711,2.198,6.282,5.083,1.570,0.000,0.000,1.197,-10.091,0.990,4.814,1.613,1.528,
31.980,37.912,0.811,-10.643,1.469,-0.001,6.266,4.158,0.000,1.077,1.025,1.548,4.290,2.756,2.386,2.245,0.000,0.000,1.035,0.000,0.000,0.000,0.000,0.000,0.000,0.000,0.000,0.000,0.000,0.000,3.142,6.283,0.000,1.003,1.569,1.569,4.085,6.281,1.199,4.712,0.000,0.000,0.544,-10.024,0.990,4.814,1.620,1.521,5.281,4.711,4.711,2.198,6.282,5.083,1.570,0.000,0.000,1.197,-10.091,0.990,4.814,1.613,1.528,
32.064,37.996,0.811,-10.643,1.469,-0.001,6.266,0.000,0.000,1.077,1.025,1.548,4.290,2.756,2.386,2.245,0.000,0.000,1.035,2.929,0.000,0.000,0.000,0.000,0.000,0.000,0.000,0.000,0.000,0.000,3.142,6.283,0.000,1.003,1.569,1.569,4.085,6.281,1.199,4.712,0.000,0.000,0.544,-10.024,0.990,4.814,1.620,1.521,5.281,4.711,4.711,2.198,6.282,5.083,1.570,0.000,0.000,1.197,-10.091,0.990,4.814,1.613,1.528,
32.180,38.112,0.811,-10.643,1.469,-0.001,6.266,0.000,0.000,1.077,1.025,1.548,4.290,2.756,2.386,2.245,0.000,0.000,1.035,2.790,0.000,0.000,0.000,0.000,0.000,0.000,0.000,0.000,0.000,0.000,3.142,6.283,0.000,1.003,1.569,1.569,4.085,6.281,1.199,4.712,0.000,0.000,0.544,-10.024,0.990,4.814,1.620,1.521,5.281,4.711,4.711,2.198,6.282,5.083,1.570,0.000,0.000,1.197,-10.091,0.990,4.814,1.613,1.528,
32.277,38.209,0.811,-10.643,1.469,-0.001,6.266,0.000,0.000,1.077,1.025,1.548,4.290,2.756,2.386,2.245,0.000,0.000,1.035,2.739,0.000,0.000,0.000,0.000,0.000,0.000,0.000,0.000,0.000,0.000,3.142,6.283,0.000,1.003,1.569,1.569,4.085,6.281,1.199,4.712,0.000,0.000,0.544,-10.024,0.990,4.814,1.620,1.521,5.281,4.711,4.711,2.198,6.282,5.083,1.570,0.000,0.000,1.197,-10.091,0.990,4.814,1.613,1.528,
32.380,38.312,0.811,-10.643,1.469,-0.001,6.266,0.000,0.000,1.077,1.025,1.548,4.290,2.756,2.386,2.245,0.000,0.000,1.035,2.770,0.000,0.000,0.000,0.000,0.000,0.000,0.000,0.000,0.000,0.000,3.142,6.283,0.000,1.003,1.569,1.569,4.085,6.281,1.199,4.712,0.000,0.000,0.544,-10.024,0.990,4.814,1.620,1.521,5.281,4.711,4.711,2.198,6.282,5.083,1.570,0.000,0.000,1.197,-10.091,0.990,4.814,1.613,1.528,
32.480,38.412,0.811,-10.643,1.469,-0.001,6.266,0.000,0.000,1.077,1.025,1.548,4.290,2.756,2.386,2.245,0.000,0.000,1.035,2.861,0.000,0.000,0.000,0.000,0.000,0.000,0.000,0.000,0.000,0.000,3.142,6.283,0.000,1.003,1.569,1.569,4.085,6.281,1.199,4.712,0.000,0.000,0.544,-10.024,0.990,4.814,1.620,1.521,5.281,4.711,4.711,2.198,6.282,5.083,1.570,0.000,0.000,1.197,-10.091,0.990,4.814,1.613,1.528,
32.580,38.512,0.811,-10.643,1.469,-0.001,6.266,4.158,0.000,1.077,1.025,1.548,4.290,2.756,2.386,2.245,0.000,0.000,1.035,0.000,0.000,0.000,0.000,0.000,0.000,0.000,0.000,0.000,0.000,0.000,3.142,6.283,0.000,1.003,1.569,1.569,4.085,6.281,1.199,4.712,0.000,0.000,0.544,-10.024,0.990,4.814,1.620,1.521,5.281,4.711,4.711,2.198,6.282,5.083,1.570,0.000,0.000,1.197,-10.091,0.990,4.814,1.613,1.528,
32.680,38.612,0.811,-10.643,1.469,-0.001,6.266,4.158,0.000,1.077,1.025,1.548,4.290,2.756,2.386,2.245,0.000,0.000,1.035,0.000,0.000,0.000,0.000,0.000,0.000,0.000,0.000,0.000,0.000,0.000,3.142,6.283,0.000,1.003,1.569,1.569,4.085,6.281,1.199,4.712,0.000,0.000,0.544,-10.024,0.990,4.814,1.620,1.521,5.281,4.711,4.711,2.198,6.282,5.083,1.570,0.000,0.000,1.197,-10.091,0.990,4.814,1.613,1.528,
32.772,38.704,0.811,-10.643,1.469,-0.001,6.266,4.158,0.000,1.077,1.025,1.548,4.290,2.756,2.386,2.245,0.000,0.000,1.035,0.000,0.000,0.000,0.000,0.000,0.000,0.000,0.000,0.000,0.000,0.000,3.142,6.283,0.000,1.003,1.569,1.569,4.085,6.281,1.199,4.712,0.000,0.000,0.544,-10.024,0.990,4.814,1.620,1.521,5.281,4.711,4.711,2.198,6.282,5.083,1.570,0.000,0.000,1.197,-10.091,0.990,4.814,1.613,1.528,
32.880,38.812,0.811,-10.643,1.469,-0.001,6.266,4.158,0.000,1.077,1.025,1.548,4.290,2.756,2.386,2.245,0.000,0.000,1.035,0.000,0.000,0.000,0.000,0.000,0.000,0.000,0.000,0.000,0.000,0.000,3.142,6.283,0.000,1.003,1.569,1.569,4.085,6.281,1.199,4.712,0.000,0.000,0.544,-10.024,0.990,4.814,1.620,1.521,5.281,4.711,4.711,2.198,6.282,5.083,1.570,0.000,0.000,1.197,-10.091,0.990,4.814,1.613,1.528,
32.980,38.912,0.811,-10.643,1.469,-0.001,6.266,4.158,0.000,1.077,1.025,1.548,4.290,2.756,2.386,2.245,0.000,0.000,1.035,0.000,0.000,0.000,0.000,0.000,0.000,0.000,0.000,0.000,0.000,0.000,3.142,6.283,0.000,1.003,1.569,1.569,4.085,6.281,1.199,4.712,0.000,0.000,0.544,-10.024,0.990,4.814,1.620,1.521,5.281,4.711,4.711,2.198,6.282,5.083,1.570,0.000,0.000,1.197,-10.091,0.990,4.814,1.613,1.528,
33.064,38.996,0.811,-10.643,1.469,-0.001,6.266,4.158,0.000,1.077,1.025,1.548,4.290,2.756,2.386,2.245,0.000,0.000,1.035,0.000,0.000,0.000,0.000,0.000,0.000,0.000,0.000,0.000,0.000,0.000,3.142,6.283,0.000,1.003,1.569,1.569,4.085,6.281,1.199,4.712,0.000,0.000,0.544,-10.024,0.990,4.814,1.620,1.521,5.281,4.711,4.711,2.198,6.282,5.083,1.570,0.000,0.000,1.197,-10.091,0.990,4.814,1.613,1.528,
33.180,39.112,0.811,-10.643,1.469,-0.001,6.266,4.158,0.000,1.077,1.025,1.548,4.290,2.756,2.386,2.245,0.000,0.000,1.035,0.000,0.000,0.000,0.000,0.000,0.000,0.000,0.000,0.000,0.000,0.000,3.142,6.283,0.000,1.003,1.569,1.569,4.085,6.281,1.199,4.712,0.000,0.000,0.544,-10.024,0.990,4.814,1.620,1.521,5.281,4.711,4.711,2.198,6.282,5.083,1.570,0.000,0.000,1.197,-10.091,0.990,4.814,1.613,1.528,
33.274,39.206,0.811,-10.643,1.469,-0.001,6.266,4.158,0.000,1.077,1.025,1.548,4.290,2.756,2.386,2.245,0.000,0.000,1.035,0.000,0.000,0.000,0.000,0.000,0.000,0.000,0.000,0.000,0.000,0.000,3.142,6.283,0.000,1.003,1.569,1.569,4.085,6.281,1.199,4.712,0.000,0.000,0.544,-10.024,0.990,4.814,1.620,1.521,5.281,4.711,4.711,2.198,6.282,5.083,1.570,0.000,0.000,1.197,-10.091,0.990,4.814,1.613,1.528,
33.380,39.312,0.811,-10.643,1.469,-0.001,6.266,4.158,0.000,1.077,1.025,1.548,4.290,2.756,2.386,2.245,0.000,0.000,1.035,0.000,0.000,0.000,0.000,0.000,0.000,0.000,0.000,0.000,0.000,0.000,3.142,6.283,0.000,1.003,1.569,1.569,4.085,6.281,1.199,4.712,0.000,0.000,0.544,-10.024,0.990,4.814,1.620,1.521,5.281,4.711,4.711,2.198,6.282,5.083,1.570,0.000,0.000,1.197,-10.091,0.990,4.814,1.613,1.528,
33.480,39.412,0.811,-10.643,1.469,-0.001,6.266,4.158,0.000,1.077,1.025,1.548,4.290,2.756,2.386,2.245,0.000,0.000,1.035,0.000,0.000,0.000,0.000,0.000,0.000,0.000,0.000,0.000,0.000,0.000,3.142,6.283,0.000,1.003,1.569,1.569,4.085,6.281,1.199,4.712,0.000,0.000,0.544,-10.024,0.990,4.814,1.620,1.521,5.281,4.711,4.711,2.198,6.282,5.083,1.570,0.000,0.000,1.197,-10.091,0.990,4.814,1.613,1.528,
33.580,39.512,0.811,-10.643,1.469,-0.001,6.266,4.158,0.000,1.077,1.025,1.548,4.290,2.756,2.386,2.245,0.000,0.000,1.035,0.000,0.000,0.000,0.000,0.000,0.000,0.000,0.000,0.000,0.000,0.000,3.142,6.283,0.000,1.003,1.569,1.569,4.085,6.281,1.199,4.712,0.000,0.000,0.544,-10.024,0.990,4.814,1.620,1.521,5.281,4.711,4.711,2.198,6.282,5.083,1.570,0.000,0.000,1.197,-10.091,0.990,4.814,1.613,1.528,
33.680,39.612,0.811,-10.643,1.469,-0.001,6.266,4.158,0.000,1.077,1.025,1.548,4.290,2.756,2.386,2.245,0.000,0.000,1.035,0.000,0.000,0.000,0.000,0.000,0.000,0.000,0.000,0.000,0.000,0.000,3.142,6.283,0.000,1.003,1.569,1.569,4.085,6.281,1.199,4.712,0.000,0.000,0.544,-10.024,0.990,4.814,1.620,1.521,5.281,4.711,4.711,2.198,6.282,5.083,1.570,0.000,0.000,1.197,-10.091,0.990,4.814,1.613,1.528,
33.767,39.700,0.811,-10.643,1.469,-0.001,6.266,4.158,0.000,1.077,1.025,1.548,4.290,2.756,2.386,2.245,0.000,0.000,1.035,0.000,3.320,0.000,0.000,0.000,0.000,0.000,0.000,0.000,0.000,0.000,3.142,6.283,0.000,1.003,1.569,1.569,4.085,6.281,1.199,4.712,0.000,0.000,0.544,-10.024,0.990,4.814,1.620,1.521,5.281,4.711,4.711,2.198,6.282,5.083,1.570,0.000,0.000,1.197,-10.091,0.990,4.814,1.613,1.528,
33.880,39.812,0.811,-10.643,1.469,-0.001,6.266,4.158,0.000,1.077,1.025,1.548,4.290,2.756,2.386,2.245,0.000,0.000,1.035,0.000,3.339,0.000,0.000,0.000,0.000,0.000,0.000,0.000,0.000,0.000,3.142,6.283,0.000,1.003,1.569,1.569,4.085,6.281,1.199,4.712,0.000,0.000,0.544,-10.024,0.990,4.814,1.620,1.521,5.281,4.711,4.711,2.198,6.282,5.083,1.570,0.000,0.000,1.197,-10.091,0.990,4.814,1.613,1.528,
33.979,39.911,0.811,-10.643,1.469,-0.001,6.266,4.158,0.000,1.077,1.025,1.548,4.290,2.756,2.386,2.245,0.000,0.000,1.035,0.000,3.382,0.000,0.000,0.000,0.000,0.000,0.000,0.000,0.000,0.000,3.142,6.283,0.000,1.003,1.569,1.569,4.085,6.281,1.199,4.712,0.000,0.000,0.544,-10.024,0.990,4.814,1.620,1.521,5.281,4.711,4.711,2.198,6.282,5.083,1.570,0.000,0.000,1.197,-10.091,0.990,4.814,1.613,1.528,
34.080,40.012,0.811,-10.643,1.469,-0.001,6.266,4.158,0.000,1.077,1.025,1.548,4.290,2.756,2.386,2.245,0.000,0.000,1.035,0.000,3.549,0.000,0.000,0.000,0.000,0.000,0.000,0.000,0.000,0.000,3.142,6.283,0.000,1.003,1.569,1.569,4.085,6.281,1.199,4.712,0.000,0.000,0.544,-10.024,0.990,4.814,1.620,1.521,5.281,4.711,4.711,2.198,6.282,5.083,1.570,0.000,0.000,1.197,-10.091,0.990,4.814,1.613,1.528,
34.180,40.112,0.811,-10.643,1.469,-0.001,6.266,4.158,0.000,1.077,1.025,1.548,4.290,2.756,2.386,2.245,0.000,0.000,1.035,0.000,3.767,0.000,0.000,0.000,0.000,0.000,0.000,0.000,0.000,0.000,3.142,6.283,0.000,1.003,1.569,1.569,4.085,6.281,1.199,4.712,0.000,0.000,0.544,-10.024,0.990,4.814,1.620,1.521,5.281,4.711,4.711,2.198,6.282,5.083,1.570,0.000,0.000,1.197,-10.091,0.990,4.814,1.613,1.528,
34.267,40.199,0.811,-10.643,1.469,-0.001,6.266,4.158,0.000,1.077,1.025,1.548,4.290,2.756,2.386,2.245,0.000,0.000,1.035,0.000,0.000,0.000,0.000,0.000,0.000,0.000,0.000,0.000,0.000,0.000,3.142,6.283,0.000,1.003,1.569,1.569,4.085,6.281,1.199,4.712,0.000,0.000,0.544,-10.024,0.990,4.814,1.620,1.521,5.281,4.711,4.711,2.198,6.282,5.083,1.570,0.000,0.000,1.197,-10.091,0.990,4.814,1.613,1.528,
34.380,40.312,0.811,-10.643,1.469,-0.001,6.266,4.158,0.000,1.077,1.025,1.548,4.290,2.756,2.386,2.245,0.000,0.000,1.035,0.000,0.000,0.000,0.000,0.000,0.000,0.000,0.000,0.000,0.000,0.000,3.142,6.283,0.000,1.003,1.569,1.569,4.085,6.281,1.199,4.712,0.000,0.000,0.544,-10.024,0.990,4.814,1.620,1.521,5.281,4.711,4.711,2.198,6.282,5.083,1.570,0.000,0.000,1.197,-10.091,0.990,4.814,1.613,1.528,
34.480,40.412,0.811,-10.643,1.469,-0.001,6.266,4.158,0.000,1.077,1.025,1.548,4.290,2.756,2.386,2.245,0.000,0.000,1.035,0.000,0.000,0.000,0.000,0.000,0.000,0.000,0.000,0.000,0.000,0.000,3.142,6.283,0.000,1.003,1.569,1.569,4.085,6.281,1.199,4.712,0.000,0.000,0.544,-10.024,0.990,4.814,1.620,1.521,5.281,4.711,4.711,2.198,6.282,5.083,1.570,0.000,0.000,1.197,-10.091,0.990,4.814,1.613,1.528,
34.580,40.512,0.811,-10.643,1.469,-0.001,6.266,4.158,0.000,1.077,1.025,1.548,4.290,2.756,2.386,2.245,0.000,0.000,1.035,0.000,0.000,0.000,0.000,0.000,0.000,0.000,0.000,0.000,0.000,0.000,3.142,6.283,0.000,1.003,1.569,1.569,4.085,6.281,1.199,4.712,0.000,0.000,0.544,-10.024,0.990,4.814,1.620,1.521,5.281,4.711,4.711,2.198,6.282,5.083,1.570,0.000,0.000,1.197,-10.091,0.990,4.814,1.613,1.528,
34.680,40.612,0.811,-10.643,1.469,-0.001,6.266,4.158,0.000,1.077,1.025,1.548,4.290,2.756,2.386,2.245,0.000,0.000,1.035,0.000,0.000,0.000,0.000,0.000,0.000,0.000,0.000,0.000,0.000,0.000,3.142,6.283,0.000,1.003,1.569,1.569,4.085,6.281,1.199,4.712,0.000,0.000,0.544,-10.024,0.990,4.814,1.620,1.521,5.281,4.711,4.711,2.198,6.282,5.083,1.570,0.000,0.000,1.197,-10.091,0.990,4.814,1.613,1.528,
34.774,40.706,0.811,-10.643,1.469,-0.001,6.266,4.158,0.000,1.077,1.025,1.548,4.290,2.756,2.386,2.245,0.000,0.000,1.035,0.000,0.000,0.000,0.000,0.000,0.000,0.000,0.000,0.000,0.000,0.000,3.142,6.283,0.000,1.003,1.569,1.569,4.085,6.281,1.199,4.712,0.000,0.000,0.544,-10.024,0.990,4.814,1.620,1.521,5.281,4.711,4.711,2.198,6.282,5.083,1.570,0.000,0.000,1.197,-10.091,0.990,4.814,1.613,1.528,
34.880,40.812,0.811,-10.643,1.469,-0.001,6.266,4.158,0.000,1.077,1.025,1.548,4.290,2.756,2.386,2.245,0.000,0.000,1.035,0.000,0.000,0.000,0.000,0.000,0.000,0.000,0.000,0.000,0.000,0.000,3.142,6.283,0.000,1.003,1.569,1.569,4.085,6.281,1.199,4.712,0.000,0.000,0.544,-10.024,0.990,4.814,1.620,1.521,5.281,4.711,4.711,2.198,6.282,5.083,1.570,0.000,0.000,1.197,-10.091,0.990,4.814,1.613,1.528,
34.980,40.912,0.811,-10.643,1.469,-0.001,6.266,4.158,0.000,1.077,1.025,1.548,4.290,2.756,2.386,2.245,0.000,0.000,1.035,0.000,0.000,0.000,0.000,0.000,0.000,0.000,0.000,0.000,0.000,0.000,3.142,6.283,0.000,1.003,1.569,1.569,4.085,6.281,1.199,4.712,0.000,0.000,0.544,-10.024,0.990,4.814,1.620,1.521,5.281,4.711,4.711,2.198,6.282,5.083,1.570,0.000,0.000,1.197,-10.091,0.990,4.814,1.613,1.528,
35.076,41.008,0.811,-10.643,1.469,-0.001,6.266,4.158,0.000,1.077,1.025,1.548,4.290,2.756,2.386,2.245,0.000,0.000,1.035,0.000,0.000,0.000,0.000,0.000,0.000,0.000,0.000,0.000,0.000,0.000,3.142,6.283,0.000,1.003,1.569,1.569,4.085,6.281,1.199,4.712,0.000,0.000,0.544,-10.024,0.990,4.814,1.620,1.521,5.281,4.711,4.711,2.198,6.282,5.083,1.570,0.000,0.000,1.197,-10.091,0.990,4.814,1.613,1.528,
35.180,41.112,0.811,-10.643,1.469,-0.001,6.266,4.158,0.000,1.077,1.025,1.548,4.290,2.756,2.386,2.245,0.000,0.000,1.035,0.000,0.000,0.000,0.000,0.000,0.000,0.000,0.000,0.000,0.000,0.000,3.142,6.283,0.000,1.003,1.569,1.569,4.085,6.281,1.199,4.712,0.000,0.000,0.544,-10.024,0.990,4.814,1.620,1.521,5.281,4.711,4.711,2.198,6.282,5.083,1.570,0.000,0.000,1.197,-10.091,0.990,4.814,1.613,1.528,
35.280,41.212,0.811,-10.643,1.469,-0.001,6.266,4.158,0.000,1.077,1.025,1.548,4.290,2.756,2.386,2.245,0.000,0.000,1.035,0.000,0.000,0.000,0.000,0.000,0.000,0.000,0.000,0.000,0.000,0.000,3.142,6.283,0.000,1.003,1.569,1.569,4.085,6.281,1.199,4.712,0.000,0.000,0.544,-10.024,0.990,4.814,1.620,1.521,5.281,4.711,4.711,2.198,6.282,5.083,1.570,0.000,0.000,1.197,-10.091,0.990,4.814,1.613,1.528,
35.380,41.312,0.811,-10.643,1.469,-0.001,6.266,4.158,0.000,1.077,1.025,1.548,4.290,2.756,2.386,2.245,0.000,0.000,1.035,0.000,4.080,0.000,0.000,0.000,0.000,0.000,0.000,0.000,0.000,0.000,3.142,6.283,0.000,1.003,1.569,1.569,4.085,6.281,1.199,4.712,0.000,0.000,0.544,-10.024,0.990,4.814,1.620,1.521,5.281,4.711,4.711,2.198,6.282,5.083,1.570,0.000,0.000,1.197,-10.091,0.990,4.814,1.613,1.528,
35.480,41.412,0.811,-10.643,1.469,-0.001,6.266,4.158,0.000,1.077,1.025,1.548,4.290,2.756,2.386,2.245,0.000,0.000,1.035,0.000,4.106,0.000,0.000,0.000,0.000,0.000,0.000,0.000,0.000,0.000,3.142,6.283,0.000,1.003,1.569,1.569,4.085,6.281,1.199,4.712,0.000,0.000,0.544,-10.024,0.990,4.814,1.620,1.521,5.281,4.711,4.711,2.198,6.282,5.083,1.570,0.000,0.000,1.197,-10.091,0.990,4.814,1.613,1.528,
35.570,41.502,0.811,-10.643,1.469,-0.001,6.266,4.158,0.000,1.077,1.025,1.548,4.290,2.756,2.386,2.245,0.000,0.000,1.035,0.000,4.143,0.000,0.000,0.000,0.000,0.000,0.000,0.000,0.000,0.000,3.142,6.283,0.000,1.003,1.569,1.569,4.085,6.281,1.199,4.712,0.000,0.000,0.544,-10.024,0.990,4.814,1.620,1.521,5.281,4.711,4.711,2.198,6.282,5.083,1.570,0.000,0.000,1.197,-10.091,0.990,4.814,1.613,1.528,
35.680,41.612,0.811,-10.643,1.469,-0.001,6.266,4.158,0.000,1.077,1.025,1.548,4.290,2.756,2.386,2.245,0.000,0.000,1.035,0.000,4.266,0.000,0.000,0.000,0.000,0.000,0.000,0.000,0.000,0.000,3.142,6.283,0.000,1.003,1.569,1.569,4.085,6.281,1.199,4.712,0.000,0.000,0.544,-10.024,0.990,4.814,1.620,1.521,5.281,4.711,4.711,2.198,6.282,5.083,1.570,0.000,0.000,1.197,-10.091,0.990,4.814,1.613,1.528,
35.780,41.712,0.811,-10.643,1.469,-0.001,6.266,4.158,0.000,1.077,1.025,1.548,4.290,2.756,2.386,2.245,0.000,0.000,1.035,0.000,4.371,0.000,0.000,0.000,0.000,0.000,0.000,0.000,0.000,0.000,3.142,6.283,0.000,1.003,1.569,1.569,4.085,6.281,1.199,4.712,0.000,0.000,0.544,-10.024,0.990,4.814,1.620,1.521,5.281,4.711,4.711,2.198,6.282,5.083,1.570,0.000,0.000,1.197,-10.091,0.990,4.814,1.613,1.528,
35.863,41.795,0.811,-10.643,1.469,-0.001,6.266,4.158,0.000,1.077,1.025,1.548,4.290,2.756,2.386,2.245,0.000,0.000,1.035,0.000,0.000,0.000,0.000,0.000,0.000,0.000,0.000,0.000,0.000,0.000,3.142,6.283,0.000,1.003,1.569,1.569,4.085,6.281,1.199,4.712,0.000,0.000,0.544,-10.024,0.990,4.814,1.620,1.521,5.281,4.711,4.711,2.198,6.282,5.083,1.570,0.000,0.000,1.197,-10.091,0.990,4.814,1.613,1.528,
35.980,41.912,0.811,-10.643,1.469,-0.001,6.266,4.158,0.000,1.077,1.025,1.548,4.290,2.756,2.386,2.245,0.000,0.000,1.035,0.000,0.000,0.000,0.000,0.000,0.000,0.000,0.000,0.000,0.000,0.000,3.142,6.283,0.000,1.003,1.569,1.569,4.085,6.281,1.199,4.712,0.000,0.000,0.544,-10.024,0.990,4.814,1.620,1.521,5.281,4.711,4.711,2.198,6.282,5.083,1.570,0.000,0.000,1.197,-10.091,0.990,4.814,1.613,1.528,
36.080,42.012,0.811,-10.643,1.469,-0.001,6.266,4.158,0.000,1.077,1.025,1.548,4.290,2.756,2.386,2.245,0.000,0.000,1.035,0.000,0.000,0.000,0.000,0.000,0.000,0.000,0.000,0.000,0.000,0.000,3.142,6.283,0.000,1.003,1.569,1.569,4.085,6.281,1.199,4.712,0.000,0.000,0.544,-10.024,0.990,4.814,1.620,1.521,5.281,4.711,4.711,2.198,6.282,5.083,1.570,0.000,0.000,1.197,-10.091,0.990,4.814,1.613,1.528,
36.180,42.112,0.811,-10.643,1.469,-0.001,6.266,4.158,0.000,1.077,1.025,1.548,4.290,2.756,2.386,2.245,0.000,0.000,1.035,0.000,0.000,0.000,0.000,0.000,0.000,0.000,0.000,0.000,0.000,0.000,3.142,6.283,0.000,1.003,1.569,1.569,4.085,6.281,1.199,4.712,0.000,0.000,0.544,-10.024,0.990,4.814,1.620,1.521,5.281,4.711,4.711,2.198,6.282,5.083,1.570,0.000,0.000,1.197,-10.091,0.990,4.814,1.613,1.528,
36.280,42.212,0.811,-10.643,1.469,-0.001,6.266,4.158,0.000,1.077,1.025,1.548,4.290,2.756,2.386,2.245,0.000,0.000,1.035,0.000,0.000,0.000,0.000,0.000,0.000,0.000,0.000,0.000,0.000,0.000,3.142,6.283,0.000,1.003,1.569,1.569,4.085,6.281,1.199,4.712,0.000,0.000,0.544,-10.024,0.990,4.814,1.620,1.521,5.281,4.711,4.711,2.198,6.282,5.083,1.570,0.000,0.000,1.197,-10.091,0.990,4.814,1.613,1.528,
36.380,42.312,0.811,-10.643,1.469,-0.001,6.266,4.158,0.000,1.077,1.025,1.548,4.290,2.756,2.386,2.245,0.000,0.000,1.035,0.000,0.000,0.000,0.000,0.000,0.000,0.000,0.000,0.000,0.000,0.000,3.142,6.283,0.000,1.003,1.569,1.569,4.085,6.281,1.199,4.712,0.000,0.000,0.544,-10.024,0.990,4.814,1.620,1.521,5.281,4.711,4.711,2.198,6.282,5.083,1.570,0.000,0.000,1.197,-10.091,0.990,4.814,1.613,1.528,
36.480,42.412,0.811,-10.643,1.469,-0.001,6.266,4.158,0.000,1.077,1.025,1.548,4.290,2.756,2.386,2.245,0.000,0.000,1.035,0.000,0.000,0.000,0.000,0.000,0.000,0.000,0.000,0.000,0.000,0.000,3.142,6.283,0.000,1.003,1.569,1.569,4.085,6.281,1.199,4.712,0.000,0.000,0.544,-10.024,0.990,4.814,1.620,1.521,5.281,4.711,4.711,2.198,6.282,5.083,1.570,0.000,0.000,1.197,-10.091,0.990,4.814,1.613,1.528,
36.578,42.510,0.811,-10.643,1.469,-0.001,6.266,4.158,0.000,1.077,1.025,1.548,4.290,2.756,2.386,2.245,0.000,0.000,1.035,0.000,0.000,0.000,0.000,0.000,0.000,0.000,0.000,0.000,0.000,0.000,3.142,6.283,0.000,1.003,1.569,1.569,4.085,6.281,1.199,4.712,0.000,0.000,0.544,-10.024,0.990,4.814,1.620,1.521,5.281,4.711,4.711,2.198,6.282,5.083,1.570,0.000,0.000,1.197,-10.091,0.990,4.814,1.613,1.528,
36.680,42.612,0.811,-10.643,1.469,-0.001,6.266,4.158,0.000,1.077,1.025,1.548,4.290,2.756,2.386,2.245,0.000,0.000,1.035,0.000,0.000,0.000,0.000,0.000,0.000,0.000,0.000,0.000,0.000,0.000,3.142,6.283,0.000,1.003,1.569,1.569,4.085,6.281,1.199,4.712,0.000,0.000,0.544,-10.024,0.990,4.814,1.620,1.521,5.281,4.711,4.711,2.198,6.282,5.083,1.570,0.000,0.000,1.197,-10.091,0.990,4.814,1.613,1.528,
