deveshdatwani/Gopher/Assets/Data/07-21 10-48-10/Obstacle Handling_robot_value.csv
game_time,true_time,x,y,az,vx,vaz,dis_to_obs_0,dis_to_obs_36,dis_to_obs_72,dis_to_obs_108,dis_to_obs_144,dis_to_obs_180,dis_to_obs_-144,dis_to_obs_-108,dis_to_obs_-72,dis_to_obs_-36,dis_to_min_obs,direction_to_min_obs,dis_to_human_0,dis_to_human_36,dis_to_human_72,dis_to_human_108,dis_to_human_144,dis_to_human_180,dis_to_human_-144,dis_to_human_-108,dis_to_human_-72,dis_to_human_-36,dis_to_min_human,direction_to_min_human,main_cam_yaw,main_cam_pitch,left_joint_1,left_joint_2,left_joint_3,left_joint_4,left_joint_5,left_joint_6,left_joint_7,left_joint_gripper,left_is_grasping,left_end_x,left_end_y,left_end_z,left_end_ax,left_end_ay,left_end_az,right_joint_1,right_joint_2,right_joint_3,right_joint_4,right_joint_5,right_joint_6,right_joint_7,right_joint_gripper,right_is_grasping,right_end_x,right_end_y,right_end_z,right_end_ax,right_end_ay,right_end_az,
7.191,12.615,0.884,-9.912,1.767,1.005,6.271,3.491,0.000,1.492,1.245,2.743,0.000,2.872,2.129,0.000,3.732,0.000,3.142,0.000,0.000,0.000,0.000,0.000,0.000,0.000,0.000,0.000,0.000,0.000,3.142,6.282,0.000,1.003,1.569,1.569,4.145,6.281,1.199,4.712,0.000,0.000,0.443,-9.382,0.965,4.920,4.393,5.024,5.281,4.711,4.711,2.137,6.282,5.083,1.570,0.000,0.000,1.086,-9.253,0.966,4.920,4.393,5.025,
7.300,12.724,0.865,-9.815,1.767,0.995,6.271,3.393,0.000,1.577,1.223,2.694,0.000,2.898,2.148,0.000,3.627,0.000,3.142,0.000,3.054,0.000,0.000,0.000,0.000,0.000,0.000,0.000,0.000,0.000,3.142,6.282,0.000,1.004,1.569,1.569,4.107,6.281,1.199,4.712,0.000,0.000,0.426,-9.296,0.981,4.912,4.577,4.844,5.281,4.711,4.711,2.175,6.282,5.083,1.570,0.000,0.000,1.069,-9.167,0.981,4.912,4.577,4.845,
7.400,12.824,0.845,-9.718,1.768,1.012,6.269,3.294,0.000,1.663,1.200,2.645,0.000,2.924,2.168,0.000,3.521,0.000,3.142,0.000,2.950,0.000,0.000,0.000,0.000,0.000,0.000,0.000,0.000,0.000,3.142,6.282,0.000,1.004,1.569,1.569,4.085,6.281,1.199,4.712,0.000,0.000,0.407,-9.205,0.990,4.910,4.689,4.734,5.282,4.711,4.711,2.197,6.282,5.083,1.570,0.000,0.000,1.051,-9.076,0.990,4.910,4.689,4.735,
7.500,12.924,0.830,-9.640,1.771,1.019,0.240,3.216,0.000,1.725,1.184,2.627,0.000,2.935,2.183,0.000,3.430,0.000,3.142,0.000,2.936,0.000,0.000,0.000,0.000,0.000,0.000,0.000,0.000,0.000,3.142,0.000,0.000,1.003,1.570,1.571,4.086,6.281,1.199,4.712,0.000,0.000,0.391,-9.128,0.990,4.911,4.687,4.737,5.281,4.712,4.713,2.199,6.282,5.083,1.570,0.000,0.000,1.034,-8.997,0.991,4.911,4.693,4.731,
7.585,13.009,0.804,-9.523,1.857,1.010,1.351,3.168,0.000,1.661,1.222,3.237,0.000,2.764,1.798,0.000,3.193,0.000,3.142,0.000,2.992,0.000,0.000,0.000,0.000,0.000,0.000,0.000,0.000,0.000,3.142,0.002,0.000,1.003,1.571,1.572,4.086,6.281,1.199,4.712,0.000,0.000,0.324,-9.050,0.990,4.996,4.695,4.728,5.282,4.713,4.714,2.198,6.282,5.083,1.571,0.000,0.000,0.953,-8.865,0.991,4.996,4.702,4.722,
7.700,13.124,0.773,-9.428,1.976,1.013,1.025,3.333,0.000,1.550,1.306,0.000,3.631,2.586,1.838,4.389,2.542,0.000,3.036,0.000,0.000,0.000,0.000,0.000,0.000,0.000,0.000,0.000,0.000,0.000,3.142,0.001,0.000,1.004,1.569,1.568,4.085,6.282,1.199,4.712,0.000,0.000,0.237,-9.017,0.990,5.120,4.702,4.721,5.282,4.712,4.711,2.198,6.283,5.083,1.570,0.000,0.000,0.841,-8.758,0.991,5.119,4.703,4.720,
7.800,13.224,0.732,-9.337,2.005,1.021,6.258,2.665,0.000,1.562,1.284,0.000,3.778,2.592,2.286,4.124,2.883,0.000,3.036,0.000,0.000,0.000,0.000,0.000,0.000,0.000,0.000,0.000,0.000,0.000,3.142,6.282,0.000,1.004,1.569,1.567,4.084,6.281,1.199,4.712,0.000,0.000,0.185,-8.941,0.990,5.148,4.701,4.721,5.281,4.711,4.710,2.197,6.282,5.083,1.570,0.000,0.000,0.780,-8.665,0.990,5.148,4.701,4.722,
7.900,13.324,0.698,-9.264,2.004,1.012,6.276,2.590,0.000,1.597,1.279,0.000,3.857,2.631,0.000,4.021,2.810,0.000,3.036,0.000,0.000,0.000,0.000,0.000,0.000,0.000,0.000,0.000,0.000,0.000,3.142,6.282,0.000,1.004,1.569,1.569,4.084,6.281,1.199,4.712,0.000,0.000,0.152,-8.868,0.990,5.146,4.701,4.721,5.281,4.711,4.711,2.197,6.282,5.083,1.570,0.000,0.000,0.747,-8.592,0.990,5.147,4.701,4.722,
8.000,13.424,0.648,-9.156,2.004,1.006,6.274,2.478,0.000,1.297,1.320,0.000,3.975,2.689,0.000,3.223,2.700,0.000,3.036,0.000,0.000,0.000,0.000,0.000,0.000,0.000,0.000,0.000,0.000,0.000,3.142,6.282,0.000,1.004,1.569,1.569,4.084,6.281,1.199,4.712,0.000,0.000,0.103,-8.760,0.990,5.146,4.701,4.721,5.281,4.711,4.711,2.197,6.282,5.083,1.570,0.000,0.000,0.698,-8.484,0.990,5.146,4.701,4.722,
8.100,13.524,0.615,-9.084,2.003,1.011,6.273,2.402,0.000,1.214,1.348,0.000,4.054,2.727,0.000,3.130,2.627,0.000,3.071,0.000,0.000,0.000,0.000,0.000,0.000,0.000,0.000,0.000,0.000,0.000,3.142,6.282,0.000,1.004,1.569,1.569,4.084,6.281,1.199,4.712,0.000,0.000,0.069,-8.687,0.990,5.146,4.701,4.721,5.281,4.711,4.711,2.197,6.282,5.083,1.570,0.000,0.000,0.665,-8.412,0.990,5.146,4.701,4.722,
8.200,13.624,0.565,-8.976,2.017,1.014,0.571,2.279,0.000,1.102,1.389,0.000,4.201,2.763,0.000,3.551,2.511,0.000,3.036,0.000,0.000,0.000,0.000,0.000,0.000,0.000,0.000,0.000,0.000,0.000,3.142,0.001,0.000,1.003,1.571,1.572,4.086,6.281,1.199,4.712,0.000,0.000,0.016,-8.585,0.990,5.156,4.701,4.723,5.281,4.712,4.714,2.199,6.281,5.083,1.571,0.000,0.000,0.607,-8.302,0.991,5.156,4.704,4.720,
8.298,13.722,0.520,-8.886,2.109,1.010,1.401,2.457,0.000,1.079,1.427,0.000,4.422,2.694,0.000,3.142,2.393,0.000,2.966,0.000,0.000,0.000,0.000,0.000,0.000,0.000,0.000,0.000,0.000,0.000,3.142,0.002,0.000,1.003,1.571,1.571,4.086,6.281,1.199,4.712,0.000,0.000,-0.063,-8.548,0.990,5.248,4.703,4.720,5.282,4.713,4.714,2.198,6.282,5.083,1.571,0.000,0.000,0.501,-8.212,0.991,5.248,4.707,4.717,
8.400,13.824,0.466,-8.802,2.230,1.016,1.195,0.000,0.000,1.091,1.476,0.000,4.139,2.222,0.000,2.766,2.305,0.000,2.826,0.000,0.000,0.000,0.000,0.000,0.000,0.000,0.000,0.000,0.000,0.000,3.142,0.001,0.000,1.003,1.570,1.569,4.085,6.282,1.199,4.712,0.000,0.000,-0.154,-8.538,0.990,5.372,4.705,4.717,5.282,4.712,4.712,2.198,6.283,5.083,1.570,0.000,0.000,0.365,-8.136,0.991,5.371,4.707,4.716,
8.494,13.918,0.403,-8.724,2.313,1.023,0.817,4.942,0.000,1.054,1.519,0.000,3.843,2.242,0.000,2.540,2.242,0.000,2.755,0.000,0.000,0.000,0.000,0.000,0.000,0.000,0.000,0.000,0.000,0.000,3.142,0.001,0.000,1.003,1.570,1.569,4.085,6.282,1.199,4.712,0.000,0.000,-0.238,-8.512,0.990,5.455,4.705,4.717,5.282,4.712,4.712,2.198,6.282,5.083,1.570,0.000,0.000,0.246,-8.068,0.991,5.455,4.707,4.716,
8.600,14.024,0.334,-8.652,2.385,1.012,0.938,4.510,3.604,0.991,1.561,0.000,3.666,2.803,4.429,2.369,2.195,0.000,2.685,0.000,0.000,0.000,0.000,0.000,0.000,0.000,0.000,0.000,0.000,0.000,3.142,0.001,0.000,1.003,1.570,1.570,4.086,6.281,1.199,4.712,0.000,0.000,-0.320,-8.486,0.990,5.526,4.705,4.716,5.282,4.712,4.713,2.198,6.282,5.083,1.570,0.000,0.000,0.131,-8.009,0.991,5.526,4.708,4.715,
8.697,14.121,0.260,-8.585,2.474,1.008,1.081,0.000,3.511,0.945,1.618,0.000,3.489,0.000,3.714,2.214,2.175,0.000,2.615,2.155,0.000,0.000,0.000,0.000,0.000,0.000,0.000,0.000,0.000,0.000,3.142,0.001,0.000,1.003,1.570,1.570,4.085,6.282,1.199,4.712,0.000,0.000,-0.406,-8.478,0.990,5.615,4.706,4.715,5.282,4.712,4.713,2.198,6.282,5.083,1.571,0.000,0.000,0.000,-7.963,0.991,5.615,4.708,4.714,
8.800,14.224,0.182,-8.526,2.533,0.976,0.224,0.000,3.435,0.820,1.654,0.000,3.434,0.000,3.324,2.110,2.279,0.000,2.580,2.098,0.000,0.000,0.000,0.000,0.000,0.000,0.000,0.000,0.000,0.000,3.142,6.283,0.000,1.004,1.568,1.567,4.085,6.282,1.199,4.712,0.000,0.000,-0.490,-8.461,0.990,5.678,4.706,4.714,5.281,4.711,4.709,2.198,6.283,5.083,1.570,0.000,0.000,-0.115,-7.922,0.990,5.678,4.707,4.714,
8.893,14.318,0.104,-8.472,2.534,0.952,6.271,0.000,3.357,0.762,1.635,0.000,3.526,0.000,3.232,2.054,1.633,0.000,2.791,2.004,0.000,0.000,0.000,0.000,0.000,0.000,0.000,0.000,0.000,0.000,3.142,6.282,0.000,1.004,1.569,1.569,4.085,6.281,1.199,4.712,0.000,0.000,-0.567,-8.406,0.990,5.676,4.707,4.715,5.281,4.711,4.711,2.197,6.282,5.083,1.570,0.000,0.000,-0.193,-7.867,0.990,5.676,4.707,4.715,
9.000,14.424,0.027,-8.419,2.534,0.970,6.270,0.000,3.280,0.770,1.616,0.000,3.620,0.000,3.144,1.998,1.820,0.000,2.791,1.908,0.000,0.000,0.000,0.000,0.000,0.000,0.000,0.000,0.000,0.000,3.142,6.282,0.000,1.004,1.569,1.569,4.084,6.281,1.199,4.712,0.000,0.000,-0.644,-8.353,0.990,5.677,4.707,4.715,5.281,4.711,4.711,2.198,6.282,5.083,1.570,0.000,0.000,-0.271,-7.814,0.990,5.677,4.707,4.715,
9.090,14.514,-0.036,-8.375,2.534,0.981,6.269,0.000,3.217,0.777,1.601,0.000,3.697,0.000,3.072,1.952,1.678,0.000,2.826,1.831,0.000,0.000,0.000,0.000,0.000,0.000,0.000,0.000,0.000,0.000,3.142,6.282,0.000,1.004,1.569,1.569,4.085,6.281,1.199,4.712,0.000,0.000,-0.708,-8.309,0.990,5.677,4.707,4.715,5.281,4.711,4.711,2.198,6.282,5.083,1.570,0.000,0.000,-0.334,-7.770,0.990,5.677,4.707,4.715,
9.200,14.624,-0.131,-8.309,2.535,0.972,6.268,0.000,3.122,0.787,1.577,0.000,3.812,0.000,2.963,1.883,1.608,0.000,2.826,1.714,0.000,0.000,0.000,0.000,0.000,0.000,0.000,0.000,0.000,0.000,3.142,6.282,0.000,1.004,1.569,1.569,4.085,6.281,1.199,4.712,0.000,0.000,-0.802,-8.243,0.990,5.677,4.707,4.715,5.281,4.711,4.711,2.198,6.282,5.083,1.570,0.000,0.000,-0.429,-7.704,0.990,5.677,4.707,4.715,
9.289,14.713,-0.209,-8.255,2.535,0.967,6.268,0.000,3.044,0.796,1.558,0.000,3.907,0.000,2.874,1.827,1.550,0.000,2.861,1.618,0.000,0.000,0.000,0.000,0.000,0.000,0.000,0.000,0.000,0.000,3.142,6.282,0.000,1.004,1.569,1.569,4.085,6.281,1.199,4.712,0.000,0.000,-0.881,-8.189,0.990,5.677,4.707,4.715,5.281,4.711,4.711,2.198,6.282,5.083,1.570,0.000,0.000,-0.507,-7.650,0.990,5.677,4.707,4.715,
9.400,14.824,-0.287,-8.200,2.535,0.971,6.267,0.000,2.965,0.804,0.775,0.000,4.001,0.000,2.784,1.770,1.493,0.000,2.861,1.522,0.000,0.000,0.000,0.000,0.000,0.000,0.000,0.000,0.000,0.000,3.142,6.282,0.000,1.004,1.569,1.569,4.085,6.281,1.199,4.712,0.000,0.000,-0.959,-8.135,0.990,5.677,4.707,4.715,5.281,4.711,4.711,2.198,6.282,5.083,1.570,0.000,0.000,-0.585,-7.596,0.990,5.677,4.707,4.715,
9.487,14.911,-0.350,-8.157,2.535,0.974,6.267,0.000,2.902,0.811,0.781,0.000,4.077,0.000,1.989,1.725,1.446,0.000,2.896,1.445,0.000,0.000,0.000,0.000,0.000,0.000,0.000,0.000,0.000,0.000,3.142,6.282,0.000,1.004,1.569,1.569,4.085,6.281,1.199,4.712,0.000,0.000,-1.022,-8.091,0.990,5.677,4.707,4.715,5.281,4.711,4.711,2.198,6.282,5.083,1.570,0.000,0.000,-0.648,-7.552,0.990,5.677,4.707,4.715,
9.600,15.024,-0.445,-8.091,2.536,0.972,6.268,0.000,2.808,0.821,0.791,0.000,4.191,0.000,2.604,1.657,1.377,0.000,2.931,1.327,0.000,0.000,0.000,0.000,0.000,0.000,0.000,0.000,0.000,0.000,3.142,6.282,0.000,1.004,1.569,1.569,4.085,6.281,1.199,4.712,0.000,0.000,-1.116,-8.026,0.990,5.678,4.707,4.715,5.281,4.711,4.711,2.198,6.282,5.083,1.570,0.000,0.000,-0.743,-7.487,0.990,5.678,4.707,4.715,
9.682,15.106,-0.507,-8.048,2.536,0.970,6.267,0.000,2.745,1.774,0.798,0.000,4.267,0.000,2.532,1.611,1.331,0.000,2.931,1.245,0.000,0.000,0.000,0.000,0.000,0.000,0.000,0.000,0.000,0.000,3.142,6.282,0.000,1.004,1.569,1.569,4.085,6.281,1.199,4.712,0.000,0.000,-1.179,-7.983,0.990,5.678,4.707,4.715,5.281,4.711,4.711,2.198,6.282,5.083,1.570,0.000,0.000,-0.806,-7.443,0.990,5.678,4.707,4.715,
9.800,15.224,-0.602,-7.983,2.536,0.971,6.266,0.000,2.669,3.074,0.807,0.000,4.380,0.000,2.424,1.543,0.000,0.000,2.966,1.120,0.000,0.000,0.000,0.000,0.000,0.000,0.000,0.000,0.000,0.000,3.142,6.282,0.000,1.004,1.569,1.569,4.085,6.281,1.199,4.712,0.000,0.000,-1.273,-7.918,0.990,5.678,4.707,4.715,5.281,4.711,4.711,2.198,6.282,5.083,1.570,0.000,0.000,-0.900,-7.378,0.990,5.678,4.707,4.715,
9.900,15.324,-0.664,-7.939,2.536,0.972,6.266,0.000,0.000,2.994,0.814,0.000,4.456,0.000,2.352,1.498,0.000,0.000,2.966,1.041,0.000,0.000,0.000,0.000,0.000,0.000,0.000,0.000,0.000,0.000,3.142,6.282,0.000,1.004,1.569,1.569,4.085,6.281,1.199,4.712,0.000,0.000,-1.336,-7.875,0.990,5.678,4.707,4.715,5.281,4.711,4.711,2.198,6.282,5.083,1.570,0.000,0.000,-0.963,-7.335,0.990,5.679,4.707,4.715,
9.998,15.422,-0.731,-7.893,2.559,0.350,0.734,0.000,0.000,2.963,0.826,0.000,4.468,0.000,2.212,0.988,0.000,0.000,2.966,0.967,0.000,0.000,0.000,0.000,0.000,0.000,0.000,0.000,0.000,0.000,3.142,0.004,0.001,1.000,1.572,1.574,4.091,6.280,1.200,4.712,0.000,0.000,-1.404,-7.839,0.989,5.694,4.703,4.717,5.281,4.714,4.716,2.199,6.281,5.083,1.571,0.000,0.000,-1.041,-7.293,0.991,5.695,4.708,4.715,
10.100,15.524,-0.748,-7.883,2.660,0.180,1.298,0.000,2.537,1.777,0.856,0.000,3.780,0.000,1.962,1.591,3.502,0.000,2.896,0.967,0.000,0.000,0.000,0.000,0.000,0.000,0.000,0.000,0.000,0.000,3.142,0.001,0.000,1.003,1.569,1.569,4.085,6.281,1.199,4.712,0.000,0.000,-1.423,-7.901,0.990,5.802,4.708,4.714,5.282,4.712,4.712,2.198,6.282,5.083,1.570,0.000,0.000,-1.119,-7.319,0.991,5.801,4.709,4.713,
10.192,15.616,-0.773,-7.871,2.723,0.408,0.125,0.000,2.545,1.693,0.878,0.000,3.693,0.000,1.832,1.077,3.460,0.000,2.826,0.979,0.000,0.000,0.000,0.000,0.000,0.000,0.000,0.000,0.000,0.000,3.142,6.281,0.000,1.005,1.567,1.565,4.083,6.282,1.199,4.711,0.000,0.000,-1.445,-7.936,0.990,5.871,4.708,4.712,5.282,4.710,4.708,2.198,6.283,5.083,1.570,0.000,0.000,-1.180,-7.335,0.991,5.870,4.708,4.713,
10.300,15.724,-0.814,-7.853,2.723,0.478,6.274,0.000,2.502,1.717,0.872,0.000,3.739,0.000,1.808,1.059,3.438,0.000,2.826,0.933,0.000,0.000,0.000,0.000,0.000,0.000,0.000,0.000,0.000,0.000,3.142,6.282,0.001,1.004,1.569,1.569,4.085,6.281,1.199,4.712,0.000,0.000,-1.486,-7.914,0.990,5.865,4.707,4.714,5.281,4.711,4.711,2.197,6.282,5.083,1.570,0.000,0.000,-1.220,-7.314,0.990,5.865,4.707,4.714,
10.397,15.821,-0.851,-7.836,2.717,0.338,5.961,0.000,2.461,1.747,0.865,0.000,3.788,0.000,1.795,1.043,3.408,0.000,2.861,0.894,0.000,0.000,0.000,0.000,0.000,0.000,0.000,0.000,0.000,0.000,3.142,6.282,0.001,1.004,1.569,1.568,4.085,6.281,1.199,4.712,0.000,0.000,-1.523,-7.895,0.990,5.861,4.707,4.713,5.281,4.711,4.710,2.197,6.282,5.083,1.570,0.000,0.000,-1.254,-7.296,0.990,5.861,4.706,4.714,
10.500,15.924,-0.875,-7.825,2.646,0.267,4.999,0.000,2.403,3.005,0.837,0.000,4.406,0.000,1.908,1.042,3.317,0.000,2.931,0.846,0.000,0.000,0.000,0.000,0.000,0.000,0.000,0.000,0.000,0.000,3.142,6.280,0.001,1.004,1.567,1.566,4.084,6.281,1.199,4.712,0.000,0.000,-1.551,-7.836,0.990,5.792,4.707,4.713,5.282,4.710,4.709,2.197,6.282,5.083,1.570,0.000,0.000,-1.239,-7.258,0.990,5.791,4.707,4.714,
10.600,16.024,-0.899,-7.811,2.514,0.332,4.832,0.000,0.000,2.646,0.822,1.210,4.817,0.000,2.207,1.374,0.000,0.000,3.071,0.802,0.000,0.000,0.000,0.000,0.000,0.000,0.000,0.000,0.000,0.000,3.142,6.280,0.000,1.004,1.568,1.568,4.084,6.281,1.199,4.712,0.000,0.000,-1.570,-7.732,0.990,5.658,4.707,4.715,5.282,4.711,4.711,2.197,6.282,5.083,1.570,0.000,0.000,-1.185,-7.200,0.991,5.657,4.708,4.715,
10.700,16.124,-0.921,-7.795,2.423,0.364,5.161,0.000,0.000,2.457,1.465,1.100,0.000,0.000,2.498,1.402,0.000,0.000,3.142,0.787,0.000,0.000,0.000,0.000,0.000,0.000,0.000,0.000,0.000,0.000,3.142,6.281,0.001,1.004,1.569,1.569,4.085,6.281,1.199,4.712,0.000,0.000,-1.581,-7.655,0.990,5.565,4.706,4.715,5.282,4.712,4.711,2.197,6.282,5.083,1.570,0.000,0.000,-1.149,-7.160,0.991,5.565,4.708,4.715,
10.795,16.219,-0.951,-7.767,2.324,0.339,5.399,0.000,0.000,2.760,1.564,1.019,0.000,0.000,2.940,0.941,4.427,0.000,3.142,0.778,0.000,0.000,0.000,0.000,0.000,0.000,0.000,0.000,0.000,0.000,3.142,6.281,0.001,1.004,1.569,1.568,4.085,6.281,1.199,4.712,0.000,0.000,-1.594,-7.562,0.990,5.466,4.705,4.716,5.282,4.711,4.711,2.197,6.282,5.083,1.570,0.000,0.000,-1.115,-7.113,0.990,5.466,4.706,4.717,
10.900,16.324,-0.972,-7.744,2.241,0.323,5.259,0.000,4.800,2.453,1.667,0.970,0.000,4.730,2.312,0.961,0.000,0.000,3.142,0.784,0.000,0.000,0.000,0.000,0.000,0.000,0.000,0.000,0.000,0.000,3.142,6.281,0.001,1.004,1.569,1.567,4.085,6.281,1.199,4.712,0.000,0.000,-1.596,-7.487,0.990,5.385,4.705,4.717,5.282,4.711,4.710,2.197,6.282,5.083,1.570,0.000,0.000,-1.082,-7.079,0.990,5.384,4.705,4.717,
11.000,16.424,-0.991,-7.719,2.146,0.334,5.176,0.000,3.445,2.355,3.306,0.929,0.000,3.968,4.600,1.556,0.921,0.000,3.142,0.799,0.000,0.000,0.000,0.000,0.000,0.000,0.000,0.000,0.000,0.000,3.142,6.280,0.001,1.004,1.569,1.568,4.085,6.281,1.199,4.712,0.000,0.000,-1.588,-7.404,0.990,5.290,4.704,4.718,5.282,4.711,4.710,2.197,6.282,5.083,1.570,0.000,0.000,-1.037,-7.046,0.991,5.289,4.704,4.718,
11.100,16.524,-1.008,-7.691,2.050,0.343,5.210,0.000,2.398,2.283,2.926,0.903,0.000,4.027,0.000,1.654,0.901,0.000,3.142,0.828,0.000,0.000,0.000,0.000,0.000,0.000,0.000,0.000,0.000,0.000,3.142,6.281,0.001,1.004,1.569,1.568,4.085,6.281,1.199,4.712,0.000,0.000,-1.572,-7.321,0.990,5.194,4.702,4.720,5.282,4.711,4.711,2.197,6.282,5.083,1.570,0.000,0.000,-0.990,-7.017,0.991,5.193,4.703,4.720,
11.200,16.624,-1.021,-7.664,1.993,0.289,6.104,0.000,2.429,0.000,2.740,1.092,1.446,4.626,0.000,1.714,0.882,0.000,1.281,0.853,0.000,0.000,0.000,0.000,0.000,0.000,0.000,0.000,0.000,0.000,3.142,6.282,0.000,1.003,1.570,1.572,4.086,6.281,1.199,4.712,0.000,0.000,-1.561,-7.260,0.990,5.131,4.700,4.723,5.282,4.712,4.713,2.198,6.281,5.083,1.571,0.000,0.000,-0.963,-6.991,0.991,5.132,4.702,4.722,
11.300,16.724,-1.030,-7.645,1.993,0.256,6.269,0.000,2.390,0.000,2.729,1.140,1.466,4.636,0.000,1.687,0.863,0.000,1.281,0.862,0.000,0.000,0.000,0.000,0.000,0.000,0.000,0.000,0.000,0.000,3.142,6.283,0.000,1.003,1.569,1.569,4.086,6.281,1.199,4.712,0.000,0.000,-1.571,-7.242,0.990,5.134,4.700,4.723,5.281,4.711,4.711,2.198,6.282,5.083,1.570,0.000,0.000,-0.972,-6.974,0.990,5.135,4.702,4.722,
11.392,16.816,-1.042,-7.618,1.993,0.286,6.272,0.000,2.336,0.000,2.714,1.209,0.000,4.648,0.000,1.645,0.835,0.000,3.142,0.943,0.000,0.000,0.000,0.000,0.000,0.000,0.000,0.000,0.000,0.000,3.142,6.282,0.000,1.004,1.569,1.569,4.085,6.281,1.199,4.712,0.000,0.000,-1.583,-7.215,0.990,5.135,4.701,4.722,5.281,4.711,4.711,2.198,6.282,5.083,1.570,0.000,0.000,-0.985,-6.946,0.990,5.135,4.701,4.722,
11.500,16.924,-1.053,-7.592,1.994,0.303,6.260,0.000,2.285,0.000,2.699,1.274,0.000,4.202,0.000,1.606,0.809,0.000,3.142,1.083,0.000,0.000,0.000,0.000,0.000,0.000,0.000,0.000,0.000,0.000,3.142,6.283,0.000,1.004,1.569,1.569,4.085,6.281,1.199,4.712,0.000,0.000,-1.595,-7.190,0.990,5.136,4.700,4.722,5.281,4.711,4.711,2.198,6.282,5.083,1.570,0.000,0.000,-0.997,-6.921,0.990,5.136,4.701,4.722,
11.600,17.024,-1.065,-7.567,1.994,0.286,6.272,0.000,2.234,0.000,2.684,1.338,0.000,4.214,0.000,1.568,0.783,0.000,3.142,1.208,0.000,0.000,0.000,0.000,0.000,0.000,0.000,0.000,0.000,0.000,3.142,6.283,0.000,1.003,1.569,1.569,4.085,6.281,1.199,4.712,0.000,0.000,-1.607,-7.165,0.990,5.136,4.700,4.722,5.281,4.711,4.711,2.198,6.282,5.083,1.570,0.000,0.000,-1.009,-6.895,0.990,5.136,4.701,4.722,
11.700,17.124,-1.075,-7.544,2.003,0.390,0.427,2.936,2.222,0.000,2.693,1.365,0.000,4.205,0.000,0.883,0.758,0.000,3.142,0.000,0.000,0.000,0.000,0.000,0.000,0.000,0.000,0.000,0.000,0.000,3.142,6.283,0.000,1.004,1.570,1.571,4.084,6.281,1.199,4.712,0.000,0.000,-1.619,-7.147,0.990,5.143,4.702,4.721,5.281,4.712,4.713,2.199,6.282,5.083,1.570,0.000,0.000,-1.024,-6.872,0.991,5.143,4.704,4.720,
11.791,17.215,-1.100,-7.495,2.106,0.522,1.403,3.049,2.202,2.488,2.974,1.179,0.000,4.164,2.446,1.313,1.304,0.000,3.142,0.000,0.000,0.000,0.000,0.000,0.000,0.000,0.000,0.000,0.000,0.000,3.142,0.001,0.000,1.003,1.570,1.571,4.085,6.281,1.199,4.712,0.000,0.000,-1.682,-7.155,0.990,5.246,4.703,4.719,5.282,4.712,4.713,2.198,6.282,5.083,1.571,0.000,0.000,-1.118,-6.820,0.991,5.246,4.707,4.717,
11.900,17.324,-1.127,-7.452,2.221,0.617,0.942,3.023,3.369,2.269,3.427,1.166,0.000,0.000,2.827,0.789,0.000,0.000,3.142,0.000,0.000,0.000,0.000,0.000,0.000,0.000,0.000,0.000,1.336,0.000,3.142,6.282,0.000,1.005,1.568,1.566,4.082,6.282,1.199,4.712,0.000,0.000,-1.747,-7.184,0.990,5.367,4.708,4.715,5.282,4.711,4.709,2.197,6.283,5.083,1.570,0.000,0.000,-1.225,-6.785,0.991,5.366,4.706,4.716,
11.993,17.417,-1.183,-7.381,2.246,1.181,6.262,2.845,0.000,2.231,3.459,1.226,0.000,0.000,2.448,0.693,0.000,0.000,3.142,0.000,0.000,0.000,0.000,0.000,0.000,0.000,0.000,0.000,1.337,0.000,3.142,6.280,0.000,1.007,1.567,1.566,4.080,6.282,1.199,4.712,0.000,0.000,-1.809,-7.130,0.990,5.393,4.709,4.714,5.282,4.710,4.708,2.197,6.282,5.083,1.570,0.000,0.000,-1.298,-6.718,0.990,5.392,4.705,4.717,
12.100,17.524,-1.260,-7.285,2.246,1.208,6.276,2.725,3.061,2.167,3.310,1.358,0.000,0.000,2.184,0.579,0.000,0.000,3.142,0.000,0.000,0.000,0.000,0.000,0.000,0.000,0.000,0.000,1.474,0.000,3.142,6.283,0.001,1.003,1.569,1.569,4.086,6.281,1.199,4.712,0.000,0.000,-1.885,-7.031,0.990,5.388,4.704,4.718,5.281,4.711,4.711,2.197,6.282,5.083,1.570,0.000,0.000,-1.373,-6.621,0.990,5.388,4.705,4.718,
12.198,17.622,-1.325,-7.204,2.246,0.919,6.274,2.624,2.884,2.384,3.185,1.530,0.000,0.000,0.873,0.607,3.832,0.000,3.142,0.000,0.000,0.000,0.000,0.000,0.000,0.000,0.000,0.000,0.000,0.000,3.142,6.283,0.001,1.003,1.570,1.570,4.087,6.281,1.199,4.712,0.000,0.000,-1.950,-6.949,0.990,5.387,4.703,4.719,5.281,4.711,4.712,2.197,6.282,5.083,1.570,0.000,0.000,-1.437,-6.539,0.990,5.387,4.705,4.718,
12.300,17.724,-1.379,-7.136,2.246,0.913,6.272,2.539,1.927,4.961,3.081,1.673,0.000,0.000,1.770,0.707,3.736,0.000,3.142,0.000,0.000,0.000,0.000,0.000,0.000,0.000,0.000,0.000,0.000,0.000,3.142,6.282,0.000,1.004,1.569,1.568,4.084,6.281,1.199,4.712,0.000,0.000,-2.004,-6.882,0.990,5.388,4.706,4.717,5.281,4.711,4.710,2.197,6.282,5.083,1.570,0.000,0.000,-1.493,-6.472,0.990,5.388,4.705,4.718,
12.400,17.824,-1.440,-7.060,2.245,1.062,6.271,2.444,1.717,0.000,2.965,1.834,0.000,0.000,0.729,0.820,3.628,0.000,3.142,0.000,0.000,0.000,0.000,0.000,0.000,0.000,0.000,0.000,0.000,0.000,3.142,6.281,0.000,1.005,1.569,1.568,4.083,6.281,1.199,4.712,0.000,0.000,-2.065,-6.806,0.990,5.388,4.706,4.716,5.281,4.711,4.710,2.197,6.282,5.083,1.570,0.000,0.000,-1.553,-6.396,0.990,5.388,4.705,4.718,
12.490,17.914,-1.493,-6.994,2.240,1.052,5.987,2.376,1.665,0.000,2.842,1.987,0.000,0.000,0.552,0.910,3.544,0.000,3.142,0.000,0.000,0.000,0.000,0.000,0.000,0.000,0.000,0.000,0.000,0.000,3.142,6.281,0.001,1.004,1.568,1.567,4.085,6.281,1.199,4.712,0.000,0.000,-2.117,-6.737,0.990,5.385,4.705,4.717,5.281,4.710,4.710,2.197,6.282,5.083,1.570,0.000,0.000,-1.603,-6.329,0.990,5.385,4.704,4.718,
12.600,18.024,-1.563,-6.903,2.152,0.916,4.967,2.547,1.524,0.000,2.628,2.255,0.000,0.000,0.588,0.919,3.589,0.000,3.142,0.000,0.000,0.000,0.000,0.000,0.000,0.000,0.000,0.000,0.000,0.000,3.142,6.280,0.001,1.004,1.568,1.566,4.085,6.281,1.199,4.712,0.000,0.000,-2.164,-6.592,0.990,5.298,4.703,4.718,5.282,4.710,4.709,2.197,6.282,5.083,1.570,0.000,0.000,-1.615,-6.231,0.990,5.297,4.704,4.718,
12.696,18.120,-1.602,-6.842,2.054,0.922,4.929,2.214,1.544,0.000,2.430,2.330,2.372,0.000,0.615,0.876,4.082,0.000,1.527,0.000,0.000,0.000,0.000,0.000,0.000,0.000,0.000,0.000,0.000,0.000,3.142,6.280,0.001,1.004,1.568,1.567,4.085,6.281,1.199,4.712,0.000,0.000,-2.168,-6.474,0.990,5.198,4.702,4.720,5.282,4.711,4.710,2.197,6.282,5.083,1.570,0.000,0.000,-1.587,-6.168,0.991,5.197,4.704,4.718,
12.800,18.224,-1.651,-6.740,1.935,0.994,5.367,1.982,1.589,4.562,2.102,4.275,2.110,0.000,0.655,0.847,3.139,0.000,1.667,0.000,0.000,0.000,0.000,0.000,0.000,0.000,0.000,0.000,0.000,0.000,3.142,6.280,0.000,1.004,1.569,1.568,4.084,6.281,1.199,4.712,0.000,0.000,-2.169,-6.307,0.990,5.078,4.699,4.723,5.282,4.711,4.711,2.197,6.282,5.083,1.570,0.000,0.000,-1.555,-6.072,0.991,5.077,4.701,4.722,
12.900,18.324,-1.684,-6.648,1.860,0.987,5.407,2.207,1.631,1.421,2.462,4.341,2.029,0.000,0.688,0.841,3.113,0.000,2.720,0.000,0.000,0.000,0.000,0.000,0.000,0.000,0.000,0.000,0.000,0.000,3.142,6.281,0.001,1.004,1.569,1.568,4.085,6.281,1.199,4.712,0.000,0.000,-2.168,-6.177,0.990,5.003,4.695,4.727,5.282,4.711,4.710,2.197,6.282,5.083,1.570,0.000,0.000,-1.539,-5.989,0.990,5.003,4.697,4.726,
13.000,18.424,-1.705,-6.574,1.794,0.957,5.281,0.000,1.690,1.297,4.595,3.546,2.224,0.000,0.711,1.412,3.161,0.000,2.791,0.000,0.000,0.000,0.000,0.000,0.000,0.000,0.000,0.000,0.000,0.000,3.142,6.281,0.001,1.004,1.569,1.567,4.085,6.281,1.199,4.712,0.000,0.000,-2.158,-6.073,0.990,4.938,4.690,4.732,5.282,4.711,4.710,2.197,6.282,5.083,1.570,0.000,0.000,-1.517,-5.927,0.990,4.937,4.692,4.731,
13.100,18.524,-1.727,-6.464,1.684,0.957,5.238,4.417,1.843,1.293,4.973,2.865,2.711,0.000,0.744,1.355,2.555,0.000,2.896,0.000,0.000,0.000,0.000,0.000,0.000,0.000,0.000,0.000,0.000,0.000,3.142,6.280,0.001,1.004,1.568,1.567,4.085,6.281,1.199,4.712,0.000,0.000,-2.121,-5.916,0.990,4.828,4.671,4.752,5.282,4.711,4.710,2.197,6.282,5.083,1.570,0.000,0.000,-1.469,-5.841,0.991,4.827,4.675,4.749,
13.183,18.607,-1.735,-6.388,1.612,0.974,5.285,3.290,1.985,1.305,0.000,2.874,2.771,0.000,0.765,1.323,2.275,0.000,2.966,0.000,0.000,0.000,0.000,0.000,0.000,0.000,0.000,0.000,0.000,0.000,3.142,6.280,0.001,1.004,1.568,1.567,4.085,6.281,1.199,4.712,0.000,0.000,-2.089,-5.813,0.990,4.756,4.604,4.820,5.282,4.711,4.710,2.197,6.282,5.083,1.570,0.000,0.000,-1.433,-5.786,0.991,4.755,4.612,4.812,
13.300,18.724,-1.736,-6.273,1.513,0.985,5.542,2.858,1.654,1.344,0.000,2.486,2.889,0.000,0.792,1.282,4.395,0.000,3.071,0.000,0.000,0.000,0.000,0.000,0.000,0.000,0.000,0.000,0.000,0.000,3.142,6.281,0.000,1.004,1.569,1.569,4.085,6.281,1.199,4.712,0.000,0.000,-2.031,-5.666,0.990,4.770,1.655,1.486,5.282,4.711,4.711,2.198,6.281,5.083,1.570,0.000,0.000,-1.376,-5.703,0.991,4.770,1.643,1.498,
13.400,18.824,-1.730,-6.174,1.490,1.022,6.280,2.803,1.511,1.363,1.424,2.473,2.993,0.000,0.792,1.267,4.329,0.000,3.106,0.000,0.000,0.000,0.000,0.000,0.000,0.000,0.000,0.000,0.000,0.000,3.142,6.282,0.000,1.004,1.570,1.570,4.085,6.281,1.199,4.712,0.000,0.000,-2.009,-5.560,0.990,4.794,1.628,1.513,5.281,4.711,4.712,2.198,6.282,5.083,1.570,0.000,0.000,-1.355,-5.613,0.990,4.794,1.624,1.517,
13.487,18.911,-1.723,-6.093,1.490,1.026,6.262,2.722,1.416,1.370,1.322,2.575,3.074,0.000,0.784,1.261,2.105,0.000,3.106,0.000,0.000,0.000,0.000,0.000,0.000,0.000,0.000,0.000,0.000,0.000,3.142,6.283,0.000,1.004,1.569,1.569,4.085,6.281,1.199,4.712,0.000,0.000,-2.003,-5.480,0.990,4.793,1.631,1.510,5.281,4.711,4.711,2.198,6.282,5.083,1.570,0.000,0.000,-1.350,-5.532,0.990,4.793,1.626,1.515,
13.600,19.024,-1.713,-5.974,1.470,1.006,5.609,2.641,1.258,1.391,1.325,2.775,0.000,0.000,0.781,1.244,1.984,0.000,3.142,0.000,0.000,0.000,0.000,0.000,0.000,0.000,0.000,0.000,0.000,0.000,3.142,6.281,0.001,1.004,1.568,1.566,4.084,6.281,1.199,4.711,0.000,0.000,-1.984,-5.355,0.990,4.809,1.617,1.523,5.281,4.710,4.708,2.197,6.282,5.083,1.570,0.000,0.000,-1.330,-5.420,0.990,4.810,1.625,1.515,
13.700,19.124,-1.702,-5.875,1.392,1.008,5.530,3.354,1.429,1.455,1.316,0.000,0.000,0.000,0.797,1.215,4.310,0.000,3.142,0.000,0.000,0.000,0.000,0.000,0.000,0.000,0.000,0.000,0.000,0.000,3.142,6.281,0.000,1.004,1.569,1.569,4.085,6.281,1.199,4.712,0.000,0.000,-1.921,-5.237,0.990,4.890,1.599,1.542,5.282,4.711,4.711,2.198,6.282,5.083,1.570,0.000,0.000,-1.275,-5.353,0.991,4.891,1.594,1.547,
13.781,19.205,-1.687,-5.797,1.369,1.014,0.009,3.054,1.533,1.490,1.326,0.000,0.000,0.000,0.790,1.146,4.304,0.000,3.142,0.000,0.000,0.000,0.000,0.000,0.000,0.000,0.000,0.000,0.000,0.000,3.142,6.282,0.000,1.004,1.570,1.571,4.085,6.281,1.199,4.712,0.000,0.000,-1.890,-5.154,0.990,4.917,1.594,1.548,5.282,4.712,4.713,2.198,6.281,5.083,1.571,0.000,0.000,-1.247,-5.286,0.991,4.916,1.592,1.550,
13.900,19.324,-1.663,-5.680,1.369,1.012,6.262,2.934,1.586,1.516,1.350,0.000,0.000,0.000,0.981,1.122,1.756,0.000,3.142,0.000,0.000,0.000,0.000,0.000,0.000,0.000,0.000,0.000,0.000,0.000,3.142,6.283,0.000,1.004,1.569,1.569,4.085,6.281,1.199,4.712,0.000,0.000,-1.867,-5.037,0.990,4.914,1.595,1.546,5.281,4.711,4.711,2.198,6.282,5.083,1.570,0.000,0.000,-1.224,-5.168,0.990,4.914,1.593,1.548,
13.985,19.409,-1.643,-5.583,1.370,1.011,6.262,2.835,1.629,1.538,1.370,0.000,0.000,0.000,1.183,0.000,1.613,0.000,3.142,0.000,0.000,0.000,0.000,0.000,0.000,0.000,0.000,2.485,0.000,0.000,3.142,6.282,0.000,1.004,1.569,1.569,4.085,6.281,1.199,4.712,0.000,0.000,-1.848,-4.940,0.990,4.913,1.595,1.546,5.281,4.711,4.711,2.198,6.282,5.083,1.570,0.000,0.000,-1.205,-5.070,0.990,4.913,1.593,1.548,
14.100,19.524,-1.623,-5.485,1.371,1.012,6.263,2.735,3.169,1.244,1.391,0.000,0.000,0.000,1.285,0.000,1.476,0.000,3.142,0.000,0.000,0.000,0.000,0.000,0.000,0.000,0.000,2.593,0.000,0.000,3.142,6.282,0.000,1.004,1.569,1.569,4.085,6.281,1.199,4.712,0.000,0.000,-1.829,-4.842,0.990,4.912,1.595,1.546,5.281,4.711,4.711,2.198,6.282,5.083,1.570,0.000,0.000,-1.186,-4.973,0.990,4.912,1.593,1.548,
14.194,19.618,-1.604,-5.388,1.371,1.012,6.263,2.636,3.211,1.038,1.411,0.000,0.000,1.448,1.262,0.000,1.450,0.000,3.142,0.000,0.000,0.000,0.000,0.000,0.000,0.000,0.000,2.705,0.000,0.000,3.142,6.282,0.000,1.004,1.569,1.569,4.085,6.281,1.199,4.712,0.000,0.000,-1.809,-4.745,0.990,4.912,1.595,1.546,5.281,4.711,4.711,2.198,6.282,5.083,1.570,0.000,0.000,-1.166,-4.875,0.990,4.912,1.593,1.548,
14.300,19.724,-1.586,-5.298,1.387,0.813,0.607,2.719,3.152,0.873,1.432,0.000,0.000,1.360,1.231,4.357,1.516,0.000,3.142,0.000,0.000,0.000,0.000,0.000,0.000,0.000,0.000,0.000,0.000,0.000,3.142,0.002,0.000,1.002,1.571,1.573,4.088,6.281,1.200,4.712,0.000,0.000,-1.798,-4.659,0.990,4.901,1.604,1.538,5.281,4.713,4.715,2.199,6.281,5.083,1.571,0.000,0.000,-1.154,-4.780,0.991,4.900,1.590,1.552,
14.400,19.824,-1.574,-5.227,1.481,0.708,1.411,1.923,2.688,0.882,1.473,0.000,3.946,1.119,1.111,4.255,1.659,0.000,3.106,0.000,0.000,0.000,0.000,0.000,0.000,0.000,0.000,0.000,0.000,0.000,3.142,0.002,0.000,1.003,1.571,1.571,4.086,6.281,1.199,4.712,0.000,0.000,-1.847,-4.611,0.990,4.805,1.622,1.519,5.282,4.713,4.714,2.198,6.282,5.083,1.571,0.000,0.000,-1.193,-4.670,0.991,4.805,1.603,1.538,
14.499,19.923,-1.570,-5.166,1.559,0.869,0.661,1.774,1.312,0.895,1.512,3.577,3.991,1.218,1.086,3.938,1.824,0.000,3.036,0.000,0.000,0.000,0.000,0.000,0.000,0.000,0.000,0.000,0.000,0.000,3.142,6.282,0.000,1.005,1.568,1.566,4.083,6.282,1.199,4.712,0.000,0.000,-1.894,-4.574,0.990,4.720,2.001,1.139,5.282,4.711,4.709,2.198,6.283,5.083,1.570,0.000,0.000,-1.237,-4.581,0.991,4.721,1.996,1.144,
14.600,20.024,-1.569,-5.051,1.570,1.012,6.279,1.650,2.370,0.815,1.518,3.689,4.106,1.370,4.443,3.951,1.657,0.000,3.001,0.000,0.000,0.000,0.000,0.000,0.000,0.000,0.000,0.000,0.000,0.000,3.142,6.282,0.000,1.004,1.569,1.569,4.084,6.281,1.199,4.712,0.000,0.000,-1.898,-4.462,0.990,4.717,3.001,0.140,5.281,4.711,4.711,2.197,6.282,5.083,1.570,0.000,0.000,-1.242,-4.462,0.990,4.717,3.059,0.082,
14.700,20.124,-1.569,-4.957,1.569,0.900,6.275,1.556,2.371,0.815,1.518,3.804,4.200,1.487,4.750,3.951,1.303,0.000,3.036,0.000,0.000,0.000,0.000,0.000,0.000,0.000,0.000,0.000,0.000,0.000,3.142,6.282,0.001,1.003,1.569,1.569,4.086,6.281,1.199,4.712,0.000,0.000,-1.897,-4.367,0.990,4.718,2.902,0.239,5.281,4.711,4.711,2.197,6.282,5.083,1.570,0.000,0.000,-1.241,-4.368,0.990,4.717,2.927,0.214,
14.787,20.211,-1.569,-4.889,1.569,0.852,6.273,1.489,2.372,0.815,1.518,4.916,4.268,1.571,4.972,3.950,1.459,0.000,3.036,0.000,0.000,0.000,0.000,0.000,0.000,0.000,0.000,0.000,0.000,0.000,3.142,6.282,0.000,1.004,1.569,1.569,4.085,6.281,1.199,4.712,0.000,0.000,-1.897,-4.299,0.990,4.717,2.932,0.209,5.281,4.711,4.711,2.197,6.282,5.083,1.570,0.000,0.000,-1.241,-4.300,0.990,4.717,2.963,0.178,
14.900,20.324,-1.569,-4.785,1.569,0.914,6.272,1.387,2.373,0.816,1.518,0.000,4.372,1.814,0.000,1.074,1.332,0.000,3.036,0.000,0.000,0.000,0.000,0.000,0.000,0.000,0.000,0.000,0.000,0.000,3.142,6.282,0.000,1.004,1.569,1.568,4.084,6.281,1.199,4.712,0.000,0.000,-1.897,-4.196,0.990,4.717,2.960,0.180,5.281,4.711,4.711,2.197,6.282,5.083,1.570,0.000,0.000,-1.241,-4.196,0.990,4.717,2.988,0.153,
15.000,20.424,-1.569,-4.694,1.569,0.936,6.271,1.296,2.373,0.816,1.518,0.000,4.463,1.814,0.000,1.074,1.220,0.000,3.036,0.000,0.000,0.000,0.000,0.000,0.000,0.000,0.000,0.000,0.000,0.000,3.142,6.282,0.000,1.004,1.569,1.569,4.085,6.281,1.199,4.712,0.000,0.000,-1.897,-4.104,0.990,4.717,2.879,0.262,5.281,4.711,4.711,2.197,6.282,5.083,1.570,0.000,0.000,-1.241,-4.105,0.990,4.717,2.905,0.236,
15.082,20.506,-1.569,-4.621,1.569,0.911,6.270,1.224,2.373,0.816,0.829,0.000,4.536,1.814,0.000,1.127,1.131,0.000,3.036,0.000,0.000,0.000,0.000,0.000,0.000,0.000,0.000,0.000,0.000,0.000,3.142,6.282,0.000,1.004,1.569,1.569,4.085,6.281,1.199,4.712,0.000,0.000,-1.896,-4.032,0.990,4.717,2.848,0.292,5.281,4.711,4.711,2.198,6.282,5.083,1.570,0.000,0.000,-1.240,-4.032,0.990,4.717,2.869,0.272,
15.200,20.624,-1.568,-4.515,1.569,0.895,6.269,1.119,2.373,0.816,0.829,0.000,4.642,1.814,0.000,1.127,1.001,0.000,3.036,0.000,0.000,0.000,0.000,0.000,0.000,0.000,0.000,0.000,0.000,0.000,3.142,6.282,0.000,1.004,1.569,1.569,4.085,6.281,1.199,4.712,0.000,0.000,-1.896,-3.926,0.990,4.717,2.882,0.259,5.281,4.711,4.711,2.198,6.282,5.083,1.570,0.000,0.000,-1.240,-3.927,0.990,4.717,2.905,0.236,
15.300,20.724,-1.568,-4.427,1.569,0.911,6.269,1.032,2.373,0.816,0.829,0.000,4.730,1.813,0.000,1.127,0.989,0.000,3.036,0.000,0.000,0.000,0.000,0.000,0.000,0.000,0.000,0.000,0.000,0.000,3.142,6.282,0.000,1.004,1.569,1.569,4.085,6.281,1.199,4.712,0.000,0.000,-1.896,-3.837,0.990,4.717,2.913,0.228,5.281,4.711,4.711,2.198,6.282,5.083,1.570,0.000,0.000,-1.240,-3.838,0.990,4.717,2.935,0.206,
15.400,20.824,-1.568,-4.355,1.569,0.916,6.268,0.960,2.373,0.816,0.829,2.542,4.802,1.813,0.000,1.126,0.989,0.000,3.036,0.000,0.000,0.000,0.000,0.000,0.000,0.000,0.000,0.000,0.000,0.000,3.142,6.282,0.000,1.004,1.569,1.569,4.085,6.281,1.199,4.712,0.000,0.000,-1.896,-3.765,0.990,4.717,2.923,0.218,5.281,4.711,4.711,2.198,6.282,5.083,1.570,0.000,0.000,-1.240,-3.766,0.990,4.717,2.944,0.197,
15.500,20.924,-1.568,-4.247,1.569,0.907,6.268,0.854,2.372,1.038,0.830,2.543,4.910,1.727,0.000,1.126,0.989,0.000,3.036,0.000,0.000,0.000,0.000,0.000,0.000,0.000,0.000,0.000,0.000,0.000,3.142,6.282,0.000,1.004,1.569,1.569,4.085,6.281,1.199,4.712,0.000,0.000,-1.896,-3.658,0.990,4.717,2.955,0.186,5.281,4.711,4.711,2.198,6.282,5.083,1.570,0.000,0.000,-1.240,-3.658,0.990,4.717,2.976,0.165,
15.588,21.012,-1.568,-4.176,1.570,0.905,6.267,0.783,2.372,1.495,0.830,2.544,4.981,1.726,0.000,0.817,0.989,0.000,3.036,0.000,0.000,0.000,0.000,0.000,0.000,0.000,0.000,0.000,0.000,0.000,3.142,6.282,0.000,1.004,1.569,1.569,4.085,6.281,1.199,4.712,0.000,0.000,-1.896,-3.587,0.990,4.717,2.996,0.145,5.281,4.711,4.711,2.198,6.282,5.083,1.570,0.000,0.000,-1.240,-3.587,0.990,4.717,3.018,0.123,
15.700,21.124,-1.568,-4.069,1.570,0.909,6.267,0.677,2.371,1.495,0.830,2.545,0.000,1.780,1.068,1.126,0.989,0.000,3.142,0.000,0.000,0.000,0.000,0.000,0.000,0.000,0.000,0.000,0.000,0.000,3.142,6.282,0.000,1.004,1.569,1.569,4.085,6.281,1.199,4.712,0.000,0.000,-1.896,-3.480,0.990,4.717,3.061,0.079,5.281,4.711,4.711,2.198,6.282,5.083,1.570,0.000,0.000,-1.240,-3.480,0.990,4.717,3.084,0.057,
15.800,21.224,-1.568,-3.980,1.570,0.911,6.267,0.589,2.370,1.495,0.830,2.546,0.000,1.891,1.120,0.885,0.990,0.000,3.142,0.000,0.000,0.000,0.000,0.000,0.000,0.000,0.000,0.000,0.000,0.000,3.142,6.282,0.000,1.004,1.569,1.569,4.085,6.281,1.199,4.712,0.000,0.000,-1.896,-3.391,0.990,4.717,3.112,0.029,5.281,4.711,4.711,2.198,6.282,5.083,1.570,0.000,0.000,-1.240,-3.391,0.990,4.717,3.136,0.005,
15.887,21.311,-1.568,-3.909,1.570,0.909,6.267,0.518,2.370,1.495,0.830,2.547,0.000,1.980,1.120,0.660,0.990,0.000,3.142,0.000,0.000,0.000,0.000,0.000,0.000,0.000,0.000,0.000,0.000,0.000,3.142,6.282,0.000,1.004,1.569,1.569,4.085,6.281,1.199,4.712,0.000,0.000,-1.896,-3.320,0.990,4.717,3.157,6.267,5.281,4.711,4.711,2.198,6.282,5.083,1.570,0.000,0.000,-1.240,-3.319,0.990,4.717,3.183,6.242,
16.000,21.424,-1.568,-3.802,1.571,0.908,6.267,0.412,2.368,1.494,0.889,2.549,0.000,2.134,1.120,0.602,1.231,0.000,3.142,0.000,0.000,0.000,0.000,0.000,0.000,0.000,0.000,0.000,0.000,0.000,3.142,6.282,0.000,1.004,1.569,1.569,4.085,6.281,1.199,4.712,0.000,0.000,-1.897,-3.213,0.990,4.717,3.234,6.190,5.281,4.711,4.711,2.198,6.282,5.083,1.570,0.000,0.000,-1.241,-3.212,0.990,4.717,3.262,6.162,
16.100,21.524,-1.568,-3.714,1.572,0.873,0.021,0.352,2.364,1.494,1.146,1.395,0.000,2.331,1.120,0.603,1.123,0.000,3.142,0.000,0.000,0.000,0.000,0.000,0.000,0.000,0.000,0.000,0.000,0.000,3.142,6.283,0.000,1.003,1.570,1.570,4.086,6.281,1.199,4.712,0.000,0.000,-1.897,-3.125,0.990,4.718,3.345,6.079,5.281,4.711,4.712,2.198,6.282,5.083,1.570,0.000,0.000,-1.241,-3.124,0.990,4.717,3.424,6.000,
16.181,21.605,-1.568,-3.645,1.573,0.892,6.256,0.353,1.715,1.493,1.056,1.396,0.000,2.481,0.793,0.603,1.038,0.000,3.142,0.000,0.000,0.000,0.000,0.000,0.000,0.000,0.000,0.000,0.000,0.000,3.142,6.283,0.000,1.004,1.569,1.569,4.085,6.281,1.199,4.712,0.000,0.000,-1.898,-3.057,0.990,4.718,3.548,5.876,5.281,4.711,4.711,2.198,6.282,5.083,1.570,0.000,0.000,-1.242,-3.055,0.990,4.717,3.609,5.815,
16.300,21.724,-1.568,-3.545,1.573,0.623,6.282,0.353,1.633,1.493,1.521,1.396,0.000,2.699,1.120,0.603,0.915,0.000,3.142,0.000,0.000,0.000,0.000,0.000,0.000,0.000,0.000,0.000,0.000,0.000,3.142,0.003,0.001,1.000,1.571,1.572,4.091,6.281,1.200,4.712,0.000,0.000,-1.896,-2.954,0.989,4.720,3.047,0.093,5.280,4.713,4.714,2.199,6.282,5.083,1.570,0.000,0.000,-1.241,-2.955,0.990,4.717,3.083,0.058,
16.396,21.820,-1.568,-3.509,1.573,0.175,6.252,0.354,1.632,1.493,1.521,1.397,0.000,2.778,0.599,0.603,0.872,0.000,3.142,0.000,0.000,0.000,0.000,0.000,0.000,0.000,0.000,0.000,0.000,0.000,3.142,0.001,0.001,1.002,1.570,1.571,4.089,6.281,1.200,4.712,0.000,0.000,-1.897,-2.920,0.989,4.719,3.289,6.135,5.280,4.712,4.713,2.198,6.282,5.083,1.570,0.000,0.000,-1.242,-2.919,0.990,4.717,3.443,5.981,
16.500,21.924,-1.568,-3.508,1.574,-0.215,6.247,0.356,1.631,1.492,1.522,1.398,0.000,2.785,0.599,0.604,0.870,0.000,3.142,0.000,0.000,0.000,0.000,0.000,0.000,0.000,0.000,0.000,0.000,0.000,3.142,0.003,0.001,1.000,1.571,1.572,4.092,6.281,1.200,4.712,0.000,0.000,-1.897,-2.917,0.989,4.721,3.159,6.264,5.280,4.713,4.714,2.199,6.282,5.083,1.570,0.000,0.000,-1.241,-2.918,0.990,4.717,3.263,6.161,
16.600,22.024,-1.568,-3.570,1.568,-1.039,6.117,0.420,1.644,1.495,1.080,1.386,0.000,2.615,1.121,0.602,0.950,0.000,3.142,0.000,0.000,0.000,0.000,0.000,0.000,0.000,0.000,0.000,0.000,0.000,3.142,0.005,0.001,0.999,1.571,1.573,4.094,6.280,1.200,4.712,0.000,0.000,-1.893,-2.977,0.989,4.725,2.509,0.631,5.280,4.713,4.714,2.200,6.281,5.083,1.570,0.000,0.000,-1.237,-2.983,0.990,4.720,2.141,1.000,
16.696,22.120,-1.568,-3.673,1.563,-1.444,6.273,0.523,1.737,1.497,1.300,1.376,0.000,2.371,1.123,0.601,1.079,0.000,3.142,0.000,0.000,0.000,0.000,0.000,0.000,0.000,0.000,0.000,0.000,0.000,3.142,0.002,0.001,1.002,1.571,1.572,4.088,6.281,1.200,4.712,0.000,0.000,-1.891,-3.080,0.990,4.725,2.133,1.008,5.280,4.712,4.714,2.199,6.282,5.083,1.570,0.000,0.000,-1.235,-3.086,0.990,4.723,1.970,1.171,
16.800,22.224,-1.569,-3.823,1.564,-0.994,6.276,0.671,2.388,1.496,0.842,2.520,0.000,2.076,1.124,0.603,1.264,0.000,3.142,0.000,0.000,0.000,0.000,0.000,0.000,0.000,0.000,0.000,0.000,0.000,3.142,6.281,6.283,1.005,1.568,1.568,4.082,6.281,1.199,4.712,0.000,0.000,-1.895,-3.233,0.990,4.718,2.095,1.045,5.281,4.711,4.710,2.199,6.282,5.083,1.570,0.000,0.000,-1.239,-3.236,0.991,4.719,2.210,0.931,
16.900,22.324,-1.570,-3.906,1.564,-0.796,6.274,0.754,2.386,1.495,0.826,2.520,0.000,1.974,1.125,0.665,0.985,0.000,3.142,0.000,0.000,0.000,0.000,0.000,0.000,0.000,0.000,0.000,0.000,0.000,3.142,0.000,0.000,1.003,1.570,1.570,4.086,6.281,1.199,4.712,0.000,0.000,-1.894,-3.315,0.990,4.721,2.188,0.952,5.280,4.712,4.712,2.199,6.282,5.083,1.570,0.000,0.000,-1.238,-3.319,0.990,4.721,2.079,1.062,
16.986,22.410,-1.570,-3.975,1.564,-0.975,6.274,0.821,2.384,1.495,0.826,2.520,0.000,1.890,1.125,0.884,0.986,0.000,3.142,0.000,0.000,0.000,0.000,0.000,0.000,0.000,0.000,0.000,0.000,0.000,3.142,0.001,0.001,1.002,1.570,1.571,4.088,6.281,1.200,4.712,0.000,0.000,-1.894,-3.383,0.990,4.723,2.230,0.911,5.280,4.712,4.713,2.199,6.282,5.083,1.570,0.000,0.000,-1.238,-3.388,0.990,4.721,2.043,1.098,
17.100,22.524,-1.571,-4.103,1.565,-1.122,6.274,0.948,2.381,1.493,0.825,2.521,0.000,1.743,1.073,1.128,0.988,0.000,3.142,0.000,0.000,0.000,0.000,0.000,0.000,0.000,0.000,0.000,0.000,0.000,3.142,0.000,0.000,1.003,1.570,1.570,4.086,6.281,1.199,4.712,0.000,0.000,-1.896,-3.511,0.990,4.721,2.250,0.890,5.280,4.712,4.712,2.199,6.282,5.083,1.570,0.000,0.000,-1.240,-3.516,0.990,4.720,2.139,1.002,
17.200,22.624,-1.572,-4.208,1.565,-1.002,6.275,1.051,2.379,1.493,0.824,2.521,4.950,1.743,0.000,1.129,0.990,0.000,3.036,0.000,0.000,0.000,0.000,0.000,0.000,0.000,0.000,0.000,0.000,0.000,3.142,6.283,0.000,1.004,1.569,1.569,4.085,6.281,1.199,4.712,0.000,0.000,-1.897,-3.617,0.990,4.719,2.276,0.865,5.281,4.711,4.711,2.199,6.282,5.083,1.570,0.000,0.000,-1.241,-3.620,0.990,4.719,2.209,0.932,
17.290,22.714,-1.572,-4.284,1.565,-0.952,6.274,1.127,2.378,1.034,0.824,2.521,4.873,1.829,0.000,1.129,0.991,0.000,3.036,0.000,0.000,0.000,0.000,0.000,0.000,0.000,0.000,0.000,0.000,0.000,3.142,6.283,0.000,1.003,1.570,1.570,4.086,6.281,1.199,4.712,0.000,0.000,-1.897,-3.693,0.990,4.720,2.291,0.849,5.281,4.712,4.712,2.199,6.282,5.083,1.570,0.000,0.000,-1.241,-3.697,0.990,4.719,2.187,0.954,
17.400,22.824,-1.573,-4.399,1.566,-1.018,6.275,1.241,2.376,0.812,0.824,2.521,4.758,1.829,0.000,1.130,0.992,0.000,3.036,0.000,0.000,0.000,0.000,0.000,0.000,0.000,0.000,0.000,0.000,0.000,3.142,0.000,0.000,1.003,1.570,1.570,4.086,6.281,1.199,4.712,0.000,0.000,-1.898,-3.808,0.990,4.720,2.333,0.808,5.280,4.712,4.712,2.199,6.282,5.083,1.570,0.000,0.000,-1.242,-3.812,0.990,4.719,2.197,0.944,
17.500,22.924,-1.573,-4.501,1.566,-1.040,6.275,1.341,2.373,0.811,0.823,0.000,4.656,1.829,0.000,1.131,0.994,0.000,3.036,0.000,0.000,0.000,0.000,0.000,0.000,0.000,0.000,0.000,0.000,0.000,3.142,0.000,0.000,1.003,1.570,1.570,4.086,6.281,1.199,4.712,0.000,0.000,-1.899,-3.910,0.990,4.720,2.371,0.769,5.281,4.712,4.712,2.199,6.282,5.083,1.570,0.000,0.000,-1.243,-3.914,0.990,4.719,2.260,0.881,
17.600,23.024,-1.574,-4.582,1.567,-1.015,6.275,1.421,2.372,0.811,0.823,0.000,4.575,1.828,0.000,1.131,1.085,0.000,3.036,0.000,0.000,0.000,0.000,0.000,0.000,0.000,0.000,0.000,0.000,0.000,3.142,6.283,0.000,1.003,1.570,1.570,4.086,6.281,1.199,4.712,0.000,0.000,-1.900,-3.991,0.990,4.719,2.406,0.734,5.281,4.712,4.712,2.199,6.282,5.083,1.570,0.000,0.000,-1.244,-3.995,0.990,4.718,2.307,0.834,
17.700,23.124,-1.574,-4.700,1.567,-0.997,6.275,1.538,2.370,0.810,1.512,0.000,4.457,1.828,0.000,1.079,1.229,0.000,3.036,0.000,0.000,0.000,0.000,0.000,0.000,0.000,0.000,0.000,0.000,0.000,3.142,0.000,0.000,1.003,1.570,1.570,4.086,6.281,1.199,4.712,0.000,0.000,-1.900,-4.110,0.990,4.719,2.453,0.688,5.281,4.712,4.712,2.199,6.282,5.083,1.570,0.000,0.000,-1.244,-4.112,0.990,4.718,2.342,0.799,
17.800,23.224,-1.575,-4.799,1.567,-1.014,6.275,1.635,2.368,0.810,1.511,0.000,4.358,1.828,0.000,1.080,1.350,0.000,3.036,0.000,0.000,0.000,0.000,0.000,0.000,0.000,0.000,0.000,0.000,0.000,3.142,0.000,0.000,1.003,1.570,1.570,4.086,6.281,1.199,4.712,0.000,0.000,-1.901,-4.209,0.990,4.719,2.494,0.647,5.280,4.712,4.712,2.199,6.282,5.083,1.570,0.000,0.000,-1.245,-4.211,0.990,4.718,2.380,0.761,
17.900,23.324,-1.575,-4.879,1.568,-1.020,6.275,1.714,2.367,0.810,1.511,4.932,4.278,1.581,4.982,1.274,1.448,0.000,3.036,0.000,0.000,0.000,0.000,0.000,0.000,0.000,0.000,0.000,0.000,0.000,3.142,0.000,0.000,1.003,1.570,1.570,4.086,6.281,1.199,4.712,0.000,0.000,-1.901,-4.289,0.990,4.719,2.534,0.607,5.281,4.712,4.712,2.199,6.282,5.083,1.570,0.000,0.000,-1.245,-4.291,0.990,4.718,2.429,0.712,
18.000,23.424,-1.575,-4.999,1.568,-1.010,6.275,1.832,2.365,0.809,1.511,3.756,4.158,1.433,4.595,3.956,1.327,0.000,3.036,0.000,0.000,0.000,0.000,0.000,0.000,0.000,0.000,0.000,0.000,0.000,3.142,0.000,0.000,1.003,1.570,1.570,4.086,6.281,1.199,4.712,0.000,0.000,-1.902,-4.409,0.990,4.718,2.597,0.544,5.281,4.712,4.712,2.199,6.282,5.083,1.570,0.000,0.000,-1.246,-4.411,0.990,4.717,2.502,0.639,
18.098,23.522,-1.575,-5.078,1.568,-1.007,6.275,1.910,2.363,0.809,1.511,3.659,4.079,1.335,4.339,3.956,1.692,0.000,3.036,0.000,0.000,0.000,0.000,0.000,0.000,0.000,0.000,0.000,0.000,0.000,3.142,0.000,0.000,1.003,1.570,1.570,4.086,6.281,1.199,4.712,0.000,0.000,-1.902,-4.488,0.990,4.718,2.635,0.505,5.281,4.712,4.712,2.199,6.282,5.083,1.570,0.000,0.000,-1.246,-4.490,0.990,4.717,2.543,0.598,
18.200,23.624,-1.576,-5.197,1.569,-1.012,6.275,2.028,1.284,1.035,1.511,3.514,3.960,1.188,1.077,3.957,1.861,0.000,3.001,0.000,0.000,0.000,0.000,0.000,0.000,0.000,0.000,0.000,0.000,0.000,3.142,0.000,0.000,1.003,1.570,1.570,4.086,6.281,1.199,4.712,0.000,0.000,-1.903,-4.607,0.990,4.718,2.698,0.443,5.281,4.712,4.712,2.199,6.282,5.083,1.570,0.000,0.000,-1.247,-4.609,0.990,4.717,2.614,0.527,
18.300,23.724,-1.576,-5.297,1.569,-1.014,6.275,2.126,1.283,1.487,1.511,3.392,3.860,1.065,1.077,4.112,1.862,0.000,3.001,0.000,0.000,0.000,0.000,0.000,0.000,0.000,0.000,0.000,0.000,0.000,3.142,0.000,0.000,1.003,1.570,1.570,4.086,6.281,1.199,4.712,0.000,0.000,-1.903,-4.707,0.990,4.718,2.758,0.383,5.281,4.712,4.712,2.199,6.282,5.083,1.570,0.000,0.000,-1.247,-4.709,0.990,4.717,2.686,0.455,
18.400,23.824,-1.576,-5.377,1.569,-1.012,6.275,2.205,1.282,1.487,1.511,3.295,3.780,0.982,1.129,4.359,1.863,0.000,3.001,0.000,0.000,0.000,0.000,0.000,0.000,0.000,0.000,0.000,0.000,0.000,3.142,0.000,0.000,1.003,1.570,1.570,4.086,6.281,1.199,4.712,0.000,0.000,-1.903,-4.787,0.990,4.718,2.807,0.334,5.281,4.712,4.712,2.199,6.282,5.083,1.570,0.000,0.000,-1.247,-4.788,0.990,4.717,2.745,0.396,
18.500,23.924,-1.576,-5.496,1.570,-1.011,6.275,2.322,1.281,1.486,1.511,3.150,3.661,0.982,1.129,0.000,1.865,0.000,3.001,0.000,0.000,0.000,0.000,0.000,0.000,0.000,0.000,0.000,0.000,0.000,3.142,0.000,0.000,1.003,1.570,1.570,4.086,6.281,1.199,4.712,0.000,0.000,-1.904,-4.906,0.990,4.718,2.880,0.261,5.281,4.712,4.712,2.199,6.282,5.083,1.570,0.000,0.000,-1.248,-4.907,0.990,4.717,2.834,0.307,
18.591,24.015,-1.576,-5.596,1.570,-1.012,6.275,2.420,1.281,1.486,1.511,3.029,3.562,0.981,1.129,4.356,1.866,0.000,3.001,0.000,0.000,0.000,0.000,0.000,0.000,0.000,0.000,0.000,0.000,0.000,3.142,0.000,0.000,1.003,1.570,1.570,4.086,6.281,1.199,4.712,0.000,0.000,-1.904,-5.006,0.990,4.718,2.943,0.198,5.281,4.712,4.712,2.199,6.282,5.083,1.570,0.000,0.000,-1.248,-5.007,0.990,4.717,2.914,0.227,
18.700,24.124,-1.576,-5.695,1.571,-1.012,6.275,2.518,1.280,1.486,1.511,2.978,3.462,0.981,1.129,4.390,1.867,0.000,3.001,0.000,0.000,0.000,0.000,0.000,0.000,0.000,0.000,0.000,0.000,0.000,3.142,0.000,0.000,1.003,1.570,1.570,4.086,6.281,1.199,4.712,0.000,0.000,-1.904,-5.106,0.990,4.718,3.010,0.131,5.281,4.712,4.712,2.199,6.282,5.083,1.570,0.000,0.000,-1.248,-5.106,0.990,4.717,2.998,0.143,
18.800,24.224,-1.576,-5.795,1.571,-1.012,6.275,2.616,1.279,1.486,1.512,2.980,3.363,0.980,1.129,4.424,1.781,0.000,3.001,0.000,0.000,0.000,0.000,0.000,0.000,0.000,0.000,0.000,0.000,0.000,3.142,0.000,0.000,1.003,1.570,1.570,4.086,6.281,1.199,4.712,0.000,0.000,-1.905,-5.205,0.990,4.718,3.076,0.065,5.281,4.712,4.712,2.199,6.282,5.083,1.570,0.000,0.000,-1.249,-5.205,0.990,4.716,3.082,0.059,
18.900,24.324,-1.576,-5.874,1.571,-1.012,6.275,2.695,1.279,1.486,1.512,2.981,3.283,0.980,0.940,1.083,1.781,0.000,3.001,0.000,0.000,0.000,0.000,0.000,0.000,0.000,0.000,0.000,0.000,0.000,3.142,0.000,0.000,1.003,1.570,1.570,4.086,6.281,1.199,4.712,0.000,0.000,-1.905,-5.285,0.990,4.718,3.129,0.011,5.281,4.712,4.712,2.199,6.282,5.083,1.570,0.000,0.000,-1.249,-5.285,0.990,4.716,3.150,6.275,
19.000,24.424,-1.576,-5.994,1.572,-1.012,6.275,2.812,1.374,1.485,1.624,2.983,3.164,0.979,0.607,1.083,1.855,0.000,3.001,0.000,0.000,0.000,0.000,0.000,0.000,0.000,0.000,0.000,0.000,0.000,3.142,0.000,0.000,1.003,1.570,1.570,4.086,6.281,1.199,4.712,0.000,0.000,-1.905,-5.404,0.990,4.718,3.209,6.215,5.281,4.712,4.712,2.199,6.282,5.083,1.570,0.000,0.000,-1.249,-5.404,0.990,4.717,3.251,6.173,
19.085,24.509,-1.576,-6.093,1.572,-1.012,6.275,2.910,1.499,1.485,1.624,2.984,3.064,0.000,0.607,1.136,1.976,0.000,2.966,0.000,0.000,0.000,0.000,0.000,0.000,0.000,0.000,0.000,0.000,0.000,3.142,0.000,0.000,1.003,1.570,1.570,4.086,6.281,1.199,4.712,0.000,0.000,-1.905,-5.504,0.990,4.718,3.276,6.148,5.281,4.712,4.712,2.199,6.282,5.083,1.570,0.000,0.000,-1.249,-5.504,0.990,4.717,3.335,6.090,
19.200,24.624,-1.576,-6.192,1.572,-1.012,6.275,3.008,1.625,1.485,0.000,2.986,2.965,0.000,0.607,1.136,2.098,0.000,2.966,0.000,0.000,0.000,0.000,0.000,0.000,0.000,0.000,0.000,0.000,0.000,3.142,0.000,0.000,1.003,1.570,1.570,4.086,6.281,1.199,4.712,0.000,0.000,-1.905,-5.604,0.990,4.718,3.340,6.083,5.281,4.712,4.712,2.199,6.282,5.083,1.570,0.000,0.000,-1.249,-5.603,0.990,4.717,3.415,6.010,
19.300,31.058,-1.576,-6.292,1.573,-1.012,6.275,3.106,1.750,1.485,0.000,2.988,2.865,0.000,0.607,1.136,4.481,0.000,2.966,0.000,0.000,0.000,0.000,0.000,0.000,0.000,0.000,0.000,0.000,0.000,3.142,0.000,0.000,1.003,1.570,1.570,4.086,6.281,1.199,4.712,0.000,0.000,-1.905,-5.703,0.990,4.718,3.403,6.021,5.281,4.712,4.712,2.199,6.282,5.083,1.570,0.000,0.000,-1.249,-5.702,0.990,4.717,3.491,5.934,
19.400,31.158,-1.575,-6.391,1.573,-1.012,6.275,3.204,1.876,1.485,0.000,2.990,2.766,0.000,0.606,0.611,4.483,0.000,2.966,0.000,0.000,0.000,0.000,0.000,0.000,0.000,0.000,0.000,0.000,0.000,3.142,0.000,0.000,1.003,1.570,1.570,4.086,6.281,1.199,4.712,0.000,0.000,-1.905,-5.803,0.990,4.718,3.464,5.959,5.281,4.712,4.712,2.199,6.282,5.083,1.570,0.000,0.000,-1.249,-5.802,0.990,4.717,3.564,5.860,
19.500,31.258,-1.575,-6.491,1.573,-1.012,6.275,3.302,2.002,1.486,0.000,3.028,2.666,0.000,0.606,0.611,4.485,0.000,2.966,0.000,0.000,0.000,0.000,0.000,0.000,0.000,0.000,0.000,0.000,0.000,3.142,0.000,0.000,1.003,1.570,1.570,4.086,6.281,1.199,4.712,0.000,0.000,-1.905,-5.902,0.990,4.718,3.523,5.900,5.281,4.712,4.712,2.199,6.282,5.083,1.570,0.000,0.000,-1.249,-5.901,0.990,4.717,3.632,5.792,
19.600,31.358,-1.575,-6.590,1.574,-1.012,6.275,3.399,2.348,1.486,0.000,2.907,2.567,0.000,0.606,0.610,4.568,0.000,2.966,0.000,0.000,0.000,0.000,0.000,0.000,0.000,0.000,0.000,0.000,0.000,3.142,0.000,0.000,1.003,1.570,1.570,4.086,6.281,1.199,4.712,0.000,0.000,-1.905,-6.002,0.990,4.718,3.579,5.845,5.281,4.712,4.712,2.199,6.282,5.083,1.570,0.000,0.000,-1.249,-6.000,0.990,4.717,3.696,5.729,
19.700,31.458,-1.575,-6.667,1.574,-0.485,6.277,3.475,2.347,1.486,0.000,2.815,2.490,0.000,0.000,0.610,4.660,0.000,2.018,0.000,0.000,0.000,0.000,0.000,0.000,0.000,0.000,0.000,0.000,0.000,3.142,6.281,6.283,1.006,1.568,1.567,4.081,6.281,1.199,4.712,0.000,0.000,-1.907,-6.080,0.990,4.719,4.308,5.115,5.281,4.710,4.710,2.199,6.282,5.083,1.570,0.000,0.000,-1.250,-6.077,0.991,4.719,4.090,5.334,
19.784,31.542,-1.575,-6.692,1.574,-0.206,6.277,3.499,2.347,1.486,0.000,2.784,2.465,0.000,0.000,0.610,4.691,0.000,2.018,0.000,0.000,0.000,0.000,0.000,0.000,0.000,0.000,0.000,0.000,0.000,3.142,6.282,0.000,1.004,1.569,1.569,4.083,6.281,1.199,4.712,0.000,0.000,-1.906,-6.105,0.990,4.718,3.962,5.462,5.281,4.711,4.711,2.199,6.282,5.083,1.570,0.000,0.000,-1.249,-6.102,0.990,4.718,3.925,5.499,
19.900,31.658,-1.575,-6.702,1.574,-0.011,6.267,3.509,2.347,1.486,0.000,2.772,2.456,0.000,0.000,0.610,4.702,0.000,2.018,0.000,0.000,0.000,0.000,0.000,0.000,0.000,0.000,0.000,0.000,0.000,3.142,6.283,0.000,1.004,1.569,1.569,4.085,6.281,1.199,4.712,0.000,0.000,-1.905,-6.114,0.990,4.718,3.780,5.643,5.281,4.711,4.711,2.199,6.282,5.083,1.570,0.000,0.000,-1.249,-6.111,0.990,4.718,3.854,5.570,
19.993,31.751,-1.575,-6.702,1.574,-0.001,6.268,3.509,2.347,1.486,0.000,2.772,2.456,0.000,0.000,0.610,4.702,0.000,2.018,0.000,0.000,0.000,0.000,0.000,0.000,0.000,0.000,0.000,0.000,0.000,3.142,6.283,0.000,1.003,1.569,1.569,4.085,6.281,1.199,4.712,0.000,0.000,-1.905,-6.114,0.990,4.718,3.730,5.694,5.281,4.711,4.711,2.198,6.282,5.083,1.570,0.000,0.000,-1.249,-6.111,0.990,4.718,3.819,5.605,
20.100,31.858,-1.575,-6.702,1.574,-0.001,6.268,3.509,2.347,1.486,0.000,2.772,2.456,0.000,0.000,0.610,4.702,0.000,2.018,0.000,0.000,0.000,0.000,0.000,0.000,0.000,0.000,0.000,0.000,0.000,3.142,6.283,0.000,1.003,1.569,1.569,4.085,6.281,1.199,4.712,0.000,0.000,-1.905,-6.114,0.990,4.718,3.730,5.694,5.281,4.711,4.712,2.198,6.282,5.083,1.570,0.000,0.000,-1.249,-6.111,0.990,4.718,3.818,5.606,
20.200,31.958,-1.575,-6.702,1.574,-0.001,6.268,3.509,2.347,1.486,0.000,2.772,2.456,0.000,0.000,0.610,4.702,0.000,2.018,0.000,0.000,0.000,0.000,0.000,0.000,0.000,0.000,0.000,0.000,0.000,3.142,6.283,0.000,1.003,1.569,1.569,4.085,6.281,1.199,4.712,0.000,0.000,-1.905,-6.114,0.990,4.718,3.730,5.694,5.281,4.711,4.712,2.198,6.282,5.083,1.570,0.000,0.000,-1.249,-6.111,0.990,4.718,3.819,5.606,
20.285,32.043,-1.575,-6.702,1.574,-0.001,6.268,3.509,2.347,1.486,0.000,2.772,2.456,0.000,0.000,0.610,4.702,0.000,2.018,0.000,0.000,0.000,0.000,0.000,0.000,0.000,0.000,0.000,0.000,0.000,3.142,6.283,0.000,1.003,1.569,1.569,4.085,6.281,1.199,4.712,0.000,0.000,-1.905,-6.114,0.990,4.718,3.730,5.694,5.281,4.711,4.712,2.198,6.282,5.083,1.570,0.000,0.000,-1.249,-6.111,0.990,4.718,3.818,5.606,
20.400,32.158,-1.575,-6.702,1.574,-0.001,6.268,3.509,2.347,1.486,0.000,2.772,2.456,0.000,0.000,0.610,4.702,0.000,2.018,0.000,0.000,0.000,0.000,0.000,0.000,0.000,0.000,0.000,0.000,0.000,3.142,6.283,0.000,1.003,1.569,1.569,4.085,6.281,1.199,4.712,0.000,0.000,-1.905,-6.114,0.990,4.718,3.730,5.694,5.281,4.711,4.712,2.198,6.282,5.083,1.570,0.000,0.000,-1.249,-6.111,0.990,4.718,3.818,5.606,
20.489,32.247,-1.575,-6.702,1.574,-0.001,6.268,3.509,2.347,1.486,0.000,2.772,2.456,0.000,0.000,0.610,4.702,0.000,2.018,0.000,0.000,0.000,0.000,0.000,0.000,0.000,0.000,0.000,0.000,0.000,3.142,6.283,0.000,1.003,1.569,1.569,4.085,6.281,1.199,4.712,0.000,0.000,-1.905,-6.114,0.990,4.718,3.730,5.694,5.281,4.711,4.712,2.198,6.282,5.083,1.570,0.000,0.000,-1.249,-6.111,0.990,4.718,3.818,5.606,
20.600,32.358,-1.575,-6.702,1.574,-0.001,6.268,3.509,2.347,1.486,0.000,2.772,2.456,0.000,0.000,0.610,4.702,0.000,2.018,0.000,0.000,0.000,0.000,0.000,0.000,0.000,0.000,0.000,0.000,0.000,3.142,6.283,0.000,1.003,1.569,1.569,4.085,6.281,1.199,4.712,0.000,0.000,-1.905,-6.114,0.990,4.718,3.730,5.694,5.281,4.711,4.712,2.198,6.282,5.083,1.570,0.000,0.000,-1.249,-6.111,0.990,4.718,3.818,5.606,
20.700,32.458,-1.575,-6.702,1.574,-0.001,6.268,3.509,2.347,1.486,0.000,2.772,2.456,0.000,0.000,0.610,4.702,0.000,2.018,0.000,0.000,0.000,0.000,0.000,0.000,0.000,0.000,0.000,0.000,0.000,3.142,6.283,0.000,1.003,1.569,1.569,4.085,6.281,1.199,4.712,0.000,0.000,-1.905,-6.114,0.990,4.718,3.730,5.694,5.281,4.711,4.712,2.198,6.282,5.083,1.570,0.000,0.000,-1.249,-6.111,0.990,4.718,3.818,5.606,
20.800,32.558,-1.575,-6.702,1.574,-0.001,6.268,3.509,2.347,1.486,0.000,2.772,2.456,0.000,0.000,0.610,4.702,0.000,2.018,0.000,0.000,0.000,0.000,0.000,0.000,0.000,0.000,0.000,0.000,0.000,3.142,6.283,0.000,1.003,1.569,1.569,4.085,6.281,1.199,4.712,0.000,0.000,-1.905,-6.114,0.990,4.718,3.730,5.694,5.281,4.711,4.712,2.198,6.282,5.083,1.570,0.000,0.000,-1.249,-6.111,0.990,4.718,3.819,5.606,
20.900,32.658,-1.575,-6.702,1.574,-0.001,6.268,3.509,2.347,1.486,0.000,2.772,2.456,0.000,0.000,0.610,4.702,0.000,2.018,0.000,0.000,0.000,0.000,0.000,0.000,0.000,0.000,0.000,0.000,0.000,3.142,6.283,0.000,1.003,1.569,1.569,4.085,6.281,1.199,4.712,0.000,0.000,-1.905,-6.114,0.990,4.718,3.730,5.694,5.281,4.711,4.712,2.198,6.282,5.083,1.570,0.000,0.000,-1.249,-6.111,0.990,4.718,3.818,5.606,
21.000,32.758,-1.575,-6.702,1.574,-0.001,6.268,3.509,2.347,1.486,0.000,2.772,2.456,0.000,0.000,0.610,4.702,0.000,2.018,0.000,0.000,0.000,0.000,0.000,0.000,0.000,0.000,0.000,0.000,0.000,3.142,6.283,0.000,1.003,1.569,1.569,4.085,6.281,1.199,4.712,0.000,0.000,-1.905,-6.114,0.990,4.718,3.730,5.694,5.281,4.711,4.712,2.198,6.282,5.083,1.570,0.000,0.000,-1.249,-6.111,0.990,4.718,3.818,5.606,
21.100,32.858,-1.575,-6.702,1.574,-0.001,6.268,3.509,2.347,1.486,0.000,2.772,2.456,0.000,0.000,0.610,4.702,0.000,2.018,0.000,0.000,0.000,0.000,0.000,0.000,0.000,0.000,0.000,0.000,0.000,3.142,6.283,0.000,1.003,1.569,1.569,4.085,6.281,1.199,4.712,0.000,0.000,-1.905,-6.114,0.990,4.718,3.730,5.694,5.281,4.711,4.712,2.198,6.282,5.083,1.570,0.000,0.000,-1.249,-6.111,0.990,4.718,3.818,5.606,
21.192,32.950,-1.575,-6.702,1.574,-0.001,6.268,3.509,2.347,1.486,0.000,2.772,2.456,0.000,0.000,0.610,4.702,0.000,2.018,0.000,0.000,0.000,0.000,0.000,0.000,0.000,0.000,0.000,0.000,0.000,3.142,6.283,0.000,1.003,1.569,1.569,4.085,6.281,1.199,4.712,0.000,0.000,-1.905,-6.114,0.990,4.718,3.730,5.694,5.281,4.711,4.712,2.198,6.282,5.083,1.570,0.000,0.000,-1.249,-6.111,0.990,4.718,3.819,5.606,
21.300,33.058,-1.575,-6.702,1.574,-0.001,6.268,3.509,2.347,1.486,0.000,2.772,2.456,0.000,0.000,0.610,4.702,0.000,2.018,0.000,0.000,0.000,0.000,0.000,0.000,0.000,0.000,0.000,0.000,0.000,3.142,6.283,0.000,1.003,1.569,1.569,4.085,6.281,1.199,4.712,0.000,0.000,-1.905,-6.114,0.990,4.718,3.730,5.694,5.281,4.711,4.712,2.198,6.282,5.083,1.570,0.000,0.000,-1.249,-6.111,0.990,4.718,3.818,5.606,
21.400,33.158,-1.575,-6.702,1.574,-0.001,6.268,3.509,2.347,1.486,0.000,2.772,2.456,0.000,0.000,0.610,4.702,0.000,2.018,0.000,0.000,0.000,0.000,0.000,0.000,0.000,0.000,0.000,0.000,0.000,3.142,6.283,0.000,1.003,1.569,1.569,4.085,6.281,1.199,4.712,0.000,0.000,-1.905,-6.114,0.990,4.718,3.730,5.694,5.281,4.711,4.712,2.198,6.282,5.083,1.570,0.000,0.000,-1.249,-6.111,0.990,4.718,3.818,5.606,
21.500,33.258,-1.575,-6.702,1.574,-0.001,6.268,3.509,2.347,1.486,0.000,2.772,2.456,0.000,0.000,0.610,4.702,0.000,2.018,0.000,0.000,0.000,0.000,0.000,0.000,0.000,0.000,0.000,0.000,0.000,3.142,6.283,0.000,1.003,1.569,1.569,4.085,6.281,1.199,4.712,0.000,0.000,-1.905,-6.114,0.990,4.718,3.730,5.694,5.281,4.711,4.712,2.198,6.282,5.083,1.570,0.000,0.000,-1.249,-6.111,0.990,4.718,3.818,5.606,
21.600,33.358,-1.575,-6.702,1.574,-0.001,6.268,3.509,2.347,1.486,0.000,2.772,2.456,0.000,0.000,0.610,4.702,0.000,2.018,0.000,0.000,0.000,0.000,0.000,0.000,0.000,0.000,0.000,0.000,0.000,3.142,6.283,0.000,1.003,1.569,1.569,4.085,6.281,1.199,4.712,0.000,0.000,-1.905,-6.114,0.990,4.718,3.730,5.694,5.281,4.711,4.712,2.198,6.282,5.083,1.570,0.000,0.000,-1.249,-6.111,0.990,4.718,3.819,5.606,
21.689,33.447,-1.575,-6.702,1.574,-0.001,6.268,3.509,2.347,1.486,0.000,2.772,2.456,0.000,0.000,0.610,4.702,0.000,2.018,0.000,0.000,0.000,0.000,0.000,0.000,0.000,0.000,0.000,0.000,0.000,3.142,6.283,0.000,1.003,1.569,1.569,4.085,6.281,1.199,4.712,0.000,0.000,-1.905,-6.114,0.990,4.718,3.730,5.694,5.281,4.711,4.712,2.198,6.282,5.083,1.570,0.000,0.000,-1.249,-6.111,0.990,4.718,3.819,5.606,
21.800,33.558,-1.575,-6.702,1.574,-0.001,6.268,3.509,2.347,1.486,0.000,2.772,2.456,0.000,0.000,0.610,4.702,0.000,2.018,0.000,0.000,0.000,0.000,0.000,0.000,0.000,0.000,0.000,0.000,0.000,3.142,6.283,0.000,1.003,1.569,1.569,4.085,6.281,1.199,4.712,0.000,0.000,-1.905,-6.114,0.990,4.718,3.730,5.694,5.281,4.711,4.712,2.198,6.282,5.083,1.570,0.000,0.000,-1.249,-6.111,0.990,4.718,3.819,5.606,
21.897,33.655,-1.575,-6.702,1.574,-0.001,6.268,3.509,2.347,1.486,0.000,2.772,2.456,0.000,0.000,0.610,4.702,0.000,2.018,0.000,0.000,0.000,0.000,0.000,0.000,0.000,0.000,0.000,0.000,0.000,3.142,6.283,0.000,1.003,1.569,1.569,4.085,6.281,1.199,4.712,0.000,0.000,-1.905,-6.114,0.990,4.718,3.730,5.694,5.281,4.711,4.712,2.198,6.282,5.083,1.570,0.000,0.000,-1.249,-6.111,0.990,4.718,3.818,5.606,
22.000,33.758,-1.575,-6.702,1.574,-0.001,6.268,3.509,2.347,1.486,0.000,2.772,2.456,0.000,0.000,0.610,4.702,0.000,2.018,0.000,0.000,0.000,0.000,0.000,0.000,0.000,0.000,0.000,0.000,0.000,3.142,6.283,0.000,1.003,1.569,1.569,4.085,6.281,1.199,4.712,0.000,0.000,-1.905,-6.114,0.990,4.718,3.730,5.694,5.281,4.711,4.712,2.198,6.282,5.083,1.570,0.000,0.000,-1.249,-6.111,0.990,4.718,3.819,5.606,
22.100,33.858,-1.575,-6.702,1.574,-0.001,6.268,3.509,2.347,1.486,0.000,2.772,2.456,0.000,0.000,0.610,4.702,0.000,2.018,0.000,0.000,0.000,0.000,0.000,0.000,0.000,0.000,0.000,0.000,0.000,3.142,6.283,0.000,1.003,1.569,1.569,4.085,6.281,1.199,4.712,0.000,0.000,-1.905,-6.114,0.990,4.718,3.730,5.694,5.281,4.711,4.712,2.198,6.282,5.083,1.570,0.000,0.000,-1.249,-6.111,0.990,4.718,3.819,5.606,
22.200,33.958,-1.575,-6.702,1.574,-0.001,6.268,3.509,2.347,1.486,0.000,2.772,2.456,0.000,0.000,0.610,4.702,0.000,2.018,0.000,0.000,0.000,0.000,0.000,0.000,0.000,0.000,0.000,0.000,0.000,3.142,6.283,0.000,1.003,1.569,1.569,4.085,6.281,1.199,4.712,0.000,0.000,-1.905,-6.114,0.990,4.718,3.730,5.694,5.281,4.711,4.712,2.198,6.282,5.083,1.570,0.000,0.000,-1.249,-6.111,0.990,4.718,3.819,5.606,
22.300,34.058,-1.575,-6.702,1.574,-0.001,6.268,3.509,2.347,1.486,0.000,2.772,2.456,0.000,0.000,0.610,4.702,0.000,2.018,0.000,0.000,0.000,0.000,0.000,0.000,0.000,0.000,0.000,0.000,0.000,3.142,6.283,0.000,1.003,1.569,1.569,4.085,6.281,1.199,4.712,0.000,0.000,-1.905,-6.114,0.990,4.718,3.730,5.694,5.281,4.711,4.712,2.198,6.282,5.083,1.570,0.000,0.000,-1.249,-6.111,0.990,4.718,3.818,5.606,
22.380,34.138,-1.575,-6.702,1.574,-0.001,6.268,3.509,2.347,1.486,0.000,2.772,2.456,0.000,0.000,0.610,4.702,0.000,2.018,0.000,0.000,0.000,0.000,0.000,0.000,0.000,0.000,0.000,0.000,0.000,3.142,6.283,0.000,1.003,1.569,1.569,4.085,6.281,1.199,4.712,0.000,0.000,-1.905,-6.114,0.990,4.718,3.730,5.694,5.281,4.711,4.712,2.198,6.282,5.083,1.570,0.000,0.000,-1.249,-6.111,0.990,4.718,3.818,5.606,
22.500,34.258,-1.575,-6.702,1.574,-0.001,6.268,3.509,2.347,1.486,0.000,2.772,2.456,0.000,0.000,0.610,4.702,0.000,2.018,0.000,0.000,0.000,0.000,0.000,0.000,0.000,0.000,0.000,0.000,0.000,3.142,6.283,0.000,1.003,1.569,1.569,4.085,6.281,1.199,4.712,0.000,0.000,-1.905,-6.114,0.990,4.718,3.730,5.694,5.281,4.711,4.712,2.198,6.282,5.083,1.570,0.000,0.000,-1.249,-6.111,0.990,4.718,3.818,5.606,
22.588,34.346,-1.575,-6.702,1.574,-0.001,6.268,3.509,2.347,1.486,0.000,2.772,2.456,0.000,0.000,0.610,4.702,0.000,2.018,0.000,0.000,0.000,0.000,0.000,0.000,0.000,0.000,0.000,0.000,0.000,3.142,6.283,0.000,1.003,1.569,1.569,4.085,6.281,1.199,4.712,0.000,0.000,-1.905,-6.114,0.990,4.718,3.730,5.694,5.281,4.711,4.712,2.198,6.282,5.083,1.570,0.000,0.000,-1.249,-6.111,0.990,4.718,3.819,5.606,
22.700,34.458,-1.575,-6.702,1.574,-0.001,6.268,3.509,2.347,1.486,0.000,2.772,2.456,0.000,0.000,0.610,4.702,0.000,2.018,0.000,0.000,0.000,0.000,0.000,0.000,0.000,0.000,0.000,0.000,0.000,3.142,6.283,0.000,1.003,1.569,1.569,4.085,6.281,1.199,4.712,0.000,0.000,-1.905,-6.114,0.990,4.718,3.730,5.694,5.281,4.711,4.712,2.198,6.282,5.083,1.570,0.000,0.000,-1.249,-6.111,0.990,4.718,3.818,5.606,
22.798,34.556,-1.575,-6.702,1.574,-0.001,6.268,3.509,2.347,1.486,0.000,2.772,2.456,0.000,0.000,0.610,4.702,0.000,2.018,0.000,0.000,0.000,0.000,0.000,0.000,0.000,0.000,0.000,0.000,0.000,3.142,6.283,0.000,1.003,1.569,1.569,4.085,6.281,1.199,4.712,0.000,0.000,-1.905,-6.114,0.990,4.718,3.730,5.694,5.281,4.711,4.712,2.198,6.282,5.083,1.570,0.000,0.000,-1.249,-6.111,0.990,4.718,3.819,5.606,
22.900,34.658,-1.575,-6.702,1.574,-0.001,6.268,3.509,2.347,1.486,0.000,2.772,2.456,0.000,0.000,0.610,4.702,0.000,2.018,0.000,0.000,0.000,0.000,0.000,0.000,0.000,0.000,0.000,0.000,0.000,3.142,6.283,0.000,1.003,1.569,1.569,4.085,6.281,1.199,4.712,0.000,0.000,-1.905,-6.114,0.990,4.718,3.730,5.694,5.281,4.711,4.712,2.198,6.282,5.083,1.570,0.000,0.000,-1.249,-6.111,0.990,4.718,3.819,5.606,
23.000,44.083,-1.575,-6.702,1.574,-0.001,6.268,3.509,2.347,1.486,0.000,2.772,2.456,0.000,0.000,0.610,4.702,0.000,2.018,0.000,0.000,0.000,0.000,0.000,0.000,0.000,0.000,0.000,0.000,0.000,3.142,6.283,0.000,1.003,1.569,1.569,4.085,6.281,1.199,4.712,0.000,0.000,-1.905,-6.114,0.990,4.718,3.730,5.694,5.281,4.711,4.712,2.198,6.282,5.083,1.570,0.000,0.000,-1.249,-6.111,0.990,4.718,3.819,5.606,
23.100,44.183,-1.575,-6.702,1.574,-0.001,6.268,3.509,2.347,1.486,0.000,2.772,2.456,0.000,0.000,0.610,4.702,0.000,2.018,0.000,0.000,0.000,0.000,0.000,0.000,0.000,0.000,0.000,0.000,0.000,3.142,6.283,0.000,1.003,1.569,1.569,4.085,6.281,1.199,4.712,0.000,0.000,-1.905,-6.114,0.990,4.718,3.730,5.694,5.281,4.711,4.712,2.198,6.282,5.083,1.570,0.000,0.000,-1.249,-6.111,0.990,4.718,3.819,5.606,
23.200,44.283,-1.575,-6.702,1.574,-0.001,6.268,3.509,2.347,1.486,0.000,2.772,2.456,0.000,0.000,0.610,4.702,0.000,2.018,0.000,0.000,0.000,0.000,0.000,0.000,0.000,0.000,0.000,0.000,0.000,3.142,6.283,0.000,1.003,1.569,1.569,4.085,6.281,1.199,4.712,0.000,0.000,-1.905,-6.114,0.990,4.718,3.730,5.694,5.281,4.711,4.712,2.198,6.282,5.083,1.570,0.000,0.000,-1.249,-6.111,0.990,4.718,3.819,5.606,
23.283,44.366,-1.575,-6.702,1.574,-0.001,6.268,3.509,2.347,1.486,0.000,2.772,2.456,0.000,0.000,0.610,4.702,0.000,2.018,0.000,0.000,0.000,0.000,0.000,0.000,0.000,0.000,0.000,0.000,0.000,3.142,6.283,0.000,1.003,1.569,1.569,4.085,6.281,1.199,4.712,0.000,0.000,-1.905,-6.114,0.990,4.718,3.730,5.694,5.281,4.711,4.712,2.198,6.282,5.083,1.570,0.000,0.000,-1.249,-6.111,0.990,4.718,3.819,5.606,
23.400,44.483,-1.575,-6.702,1.574,-0.001,6.268,3.509,2.347,1.486,0.000,2.772,2.456,0.000,0.000,0.610,4.702,0.000,2.018,0.000,0.000,0.000,0.000,0.000,0.000,0.000,0.000,0.000,0.000,0.000,3.142,6.283,0.000,1.003,1.569,1.569,4.085,6.281,1.199,4.712,0.000,0.000,-1.905,-6.114,0.990,4.718,3.730,5.694,5.281,4.711,4.712,2.198,6.282,5.083,1.570,0.000,0.000,-1.249,-6.111,0.990,4.718,3.819,5.606,
23.500,44.583,-1.575,-6.702,1.574,-0.001,6.268,3.509,2.347,1.486,0.000,2.772,2.456,0.000,0.000,0.610,4.702,0.000,2.018,0.000,0.000,0.000,0.000,0.000,0.000,0.000,0.000,0.000,0.000,0.000,3.142,6.283,0.000,1.003,1.569,1.569,4.085,6.281,1.199,4.712,0.000,0.000,-1.905,-6.114,0.990,4.718,3.730,5.694,5.281,4.711,4.712,2.198,6.282,5.083,1.570,0.000,0.000,-1.249,-6.111,0.990,4.718,3.819,5.606,
23.597,44.680,-1.575,-6.702,1.574,-0.001,6.268,3.509,2.347,1.486,0.000,2.772,2.456,0.000,0.000,0.610,4.702,0.000,2.018,0.000,0.000,0.000,0.000,0.000,0.000,0.000,0.000,0.000,0.000,0.000,3.142,6.283,0.000,1.003,1.569,1.569,4.085,6.281,1.199,4.712,0.000,0.000,-1.905,-6.114,0.990,4.718,3.730,5.694,5.281,4.711,4.712,2.198,6.282,5.083,1.570,0.000,0.000,-1.249,-6.111,0.990,4.718,3.819,5.606,
23.700,44.783,-1.575,-6.702,1.574,-0.001,6.268,3.509,2.347,1.486,0.000,2.772,2.456,0.000,0.000,0.610,4.702,0.000,2.018,0.000,0.000,0.000,0.000,0.000,0.000,0.000,0.000,0.000,0.000,0.000,3.142,6.283,0.000,1.003,1.569,1.569,4.085,6.281,1.199,4.712,0.000,0.000,-1.905,-6.114,0.990,4.718,3.730,5.694,5.281,4.711,4.712,2.198,6.282,5.083,1.570,0.000,0.000,-1.249,-6.111,0.990,4.718,3.819,5.606,
23.800,44.883,-1.575,-6.702,1.574,-0.001,6.268,3.509,2.347,1.486,0.000,2.772,2.456,0.000,0.000,0.610,4.702,0.000,2.018,0.000,0.000,0.000,0.000,0.000,0.000,0.000,0.000,0.000,0.000,0.000,3.142,6.283,0.000,1.003,1.569,1.569,4.085,6.281,1.199,4.712,0.000,0.000,-1.905,-6.114,0.990,4.718,3.730,5.694,5.281,4.711,4.712,2.198,6.282,5.083,1.570,0.000,0.000,-1.249,-6.111,0.990,4.718,3.819,5.606,
23.900,44.983,-1.575,-6.702,1.574,-0.001,6.268,3.509,2.347,1.486,0.000,2.772,2.456,0.000,0.000,0.610,4.702,0.000,2.018,0.000,0.000,0.000,0.000,0.000,0.000,0.000,0.000,0.000,0.000,0.000,3.142,6.283,0.000,1.003,1.569,1.569,4.085,6.281,1.199,4.712,0.000,0.000,-1.905,-6.114,0.990,4.718,3.730,5.694,5.281,4.711,4.712,2.198,6.282,5.083,1.570,0.000,0.000,-1.249,-6.111,0.990,4.718,3.818,5.606,
24.000,45.083,-1.575,-6.702,1.574,-0.001,6.268,3.509,2.347,1.486,0.000,2.772,2.456,0.000,0.000,0.610,4.702,0.000,2.018,0.000,0.000,0.000,0.000,0.000,0.000,0.000,0.000,0.000,0.000,0.000,3.142,6.283,0.000,1.003,1.569,1.569,4.085,6.281,1.199,4.712,0.000,0.000,-1.905,-6.114,0.990,4.718,3.730,5.694,5.281,4.711,4.712,2.198,6.282,5.083,1.570,0.000,0.000,-1.249,-6.111,0.990,4.718,3.818,5.606,
24.088,45.171,-1.575,-6.702,1.574,-0.001,6.268,3.509,2.347,1.486,0.000,2.772,2.456,0.000,0.000,0.610,4.702,0.000,2.018,0.000,0.000,0.000,0.000,0.000,0.000,0.000,0.000,0.000,0.000,0.000,3.142,6.283,0.000,1.003,1.569,1.569,4.085,6.281,1.199,4.712,0.000,0.000,-1.905,-6.114,0.990,4.718,3.730,5.694,5.281,4.711,4.712,2.198,6.282,5.083,1.570,0.000,0.000,-1.249,-6.111,0.990,4.718,3.819,5.606,
24.200,45.283,-1.575,-6.702,1.574,-0.001,6.268,3.509,2.347,1.486,0.000,2.772,2.456,0.000,0.000,0.610,4.702,0.000,2.018,0.000,0.000,0.000,0.000,0.000,0.000,0.000,0.000,0.000,0.000,0.000,3.142,6.283,0.000,1.003,1.569,1.569,4.085,6.281,1.199,4.712,0.000,0.000,-1.905,-6.114,0.990,4.718,3.730,5.694,5.281,4.711,4.712,2.198,6.282,5.083,1.570,0.000,0.000,-1.249,-6.111,0.990,4.718,3.818,5.606,
24.297,45.380,-1.575,-6.702,1.574,-0.001,6.268,3.509,2.347,1.486,0.000,2.772,2.456,0.000,0.000,0.610,4.702,0.000,2.018,0.000,0.000,0.000,0.000,0.000,0.000,0.000,0.000,0.000,0.000,0.000,3.142,6.283,0.000,1.003,1.569,1.569,4.085,6.281,1.199,4.712,0.000,0.000,-1.905,-6.114,0.990,4.718,3.730,5.694,5.281,4.711,4.712,2.198,6.282,5.083,1.570,0.000,0.000,-1.249,-6.111,0.990,4.718,3.818,5.606,
24.400,45.483,-1.575,-6.702,1.574,-0.001,6.268,3.509,2.347,1.486,0.000,2.772,2.456,0.000,0.000,0.610,4.702,0.000,2.018,0.000,0.000,0.000,0.000,0.000,0.000,0.000,0.000,0.000,0.000,0.000,3.142,6.283,0.000,1.003,1.569,1.569,4.085,6.281,1.199,4.712,0.000,0.000,-1.905,-6.114,0.990,4.718,3.730,5.694,5.281,4.711,4.712,2.198,6.282,5.083,1.570,0.000,0.000,-1.249,-6.111,0.990,4.718,3.819,5.606,
24.500,45.583,-1.575,-6.702,1.574,-0.001,6.268,3.509,2.347,1.486,0.000,2.772,2.456,0.000,0.000,0.610,4.702,0.000,2.018,0.000,0.000,0.000,0.000,0.000,0.000,0.000,0.000,0.000,0.000,0.000,3.142,6.283,0.000,1.003,1.569,1.569,4.085,6.281,1.199,4.712,0.000,0.000,-1.905,-6.114,0.990,4.718,3.730,5.694,5.281,4.711,4.712,2.198,6.282,5.083,1.570,0.000,0.000,-1.249,-6.111,0.990,4.718,3.819,5.606,
24.600,45.683,-1.575,-6.702,1.574,-0.001,6.268,3.509,2.347,1.486,0.000,2.772,2.456,0.000,0.000,0.610,4.702,0.000,2.018,0.000,0.000,0.000,0.000,0.000,0.000,0.000,0.000,0.000,0.000,0.000,3.142,6.283,0.000,1.003,1.569,1.569,4.085,6.281,1.199,4.712,0.000,0.000,-1.905,-6.114,0.990,4.718,3.730,5.694,5.281,4.711,4.712,2.198,6.282,5.083,1.570,0.000,0.000,-1.249,-6.111,0.990,4.718,3.818,5.606,
24.700,45.783,-1.575,-6.702,1.574,-0.001,6.268,3.509,2.347,1.486,0.000,2.772,2.456,0.000,0.000,0.610,4.702,0.000,2.018,0.000,0.000,0.000,0.000,0.000,0.000,0.000,0.000,0.000,0.000,0.000,3.142,6.283,0.000,1.003,1.569,1.569,4.085,6.281,1.199,4.712,0.000,0.000,-1.905,-6.114,0.990,4.718,3.730,5.694,5.281,4.711,4.712,2.198,6.282,5.083,1.570,0.000,0.000,-1.249,-6.111,0.990,4.718,3.819,5.606,
24.781,45.864,-1.575,-6.702,1.574,-0.001,6.268,3.509,2.347,1.486,0.000,2.772,2.456,0.000,0.000,0.610,4.702,0.000,2.018,0.000,0.000,0.000,0.000,0.000,0.000,0.000,0.000,0.000,0.000,0.000,3.142,6.283,0.000,1.003,1.569,1.569,4.085,6.281,1.199,4.712,0.000,0.000,-1.905,-6.114,0.990,4.718,3.730,5.694,5.281,4.711,4.712,2.198,6.282,5.083,1.570,0.000,0.000,-1.249,-6.111,0.990,4.718,3.818,5.606,
24.900,45.983,-1.575,-6.702,1.574,-0.001,6.268,3.509,2.347,1.486,0.000,2.772,2.456,0.000,0.000,0.610,4.702,0.000,2.018,0.000,0.000,0.000,0.000,0.000,0.000,0.000,0.000,0.000,0.000,0.000,3.142,6.283,0.000,1.003,1.569,1.569,4.085,6.281,1.199,4.712,0.000,0.000,-1.905,-6.114,0.990,4.718,3.730,5.694,5.281,4.711,4.712,2.198,6.282,5.083,1.570,0.000,0.000,-1.249,-6.111,0.990,4.718,3.818,5.606,
24.990,46.073,-1.575,-6.702,1.574,-0.001,6.268,3.509,2.347,1.486,0.000,2.772,2.456,0.000,0.000,0.610,4.702,0.000,2.018,0.000,0.000,0.000,0.000,0.000,0.000,0.000,0.000,0.000,0.000,0.000,3.142,6.283,0.000,1.003,1.569,1.569,4.085,6.281,1.199,4.712,0.000,0.000,-1.905,-6.114,0.990,4.718,3.730,5.694,5.281,4.711,4.712,2.198,6.282,5.083,1.570,0.000,0.000,-1.249,-6.111,0.990,4.718,3.819,5.606,
25.100,46.183,-1.575,-6.702,1.574,-0.001,6.268,3.509,2.347,1.486,0.000,2.772,2.456,0.000,0.000,0.610,4.702,0.000,2.018,0.000,0.000,0.000,0.000,0.000,0.000,0.000,0.000,0.000,0.000,0.000,3.142,6.283,0.000,1.003,1.569,1.569,4.085,6.281,1.199,4.712,0.000,0.000,-1.905,-6.114,0.990,4.718,3.730,5.694,5.281,4.711,4.712,2.198,6.282,5.083,1.570,0.000,0.000,-1.249,-6.111,0.990,4.718,3.819,5.606,
25.198,46.281,-1.575,-6.702,1.574,-0.001,6.268,3.509,2.347,1.486,0.000,2.772,2.456,0.000,0.000,0.610,4.702,0.000,2.018,0.000,0.000,0.000,0.000,0.000,0.000,0.000,0.000,0.000,0.000,0.000,3.142,6.283,0.000,1.003,1.569,1.569,4.085,6.281,1.199,4.712,0.000,0.000,-1.905,-6.114,0.990,4.718,3.730,5.694,5.281,4.711,4.712,2.198,6.282,5.083,1.570,0.000,0.000,-1.249,-6.111,0.990,4.718,3.819,5.606,
25.300,46.383,-1.575,-6.702,1.574,-0.001,6.268,3.509,2.347,1.486,0.000,2.772,2.456,0.000,0.000,0.610,4.702,0.000,2.018,0.000,0.000,0.000,0.000,0.000,0.000,0.000,0.000,0.000,0.000,0.000,3.142,6.283,0.000,1.003,1.569,1.569,4.085,6.281,1.199,4.712,0.000,0.000,-1.905,-6.114,0.990,4.718,3.730,5.694,5.281,4.711,4.712,2.198,6.282,5.083,1.570,0.000,0.000,-1.249,-6.111,0.990,4.718,3.819,5.606,
25.400,46.483,-1.575,-6.702,1.574,-0.001,6.268,3.509,2.347,1.486,0.000,2.772,2.456,0.000,0.000,0.610,4.702,0.000,2.018,0.000,0.000,0.000,0.000,0.000,0.000,0.000,0.000,0.000,0.000,0.000,3.142,6.283,0.000,1.003,1.569,1.569,4.085,6.281,1.199,4.712,0.000,0.000,-1.905,-6.114,0.990,4.718,3.730,5.694,5.281,4.711,4.712,2.198,6.282,5.083,1.570,0.000,0.000,-1.249,-6.111,0.990,4.718,3.818,5.606,
25.483,46.566,-1.575,-6.702,1.574,-0.001,6.268,3.509,2.347,1.486,0.000,2.772,2.456,0.000,0.000,0.610,4.702,0.000,2.018,0.000,0.000,0.000,0.000,0.000,0.000,0.000,0.000,0.000,0.000,0.000,3.142,6.283,0.000,1.003,1.569,1.569,4.085,6.281,1.199,4.712,0.000,0.000,-1.905,-6.114,0.990,4.718,3.730,5.694,5.281,4.711,4.712,2.198,6.282,5.083,1.570,0.000,0.000,-1.249,-6.111,0.990,4.718,3.818,5.606,
25.600,46.683,-1.575,-6.702,1.574,-0.001,6.268,3.509,2.347,1.486,0.000,2.772,2.456,0.000,0.000,0.610,4.702,0.000,2.018,0.000,0.000,0.000,0.000,0.000,0.000,0.000,0.000,0.000,0.000,0.000,3.142,6.283,0.000,1.003,1.569,1.569,4.085,6.281,1.199,4.712,0.000,0.000,-1.905,-6.114,0.990,4.718,3.730,5.694,5.281,4.711,4.712,2.198,6.282,5.083,1.570,0.000,0.000,-1.249,-6.111,0.990,4.718,3.818,5.606,
25.691,46.774,-1.575,-6.702,1.574,-0.001,6.268,3.509,2.347,1.486,0.000,2.772,2.456,0.000,0.000,0.610,4.702,0.000,2.018,0.000,0.000,0.000,0.000,0.000,0.000,0.000,0.000,0.000,0.000,0.000,3.142,6.283,0.000,1.003,1.569,1.569,4.085,6.281,1.199,4.712,0.000,0.000,-1.905,-6.114,0.990,4.718,3.730,5.694,5.281,4.711,4.712,2.198,6.282,5.083,1.570,0.000,0.000,-1.249,-6.111,0.990,4.718,3.819,5.606,
25.800,46.883,-1.575,-6.702,1.574,-0.001,6.268,3.509,2.347,1.486,0.000,2.772,2.456,0.000,0.000,0.610,4.702,0.000,2.018,0.000,0.000,0.000,0.000,0.000,0.000,0.000,0.000,0.000,0.000,0.000,3.142,6.283,0.000,1.003,1.569,1.569,4.085,6.281,1.199,4.712,0.000,0.000,-1.905,-6.114,0.990,4.718,3.730,5.694,5.281,4.711,4.712,2.198,6.282,5.083,1.570,0.000,0.000,-1.249,-6.111,0.990,4.718,3.819,5.606,
25.900,46.983,-1.575,-6.702,1.574,-0.001,6.268,3.509,2.347,1.486,0.000,2.772,2.456,0.000,0.000,0.610,4.702,0.000,2.018,0.000,0.000,0.000,0.000,0.000,0.000,0.000,0.000,0.000,0.000,0.000,3.142,6.283,0.000,1.003,1.569,1.569,4.085,6.281,1.199,4.712,0.000,0.000,-1.905,-6.114,0.990,4.718,3.730,5.694,5.281,4.711,4.712,2.198,6.282,5.083,1.570,0.000,0.000,-1.249,-6.111,0.990,4.718,3.818,5.606,
26.000,47.083,-1.575,-6.702,1.574,-0.001,6.268,3.509,2.347,1.486,0.000,2.772,2.456,0.000,0.000,0.610,4.702,0.000,2.018,0.000,0.000,0.000,0.000,0.000,0.000,0.000,0.000,0.000,0.000,0.000,3.142,6.283,0.000,1.003,1.569,1.569,4.085,6.281,1.199,4.712,0.000,0.000,-1.905,-6.114,0.990,4.718,3.730,5.694,5.281,4.711,4.712,2.198,6.282,5.083,1.570,0.000,0.000,-1.249,-6.111,0.990,4.718,3.819,5.606,
26.100,47.183,-1.575,-6.702,1.574,-0.001,6.268,3.509,2.347,1.486,0.000,2.772,2.456,0.000,0.000,0.610,4.702,0.000,2.018,0.000,0.000,0.000,0.000,0.000,0.000,0.000,0.000,0.000,0.000,0.000,3.142,6.283,0.000,1.003,1.569,1.569,4.085,6.281,1.199,4.712,0.000,0.000,-1.905,-6.114,0.990,4.718,3.730,5.694,5.281,4.711,4.712,2.198,6.282,5.083,1.570,0.000,0.000,-1.249,-6.111,0.990,4.718,3.818,5.606,
26.200,47.283,-1.575,-6.702,1.574,-0.001,6.268,3.509,2.347,1.486,0.000,2.772,2.456,0.000,0.000,0.610,4.702,0.000,2.018,0.000,0.000,0.000,0.000,0.000,0.000,0.000,0.000,0.000,0.000,0.000,3.142,6.283,0.000,1.003,1.569,1.569,4.085,6.281,1.199,4.712,0.000,0.000,-1.905,-6.114,0.990,4.718,3.730,5.694,5.281,4.711,4.712,2.198,6.282,5.083,1.570,0.000,0.000,-1.249,-6.111,0.990,4.718,3.818,5.606,
26.300,47.383,-1.575,-6.702,1.574,-0.001,6.268,3.509,2.347,1.486,0.000,2.772,2.456,0.000,0.000,0.610,4.702,0.000,2.018,0.000,0.000,0.000,0.000,0.000,0.000,0.000,0.000,0.000,0.000,0.000,3.142,6.283,0.000,1.003,1.569,1.569,4.085,6.281,1.199,4.712,0.000,0.000,-1.905,-6.114,0.990,4.718,3.730,5.694,5.281,4.711,4.712,2.198,6.282,5.083,1.570,0.000,0.000,-1.249,-6.111,0.990,4.718,3.819,5.606,
26.387,47.471,-1.575,-6.702,1.574,-0.001,6.268,3.509,2.347,1.486,0.000,2.772,2.456,0.000,0.000,0.610,4.702,0.000,2.018,0.000,0.000,0.000,0.000,0.000,0.000,0.000,0.000,0.000,0.000,0.000,3.142,6.283,0.000,1.003,1.569,1.569,4.085,6.281,1.199,4.712,0.000,0.000,-1.905,-6.114,0.990,4.718,3.730,5.694,5.281,4.711,4.712,2.198,6.282,5.083,1.570,0.000,0.000,-1.249,-6.111,0.990,4.718,3.819,5.606,
26.500,47.583,-1.575,-6.702,1.574,-0.001,6.268,3.509,2.347,1.486,0.000,2.772,2.456,0.000,0.000,0.610,4.702,0.000,2.018,0.000,0.000,0.000,0.000,0.000,0.000,0.000,0.000,0.000,0.000,0.000,3.142,6.283,0.000,1.003,1.569,1.569,4.085,6.281,1.199,4.712,0.000,0.000,-1.905,-6.114,0.990,4.718,3.730,5.694,5.281,4.711,4.712,2.198,6.282,5.083,1.570,0.000,0.000,-1.249,-6.111,0.990,4.718,3.818,5.606,
26.597,47.680,-1.575,-6.702,1.574,-0.001,6.268,3.509,2.347,1.486,0.000,2.772,2.456,0.000,0.000,0.610,4.702,0.000,2.018,0.000,0.000,0.000,0.000,0.000,0.000,0.000,0.000,0.000,0.000,0.000,3.142,6.283,0.000,1.003,1.569,1.569,4.085,6.281,1.199,4.712,0.000,0.000,-1.905,-6.114,0.990,4.718,3.730,5.694,5.281,4.711,4.712,2.198,6.282,5.083,1.570,0.000,0.000,-1.249,-6.111,0.990,4.718,3.818,5.606,
26.700,47.783,-1.575,-6.702,1.574,-0.001,6.268,3.509,2.347,1.486,0.000,2.772,2.456,0.000,0.000,0.610,4.702,0.000,2.018,0.000,0.000,0.000,0.000,0.000,0.000,0.000,0.000,0.000,0.000,0.000,3.142,6.283,0.000,1.003,1.569,1.569,4.085,6.281,1.199,4.712,0.000,0.000,-1.905,-6.114,0.990,4.718,3.730,5.694,5.281,4.711,4.712,2.198,6.282,5.083,1.570,0.000,0.000,-1.249,-6.111,0.990,4.718,3.819,5.606,
26.800,47.883,-1.575,-6.702,1.574,-0.001,6.268,3.509,2.347,1.486,0.000,2.772,2.456,0.000,0.000,0.610,4.702,0.000,2.018,0.000,0.000,0.000,0.000,0.000,0.000,0.000,0.000,0.000,0.000,0.000,3.142,6.283,0.000,1.003,1.569,1.569,4.085,6.281,1.199,4.712,0.000,0.000,-1.905,-6.114,0.990,4.718,3.730,5.694,5.281,4.711,4.712,2.198,6.282,5.083,1.570,0.000,0.000,-1.249,-6.111,0.990,4.718,3.818,5.606,
26.900,47.983,-1.575,-6.702,1.574,-0.001,6.268,3.509,2.347,1.486,0.000,2.772,2.456,0.000,0.000,0.610,4.702,0.000,2.018,0.000,0.000,0.000,0.000,0.000,0.000,0.000,0.000,0.000,0.000,0.000,3.142,6.283,0.000,1.003,1.569,1.569,4.085,6.281,1.199,4.712,0.000,0.000,-1.905,-6.114,0.990,4.718,3.730,5.694,5.281,4.711,4.712,2.198,6.282,5.083,1.570,0.000,0.000,-1.249,-6.111,0.990,4.718,3.819,5.606,
27.000,48.083,-1.575,-6.702,1.574,-0.001,6.268,3.509,2.347,1.486,0.000,2.772,2.456,0.000,0.000,0.610,4.702,0.000,2.018,0.000,0.000,0.000,0.000,0.000,0.000,0.000,0.000,0.000,0.000,0.000,3.142,6.283,0.000,1.003,1.569,1.569,4.085,6.281,1.199,4.712,0.000,0.000,-1.905,-6.114,0.990,4.718,3.730,5.694,5.281,4.711,4.712,2.198,6.282,5.083,1.570,0.000,0.000,-1.249,-6.111,0.990,4.718,3.818,5.606,
27.091,48.174,-1.575,-6.702,1.574,-0.001,6.268,3.509,2.347,1.486,0.000,2.772,2.456,0.000,0.000,0.610,4.702,0.000,2.018,0.000,0.000,0.000,0.000,0.000,0.000,0.000,0.000,0.000,0.000,0.000,3.142,6.283,0.000,1.003,1.569,1.569,4.085,6.281,1.199,4.712,0.000,0.000,-1.905,-6.114,0.990,4.718,3.730,5.694,5.281,4.711,4.712,2.198,6.282,5.083,1.570,0.000,0.000,-1.249,-6.111,0.990,4.718,3.818,5.606,
27.200,48.283,-1.575,-6.702,1.574,-0.001,6.268,3.509,2.347,1.486,0.000,2.772,2.456,0.000,0.000,0.610,4.702,0.000,2.018,0.000,0.000,0.000,0.000,0.000,0.000,0.000,0.000,0.000,0.000,0.000,3.142,6.283,0.000,1.003,1.569,1.569,4.085,6.281,1.199,4.712,0.000,0.000,-1.905,-6.114,0.990,4.718,3.730,5.694,5.281,4.711,4.712,2.198,6.282,5.083,1.570,0.000,0.000,-1.249,-6.111,0.990,4.718,3.818,5.606,
27.300,48.383,-1.575,-6.702,1.574,-0.001,6.268,3.509,2.347,1.486,0.000,2.772,2.456,0.000,0.000,0.610,4.702,0.000,2.018,0.000,0.000,0.000,0.000,0.000,0.000,0.000,0.000,0.000,0.000,0.000,3.142,6.283,0.000,1.003,1.569,1.569,4.085,6.281,1.199,4.712,0.000,0.000,-1.905,-6.114,0.990,4.718,3.730,5.694,5.281,4.711,4.712,2.198,6.282,5.083,1.570,0.000,0.000,-1.249,-6.111,0.990,4.718,3.819,5.606,
27.392,48.475,-1.575,-6.702,1.574,-0.001,6.268,3.509,2.347,1.486,0.000,2.772,2.456,0.000,0.000,0.610,4.702,0.000,2.018,0.000,0.000,0.000,0.000,0.000,0.000,0.000,0.000,0.000,0.000,0.000,3.142,6.283,0.000,1.003,1.569,1.569,4.085,6.281,1.199,4.712,0.000,0.000,-1.905,-6.114,0.990,4.718,3.730,5.694,5.281,4.711,4.712,2.198,6.282,5.083,1.570,0.000,0.000,-1.249,-6.111,0.990,4.718,3.819,5.606,
27.500,48.583,-1.575,-6.702,1.574,-0.001,6.268,3.509,2.347,1.486,0.000,2.772,2.456,0.000,0.000,0.610,4.702,0.000,2.018,0.000,0.000,0.000,0.000,0.000,0.000,0.000,0.000,0.000,0.000,0.000,3.142,6.283,0.000,1.003,1.569,1.569,4.085,6.281,1.199,4.712,0.000,0.000,-1.905,-6.114,0.990,4.718,3.730,5.694,5.281,4.711,4.712,2.198,6.282,5.083,1.570,0.000,0.000,-1.249,-6.111,0.990,4.718,3.818,5.606,
27.584,48.668,-1.575,-6.702,1.574,-0.001,6.268,3.509,2.347,1.486,0.000,2.772,2.456,0.000,0.000,0.610,4.702,0.000,2.018,0.000,0.000,0.000,0.000,0.000,0.000,0.000,0.000,0.000,0.000,0.000,3.142,6.283,0.000,1.003,1.569,1.569,4.085,6.281,1.199,4.712,0.000,0.000,-1.905,-6.114,0.990,4.718,3.730,5.694,5.281,4.711,4.712,2.198,6.282,5.083,1.570,0.000,0.000,-1.249,-6.111,0.990,4.718,3.818,5.606,
27.700,48.783,-1.575,-6.702,1.574,-0.001,6.268,3.509,2.347,1.486,0.000,2.772,2.456,0.000,0.000,0.610,0.000,0.000,2.018,0.000,0.000,0.000,0.000,0.000,0.000,0.000,0.000,0.000,1.947,0.000,3.142,6.283,0.000,1.003,1.569,1.569,4.085,6.281,1.199,4.712,0.000,0.000,-1.905,-6.114,0.990,4.718,3.730,5.694,5.281,4.711,4.712,2.198,6.282,5.083,1.570,0.000,0.000,-1.249,-6.111,0.990,4.718,3.818,5.606,
27.792,48.876,-1.575,-6.702,1.574,-0.001,6.268,3.509,2.347,1.486,0.000,2.772,2.456,0.000,0.000,0.610,0.000,0.000,2.018,0.000,0.000,0.000,0.000,0.000,0.000,0.000,0.000,0.000,1.810,0.000,3.142,6.283,0.000,1.003,1.569,1.569,4.085,6.281,1.199,4.712,0.000,0.000,-1.905,-6.114,0.990,4.718,3.730,5.694,5.281,4.711,4.712,2.198,6.282,5.083,1.570,0.000,0.000,-1.249,-6.111,0.990,4.718,3.818,5.606,
27.900,48.983,-1.575,-6.702,1.574,-0.001,6.268,3.509,2.347,1.486,0.000,2.772,2.456,0.000,0.000,0.610,0.000,0.000,2.018,0.000,0.000,0.000,0.000,0.000,0.000,0.000,0.000,0.000,1.688,0.000,3.142,6.283,0.000,1.003,1.569,1.569,4.085,6.281,1.199,4.712,0.000,0.000,-1.905,-6.114,0.990,4.718,3.730,5.694,5.281,4.711,4.712,2.198,6.282,5.083,1.570,0.000,0.000,-1.249,-6.111,0.990,4.718,3.819,5.606,
27.998,49.081,-1.575,-6.702,1.574,-0.001,6.268,3.509,2.347,1.486,0.000,2.772,2.456,0.000,0.000,0.610,0.000,0.000,2.018,0.000,0.000,0.000,0.000,0.000,0.000,0.000,0.000,0.000,1.663,0.000,3.142,6.283,0.000,1.003,1.569,1.569,4.085,6.281,1.199,4.712,0.000,0.000,-1.905,-6.114,0.990,4.718,3.730,5.694,5.281,4.711,4.712,2.198,6.282,5.083,1.570,0.000,0.000,-1.249,-6.111,0.990,4.718,3.819,5.606,
28.100,49.183,-1.575,-6.702,1.574,-0.001,6.268,3.509,2.347,1.486,0.000,2.772,2.456,0.000,0.000,0.610,4.702,0.000,2.018,0.000,0.000,0.0